; generated by PrusaSlicer 2.7.4 on 2024-05-02 at 17:42:31 UTC


;
;
; 

; external perimeters extrusion width = 0.45mm
; perimeters extrusion width = 0.45mm
; infill extrusion width = 0.45mm
; solid infill extrusion width = 0.45mm
; top infill extrusion width = 0.40mm
; support material extrusion width = 0.35mm
; first layer extrusion width = 0.42mm

; external perimeters extrusion width = 0.45mm
; perimeters extrusion width = 0.45mm
; infill extrusion width = 0.45mm
; solid infill extrusion width = 0.45mm
; top infill extrusion width = 0.40mm
; support material extrusion width = 0.35mm
; first layer extrusion width = 0.42mm

M73 P0 R58
M73 Q0 S58
M201 X1000 Y1000 Z200 E5000 ; sets maximum accelerations, mm/sec^2
M203 X200 Y200 Z12 E120 ; sets maximum feedrates, mm / sec
M204 S1250 T1250 ; sets acceleration (S) and retract acceleration (R), mm/sec^2
M205 X8.00 Y8.00 Z0.40 E4.50 ; sets the jerk limits, mm/sec
M205 S0 T0 ; sets the minimum extruding and travel feed rate, mm/sec

; printing object Aufnahme_DoubleWave.stl id:1 copy 0
; stop printing object Aufnahme_DoubleWave.stl id:1 copy 0
; printing object Aufnahme_BigWave.stl id:0 copy 0
; stop printing object Aufnahme_BigWave.stl id:0 copy 0

;TYPE:Custom
M862.3 P "MK3S" ; printer model check
M862.1 P0.4 ; nozzle diameter check
M115 U3.13.3 ; tell printer latest fw version
G90 ; use absolute coordinates
M83 ; extruder relative mode
M104 S215 ; set extruder temp
M140 S60 ; set bed temp
M190 S60 ; wait for bed temp
M109 S215 ; wait for extruder temp
G28 W ; home all without mesh bed level
G80 X98.7272 Y65.3414 W52.5456 H75.2243 ; mesh bed levelling

G1 Z0.2 F720
G1 Y-3 F1000 ; go outside print area
G92 E0
G1 X60 E9 F1000 ; intro line
G1 X100 E12.5 F1000 ; intro line

G92 E0
M221 S95

; Don't change E values below. Excessive value can damage the printer.
M907 E430 ; set extruder motor current
G21 ; set units to millimeters
G90 ; use absolute coordinates
M83 ; use relative distances for extrusion

M900 K0.05 ; Filament gcode LA 1.5
M900 K30 ; Filament gcode LA 1.0




M107
;LAYER_CHANGE
;Z:0.2
;HEIGHT:0.2
G1 E-.8 F2100
G1 Z.6 F720
G1 X99.307 Y66.6 F10800
G1 Z.2 F720
G1 E.8 F2100
M204 S800
;TYPE:Skirt/Brim
;WIDTH:0.42
G1 F1200
G1 X100.353 Y65.724 E.04278
G1 X101.293 Y65.53 E.03009
G1 X148.707 Y65.53 E1.48663
G1 X150.014 Y65.922 E.04278
G1 X150.891 Y66.967 E.04277
G1 X151.084 Y67.907 E.03009
G1 X151.084 Y109.395 E1.30083
G1 X149.373 Y138.142 E.90294
G1 X148.904 Y139.423 E.04277
G1 X147.808 Y140.236 E.04279
G1 X147 Y140.377 E.02572
G1 X103 Y140.377 E1.37959
G1 X101.693 Y139.986 E.04277
M73 P0 R57
G1 X100.817 Y138.94 E.04278
G1 X100.627 Y138.142 E.02572
G1 X98.92 Y109.537 E.89849
G1 X98.916 Y67.907 E1.30528
G1 X99.29 Y66.657 E.04091
M204 S1000
;WIPE_START
G1 F8640
G1 X99.307 Y66.6 E-.01373
G1 X100.353 Y65.724 E-.31504
G1 X101.293 Y65.53 E-.22162
G1 X102.374 Y65.53 E-.24961
;WIPE_END
G1 Z.6 F720
; printing object Aufnahme_BigWave.stl id:0 copy 0
G1 X148.707 Y109.395 F10800
G1 Z.2 F720
G1 E.8 F2100
M204 S800
;TYPE:Support material
G1 F1200
G1 X147.48 Y109.395 E.03847
G1 X147.48 Y107.801 E.04998
G1 X147.199 Y107.52 E.01246
G1 X135.899 Y107.52 E.3543
G1 X135.899 Y103.907 E.11328
G1 X148.707 Y103.907 E.40159
G1 X148.707 Y109.338 E.17029
M204 S1000
G1 X148.707 Y109.338 F10800
G1 X148.044 Y109.225
M204 S800
G1 F1200
G1 X148.044 Y104.246 E.15611
G1 X147.625 Y104.246 E.01314
G1 X147.625 Y107.466 E.10096
G1 X147.339 Y107.181 E.01266
G1 X147.206 Y107.181 E.00417
G1 X147.206 Y104.246 E.09202
G1 X146.787 Y104.246 E.01314
G1 X146.787 Y107.181 E.09202
G1 X146.368 Y107.181 E.01314
G1 X146.368 Y104.246 E.09202
G1 X145.949 Y104.246 E.01314
G1 X145.949 Y107.181 E.09202
G1 X145.53 Y107.181 E.01314
G1 X145.53 Y104.246 E.09202
G1 X145.111 Y104.246 E.01314
G1 X145.111 Y107.181 E.09202
G1 X144.692 Y107.181 E.01314
G1 X144.692 Y104.246 E.09202
G1 X144.273 Y104.246 E.01314
G1 X144.273 Y107.181 E.09202
G1 X143.854 Y107.181 E.01314
G1 X143.854 Y104.246 E.09202
G1 X143.435 Y104.246 E.01314
G1 X143.435 Y107.181 E.09202
G1 X143.016 Y107.181 E.01314
G1 X143.016 Y104.246 E.09202
G1 X142.597 Y104.246 E.01314
G1 X142.597 Y107.181 E.09202
G1 X142.178 Y107.181 E.01314
G1 X142.178 Y104.246 E.09202
G1 X141.759 Y104.246 E.01314
G1 X141.759 Y107.181 E.09202
G1 X141.34 Y107.181 E.01314
G1 X141.34 Y104.246 E.09202
G1 X140.921 Y104.246 E.01314
G1 X140.921 Y107.181 E.09202
G1 X140.502 Y107.181 E.01314
G1 X140.502 Y104.246 E.09202
G1 X140.083 Y104.246 E.01314
G1 X140.083 Y107.181 E.09202
G1 X139.664 Y107.181 E.01314
G1 X139.664 Y104.246 E.09202
G1 X139.245 Y104.246 E.01314
G1 X139.245 Y107.181 E.09202
G1 X138.826 Y107.181 E.01314
G1 X138.826 Y104.246 E.09202
G1 X138.407 Y104.246 E.01314
G1 X138.407 Y107.181 E.09202
G1 X137.988 Y107.181 E.01314
G1 X137.988 Y104.246 E.09202
G1 X137.569 Y104.246 E.01314
G1 X137.569 Y107.181 E.09202
G1 X137.15 Y107.181 E.01314
G1 X137.15 Y104.246 E.09202
G1 X136.731 Y104.246 E.01314
G1 X136.731 Y107.181 E.09202
G1 X136.312 Y107.181 E.01314
G1 X136.312 Y104.077 E.09732
M204 S1000
;WIPE_START
G1 F8640
G1 X136.312 Y107.181 E-.71672
G1 X136.673 Y107.181 E-.08328
;WIPE_END
G1 Z.6 F720
G1 X114.101 Y107.52 F10800
G1 Z.2 F720
G1 E.8 F2100
M204 S800
G1 F1200
G1 X102.801 Y107.52 E.3543
G1 X102.52 Y107.801 E.01246
G1 X102.52 Y109.395 E.04998
G1 X101.293 Y109.395 E.03847
G1 X101.293 Y103.907 E.17207
G1 X114.101 Y103.907 E.40159
G1 X114.101 Y107.463 E.1115
M204 S1000
G1 X114.101 Y107.463 F10800
G1 X113.688 Y107.35
M204 S800
G1 F1200
G1 X113.688 Y104.246 E.09732
G1 X113.269 Y104.246 E.01314
G1 X113.269 Y107.181 E.09202
G1 X112.85 Y107.181 E.01314
G1 X112.85 Y104.246 E.09202
G1 X112.431 Y104.246 E.01314
G1 X112.431 Y107.181 E.09202
G1 X112.012 Y107.181 E.01314
G1 X112.012 Y104.246 E.09202
G1 X111.593 Y104.246 E.01314
G1 X111.593 Y107.181 E.09202
G1 X111.174 Y107.181 E.01314
G1 X111.174 Y104.246 E.09202
G1 X110.755 Y104.246 E.01314
G1 X110.755 Y107.181 E.09202
G1 X110.336 Y107.181 E.01314
G1 X110.336 Y104.246 E.09202
G1 X109.917 Y104.246 E.01314
G1 X109.917 Y107.181 E.09202
G1 X109.498 Y107.181 E.01314
G1 X109.498 Y104.246 E.09202
G1 X109.079 Y104.246 E.01314
G1 X109.079 Y107.181 E.09202
G1 X108.66 Y107.181 E.01314
G1 X108.66 Y104.246 E.09202
G1 X108.241 Y104.246 E.01314
G1 X108.241 Y107.181 E.09202
G1 X107.822 Y107.181 E.01314
G1 X107.822 Y104.246 E.09202
G1 X107.403 Y104.246 E.01314
G1 X107.403 Y107.181 E.09202
G1 X106.984 Y107.181 E.01314
G1 X106.984 Y104.246 E.09202
G1 X106.565 Y104.246 E.01314
G1 X106.565 Y107.181 E.09202
G1 X106.146 Y107.181 E.01314
G1 X106.146 Y104.246 E.09202
G1 X105.727 Y104.246 E.01314
G1 X105.727 Y107.181 E.09202
G1 X105.308 Y107.181 E.01314
G1 X105.308 Y104.246 E.09202
G1 X104.889 Y104.246 E.01314
G1 X104.889 Y107.181 E.09202
G1 X104.47 Y107.181 E.01314
G1 X104.47 Y104.246 E.09202
G1 X104.051 Y104.246 E.01314
G1 X104.051 Y107.181 E.09202
G1 X103.632 Y107.181 E.01314
G1 X103.632 Y104.246 E.09202
G1 X103.213 Y104.246 E.01314
G1 X103.213 Y107.181 E.09202
G1 X102.794 Y107.181 E.01314
G1 X102.794 Y104.246 E.09202
M73 Q1 S58
G1 X102.375 Y104.246 E.01314
M73 P1 R57
G1 X102.375 Y107.466 E.10096
G1 X102.181 Y107.661 E.00862
G1 X102.181 Y109.056 E.04374
G1 X101.956 Y109.056 E.00705
G1 X101.956 Y104.077 E.15611
M204 S1000
;WIPE_START
G1 F8640
G1 X101.956 Y107.541 E-.8
;WIPE_END
G1 Z.6 F720
G1 X145.836 Y122.726 F10800
G1 Z.2 F720
G1 E.8 F2100
M204 S800
;TYPE:Perimeter
;WIDTH:0.419999
G1 F1200
G1 X145.836 Y136.836 E.44241
G1 X104.164 Y136.836 E1.30659
G1 X104.164 Y122.726 E.44241
G1 X104.275 Y122.859 E.00543
G1 X104.64 Y123.182 E.01528
G1 X105.121 Y123.464 E.01748
G1 X105.583 Y123.629 E.01538
G1 X106.147 Y123.709 E.01786
G1 X106.736 Y123.667 E.01851
G1 X107.211 Y123.536 E.01545
G1 X107.689 Y123.301 E.0167
G1 X108.093 Y122.988 E.01602
G1 X108.481 Y122.546 E.01844
G1 X108.745 Y122.067 E.01715
G1 X108.9 Y121.572 E.01626
G1 X108.961 Y121.082 E.01548
G1 X108.927 Y120.552 E.01665
G1 X108.792 Y120.058 E.01606
G1 X108.58 Y119.613 E.01546
G1 X108.238 Y119.157 E.01787
G1 X107.792 Y118.771 E.01849
G1 X107.363 Y118.527 E.01547
G1 X106.822 Y118.35 E.01785
G1 X106.317 Y118.289 E.01595
G1 X105.762 Y118.334 E.01746
G1 X105.288 Y118.464 E.01541
G1 X104.781 Y118.722 E.01784
G1 X104.391 Y119.025 E.01548
G1 X104.164 Y119.275 E.01059
G1 X104.164 Y109.164 E.31702
G1 X145.836 Y109.164 E1.30659
G1 X145.836 Y113.982 E.15106
G1 X145.836 Y119.274 E.16593
G1 X145.725 Y119.141 E.00543
G1 X145.292 Y118.771 E.01786
G1 X144.863 Y118.527 E.01547
G1 X144.322 Y118.35 E.01785
G1 X143.817 Y118.289 E.01595
G1 X143.262 Y118.334 E.01746
G1 X142.736 Y118.483 E.01714
G1 X142.281 Y118.722 E.01611
G1 X141.891 Y119.025 E.01548
G1 X141.519 Y119.454 E.0178
G1 X141.245 Y119.954 E.01788
G1 X141.091 Y120.456 E.01646
G1 X141.036 Y120.971 E.01624
G1 X141.083 Y121.486 E.01621
G1 X141.234 Y122.017 E.01731
G1 X141.472 Y122.469 E.01602
G1 X141.775 Y122.859 E.01548
G1 X142.128 Y123.174 E.01483
G1 X142.618 Y123.463 E.01784
G1 X143.083 Y123.629 E.01548
G1 X143.647 Y123.709 E.01786
G1 X144.236 Y123.667 E.01851
G1 X144.711 Y123.536 E.01545
G1 X145.137 Y123.33 E.01484
G1 X145.593 Y122.988 E.01787
G1 X145.795 Y122.77 E.00932
M204 S1000
;WIPE_START
G1 F8640
G1 X145.836 Y122.726 E-.01389
G1 X145.836 Y126.13 E-.78611
;WIPE_END
G1 Z.6 F720
G1 X146.135 Y120.636 F10800
G1 Z.2 F720
G1 E.8 F2100
M204 S800
;WIDTH:0.575096
G1 F1200
G1 X146.084 Y120.518 E.00569
;WIDTH:0.536322
G1 X146.033 Y120.4 E.00527
;WIDTH:0.497548
G1 X145.981 Y120.282 E.00487
;WIDTH:0.458774
G1 X145.93 Y120.164 E.00445
;WIDTH:0.419999
G1 X145.697 Y119.712 E.01594
G1 X145.436 Y119.384 E.01314
G1 X145.056 Y119.065 E.01556
G1 X144.689 Y118.861 E.01317
G1 X144.216 Y118.712 E.01555
G1 X143.786 Y118.665 E.01356
G1 X143.304 Y118.708 E.01517
G1 X142.902 Y118.824 E.01312
G1 X142.462 Y119.053 E.01555
G1 X142.134 Y119.314 E.01314
G1 X141.865 Y119.62 E.01277
G1 X141.617 Y120.05 E.01556
G1 X141.481 Y120.447 E.01316
G1 X141.416 Y120.938 E.01553
G1 X141.458 Y121.445 E.01595
G1 X141.574 Y121.848 E.01315
G1 X141.803 Y122.288 E.01555
G1 X142.064 Y122.616 E.01314
G1 X142.37 Y122.885 E.01277
G1 X142.8 Y123.133 E.01556
G1 X143.197 Y123.269 E.01316
G1 X143.688 Y123.334 E.01553
G1 X144.195 Y123.292 E.01595
G1 X144.598 Y123.176 E.01315
G1 X144.963 Y122.996 E.01276
G1 X145.357 Y122.694 E.01557
G1 X145.635 Y122.38 E.01315
G1 X145.883 Y121.95 E.01556
;WIDTH:0.460594
G1 X145.945 Y121.817 E.0051
;WIDTH:0.501188
G1 X146.007 Y121.685 E.00556
;WIDTH:0.541782
G1 X146.069 Y121.552 E.00609
;WIDTH:0.582376
G1 X146.132 Y121.42 E.00656
G1 X146.152 Y121.534 E.00519
;WIDTH:0.541782
G1 X146.172 Y121.648 E.0048
M73 Q1 S57
;WIDTH:0.501188
G1 X146.193 Y121.762 E.00442
;WIDTH:0.460594
G1 X146.213 Y121.877 E.00405
;WIDTH:0.419999
G1 X146.213 Y137.213 E.48085
G1 X103.787 Y137.213 E1.33024
G1 X103.787 Y122.035 E.47589
;WIDTH:0.461142
G1 X103.808 Y121.884 E.0053
;WIDTH:0.502285
G1 X103.828 Y121.733 E.00582
;WIDTH:0.543428
G1 X103.849 Y121.582 E.00634
;WIDTH:0.58457
G1 X103.869 Y121.431 E.00686
G1 X103.92 Y121.533 E.00514
;WIDTH:0.543428
G1 X103.97 Y121.634 E.00469
;WIDTH:0.502285
G1 X104.02 Y121.736 E.00434
;WIDTH:0.461142
G1 X104.071 Y121.838 E.00397
;WIDTH:0.419999
G1 X104.303 Y122.288 E.01587
G1 X104.564 Y122.616 E.01314
G1 X104.881 Y122.892 E.01318
G1 X105.301 Y123.133 E.01518
G1 X105.697 Y123.269 E.01313
G1 X106.188 Y123.334 E.01553
G1 X106.695 Y123.292 E.01595
G1 X107.098 Y123.176 E.01315
G1 X107.463 Y122.996 E.01276
G1 X107.857 Y122.694 E.01557
G1 X108.135 Y122.38 E.01315
G1 X108.383 Y121.95 E.01556
G1 X108.538 Y121.466 E.01593
G1 X108.585 Y121.049 E.01316
G1 X108.558 Y120.643 E.01276
G1 X108.43 Y120.164 E.01555
G1 X108.246 Y119.787 E.01315
G1 X107.944 Y119.393 E.01557
G1 X107.556 Y119.065 E.01593
G1 X107.189 Y118.861 E.01317
G1 X106.716 Y118.712 E.01555
G1 X106.286 Y118.665 E.01356
G1 X105.804 Y118.708 E.01517
G1 X105.402 Y118.824 E.01312
G1 X104.962 Y119.053 E.01555
G1 X104.634 Y119.314 E.01314
G1 X104.358 Y119.631 E.01318
G1 X104.117 Y120.051 E.01518
;WIDTH:0.462877
G1 X104.056 Y120.175 E.00483
;WIDTH:0.505754
G1 X103.995 Y120.298 E.00528
;WIDTH:0.548631
G1 X103.934 Y120.422 E.00581
;WIDTH:0.591508
G1 X103.873 Y120.546 E.0063
G1 X103.851 Y120.436 E.00512
;WIDTH:0.548631
G1 X103.83 Y120.327 E.00467
;WIDTH:0.505754
G1 X103.809 Y120.217 E.00431
;WIDTH:0.462877
G1 X103.787 Y120.108 E.00388
;WIDTH:0.419999
G1 X103.787 Y108.787 E.35496
G1 X146.213 Y108.787 E1.33024
G1 X146.213 Y113.982 E.16289
G1 X146.213 Y120.123 E.19255
;WIDTH:0.458774
G1 X146.194 Y120.252 E.00451
;WIDTH:0.497548
G1 X146.174 Y120.38 E.0049
;WIDTH:0.536322
G1 X146.155 Y120.508 E.00531
;WIDTH:0.575096
G1 X146.144 Y120.577 E.00309
M204 S1000
;WIPE_START
G1 F8640
G1 X146.135 Y120.636 E-.01378
G1 X146.084 Y120.518 E-.02968
G1 X146.033 Y120.4 E-.02968
G1 X145.981 Y120.282 E-.02977
G1 X145.93 Y120.164 E-.02968
G1 X145.697 Y119.712 E-.11742
G1 X145.436 Y119.384 E-.09679
G1 X145.056 Y119.065 E-.11456
G1 X144.689 Y118.861 E-.09695
G1 X144.216 Y118.712 E-.11451
G1 X143.786 Y118.665 E-.09988
G1 X143.668 Y118.676 E-.0273
;WIPE_END
G1 Z.6 F720
G1 X146.59 Y137.59 F10800
G1 Z.2 F720
G1 E.8 F2100
M204 S800
;TYPE:External perimeter
;WIDTH:0.419999
G1 F1200
G1 X103.41 Y137.59 E1.35388
G1 X103.41 Y108.41 E.91492
G1 X146.59 Y108.41 E1.35388
G1 X146.59 Y113.982 E.17471
G1 X146.59 Y137.53 E.73833
M204 S1000
;WIPE_START
G1 F8640
G1 X146.59 Y137.59 E-.01385
G1 X143.185 Y137.59 E-.78615
;WIPE_END
G1 Z.6 F720
G1 X145.69 Y121.213 F10800
G1 Z.2 F720
G1 E.8 F2100
M204 S800
G1 F1200
G1 X145.676 Y121.361 E.00466
G1 X145.552 Y121.769 E.01337
G1 X145.346 Y122.137 E.01322
G1 X145.121 Y122.4 E.01085
G1 X144.789 Y122.661 E.01324
G1 X144.485 Y122.817 E.01071
G1 X144.154 Y122.917 E.01084
G1 X143.729 Y122.959 E.01339
G1 X143.31 Y122.91 E.01323
G1 X142.981 Y122.802 E.01086
G1 X142.613 Y122.596 E.01322
G1 X142.353 Y122.374 E.01072
G1 X142.154 Y122.137 E.0097
G1 X141.934 Y121.735 E.01437
G1 X141.833 Y121.404 E.01085
G1 X141.791 Y120.979 E.01339
G1 X141.841 Y120.56 E.01323
G1 X141.948 Y120.231 E.01085
G1 X142.154 Y119.863 E.01322
G1 X142.376 Y119.603 E.01072
G1 X142.643 Y119.383 E.01085
G1 X143.015 Y119.184 E.01323
G1 X143.346 Y119.083 E.01085
G1 X143.754 Y119.041 E.01286
G1 X144.111 Y119.074 E.01124
G1 X144.515 Y119.196 E.01323
G1 X144.82 Y119.359 E.01084
G1 X145.147 Y119.626 E.01324
G1 X145.367 Y119.893 E.01085
G1 X145.568 Y120.269 E.01337
G1 X145.682 Y120.676 E.01325
G1 X145.709 Y121.016 E.01069
G1 X145.696 Y121.153 E.00431
M204 S1000
G1 X146.135 Y120.636 F10800
M204 S800
;TYPE:Perimeter
;WIDTH:0.575098
G1 F1200
G1 X146.135 Y121.364 E.03221
;WIDTH:0.582376
G1 X146.132 Y121.42 E.00252
M204 S1000
;WIPE_START
G1 F8640
G1 X146.135 Y121.364 E-.01295
G1 X146.135 Y120.636 E-.1681
;WIPE_END
G1 E-.61895 F2100
G1 Z.6 F720
G1 X105.448 Y119.22 F10800
G1 Z.2 F720
G1 E.8 F2100
M204 S800
;TYPE:External perimeter
;WIDTH:0.419999
G1 F1200
G1 X105.515 Y119.184 E.00238
G1 X105.846 Y119.083 E.01085
G1 X106.254 Y119.041 E.01286
G1 X106.611 Y119.074 E.01124
G1 X107.015 Y119.196 E.01323
G1 X107.32 Y119.359 E.01084
G1 X107.65 Y119.629 E.01337
G1 X107.911 Y119.961 E.01324
G1 X108.068 Y120.269 E.01084
G1 X108.182 Y120.676 E.01325
G1 X108.209 Y121.016 E.01069
G1 X108.176 Y121.361 E.01087
G1 X108.052 Y121.769 E.01337
G1 X107.846 Y122.137 E.01322
G1 X107.621 Y122.4 E.01085
G1 X107.289 Y122.661 E.01324
G1 X106.985 Y122.817 E.01071
G1 X106.654 Y122.917 E.01084
G1 X106.229 Y122.959 E.01339
G1 X105.81 Y122.909 E.01323
G1 X105.482 Y122.802 E.01082
G1 X105.123 Y122.602 E.01289
G1 X104.853 Y122.374 E.01108
G1 X104.633 Y122.107 E.01085
G1 X104.432 Y121.731 E.01337
G1 X104.32 Y121.336 E.01287
G1 X104.291 Y121.017 E.01004
G1 X104.341 Y120.56 E.01441
G1 X104.448 Y120.232 E.01082
G1 X104.648 Y119.873 E.01289
G1 X104.876 Y119.603 E.01108
G1 X105.143 Y119.383 E.01085
G1 X105.395 Y119.248 E.00896
M204 S1000
;WIPE_START
G1 F8640
G1 X105.448 Y119.22 E-.01384
G1 X105.515 Y119.184 E-.01756
G1 X105.846 Y119.083 E-.07991
G1 X106.254 Y119.041 E-.09471
G1 X106.611 Y119.074 E-.08278
G1 X107.015 Y119.196 E-.09745
G1 X107.32 Y119.359 E-.07985
G1 X107.65 Y119.629 E-.09845
G1 X107.911 Y119.961 E-.09751
G1 X108.068 Y120.269 E-.07982
