; generated by PrusaSlicer 2.7.4 on 2024-05-02 at 17:43:55 UTC


;
;
; 

; external perimeters extrusion width = 0.45mm
; perimeters extrusion width = 0.45mm
; infill extrusion width = 0.45mm
; solid infill extrusion width = 0.45mm
; top infill extrusion width = 0.40mm
; first layer extrusion width = 0.42mm

; external perimeters extrusion width = 0.45mm
; perimeters extrusion width = 0.45mm
; infill extrusion width = 0.45mm
; solid infill extrusion width = 0.45mm
; top infill extrusion width = 0.40mm
; first layer extrusion width = 0.42mm

M73 P0 R52
M73 Q0 S52
M201 X1000 Y1000 Z200 E5000 ; sets maximum accelerations, mm/sec^2
M203 X200 Y200 Z12 E120 ; sets maximum feedrates, mm / sec
M204 S1250 T1250 ; sets acceleration (S) and retract acceleration (R), mm/sec^2
M205 X8.00 Y8.00 Z0.40 E4.50 ; sets the jerk limits, mm/sec
M205 S0 T0 ; sets the minimum extruding and travel feed rate, mm/sec

; printing object Teammarker_BigWave.stl id:0 copy 0
; stop printing object Teammarker_BigWave.stl id:0 copy 0
; printing object Teammarker_DoubleWave.stl id:1 copy 0
; stop printing object Teammarker_DoubleWave.stl id:1 copy 0

;TYPE:Custom
M862.3 P "MK3S" ; printer model check
M862.1 P0.4 ; nozzle diameter check
M115 U3.13.3 ; tell printer latest fw version
G90 ; use absolute coordinates
M83 ; extruder relative mode
M104 S230 ; set extruder temp
M140 S50 ; set bed temp
M190 S50 ; wait for bed temp
M109 S230 ; wait for extruder temp
G28 W ; home all without mesh bed level
G80 X80.4344 Y77.4344 W89.1312 H55.1312 ; mesh bed levelling

G1 Z0.2 F720
G1 Y-3 F1000 ; go outside print area
G92 E0
G1 X60 E9 F1000 ; intro line
G1 X100 E12.5 F1000 ; intro line

G92 E0
M221 S95

; Don't change E values below. Excessive value can damage the printer.
M907 E430 ; set extruder motor current
G21 ; set units to millimeters
G90 ; use absolute coordinates
M83 ; use relative distances for extrusion
M900 K0 ; Filament gcode
M107
;LAYER_CHANGE
;Z:0.2
;HEIGHT:0.2
G1 E-1 F2100
G1 Z.2 F720
G1 X81.015 Y78.693 F10800
G1 Z.2 F720
G1 E1 F1500
M204 S800
;TYPE:Skirt/Brim
;WIDTH:0.42
G1 F1200
G1 X82.06 Y77.817 E.04703
G1 X83 Y77.623 E.0331
G1 X167 Y77.623 E2.89714
G1 X168.307 Y78.015 E.04706
G1 X169.183 Y79.06 E.04703
G1 X169.377 Y80 E.0331
G1 X169.377 Y129 E1.69
G1 X169.275 Y129.824 E.02864
G1 X168.95 Y130.643 E.03039
G1 X168.424 Y131.351 E.03042
G1 X167.733 Y131.898 E.0304
G1 X166.924 Y132.248 E.0304
G1 X166 Y132.377 E.03218
G1 X83.948 Y132.377 E2.82995
G1 X83.076 Y132.248 E.0304
G1 X82.275 Y131.903 E.03008
G1 X81.649 Y131.424 E.02719
G1 X81.102 Y130.733 E.0304
G1 X80.754 Y129.931 E.03015
G1 X80.623 Y129 E.03243
G1 X80.623 Y80 E1.69
G1 X80.997 Y78.75 E.045
M204 S1000
G1 E-1 F2100
G1 X80.997 Y78.75 F10800
; printing object Teammarker_DoubleWave.stl id:1 copy 0
G1 X164.896 Y122.046
G1 E1 F1500
M204 S800
;TYPE:Perimeter
;WIDTH:0.419999
G1 F1200
G1 X164.902 Y122.168 E.00421
G1 X165.018 Y122.696 E.01864
G1 X165.255 Y123.25 E.02078
G1 X165.631 Y123.944 E.02722
G1 X165.756 Y124.275 E.0122
G1 X165.792 Y124.545 E.00939
G1 X165.632 Y124.976 E.01586
G1 X165.067 Y126.054 E.04198
G1 X164.923 Y126.537 E.01738
G1 X164.885 Y127.006 E.01623
G1 X164.966 Y127.527 E.01818
G1 X165.193 Y128.056 E.01985
G1 X165.737 Y128.836 E.0328
G1 X129.268 Y128.836 E1.2578
G1 X129.834 Y128.015 E.03439
G1 X130.034 Y127.527 E.01819
G1 X130.115 Y127.006 E.01818
G1 X130.077 Y126.537 E.01623
G1 X129.933 Y126.054 E.01738
G1 X129.256 Y124.729 E.05132
G1 X129.205 Y124.417 E.0109
G1 X129.369 Y123.944 E.01727
G1 X129.791 Y123.152 E.03095
G1 X130.02 Y122.581 E.02122
G1 X130.112 Y122.081 E.01753
G1 X130.081 Y121.575 E.01748
G1 X130.001 Y121.286 E.01034
G1 X129.671 Y120.617 E.02573
G1 X129.305 Y120.124 E.02118
G1 X129.165 Y119.861 E.01028
G1 X129.164 Y81.164 E1.33465
G1 X165.836 Y81.164 E1.26481
G1 X165.835 Y99.5 E.6324
G1 X165.835 Y119.854 E.702
G1 X165.695 Y120.124 E.01049
G1 X165.23 Y120.784 E.02785
G1 X164.98 Y121.33 E.02071
G1 X164.887 Y121.862 E.01863
G1 X164.893 Y121.986 E.00428
M204 S1000
G1 X165.276 Y121.999 F10800
M204 S800
G1 F1200
G1 X165.271 Y122.088 E.00307
G1 X165.386 Y122.615 E.0186
G1 X165.587 Y123.071 E.01719
G1 X165.974 Y123.785 E.02801
G1 X166.139 Y124.245 E.01686
G1 X166.168 Y124.599 E.01225
G1 X165.992 Y125.102 E.01838
G1 X165.494 Y126.026 E.0362
G1 X165.321 Y126.481 E.01679
G1 X165.263 Y126.841 E.01258
G1 X165.32 Y127.397 E.01928
G1 X165.503 Y127.84 E.01653
G1 X166.106 Y128.706 E.0364
G1 X166.206 Y129.003 E.01081
G1 X166.108 Y129.166 E.00656
G1 X165.972 Y129.213 E.00496
G1 X129.085 Y129.213 E1.27222
G1 X128.866 Y129.153 E.00783
M73 P1 R52
M73 Q1 S52
G1 X128.795 Y129.021 E.00517
G1 X128.897 Y128.705 E.01145
G1 X129.514 Y127.816 E.03732
G1 X129.68 Y127.397 E.01554
G1 X129.739 Y126.97 E.01487
G1 X129.703 Y126.586 E.0133
G1 X129.576 Y126.173 E.0149
G1 X128.899 Y124.854 E.05113
G1 X128.83 Y124.499 E.01247
G1 X128.881 Y124.173 E.01138
G1 X129.038 Y123.764 E.01511
G1 X129.441 Y123.011 E.02946
G1 X129.693 Y122.368 E.02382
G1 X129.739 Y121.904 E.01608
G1 X129.658 Y121.444 E.01611
G1 X129.368 Y120.842 E.02305
G1 X128.949 Y120.278 E.02423
G1 X128.788 Y119.893 E.01439
G1 X128.787 Y80.787 E1.34875
G1 X166.213 Y80.787 E1.29081
G1 X166.212 Y99.5 E.64541
G1 X166.212 Y119.088 E.67558
G1 X166.194 Y120.001 E.0315
G1 X165.998 Y120.349 E.01378
G1 X165.573 Y120.942 E.02516
G1 X165.3 Y121.575 E.02378
G1 X165.279 Y121.939 E.01258
M204 S1000
G1 X165.279 Y121.939 F10800
G1 X165.65 Y121.91
M204 S800
;TYPE:External perimeter
G1 F1200
G1 X165.639 Y122.007 E.00337
G1 X165.754 Y122.534 E.0186
G1 X165.918 Y122.891 E.01355
G1 X166.401 Y123.782 E.03496
G1 X166.552 Y124.323 E.01937
G1 X166.507 Y124.791 E.01622
G1 X166.331 Y125.267 E.0175
G1 X165.826 Y126.205 E.03674
G1 X165.679 Y126.601 E.01457
G1 X165.637 Y126.891 E.01011
G1 X165.664 Y127.221 E.01142
G1 X165.812 Y127.625 E.01484
G1 X166.398 Y128.465 E.03532
G1 X166.516 Y128.696 E.00895
G1 X166.588 Y128.968 E.0097
G1 X166.554 Y129.183 E.00751
G1 X166.334 Y129.48 E.01275
G1 X165.989 Y129.59 E.01249
G1 X129.828 Y129.59 E1.24718
G1 X128.878 Y129.562 E.03278
G1 X128.685 Y129.484 E.00718
G1 X128.505 Y129.318 E.00845
G1 X128.423 Y129.084 E.00855
G1 X128.481 Y128.678 E.01414
G1 X128.593 Y128.481 E.00782
G1 X129.193 Y127.617 E.03628
G1 X129.326 Y127.267 E.01291
G1 X129.364 Y126.934 E.01156
G1 X129.329 Y126.636 E.01035
G1 X129.206 Y126.263 E.01355
G1 X128.669 Y125.267 E.03903
G1 X128.493 Y124.791 E.0175
G1 X128.448 Y124.323 E.01622
G1 X128.545 Y123.976 E.01243
G1 X128.706 Y123.584 E.01462
G1 X129.091 Y122.871 E.02795
G1 X129.32 Y122.301 E.02119
G1 X129.364 Y121.99 E.01083
G1 X129.316 Y121.602 E.01348
G1 X129.065 Y121.066 E.02041
G1 X128.699 Y120.573 E.02118
G1 X128.504 Y120.236 E.01343
G1 X128.411 Y119.925 E.0112
G1 X128.41 Y80.41 E1.36286
G1 X166.59 Y80.41 E1.31682
M73 P1 R51
G1 X166.59 Y99.5 E.65841
G1 X166.589 Y119.702 E.69676
M73 Q1 S51
G1 X166.555 Y120.122 E.01453
G1 X166.301 Y120.573 E.01785
G1 X165.915 Y121.1 E.02253
G1 X165.684 Y121.602 E.01906
G1 X165.657 Y121.851 E.00864
M204 S1000
G1 X165.698 Y122.249 F10800
G1 E-1 F2100
G1 X164.901 Y81.334 F10800
G1 E1 F1500
M204 S800
;TYPE:Solid infill
;WIDTH:0.42133
G1 F1200
G1 X165.496 Y81.929 E.02912
G1 X165.496 Y82.464 E.01852
G1 X164.536 Y81.504 E.04699
G1 X164 Y81.504 E.01855
G1 X165.496 Y83 E.07323
G1 X165.496 Y83.535 E.01852
G1 X163.465 Y81.504 E.09941
G1 X162.93 Y81.504 E.01852
G1 X165.496 Y84.07 E.1256
G1 X165.496 Y84.605 E.01852
G1 X162.395 Y81.504 E.15179
G1 X161.86 Y81.504 E.01852
G1 X165.496 Y85.14 E.17797
G1 X165.496 Y85.675 E.01852
G1 X161.325 Y81.504 E.20416
G1 X160.79 Y81.504 E.01852
G1 X165.496 Y86.21 E.23035
G1 X165.496 Y86.745 E.01852
G1 X160.254 Y81.504 E.25656
G1 X159.719 Y81.504 E.01852
G1 X165.496 Y87.281 E.28277
G1 X165.496 Y87.816 E.01852
G1 X159.184 Y81.504 E.30896
G1 X158.649 Y81.504 E.01852
G1 X165.496 Y88.351 E.33515
G1 X165.496 Y88.886 E.01852
G1 X158.114 Y81.504 E.36133
G1 X157.579 Y81.504 E.01852
G1 X165.496 Y89.421 E.38752
G1 X165.496 Y89.956 E.01852
G1 X157.043 Y81.504 E.41373
G1 X156.508 Y81.504 E.01852
G1 X165.496 Y90.491 E.43992
G1 X165.496 Y91.027 E.01855
G1 X155.973 Y81.504 E.46613
G1 X155.438 Y81.504 E.01852
G1 X165.496 Y91.562 E.49232
G1 X165.496 Y92.097 E.01852
G1 X154.903 Y81.504 E.51851
G1 X154.368 Y81.504 E.01852
G1 X165.496 Y92.632 E.54469
G1 X165.496 Y93.167 E.01852
G1 X153.833 Y81.504 E.57088
G1 X153.297 Y81.504 E.01855
G1 X165.496 Y93.702 E.59709
G1 X165.496 Y94.237 E.01852
G1 X152.762 Y81.504 E.62328
G1 X152.227 Y81.504 E.01852
G1 X165.496 Y94.773 E.64949
G1 X165.496 Y95.308 E.01852
G1 X151.692 Y81.504 E.67568
G1 X151.157 Y81.504 E.01852
G1 X165.496 Y95.843 E.70186
G1 X165.496 Y96.378 E.01852
M73 P2 R51
M73 Q2 S51
G1 X150.622 Y81.504 E.72805
G1 X150.086 Y81.504 E.01855
G1 X165.496 Y96.913 E.75426
G1 X165.496 Y97.448 E.01852
G1 X149.551 Y81.504 E.78045
G1 X149.016 Y81.504 E.01852
G1 X165.496 Y97.983 E.80664
G1 X165.496 Y98.519 E.01855
G1 X148.481 Y81.504 E.83285
G1 X147.946 Y81.504 E.01852
G1 X165.496 Y99.054 E.85904
G1 X165.496 Y99.589 E.01852
G1 X147.411 Y81.504 E.88522
G1 X146.876 Y81.504 E.01852
G1 X165.496 Y100.124 E.91141
G1 X165.496 Y100.659 E.01852
G1 X146.34 Y81.504 E.93762
G1 X145.805 Y81.504 E.01852
G1 X165.496 Y101.194 E.96381
G1 X165.496 Y101.729 E.01852
G1 X145.27 Y81.504 E.99
G1 X144.735 Y81.504 E.01852
G1 X165.496 Y102.265 E1.01621
G1 X165.496 Y102.8 E.01852
G1 X144.2 Y81.504 E1.0424
G1 X143.665 Y81.504 E.01852
G1 X165.496 Y103.335 E1.06858
G1 X165.496 Y103.87 E.01852
G1 X143.129 Y81.504 E1.09479
G1 X142.594 Y81.504 E.01852
G1 X165.496 Y104.405 E1.12098
G1 X165.496 Y104.94 E.01852
G1 X142.059 Y81.504 E1.14717
G1 X141.524 Y81.504 E.01852
G1 X165.496 Y105.475 E1.17336
G1 X165.496 Y106.011 E.01855
G1 X140.989 Y81.504 E1.19957
G1 X140.454 Y81.504 E.01852
G1 X165.496 Y106.546 E1.22575
G1 X165.496 Y107.081 E.01852
G1 X139.919 Y81.504 E1.25194
G1 X139.383 Y81.504 E.01855
M73 Q3 S51
G1 X165.496 Y107.616 E1.27815
G1 X165.496 Y108.151 E.01852
M73 P3 R51
G1 X138.848 Y81.504 E1.30434
G1 X138.313 Y81.504 E.01852
G1 X165.496 Y108.686 E1.33053
G1 X165.496 Y109.221 E.01852
G1 X137.778 Y81.504 E1.35671
G1 X137.243 Y81.504 E.01852
M73 P3 R50
G1 X165.496 Y109.757 E1.38293
G1 X165.496 Y110.292 E.01852
G1 X136.708 Y81.504 E1.40911
G1 X136.172 Y81.504 E.01855
G1 X165.496 Y110.827 E1.43532
G1 X165.496 Y111.362 E.01852
M73 Q3 S50
G1 X135.637 Y81.504 E1.46151
G1 X135.102 Y81.504 E.01852
G1 X165.496 Y111.897 E1.4877
G1 X165.496 Y112.432 E.01852
G1 X134.567 Y81.504 E1.51389
G1 X134.032 Y81.504 E.01852
G1 X165.496 Y112.967 E1.54007
G1 X165.496 Y113.502 E.01852
G1 X133.497 Y81.504 E1.56626
G1 X132.962 Y81.504 E.01852
G1 X165.496 Y114.038 E1.59247
G1 X165.496 Y114.573 E.01852
G1 X132.426 Y81.504 E1.61868
G1 X131.891 Y81.504 E.01852
G1 X165.496 Y115.108 E1.64487
G1 X165.496 Y115.643 E.01852
M73 P4 R50
M73 Q4 S50
G1 X131.356 Y81.504 E1.67106
G1 X130.821 Y81.504 E.01852
G1 X165.496 Y116.178 E1.69725
G1 X165.496 Y116.713 E.01852
G1 X130.286 Y81.504 E1.72343
G1 X129.751 Y81.504 E.01852
G1 X165.496 Y117.248 E1.74962
G1 X165.496 Y117.784 E.01855
G1 X129.504 Y81.792 E1.76173
G1 X129.504 Y82.327 E.01852
G1 X165.496 Y118.319 E1.76173
G1 X165.496 Y118.854 E.01852
G1 X129.504 Y82.862 E1.76173
G1 X129.504 Y83.397 E.01852
G1 X165.496 Y119.389 E1.76173
G1 X165.496 Y119.791 E.01391
G1 X165.45 Y119.879 E.00344
G1 X129.504 Y83.932 E1.75951
G1 X129.504 Y84.467 E.01852
G1 X165.225 Y120.189 E1.74849
G1 X165.004 Y120.503 E.01329
G1 X129.504 Y85.003 E1.73765
G1 X129.504 Y85.538 E.01852
G1 X164.823 Y120.857 E1.72879
G1 X164.662 Y121.231 E.01409
G1 X129.504 Y86.073 E1.72091
G1 X129.504 Y86.608 E.01852
M73 P5 R50
M73 Q5 S50
G1 X164.57 Y121.675 E1.71643
G1 X164.541 Y121.951 E.00961
M73 P5 R49
G1 X164.566 Y122.206 E.00887
G1 X129.504 Y87.143 E1.71624
G1 X129.504 Y87.678 E.01852
G1 X164.73 Y122.905 E1.72426
G1 X164.955 Y123.408 E.01907
M73 Q5 S49
G1 X165.258 Y123.967 E.02201
G1 X129.504 Y88.214 E1.75006
G1 X129.504 Y88.749 E.01852
G1 X165.407 Y124.652 E1.75738
G1 X165.23 Y125.01 E.01382
G1 X129.504 Y89.284 E1.74871
G1 X129.504 Y89.819 E.01852
G1 X165.045 Y125.36 E1.73966
G1 X164.86 Y125.71 E.0137
G1 X129.504 Y90.354 E1.7306
G1 X129.504 Y90.889 E.01852
G1 X164.699 Y126.084 E1.72272
G1 X164.638 Y126.264 E.00658
G1 X164.594 Y126.515 E.00882
G1 X129.504 Y91.425 E1.71758
G1 X129.504 Y91.96 E.01852
G1 X164.547 Y127.003 E1.71528
G1 X164.576 Y127.335 E.01153
G1 X164.645 Y127.636 E.01069
G1 X129.504 Y92.495 E1.72008
G1 X129.504 Y93.03 E.01852
M73 P6 R49
M73 Q6 S49
G1 X164.97 Y128.496 E1.73599
G1 X164.435 Y128.496 E.01852
G1 X129.504 Y93.565 E1.7098
G1 X129.504 Y94.1 E.01852
G1 X163.9 Y128.496 E1.68361
G1 X163.365 Y128.496 E.01852
G1 X129.504 Y94.636 E1.6574
G1 X129.504 Y95.171 E.01852
G1 X162.83 Y128.496 E1.63121
G1 X162.294 Y128.496 E.01855
G1 X129.504 Y95.706 E1.605
G1 X129.504 Y96.241 E.01852
G1 X161.759 Y128.496 E1.57882
G1 X161.224 Y128.496 E.01852
G1 X129.504 Y96.776 E1.55263
G1 X129.504 Y97.311 E.01852
G1 X160.689 Y128.496 E1.52644
G1 X160.154 Y128.496 E.01852
G1 X129.504 Y97.847 E1.50023
G1 X129.504 Y98.382 E.01852
G1 X159.619 Y128.496 E1.47404
G1 X159.084 Y128.496 E.01852
G1 X129.504 Y98.917 E1.44786
G1 X129.504 Y99.452 E.01852
G1 X158.548 Y128.496 E1.42164
G1 X158.013 Y128.496 E.01852
G1 X129.504 Y99.987 E1.39546
G1 X129.504 Y100.522 E.01852
M73 P7 R48
M73 Q7 S49
G1 X157.478 Y128.496 E1.36927
G1 X156.943 Y128.496 E.01852
G1 X129.504 Y101.058 E1.34306
G1 X129.504 Y101.593 E.01852
M73 Q7 S48
G1 X156.408 Y128.496 E1.31687
G1 X155.873 Y128.496 E.01852
G1 X129.504 Y102.128 E1.29068
G1 X129.504 Y102.663 E.01852
G1 X155.337 Y128.496 E1.26447
G1 X154.802 Y128.496 E.01852
G1 X129.504 Y103.198 E1.23828
G1 X129.504 Y103.733 E.01852
G1 X154.267 Y128.496 E1.2121
G1 X153.732 Y128.496 E.01852
G1 X129.504 Y104.269 E1.18589
G1 X129.504 Y104.804 E.01852
G1 X153.197 Y128.496 E1.1597
G1 X152.662 Y128.496 E.01852
G1 X129.504 Y105.339 E1.13351
G1 X129.504 Y105.874 E.01852
G1 X152.127 Y128.496 E1.10732
G1 X151.591 Y128.496 E.01855
G1 X129.504 Y106.409 E1.08111
G1 X129.504 Y106.944 E.01852
G1 X151.056 Y128.496 E1.05493
G1 X150.521 Y128.496 E.01852
G1 X129.504 Y107.48 E1.02871
G1 X129.504 Y108.015 E.01852
G1 X149.986 Y128.496 E1.00253
G1 X149.451 Y128.496 E.01852
G1 X129.504 Y108.55 E.97634
G1 X129.504 Y109.085 E.01852
G1 X148.916 Y128.496 E.95015
G1 X148.381 Y128.496 E.01852
G1 X129.504 Y109.62 E.92397
G1 X129.504 Y110.155 E.01852
M73 P8 R48
M73 Q8 S48
G1 X147.845 Y128.496 E.89775
G1 X147.31 Y128.496 E.01852
G1 X129.504 Y110.691 E.87154
G1 X129.504 Y111.226 E.01852
G1 X146.775 Y128.496 E.84536
G1 X146.24 Y128.496 E.01852
G1 X129.504 Y111.761 E.81917
G1 X129.504 Y112.296 E.01852
G1 X145.705 Y128.496 E.79298
G1 X145.17 Y128.496 E.01852
G1 X129.504 Y112.831 E.76679
G1 X129.504 Y113.366 E.01852
G1 X144.634 Y128.496 E.74058
G1 X144.099 Y128.496 E.01852
G1 X129.504 Y113.902 E.71437
G1 X129.504 Y114.437 E.01852
G1 X143.564 Y128.496 E.68818
G1 X143.029 Y128.496 E.01852
G1 X129.504 Y114.972 E.662
G1 X129.504 Y115.507 E.01852
G1 X142.494 Y128.496 E.63581
G1 X141.959 Y128.496 E.01852
G1 X129.504 Y116.042 E.60962
G1 X129.504 Y116.577 E.01852
G1 X141.424 Y128.496 E.58343
G1 X140.888 Y128.496 E.01855
G1 X129.504 Y117.112 E.55722
G1 X129.504 Y117.648 E.01855
G1 X140.353 Y128.496 E.53101
G1 X139.818 Y128.496 E.01852
G1 X129.504 Y118.183 E.50482
G1 X129.504 Y118.718 E.01852
G1 X139.283 Y128.496 E.47864
G1 X138.748 Y128.496 E.01852
G1 X129.504 Y119.253 E.45245
G1 X129.504 Y119.788 E.01852
G1 X138.213 Y128.496 E.42626
G1 X137.677 Y128.496 E.01855
G1 X130.295 Y121.114 E.36133
G1 X130.404 Y121.438 E.01183
G1 X130.442 Y121.796 E.01246
G1 X137.142 Y128.496 E.32795
G1 X136.607 Y128.496 E.01852
G1 X130.425 Y122.314 E.3026
G1 X130.32 Y122.744 E.01532
G1 X136.072 Y128.496 E.28155
G1 X135.537 Y128.496 E.01852
G1 X130.166 Y123.126 E.26287
G1 X129.997 Y123.492 E.01395
G1 X135.002 Y128.496 E.24496
G1 X134.467 Y128.496 E.01852
G1 X129.81 Y123.84 E.22793
G1 X129.623 Y124.188 E.01367
G1 X133.931 Y128.496 E.21087
G1 X133.396 Y128.496 E.01852
G1 X129.625 Y124.725 E.18458
G1 X130.215 Y125.851 E.044
G1 X132.861 Y128.496 E.12949
G1 X132.326 Y128.496 E.01852
