; HEADER_BLOCK_START
; generated by OrcaSlicer 2.0.0 on 2024-06-17 at 11:47:16
; total layer number: 40
; filament_density: 1.04
; filament_diameter: 1.75
; max_z_height: 8.00
; HEADER_BLOCK_END

; THUMBNAIL_BLOCK_START

;
; THUMBNAIL_BLOCK_END

; external perimeters extrusion width = 0.45mm
; perimeters extrusion width = 0.45mm
; infill extrusion width = 0.45mm
; solid infill extrusion width = 0.45mm
; top infill extrusion width = 0.40mm
; first layer extrusion width = 0.42mm

; EXECUTABLE_BLOCK_START
M73 P0 R64
M201 X2000 Y2000 Z300 E5000
M203 X200 Y200 Z12 E120
M204 P2000 R2500 T2000
M205 X9.00 Y9.00 Z0.20 E2.50 ; sets the jerk limits, mm/sec
;TYPE:Custom
M862.3 P "MK3S" ; printer model check
M862.1 P0.4 ; nozzle diameter check
M115 U3.13.0 ; tell printer latest fw version
G90 ; use absolute coordinates
M83 ; extruder relative mode
M104 S260 ; set extruder temp
M140 S105 ; set bed temp
M190 S105 ; wait for bed temp
M109 S260 ; wait for extruder temp
G28 W ; home all without mesh bed level
G80 ; mesh bed leveling

G1 Z0.2 F720
G1 Y-3 F1000 ; go outside print area
G92 E0
G1 X60 E9 F1000 ; intro line
G1 X100 E12.5 F1000 ; intro line

G92 E0
M221 S95
G90
G21
M83 ; use relative distances for extrusion
; Filament gcode
M900 K0.04 ; Filament gcode LA 1.5
M900 K20 ; Filament gcode LA 1.0
M106 S0
;LAYER_CHANGE
;Z:0.2
;HEIGHT:0.2
;BEFORE_LAYER_CHANGE
;0.2
G92 E0

M73 P0 R63
G1 E-.8 F1800
;AFTER_LAYER_CHANGE
;0.2
;_SET_FAN_SPEED_CHANGING_LAYER
M204 S800
G1 Z.4 F720
G1 X57.55 Y41.406 F10800
G1 Z.4 F720
G1 Z.2
G1 E.8 F1800
;TYPE:Skirt
;WIDTH:0.42
G1 F3000
G1 X59.033 Y39.474 E.071
G1 X59.471 Y39.036 E.01809
G1 X61.403 Y37.553 E.071
G1 X61.94 Y37.243 E.01809
G1 X64.19 Y36.311 E.071
G1 X64.789 Y36.151 E.01809
G1 X67.501 Y35.813 E.07967
G1 X181.312 Y35.216 E3.31874
G1 X183.726 Y35.534 E.071
G1 X184.326 Y35.695 E.01809
G1 X186.575 Y36.626 E.071
G1 X187.113 Y36.937 E.01809
G1 X189.278 Y38.624 E.08005
G1 X191.581 Y40.956 E.09556
G1 X193.063 Y42.887 E.071
G1 X193.374 Y43.425 E.01809
G1 X194.305 Y45.674 E.071
G1 X194.466 Y46.274 E.01809
G1 X194.784 Y48.688 E.071
G1 X194.19 Y162.496 E3.31865
G1 X193.852 Y165.208 E.07968
G1 X193.692 Y165.807 E.01809
G1 X192.76 Y168.057 E.071
G1 X192.45 Y168.594 E.01809
G1 X190.967 Y170.526 E.071
G1 X190.529 Y170.964 E.01809
G1 X188.597 Y172.447 E.071
G1 X188.06 Y172.757 E.01809
G1 X185.81 Y173.689 E.071
G1 X185.211 Y173.849 E.01809
G1 X182.487 Y174.187 E.08005
G1 X67.517 Y174.191 E3.35246
G1 X64.792 Y173.852 E.08005
G1 X64.193 Y173.692 E.01809
G1 X61.943 Y172.76 E.071
G1 X61.406 Y172.45 E.01809
G1 X59.474 Y170.967 E.071
G1 X59.036 Y170.529 E.01809
G1 X57.553 Y168.597 E.071
G1 X57.243 Y168.06 E.01809
G1 X56.311 Y165.81 E.071
G1 X56.151 Y165.211 E.01809
G1 X55.813 Y162.487 E.08005
G1 X55.809 Y47.517 E3.35246
G1 X56.148 Y44.792 E.08005
G1 X56.308 Y44.193 E.01809
G1 X57.24 Y41.943 E.071
G1 X57.53 Y41.441 E.01693
; printing object Lid.stl id:2816 copy 0
G1 E-.56 F1800
;WIPE_START
G1 F3000
G1 X58.137 Y40.646 E-.24
;WIPE_END
G1 Z.6 F720
G1 X66.711 Y153.456 Z.6 F10800
G1 Z.2 F720
G1 E.8 F1800
;TYPE:Brim
G1 F1200
G1 X66.711 Y161 E.21999
G1 X66.744 Y161.379 E.01109
G1 X66.844 Y161.765 E.01163
G1 X67.009 Y162.128 E.01163
G1 X67.235 Y162.456 E.01163
G1 X67.515 Y162.74 E.01163
G1 X67.787 Y162.94 E.00982
G1 X68.142 Y163.121 E.01163
G1 X68.491 Y163.231 E.01067
G1 X69 Y163.289 E.01493
G1 X76.548 Y163.289 E.22009
G1 X76.342 Y164.851 E.04596
G1 X75.429 Y167.055 E.06955
G1 X73.977 Y168.947 E.06955
G1 X72.085 Y170.399 E.06955
G1 X69.881 Y171.312 E.06955
G1 X67.517 Y171.623 E.06955
G1 X65.152 Y171.312 E.06955
G1 X62.948 Y170.399 E.06955
G1 X61.056 Y168.947 E.06955
G1 X59.604 Y167.055 E.06955
G1 X58.691 Y164.851 E.06955
G1 X58.38 Y162.486 E.06955
G1 X58.691 Y160.122 E.06955
G1 X59.604 Y157.918 E.06955
G1 X61.056 Y156.026 E.06955
G1 X62.948 Y154.574 E.06955
G1 X65.152 Y153.661 E.06955
G1 X66.672 Y153.461 E.0447
G1 X66.304 Y153.937 F10800
G1 F1200
G1 X66.334 Y154.015 E.00242
G1 X66.334 Y160.995 E.20356
G1 X66.367 Y161.402 E.0119
G1 X66.477 Y161.851 E.01348
G1 X66.663 Y162.277 E.01354
G1 X66.92 Y162.663 E.01354
G1 X67.241 Y163 E.01356
G1 X67.558 Y163.239 E.01158
G1 X67.964 Y163.453 E.01338
G1 X68.369 Y163.587 E.01246
G1 X69.007 Y163.666 E.01874
G1 X75.989 Y163.666 E.20359
G1 X76.081 Y163.713 E.00301
G1 X76.101 Y163.794 E.00242
G1 X75.969 Y164.767 E.02863
G1 X75.106 Y166.851 E.06579
G1 X73.717 Y168.666 E.06664
G1 X71.881 Y170.075 E.06749
G1 X69.768 Y170.947 E.06664
G1 X67.531 Y171.241 E.06579
G1 X65.265 Y170.947 E.06664
G1 X63.127 Y170.061 E.06749
G1 X61.337 Y168.687 E.06579
G1 X59.942 Y166.877 E.06664
G1 X59.057 Y164.738 E.06749
G1 X58.762 Y162.501 E.06579
G1 X59.057 Y160.235 E.06664
G1 X59.942 Y158.096 E.06749
G1 X61.337 Y156.286 E.06664
G1 X63.127 Y154.912 E.06579
G1 X65.237 Y154.034 E.06664
G1 X66.206 Y153.902 E.02854
G1 X66.266 Y153.924 E.00185
G1 X65.926 Y154.369 F10800
G1 F1200
G1 X65.957 Y154.446 E.00244
G1 X65.957 Y160.99 E.19082
G1 X66.003 Y161.499 E.0149
G1 X66.135 Y162.01 E.01539
G1 X66.354 Y162.493 E.01547
G1 X66.601 Y162.864 E.013
G1 X66.963 Y163.254 E.01551
G1 X67.324 Y163.535 E.01333
G1 X67.781 Y163.783 E.01515
G1 X68.241 Y163.942 E.0142
G1 X69.014 Y164.043 E.02273
G1 X75.557 Y164.043 E.19079
G1 X75.649 Y164.09 E.00301
G1 X75.669 Y164.171 E.00244
G1 X75.596 Y164.681 E.01502
G1 X74.782 Y166.647 E.06206
G1 X73.457 Y168.386 E.06373
G1 X71.703 Y169.737 E.06457
G1 X69.655 Y170.581 E.06458
G1 X67.516 Y170.859 E.0629
G1 X65.378 Y170.581 E.06288
G1 X63.305 Y169.722 E.06543
G1 X61.596 Y168.406 E.06288
G1 X60.281 Y166.698 E.06288
G1 X59.422 Y164.625 E.06543
G1 X59.144 Y162.486 E.06288
G1 X59.422 Y160.348 E.06288
G1 X60.281 Y158.275 E.06542
G1 X61.596 Y156.566 E.06288
G1 X63.305 Y155.25 E.0629
G1 X65.322 Y154.407 E.06375
G1 X65.829 Y154.334 E.01492
G1 X65.889 Y154.355 E.00185
G1 X65.527 Y154.785 F10800
G1 F1200
G1 X65.58 Y154.881 E.00321
G1 X65.58 Y160.986 E.178
G1 X65.627 Y161.524 E.01577
G1 X65.768 Y162.096 E.01715
G1 X66.045 Y162.709 E.01964
G1 X66.33 Y163.127 E.01474
G1 X66.738 Y163.557 E.01727
G1 X67.151 Y163.87 E.01513
G1 X67.665 Y164.142 E.01694
G1 X68.203 Y164.317 E.01649
G1 X69.021 Y164.42 E.02406
G1 X75.122 Y164.42 E.1779
G1 X75.214 Y164.467 E.00301
G1 X75.227 Y164.576 E.0032
G1 X74.458 Y166.444 E.05891
G1 X73.197 Y168.106 E.06082
G1 X71.499 Y169.413 E.06249
G1 X69.543 Y170.215 E.06165
G1 X67.531 Y170.477 E.05916
G1 X65.491 Y170.215 E.05997
G1 X63.484 Y169.384 E.06336
G1 X61.856 Y168.126 E.05998
G1 X60.619 Y166.519 E.05913
G1 X59.788 Y164.512 E.06336
G1 X59.526 Y162.501 E.05913
G1 X59.788 Y160.461 E.05997
G1 X60.619 Y158.454 E.06335
G1 X61.877 Y156.826 E.05997
G1 X63.485 Y155.588 E.05917
G1 X65.424 Y154.777 E.06129
G1 X65.487 Y154.782 E.00185
G1 X65.149 Y155.352 F10800
G1 F1200
G1 X65.203 Y155.448 E.00321
G1 X65.203 Y160.981 E.16134
G1 X65.25 Y161.549 E.01661
G1 X65.399 Y162.177 E.01883
G1 X65.698 Y162.857 E.02165
G1 X66.015 Y163.333 E.01667
G1 X66.458 Y163.81 E.01899
G1 X66.983 Y164.208 E.01922
G1 X67.481 Y164.471 E.01641
G1 X68.076 Y164.673 E.01834
G1 X68.968 Y164.793 E.02623
G1 X74.559 Y164.797 E.16304
G1 X74.651 Y164.844 E.00301
G1 X74.664 Y164.953 E.0032
G1 X74.119 Y166.267 E.04147
G1 X72.915 Y167.847 E.05792
G1 X71.321 Y169.074 E.05866
G1 X69.459 Y169.842 E.05873
G1 X67.545 Y170.095 E.05629
G1 X65.604 Y169.85 E.05706
G1 X63.662 Y169.046 E.06128
G1 X62.137 Y167.866 E.05622
G1 X60.958 Y166.341 E.05623
G1 X60.161 Y164.428 E.06043
G1 X59.909 Y162.515 E.05625
G1 X60.153 Y160.574 E.05706
G1 X60.943 Y158.658 E.06041
G1 X62.157 Y157.087 E.05792
G1 X63.689 Y155.911 E.05631
G1 X65.046 Y155.343 E.0429
G1 X65.11 Y155.348 E.00185
G1 X64.772 Y155.918 F10800
G1 F1200
G1 X64.826 Y156.014 E.00321
G1 X64.826 Y160.976 E.14467
G1 X64.885 Y161.644 E.01955
G1 X65.03 Y162.254 E.01829
G1 X65.389 Y163.073 E.02608
G1 X65.744 Y163.596 E.01843
G1 X66.175 Y164.059 E.01845
G1 X66.815 Y164.545 E.02342
G1 X67.368 Y164.831 E.01815
G1 X67.946 Y165.026 E.01779
G1 X68.911 Y165.166 E.02843
G1 X73.995 Y165.174 E.14826
G1 X74.087 Y165.221 E.00301
G1 X74.099 Y165.33 E.0032
G1 X73.781 Y166.089 E.024
G1 X72.654 Y167.567 E.05418
G1 X71.117 Y168.75 E.05659
G1 X69.346 Y169.477 E.0558
G1 X67.53 Y169.713 E.05342
G1 X65.687 Y169.476 E.05416
G1 X63.841 Y168.707 E.05831
G1 X62.397 Y167.586 E.05332
G1 X61.281 Y166.136 E.05336
G1 X60.526 Y164.314 E.0575
G1 X60.291 Y162.499 E.05335
G1 X60.527 Y160.657 E.05417
G1 X61.266 Y158.863 E.05658
G1 X62.416 Y157.368 E.05501
G1 X63.868 Y156.249 E.05344
G1 X64.669 Y155.91 E.02537
G1 X64.732 Y155.915 E.00185
G1 X64.395 Y156.487 F10800
G1 F1200
G1 X64.449 Y156.584 E.00323
G1 X64.449 Y160.971 E.12794
G1 X64.509 Y161.669 E.02044
G1 X64.661 Y162.331 E.01981
G1 X65.083 Y163.293 E.03062
G1 X65.474 Y163.859 E.02005
G1 X65.893 Y164.309 E.01793
G1 X66.651 Y164.885 E.02775
G1 X67.188 Y165.162 E.01762
G1 X67.816 Y165.38 E.01938
G1 X68.849 Y165.538 E.03048
G1 X73.428 Y165.55 E.13352
G1 X73.52 Y165.597 E.00301
G1 X73.532 Y165.707 E.00321
G1 X73.443 Y165.91 E.00647
G1 X72.394 Y167.286 E.05046
G1 X70.913 Y168.427 E.0545
G1 X69.234 Y169.111 E.05286
G1 X67.515 Y169.33 E.05054
G1 X65.771 Y169.103 E.05127
G1 X64.021 Y168.369 E.05535
G1 X62.657 Y167.306 E.05041
G1 X61.604 Y165.932 E.0505
G1 X60.892 Y164.201 E.05457
G1 X60.673 Y162.485 E.05045
G1 X60.9 Y160.74 E.05129
G1 X61.59 Y159.067 E.05278
G1 X62.676 Y157.648 E.05211
G1 X64.048 Y156.586 E.05058
G1 X64.292 Y156.479 E.00775
G1 X64.355 Y156.484 E.00185
G1 X63.991 Y157.167 F10800
G1 F1200
G1 X64.072 Y157.276 E.00394
G1 X64.072 Y160.966 E.10762
G1 X64.133 Y161.694 E.0213
G1 X64.291 Y162.406 E.02126
G1 X64.779 Y163.516 E.03537
G1 X65.159 Y164.067 E.01951
G1 X65.61 Y164.559 E.01947
G1 X66.486 Y165.224 E.03207
G1 X67.071 Y165.521 E.01912
G1 X67.682 Y165.733 E.01887
G1 X68.785 Y165.909 E.03255
G1 X72.729 Y165.925 E.11503
G1 X72.821 Y165.973 E.00301
G1 X72.819 Y166.107 E.00391
G1 X72.133 Y167.006 E.03297
G1 X70.735 Y168.087 E.05153
G1 X69.123 Y168.745 E.05078
G1 X67.501 Y168.948 E.04766
G1 X65.886 Y168.737 E.0475
G1 X64.201 Y168.032 E.05326
G1 X62.919 Y167.027 E.0475
G1 X61.943 Y165.754 E.04677
G1 X61.258 Y164.089 E.05251
M73 P1 R63
G1 X61.055 Y162.471 E.04755
G1 X61.266 Y160.853 E.04757
G1 X61.914 Y159.27 E.04987
G1 X62.937 Y157.928 E.04922
G1 X63.89 Y157.186 E.0352
G1 X63.952 Y157.175 E.00185
G1 X63.614 Y157.939 F10800
G1 F1200
G1 X63.695 Y158.047 E.00395
G1 X63.695 Y160.962 E.08499
G1 X63.756 Y161.718 E.02214
G1 X63.921 Y162.477 E.02264
G1 X64.475 Y163.74 E.0402
G1 X64.845 Y164.275 E.01898
G1 X65.326 Y164.807 E.02091
G1 X66.251 Y165.519 E.03403
G1 X66.895 Y165.854 E.02117
G1 X67.55 Y166.086 E.02027
G1 X68.717 Y166.28 E.0345
G1 X71.97 Y166.299 E.09487
G1 X72.062 Y166.347 E.00301
G1 X72.06 Y166.481 E.00391
G1 X71.852 Y166.747 E.00985
G1 X70.531 Y167.763 E.04859
G1 X69.04 Y168.372 E.04695
G1 X67.516 Y168.566 E.0448
G1 X65.971 Y168.364 E.04546
G1 X64.408 Y167.709 E.04942
G1 X63.18 Y166.748 E.04546
G1 X62.267 Y165.55 E.04392
G1 X61.631 Y164.006 E.0487
G1 X61.437 Y162.457 E.04551
G1 X61.639 Y160.937 E.04472
G1 X62.238 Y159.473 E.04612
G1 X63.219 Y158.186 E.04718
G1 X63.512 Y157.958 E.01084
G1 X63.574 Y157.946 E.00185
G1 E-.56 F1800
;WIPE_START
G1 F1200
G1 X63.695 Y158.047 E-.03771
G1 X63.695 Y158.89 E-.20229
;WIPE_END
G1 Z.6 F720
G1 X63.208 Y158.901 Z.6 F10800
G1 Z.2 F720
G1 E.8 F1800
G1 F1200
G1 X63.298 Y158.951 E.00301
G1 X63.318 Y159.014 E.00193
G1 X63.318 Y160.957 E.05667
G1 X63.38 Y161.742 E.02295
G1 X63.55 Y162.547 E.02399
G1 X64.126 Y163.882 E.04241
G1 X64.531 Y164.484 E.02116
G1 X65.04 Y165.053 E.02225
G1 X66.013 Y165.812 E.03599
G1 X66.714 Y166.185 E.02314
G1 X67.497 Y166.46 E.02421
G1 X68.723 Y166.657 E.03621
G1 X71.001 Y166.671 E.06642
G1 X71.093 Y166.718 E.00301
G1 X71.107 Y166.821 E.00301
G1 X71.069 Y166.873 E.00189
G1 X70.327 Y167.439 E.02721
G1 X68.957 Y167.998 E.04315
G1 X67.502 Y168.184 E.04277
G1 X66.056 Y167.991 E.04256
G1 X64.614 Y167.387 E.04558
G1 X63.442 Y166.47 E.0434
G1 X62.591 Y165.347 E.04106
G1 X62.005 Y163.923 E.04492
G1 X61.819 Y162.473 E.04261
G1 X62.005 Y161.049 E.04187
G1 X62.563 Y159.676 E.04323
G1 X63.115 Y158.945 E.0267
G1 X63.172 Y158.918 E.00185
G1 E-.56 F1800
;WIPE_START
G1 F1200
G1 X63.298 Y158.951 E-.03139
G1 X63.318 Y159.014 E-.01585
G1 X63.318 Y159.817 E-.19277
;WIPE_END
G1 Z.6 F720
G1 X62.853 Y160.229 Z.6 F10800
G1 Z.2 F720
G1 E.8 F1800
G1 F1200
G1 X62.902 Y160.241 E.00147
G1 X62.941 Y160.326 E.00274
G1 X62.941 Y160.953 E.01826
G1 X63.012 Y161.826 E.02556
G1 X63.208 Y162.706 E.02626
G1 X63.819 Y164.101 E.04442
G1 X64.255 Y164.741 E.02258
G1 X64.816 Y165.356 E.02427
G1 X65.844 Y166.149 E.03788
G1 X66.597 Y166.544 E.02478
G1 X67.363 Y166.812 E.02368
G1 X68.655 Y167.028 E.0382
G1 X69.731 Y167.04 E.03138
G1 X69.823 Y167.089 E.00301
G1 X69.837 Y167.191 E.00301
G1 X69.773 Y167.258 E.00271
G1 X68.846 Y167.632 E.02915
G1 X67.518 Y167.802 E.03903
G1 X66.17 Y167.626 E.03964
G1 X64.821 Y167.065 E.04262
G1 X63.704 Y166.191 E.04134
G1 X62.916 Y165.145 E.0382
G1 X62.371 Y163.81 E.04203
G1 X62.201 Y162.488 E.03887
G1 X62.37 Y161.161 E.03902
G1 X62.723 Y160.284 E.02756
G1 X62.801 Y160.216 E.00301
G1 X62.814 Y160.219 E.00038
G1 E-.56 F1800
;WIPE_START
G1 F1200
G1 X62.902 Y160.241 E-.02169
G1 X62.941 Y160.326 E-.02257
G1 X62.941 Y160.953 E-.15033
G1 X62.956 Y161.141 E-.04541
;WIPE_END
G1 Z.6 F720
G1 X62.764 Y162.737 Z.6 F10800
G1 Z.2 F720
G1 E.8 F1800
G1 F1200
G1 X62.849 Y162.813 E.00332
G1 X63.513 Y164.322 E.04807
G1 X63.981 Y165.001 E.02406
G1 X64.53 Y165.603 E.02375
G1 X65.678 Y166.488 E.04226
G1 X66.415 Y166.874 E.02426
G1 X67.2 Y167.155 E.0243
G1 X67.27 Y167.23 E.00301
G1 X67.25 Y167.331 E.00301
G1 X67.147 Y167.373 E.00325
G1 X66.284 Y167.26 E.02539
G1 X65.027 Y166.742 E.03964
G1 X63.966 Y165.913 E.03925
G1 X63.241 Y164.944 E.0353
G1 X62.744 Y163.727 E.03831
G1 X62.629 Y162.862 E.02544
G1 X62.664 Y162.765 E.00301
G1 X62.725 Y162.748 E.00185
G1 E-.56 F1800
;WIPE_START
G1 F1200
G1 X62.849 Y162.813 E-.0335
G1 X63.195 Y163.6 E-.2065
;WIPE_END
G1 Z.6 F720
G1 X173.456 Y163.288 Z.6 F10800
G1 Z.2 F720
G1 E.8 F1800
G1 F1200
G1 X181.094 Y163.286 E.22273
G1 X181.477 Y163.238 E.01126
G1 X181.806 Y163.141 E.01
G1 X182.16 Y162.972 E.01144
G1 X182.481 Y162.743 E.0115
G1 X182.767 Y162.453 E.01188
G1 X183.039 Y162.036 E.01452
G1 X183.204 Y161.614 E.01321
G1 X183.281 Y161.181 E.01282
G1 X183.288 Y153.452 E.22537
G1 X184.851 Y153.658 E.04597
G1 X187.055 Y154.571 E.06955
G1 X188.947 Y156.023 E.06955
G1 X190.399 Y157.915 E.06955
G1 X191.312 Y160.119 E.06955
G1 X191.623 Y162.483 E.06955
G1 X191.312 Y164.848 E.06955
G1 X190.399 Y167.052 E.06955
G1 X188.947 Y168.944 E.06955
G1 X187.055 Y170.396 E.06955
G1 X184.851 Y171.309 E.06955
G1 X182.486 Y171.62 E.06955
G1 X180.122 Y171.309 E.06955
G1 X177.918 Y170.396 E.06955
G1 X176.026 Y168.944 E.06955
G1 X174.574 Y167.052 E.06955
G1 X173.661 Y164.848 E.06955
G1 X173.461 Y163.328 E.04471
G1 X173.937 Y163.696 F10800
G1 F1200
G1 X174.014 Y163.665 E.00242
G1 X181.148 Y163.66 E.208
G1 X181.59 Y163.597 E.01303
G1 X181.975 Y163.478 E.01175
G1 X182.385 Y163.275 E.01334
G1 X182.756 Y163.002 E.01343
G1 X183.087 Y162.651 E.01406
G1 X183.395 Y162.163 E.01683
G1 X183.551 Y161.76 E.0126
G1 X183.65 Y161.256 E.01498
G1 X183.665 Y154.011 E.21126
G1 X183.712 Y153.919 E.00301
G1 X183.793 Y153.899 E.00242
G1 X184.738 Y154.023 E.0278
G1 X186.877 Y154.909 E.06749
G1 X188.666 Y156.283 E.06579
G1 X190.061 Y158.093 E.06664
G1 X190.947 Y160.232 E.06749
G1 X191.241 Y162.469 E.06579
G1 X190.947 Y164.735 E.06664
G1 X190.061 Y166.873 E.06749
G1 X188.666 Y168.684 E.06664
G1 X186.877 Y170.058 E.06579
G1 X184.738 Y170.943 E.06749
G1 X182.501 Y171.238 E.06579
G1 X180.235 Y170.943 E.06664
G1 X178.122 Y170.072 E.06664
G1 X176.286 Y168.663 E.06749
G1 X174.897 Y166.848 E.06664
G1 X174.034 Y164.763 E.06579
G1 X173.902 Y163.793 E.02855
G1 X173.924 Y163.734 E.00185
G1 X174.369 Y164.073 F10800
G1 F1200
G1 X174.446 Y164.042 E.00243
G1 X181.208 Y164.032 E.19716
G1 X181.709 Y163.955 E.01479
G1 X182.15 Y163.812 E.01351
G1 X182.615 Y163.573 E.01525
G1 X183.036 Y163.255 E.01539
G1 X183.412 Y162.844 E.01625
G1 X183.709 Y162.372 E.01625
G1 X183.9 Y161.904 E.01472
