; HEADER_BLOCK_START
; generated by OrcaSlicer 2.0.0 on 2024-06-17 at 21:31:48
; total layer number: 33
; filament_density: 1.04
; filament_diameter: 1.75
; max_z_height: 8.25
; HEADER_BLOCK_END

; THUMBNAIL_BLOCK_START

;
; THUMBNAIL_BLOCK_END

; external perimeters extrusion width = 0.45mm
; perimeters extrusion width = 0.45mm
; infill extrusion width = 0.45mm
; solid infill extrusion width = 0.45mm
; top infill extrusion width = 0.40mm
; first layer extrusion width = 0.42mm

; EXECUTABLE_BLOCK_START
M73 P0 R60
M201 X2000 Y2000 Z300 E5000
M203 X200 Y200 Z12 E120
M204 P2000 R2500 T2000
M205 X9.00 Y9.00 Z0.20 E2.50 ; sets the jerk limits, mm/sec
;TYPE:Custom
M862.3 P "MK3S" ; printer model check
M862.1 P0.4 ; nozzle diameter check
M115 U3.13.0 ; tell printer latest fw version
G90 ; use absolute coordinates
M83 ; extruder relative mode
M104 S260 ; set extruder temp
M140 S105 ; set bed temp
M190 S105 ; wait for bed temp
M109 S260 ; wait for extruder temp
G28 W ; home all without mesh bed level
G80 ; mesh bed leveling

G1 Z0.2 F720
G1 Y-3 F1000 ; go outside print area
G92 E0
G1 X60 E9 F1000 ; intro line
G1 X100 E12.5 F1000 ; intro line

G92 E0
M221 S95
G90
G21
M83 ; use relative distances for extrusion
; Filament gcode
M900 K0.04 ; Filament gcode LA 1.5
M900 K20 ; Filament gcode LA 1.0
M106 S0
;LAYER_CHANGE
;Z:0.25
;HEIGHT:0.25
;BEFORE_LAYER_CHANGE
;0.25
G92 E0

G1 E-.8 F1800
;AFTER_LAYER_CHANGE
;0.25
;_SET_FAN_SPEED_CHANGING_LAYER
M204 S800
G1 Z.4 F720
G1 X57.791 Y41.547 F10800
G1 Z.4 F720
G1 Z.25
G1 E.8 F1800
;TYPE:Skirt
;WIDTH:0.42
G1 F3000
G1 X59.231 Y39.671 E.08374
G1 X59.668 Y39.234 E.02188
G1 X61.544 Y37.794 E.08374
G1 X62.079 Y37.485 E.02188
G1 X64.263 Y36.58 E.08374
G1 X64.86 Y36.42 E.02188
G1 X67.501 Y36.092 E.09423
G1 X181.311 Y35.495 E4.03033
G1 X183.656 Y35.804 E.08374
G1 X184.252 Y35.964 E.02188
G1 X186.437 Y36.869 E.08374
G1 X186.972 Y37.178 E.02188
G1 X188.848 Y38.617 E.08374
G1 X191.179 Y40.919 E.116
G1 X192.822 Y43.028 E.09468
G1 X193.131 Y43.563 E.02188
G1 X194.036 Y45.748 E.08374
G1 X194.196 Y46.344 E.02188
G1 X194.505 Y48.689 E.08374
G1 X193.911 Y162.496 E4.03022
G1 X193.583 Y165.137 E.09423
G1 X193.423 Y165.733 E.02188
G1 X192.518 Y167.918 E.08374
G1 X192.209 Y168.453 E.02188
G1 X190.769 Y170.329 E.08374
G1 X190.332 Y170.766 E.02188
G1 X188.456 Y172.206 E.08374
G1 X187.921 Y172.515 E.02188
G1 X185.737 Y173.42 E.08374
G1 X185.14 Y173.58 E.02188
G1 X182.487 Y173.908 E.09468
G1 X67.517 Y173.912 E4.07133
G1 X64.863 Y173.583 E.09469
G1 X64.267 Y173.423 E.02188
G1 X62.082 Y172.518 E.08374
G1 X61.547 Y172.209 E.02188
G1 X59.671 Y170.769 E.08374
G1 X59.234 Y170.332 E.02188
G1 X57.794 Y168.456 E.08374
G1 X57.485 Y167.921 E.02188
G1 X56.58 Y165.737 E.08374
G1 X56.42 Y165.14 E.02188
G1 X56.092 Y162.487 E.09468
G1 X56.088 Y47.517 E4.07133
G1 X56.417 Y44.863 E.09469
G1 X56.577 Y44.267 E.02188
G1 X57.482 Y42.082 E.08374
G1 X57.771 Y41.581 E.02046
; printing object Lid.stl id:2816 copy 0
G1 E-.56 F1800
;WIPE_START
G1 F3000
G1 X58.378 Y40.787 E-.24
;WIPE_END
G1 Z.65 F720
G1 X66.717 Y153.718 Z.65 F10800
G1 Z.25 F720
G1 E.8 F1800
;TYPE:Brim
G1 F1200
G1 X66.717 Y161 E.25788
G1 X66.749 Y161.378 E.01345
G1 X66.849 Y161.763 E.01409
G1 X67.014 Y162.125 E.01409
G1 X67.24 Y162.453 E.01409
G1 X67.519 Y162.737 E.01409
G1 X67.789 Y162.935 E.01187
G1 X68.143 Y163.116 E.01409
G1 X68.493 Y163.225 E.01296
G1 X69 Y163.283 E.01808
G1 X76.286 Y163.283 E.258
G1 X76.088 Y164.783 E.05358
G1 X75.202 Y166.923 E.08203
G1 X73.791 Y168.761 E.08203
G1 X71.954 Y170.172 E.08203
G1 X69.813 Y171.058 E.08203
G1 X67.517 Y171.36 E.08203
G1 X65.22 Y171.058 E.08203
G1 X63.08 Y170.172 E.08203
G1 X61.242 Y168.761 E.08203
G1 X59.832 Y166.923 E.08203
G1 X58.945 Y164.783 E.08203
G1 X58.643 Y162.486 E.08203
G1 X58.945 Y160.19 E.08203
G1 X59.832 Y158.049 E.08203
G1 X61.242 Y156.212 E.08203
G1 X63.08 Y154.801 E.08203
G1 X65.22 Y153.915 E.08203
G1 X66.677 Y153.723 E.05205
G1 X66.322 Y154.187 F10800
G1 F1200
G1 X66.35 Y154.261 E.00281
G1 X66.35 Y160.996 E.23849
G1 X66.383 Y161.401 E.01441
G1 X66.492 Y161.848 E.01627
G1 X66.678 Y162.27 E.01634
G1 X66.934 Y162.654 E.01634
G1 X67.253 Y162.988 E.01637
G1 X67.567 Y163.226 E.01394
G1 X67.97 Y163.438 E.01615
G1 X68.374 Y163.572 E.01507
G1 X69.007 Y163.65 E.02257
G1 X75.743 Y163.65 E.23854
G1 X75.833 Y163.697 E.00361
G1 X75.852 Y163.774 E.00281
G1 X75.726 Y164.701 E.03313
G1 X74.887 Y166.725 E.07759
G1 X73.539 Y168.489 E.0786
G1 X71.756 Y169.857 E.07961
G1 X69.703 Y170.703 E.0786
G1 X67.531 Y170.989 E.07759
G1 X65.33 Y170.703 E.0786
G1 X63.253 Y169.843 E.07961
G1 X61.515 Y168.509 E.07759
G1 X60.16 Y166.75 E.0786
G1 X59.3 Y164.673 E.07961
G1 X59.014 Y162.501 E.07759
G1 X59.3 Y160.3 E.0786
G1 X60.16 Y158.223 E.07961
G1 X61.494 Y156.484 E.07759
G1 X63.253 Y155.13 E.0786
G1 X65.302 Y154.277 E.0786
G1 X66.226 Y154.152 E.03302
G1 X66.284 Y154.173 E.00219
G1 X65.955 Y154.606 F10800
G1 F1200
G1 X65.984 Y154.68 E.00282
G1 X65.984 Y160.991 E.22346
G1 X66.029 Y161.495 E.01795
G1 X66.16 Y162.003 E.01856
G1 X66.339 Y162.409 E.01571
G1 X66.624 Y162.85 E.01859
G1 X67.038 Y163.285 E.02129
G1 X67.403 Y163.553 E.01601
G1 X67.862 Y163.788 E.01828
G1 X68.339 Y163.937 E.01769
G1 X69.013 Y164.016 E.02403
G1 X75.323 Y164.016 E.22345
G1 X75.413 Y164.063 E.00361
G1 X75.432 Y164.141 E.00282
G1 X75.364 Y164.618 E.01707
G1 X74.573 Y166.528 E.0732
G1 X73.286 Y168.216 E.07516
G1 X71.583 Y169.528 E.07615
G1 X69.594 Y170.348 E.07618
G1 X67.516 Y170.618 E.07418
G1 X65.44 Y170.348 E.07416
G1 X63.426 Y169.514 E.07717
G1 X61.767 Y168.236 E.07417
G1 X60.489 Y166.577 E.07416
G1 X59.655 Y164.563 E.07717
G1 X59.385 Y162.486 E.07417
G1 X59.655 Y160.409 E.07416
G1 X60.489 Y158.396 E.07717
G1 X61.767 Y156.737 E.07417
G1 X63.427 Y155.459 E.07418
G1 X65.386 Y154.639 E.07519
G1 X65.859 Y154.571 E.01695
G1 X65.918 Y154.592 E.00219
G1 X65.567 Y155.012 F10800
G1 F1200
G1 X65.618 Y155.104 E.00374
G1 X65.618 Y160.986 E.20827
G1 X65.664 Y161.52 E.01898
G1 X65.804 Y162.087 E.02069
G1 X66 Y162.549 E.01778
G1 X66.311 Y163.041 E.0206
G1 X66.829 Y163.586 E.02661
G1 X67.243 Y163.883 E.01804
G1 X67.761 Y164.141 E.0205
G1 X68.306 Y164.302 E.0201
G1 X69.019 Y164.382 E.02544
G1 X74.9 Y164.382 E.20826
G1 X74.99 Y164.429 E.00361
G1 X75.002 Y164.534 E.00373
G1 X74.258 Y166.33 E.06884
G1 X73.033 Y167.944 E.07173
G1 X71.384 Y169.214 E.0737
G1 X69.484 Y169.993 E.07271
G1 X67.531 Y170.246 E.06977
G1 X65.549 Y169.993 E.07073
G1 X63.6 Y169.185 E.07473
G1 X62.039 Y167.983 E.06974
G1 X60.818 Y166.403 E.07073
G1 X60.01 Y164.453 E.07473
G1 X59.757 Y162.5 E.06974
G1 X60.01 Y160.519 E.07073
G1 X60.818 Y158.57 E.07473
G1 X62.04 Y156.989 E.07074
G1 X63.601 Y155.787 E.06978
G1 X65.465 Y155.003 E.07163
G1 X65.527 Y155.008 E.00219
G1 X65.2 Y155.563 F10800
G1 F1200
G1 X65.251 Y155.656 E.00375
G1 X65.251 Y160.981 E.18859
G1 X65.298 Y161.544 E.01997
G1 X65.446 Y162.167 E.02269
G1 X65.695 Y162.752 E.02251
G1 X66.052 Y163.3 E.02318
G1 X66.556 Y163.831 E.0259
G1 X67.088 Y164.215 E.02324
G1 X67.59 Y164.465 E.01986
G1 X68.193 Y164.65 E.02235
G1 X68.973 Y164.746 E.0278
G1 X74.352 Y164.749 E.1905
G1 X74.442 Y164.796 E.00361
G1 X74.454 Y164.901 E.00373
G1 X73.929 Y166.158 E.04824
G1 X72.759 Y167.692 E.06833
G1 X71.211 Y168.884 E.06919
G1 X69.403 Y169.63 E.06927
G1 X67.544 Y169.875 E.06639
G1 X65.659 Y169.637 E.06729
G1 X63.773 Y168.856 E.07228
G1 X62.292 Y167.711 E.06632
G1 X61.147 Y166.229 E.0663
G1 X60.373 Y164.372 E.07127
G1 X60.128 Y162.514 E.06635
G1 X60.366 Y160.629 E.06729
G1 X61.132 Y158.768 E.07125
G1 X62.312 Y157.242 E.06832
G1 X63.8 Y156.101 E.06641
G1 X65.099 Y155.555 E.0499
G1 X65.161 Y155.56 E.00219
G1 X64.834 Y156.115 F10800
G1 F1200
G1 X64.885 Y156.207 E.00375
G1 X64.885 Y160.977 E.16889
G1 X64.944 Y161.636 E.02345
G1 X65.088 Y162.243 E.02208
G1 X65.393 Y162.96 E.0276
G1 X65.793 Y163.559 E.02553
G1 X66.283 Y164.076 E.0252
G1 X66.933 Y164.547 E.02841
G1 X67.49 Y164.817 E.02195
G1 X68.077 Y164.998 E.02173
G1 X68.922 Y165.108 E.03019
G1 X73.802 Y165.115 E.17282
G1 X73.893 Y165.162 E.00361
G1 X73.904 Y165.267 E.00374
G1 X73.6 Y165.984 E.02758
G1 X72.506 Y167.42 E.06392
G1 X71.013 Y168.57 E.06674
G1 X69.293 Y169.275 E.06582
G1 X67.529 Y169.504 E.063
G1 X65.74 Y169.274 E.06388
G1 X63.947 Y168.528 E.06878
G1 X62.544 Y167.439 E.06289
G1 X61.461 Y166.03 E.06293
G1 X60.728 Y164.261 E.06781
G1 X60.499 Y162.499 E.06292
G1 X60.729 Y160.71 E.06389
G1 X61.446 Y158.967 E.06673
G1 X62.564 Y157.515 E.06489
G1 X63.974 Y156.429 E.06304
G1 X64.733 Y156.106 E.02919
G1 X64.794 Y156.111 E.00219
G1 X64.467 Y156.668 F10800
G1 F1200
G1 X64.519 Y156.761 E.00377
G1 X64.519 Y160.972 E.1491
G1 X64.578 Y161.661 E.0245
G1 X64.729 Y162.319 E.0239
G1 X65.094 Y163.171 E.03284
G1 X65.484 Y163.755 E.02485
G1 X66.011 Y164.321 E.02739
G1 X66.782 Y164.881 E.03373
G1 X67.323 Y165.143 E.02132
G1 X67.961 Y165.345 E.02368
G1 X68.868 Y165.471 E.03243
G1 X73.25 Y165.48 E.15518
G1 X73.34 Y165.528 E.00361
G1 X73.351 Y165.633 E.00375
G1 X73.273 Y165.81 E.00686
G1 X72.253 Y167.148 E.05956
G1 X70.815 Y168.255 E.06428
G1 X69.184 Y168.92 E.06235
G1 X67.515 Y169.133 E.0596
G1 X65.822 Y168.912 E.06046
G1 X64.121 Y168.199 E.06529
G1 X62.797 Y167.167 E.05946
G1 X61.775 Y165.832 E.05955
G1 X61.083 Y164.151 E.06436
G1 X60.87 Y162.485 E.0595
G1 X61.091 Y160.791 E.06049
G1 X61.761 Y159.165 E.06225
G1 X62.816 Y157.787 E.06147
G1 X64.15 Y156.756 E.05969
G1 X64.366 Y156.66 E.00838
G1 X64.427 Y156.665 E.00219
G1 X64.075 Y157.336 F10800
G1 F1200
G1 X64.152 Y157.441 E.00461
G1 X64.152 Y160.967 E.12487
G1 X64.212 Y161.685 E.02551
M73 P1 R60
G1 X64.37 Y162.392 E.02563
G1 X64.795 Y163.383 E.03818
G1 X65.221 Y164.011 E.02691
G1 X65.736 Y164.563 E.02672
G1 X66.63 Y165.215 E.03919
G1 X67.22 Y165.495 E.02312
G1 X67.842 Y165.692 E.02309
G1 X68.811 Y165.833 E.03468
G1 X72.564 Y165.845 E.13289
G1 X72.654 Y165.893 E.00361
G1 X72.651 Y166.022 E.00457
G1 X72 Y166.875 E.03802
G1 X70.642 Y167.926 E.06078
G1 X69.076 Y168.564 E.05989
G1 X67.501 Y168.762 E.05621
G1 X65.933 Y168.557 E.05602
G1 X64.297 Y167.871 E.06282
G1 X63.051 Y166.896 E.05602
G1 X62.104 Y165.659 E.05515
G1 X61.438 Y164.042 E.06192
G1 X61.241 Y162.471 E.05608
G1 X61.447 Y160.9 E.0561
G1 X62.076 Y159.363 E.05882
G1 X63.07 Y158.059 E.05805
G1 X63.975 Y157.354 E.04065
G1 X64.036 Y157.343 E.00219
G1 X63.709 Y158.086 F10800
G1 F1200
G1 X63.786 Y158.191 E.00462
G1 X63.786 Y160.963 E.09816
G1 X63.847 Y161.709 E.0265
G1 X64.011 Y162.462 E.0273
G1 X64.498 Y163.597 E.04374
G1 X64.914 Y164.21 E.02625
G1 X65.462 Y164.806 E.02865
G1 X66.407 Y165.505 E.04165
G1 X67.057 Y165.823 E.02561
G1 X67.723 Y166.039 E.0248
G1 X68.751 Y166.194 E.03681
G1 X71.826 Y166.209 E.10889
G1 X71.916 Y166.257 E.00361
G1 X71.913 Y166.386 E.00457
G1 X71.726 Y166.624 E.01072
G1 X70.444 Y167.611 E.0573
G1 X68.996 Y168.201 E.05537
G1 X67.516 Y168.391 E.05283
G1 X66.015 Y168.194 E.05361
G1 X64.497 Y167.558 E.05828
G1 X63.305 Y166.625 E.05361
G1 X62.419 Y165.461 E.05179
G1 X61.801 Y163.962 E.05743
G1 X61.613 Y162.458 E.05366
G1 X61.809 Y160.982 E.05274
G1 X62.391 Y159.56 E.05439
G1 X63.343 Y158.311 E.05564
G1 X63.609 Y158.104 E.0119
G1 X63.669 Y158.093 E.00219
G1 E-.56 F1800
;WIPE_START
G1 F1200
G1 X63.786 Y158.191 E-.03653
G1 X63.786 Y159.039 E-.20347
;WIPE_END
G1 Z.65 F720
G1 X63.315 Y159.031 Z.65 F10800
G1 Z.25 F720
G1 E.8 F1800
G1 F1200
G1 X63.403 Y159.082 E.00361
G1 X63.42 Y159.14 E.00217
G1 X63.42 Y160.958 E.06438
G1 X63.481 Y161.731 E.02746
G1 X63.651 Y162.53 E.02891
G1 X64.157 Y163.732 E.04619
G1 X64.649 Y164.464 E.03124
G1 X65.251 Y165.106 E.03116
G1 X66.255 Y165.839 E.044
G1 X66.889 Y166.149 E.025
G1 X67.602 Y166.384 E.0266
G1 X68.757 Y166.56 E.04137
G1 X70.872 Y166.571 E.0749
G1 X70.962 Y166.618 E.00361
G1 X70.975 Y166.719 E.00361
G1 X70.939 Y166.768 E.00213
G1 X70.246 Y167.296 E.03085
G1 X68.915 Y167.839 E.05088
G1 X67.503 Y168.019 E.05043
G1 X66.098 Y167.832 E.05019
G1 X64.698 Y167.245 E.05375
G1 X63.56 Y166.354 E.05119
G1 X62.734 Y165.264 E.04842
G1 X62.164 Y163.881 E.05297
G1 X61.984 Y162.474 E.05025
G1 X62.164 Y161.091 E.04938
G1 X62.706 Y159.757 E.05098
G1 X63.222 Y159.074 E.03033
G1 X63.278 Y159.047 E.00219
G1 E-.56 F1800
;WIPE_START
G1 F1200
G1 X63.403 Y159.082 E-.03094
G1 X63.42 Y159.14 E-.01468
G1 X63.42 Y159.95 E-.19438
;WIPE_END
G1 Z.65 F720
G1 X62.936 Y160.335 Z.65 F10800
G1 Z.25 F720
G1 E.8 F1800
G1 F1200
G1 X63.018 Y160.357 E.003
G1 X63.053 Y160.438 E.00314
G1 X63.053 Y160.954 E.01827
G1 X63.115 Y161.754 E.0284
G1 X63.29 Y162.597 E.03048
G1 X63.816 Y163.865 E.04863
G1 X64.341 Y164.662 E.0338
G1 X64.978 Y165.35 E.03318
G1 X66.032 Y166.129 E.04642
G1 X66.781 Y166.499 E.02959
G1 X67.556 Y166.748 E.02882
G1 X68.694 Y166.921 E.04079
G1 X69.611 Y166.931 E.03247
G1 X69.701 Y166.979 E.00361
G1 X69.713 Y167.08 E.00361
G1 X69.652 Y167.143 E.00309
G1 X68.807 Y167.483 E.03224
G1 X67.518 Y167.648 E.04602
G1 X66.209 Y167.477 E.04675
G1 X64.899 Y166.932 E.05026
G1 X63.814 Y166.084 E.04875
G1 X63.049 Y165.068 E.04504
G1 X62.52 Y163.772 E.04956
G1 X62.355 Y162.488 E.04584
G1 X62.519 Y161.199 E.04601
G1 X62.842 Y160.397 E.03061
G1 X62.902 Y160.346 E.00279
G1 E-.56 F1800
;WIPE_START
G1 F1200
G1 X63.018 Y160.357 E-.02795
G1 X63.053 Y160.438 E-.02125
G1 X63.053 Y160.954 E-.12381
G1 X63.075 Y161.232 E-.06699
;WIPE_END
G1 Z.65 F720
G1 X62.907 Y162.749 Z.65 F10800
G1 Z.25 F720
G1 E.8 F1800
G1 F1200
G1 X62.984 Y162.814 E.00356
G1 X63.473 Y163.996 E.0453
G1 X64.031 Y164.856 E.0363
G1 X64.768 Y165.65 E.03835
G1 X65.878 Y166.462 E.0487
G1 X66.612 Y166.824 E.02899
G1 X67.194 Y167.016 E.02171
G1 X67.265 Y167.09 E.00361
G1 X67.245 Y167.189 E.00361
G1 X67.145 Y167.23 E.00382
G1 X66.319 Y167.122 E.0295
G1 X65.099 Y166.618 E.04675
G1 X64.069 Y165.813 E.04629
G1 X63.365 Y164.872 E.04163
G1 X62.882 Y163.691 E.04517
G1 X62.773 Y162.87 E.02933
G1 X62.809 Y162.775 E.00361
G1 X62.868 Y162.759 E.00219
G1 E-.56 F1800
;WIPE_START
G1 F1200
G1 X62.984 Y162.814 E-.03069
G1 X63.317 Y163.62 E-.20931
;WIPE_END
G1 Z.65 F720
G1 X173.718 Y163.283 Z.65 F10800
G1 Z.25 F720
G1 E.8 F1800
G1 F1200
G1 X181.094 Y163.281 E.2612
G1 X181.476 Y163.232 E.01365
G1 X181.857 Y163.116 E.01408
G1 X182.157 Y162.968 E.01186
G1 X182.478 Y162.74 E.01394
G1 X182.762 Y162.45 E.01439
G1 X183.016 Y162.069 E.01619
G1 X183.199 Y161.612 E.01743
G1 X183.273 Y161.213 E.01438
G1 X183.283 Y153.714 E.26554
G1 X184.783 Y153.912 E.05359
G1 X186.923 Y154.798 E.08203
G1 X188.761 Y156.209 E.08203
G1 X190.172 Y158.046 E.08203
G1 X191.058 Y160.187 E.08203
G1 X191.36 Y162.483 E.08203
G1 X191.058 Y164.78 E.08203
G1 X190.172 Y166.92 E.08203
G1 X188.761 Y168.758 E.08203
G1 X186.923 Y170.168 E.08203
G1 X184.783 Y171.055 E.08203
G1 X182.486 Y171.357 E.08203
G1 X180.19 Y171.055 E.08203
G1 X178.049 Y170.168 E.08203
G1 X176.212 Y168.758 E.08203
G1 X174.801 Y166.92 E.08203
G1 X173.915 Y164.78 E.08203
G1 X173.723 Y163.323 E.05205
G1 X174.187 Y163.678 F10800
G1 F1200
G1 X174.261 Y163.649 E.00281
G1 X181.146 Y163.644 E.24383
G1 X181.591 Y163.58 E.01591
G1 X182.025 Y163.441 E.01614
G1 X182.375 Y163.262 E.01392
G1 X182.744 Y162.991 E.01623
G1 X183.072 Y162.646 E.01684
G1 X183.36 Y162.195 E.01894
G1 X183.535 Y161.757 E.01672
G1 X183.631 Y161.288 E.01694
G1 X183.649 Y154.257 E.24899
G1 X183.696 Y154.167 E.00361
G1 X183.773 Y154.148 E.0028
G1 X184.673 Y154.267 E.03216
G1 X186.75 Y155.127 E.07961
G1 X188.489 Y156.461 E.07759
G1 X189.843 Y158.22 E.0786
G1 X190.703 Y160.297 E.07961
G1 X190.989 Y162.469 E.07759
G1 X190.703 Y164.67 E.0786
G1 X189.843 Y166.747 E.07961
G1 X188.509 Y168.485 E.07759
G1 X186.75 Y169.84 E.0786
G1 X184.673 Y170.7 E.07961
G1 X182.501 Y170.986 E.07759
G1 X180.3 Y170.7 E.0786
G1 X178.248 Y169.854 E.0786
G1 X176.464 Y168.485 E.07961
G1 X175.116 Y166.722 E.0786
M73 P1 R59
G1 X174.277 Y164.698 E.07759
G1 X174.152 Y163.774 E.03303
G1 X174.173 Y163.716 E.00219
G1 X174.606 Y164.044 F10800
G1 F1200
G1 X174.68 Y164.015 E.00282
G1 X181.205 Y164.005 E.23106
G1 X181.711 Y163.926 E.01812
G1 X182.199 Y163.764 E.01822
G1 X182.598 Y163.553 E.01598
G1 X183.016 Y163.237 E.01855
G1 X183.386 Y162.835 E.01934
G1 X183.664 Y162.401 E.01826
G1 X183.872 Y161.9 E.01921
G1 X183.988 Y161.371 E.01917
