; HEADER_BLOCK_START
; generated by OrcaSlicer 2.1.1 on 2024-06-30 at 15:54:11
; total layer number: 34
; filament_density: 1.04
; filament_diameter: 1.75
; max_z_height: 8.50
; HEADER_BLOCK_END

; THUMBNAIL_BLOCK_START

;
; THUMBNAIL_BLOCK_END

; external perimeters extrusion width = 0.45mm
; perimeters extrusion width = 0.45mm
; infill extrusion width = 0.45mm
; solid infill extrusion width = 0.45mm
; top infill extrusion width = 0.40mm
; first layer extrusion width = 0.42mm

; EXECUTABLE_BLOCK_START
M73 P0 R71
M201 X2000 Y2000 Z300 E5000
M203 X200 Y200 Z12 E120
M204 P2000 R2500 T2000
M205 X9.00 Y9.00 Z0.20 E2.50 ; sets the jerk limits, mm/sec
;TYPE:Custom
M862.3 P "MK3S" ; printer model check
M862.1 P0.4 ; nozzle diameter check
M115 U3.13.0 ; tell printer latest fw version
G90 ; use absolute coordinates
M83 ; extruder relative mode
M104 S260 ; set extruder temp
M140 S105 ; set bed temp
M190 S105 ; wait for bed temp
M109 S260 ; wait for extruder temp
G28 W ; home all without mesh bed level
G80 ; mesh bed leveling

G1 Z0.2 F720
G1 Y-3 F1000 ; go outside print area
G92 E0
G1 X60 E9 F1000 ; intro line
G1 X100 E12.5 F1000 ; intro line

G92 E0
M221 S95
G90
G21
M83 ; use relative distances for extrusion
; Filament gcode
M900 K0.04 ; Filament gcode LA 1.5
M900 K20 ; Filament gcode LA 1.0
M106 S0
;LAYER_CHANGE
;Z:0.25
;HEIGHT:0.25
;BEFORE_LAYER_CHANGE
;0.25
G92 E0

G1 E-.8 F1800
;AFTER_LAYER_CHANGE
;0.25
;_SET_FAN_SPEED_CHANGING_LAYER
M204 S800
G1 X58.125 Y44.601 F10800
G1 Z.4 F720
G1 Z.25
G1 E.8 F1800
;TYPE:Skirt
;WIDTH:0.42
G1 F3000
G1 X59.446 Y42.88 E.07683
G1 X59.883 Y42.443 E.02188
G1 X61.759 Y41.003 E.08374
G1 X62.294 Y40.694 E.02188
G1 X64.479 Y39.789 E.08374
G1 X65.075 Y39.63 E.02188
G1 X67.718 Y39.301 E.0943
G1 X181.311 Y38.795 E4.02263
G1 X183.656 Y39.104 E.08374
G1 X184.252 Y39.264 E.02188
G1 X186.437 Y40.169 E.08374
G1 X186.972 Y40.478 E.02188
G1 X188.848 Y41.917 E.08374
G1 X190.879 Y43.919 E.10097
G1 X192.522 Y46.028 E.09468
G1 X192.831 Y46.563 E.02188
G1 X193.736 Y48.748 E.08374
G1 X193.896 Y49.344 E.02188
G1 X194.205 Y51.689 E.08374
G1 X193.696 Y159.286 E3.81029
G1 X193.367 Y161.928 E.09427
G1 X193.208 Y162.524 E.02188
G1 X192.303 Y164.709 E.08374
G1 X191.994 Y165.244 E.02188
G1 X190.554 Y167.12 E.08374
G1 X190.117 Y167.557 E.02188
G1 X188.241 Y168.997 E.08374
G1 X187.706 Y169.306 E.02188
G1 X185.521 Y170.211 E.08374
G1 X184.925 Y170.37 E.02188
G1 X182.271 Y170.699 E.09469
G1 X67.726 Y170.696 E4.05631
G1 X65.072 Y170.367 E.09468
G1 X64.476 Y170.208 E.02188
G1 X62.291 Y169.303 E.08374
G1 X61.756 Y168.994 E.02188
G1 X59.88 Y167.554 E.08374
G1 X59.443 Y167.117 E.02188
G1 X58.003 Y165.241 E.08374
G1 X57.694 Y164.706 E.02188
G1 X56.789 Y162.521 E.08374
G1 X56.63 Y161.925 E.02188
G1 X56.301 Y159.271 E.09469
G1 X56.304 Y50.726 E3.84383
G1 X56.633 Y48.072 E.09468
G1 X56.792 Y47.476 E.02188
G1 X57.697 Y45.291 E.08374
G1 X58.006 Y44.756 E.02188
G1 X58.101 Y44.633 E.00549
; printing object Lid.stl id:0 copy 0
G1 E-.56 F1800
;WIPE_START
G1 F3000
G1 X58.71 Y43.839 E-.24
;WIPE_END
G1 X59.302 Y51.449 Z.65 F10800
G1 X67.017 Y150.491 Z.65
G1 Z.25 F720
G1 E.8 F1800
;TYPE:Brim
G1 F1200
G1 X67.017 Y158 E.26593
G1 X67.045 Y158.326 E.0116
G1 X67.131 Y158.661 E.01223
G1 X67.274 Y158.975 E.01224
G1 X67.47 Y159.26 E.01224
G1 X67.712 Y159.507 E.01224
G1 X67.993 Y159.708 E.01224
G1 X68.305 Y159.857 E.01224
G1 X68.638 Y159.949 E.01224
G1 X69 Y159.983 E.01289
G1 X76.506 Y159.983 E.2658
G1 X76.297 Y161.568 E.05661
G1 X75.411 Y163.708 E.08203
G1 X74.001 Y165.546 E.08203
G1 X72.163 Y166.956 E.08203
G1 X70.022 Y167.843 E.08203
G1 X67.726 Y168.145 E.08203
G1 X65.429 Y167.843 E.08203
G1 X63.289 Y166.956 E.08203
G1 X61.451 Y165.546 E.08203
G1 X60.041 Y163.708 E.08203
G1 X59.154 Y161.568 E.08203
G1 X58.852 Y159.271 E.08203
G1 X59.154 Y156.974 E.08203
G1 X60.041 Y154.834 E.08203
G1 X61.451 Y152.996 E.08203
G1 X63.289 Y151.586 E.08203
G1 X65.429 Y150.7 E.08203
G1 X66.977 Y150.496 E.0553
G1 X66.622 Y150.96 F10800
G1 F1200
G1 X66.65 Y151.034 E.00281
G1 X66.65 Y157.996 E.24654
G1 X66.679 Y158.349 E.01256
G1 X66.774 Y158.745 E.01441
G1 X66.937 Y159.12 E.01449
G1 X67.163 Y159.461 E.01449
G1 X67.445 Y159.758 E.01449
G1 X67.774 Y160.001 E.01449
G1 X68.14 Y160.184 E.01449
G1 X68.532 Y160.3 E.01447
G1 X69.006 Y160.35 E.01688
G1 X75.963 Y160.35 E.24637
G1 X76.053 Y160.397 E.00361
G1 X76.072 Y160.474 E.00281
G1 X75.935 Y161.486 E.03616
G1 X75.096 Y163.51 E.07759
G1 X73.748 Y165.273 E.0786
G1 X71.965 Y166.642 E.07961
G1 X69.912 Y167.488 E.0786
G1 X67.74 Y167.774 E.07759
G1 X65.539 Y167.488 E.0786
G1 X63.462 Y166.628 E.07961
G1 X61.724 Y165.294 E.07759
G1 X60.369 Y163.535 E.0786
G1 X59.509 Y161.458 E.07961
G1 X59.223 Y159.286 E.07759
G1 X59.509 Y157.084 E.0786
G1 X60.369 Y155.008 E.07961
G1 X61.703 Y153.269 E.07759
G1 X63.462 Y151.915 E.0786
G1 X65.511 Y151.062 E.0786
G1 X66.526 Y150.925 E.03627
G1 X66.584 Y150.946 E.00219
G1 X66.255 Y151.379 F10800
G1 F1200
G1 X66.284 Y151.453 E.00282
G1 X66.284 Y157.991 E.23152
G1 X66.325 Y158.442 E.01605
G1 X66.442 Y158.898 E.01667
G1 X66.637 Y159.329 E.01677
G1 X66.852 Y159.655 E.01384
G1 X67.234 Y160.057 E.01963
G1 X67.618 Y160.332 E.01671
G1 X68.043 Y160.537 E.01673
G1 X68.502 Y160.665 E.01687
G1 X69.011 Y160.716 E.01811
G1 X75.544 Y160.716 E.23133
G1 X75.634 Y160.763 E.00361
G1 X75.652 Y160.841 E.00282
G1 X75.573 Y161.403 E.0201
G1 X74.782 Y163.312 E.0732
G1 X73.495 Y165.001 E.07516
G1 X71.792 Y166.313 E.07615
G1 X69.803 Y167.133 E.07618
G1 X67.725 Y167.402 E.07418
G1 X65.649 Y167.133 E.07416
G1 X63.635 Y166.299 E.07717
G1 X61.976 Y165.021 E.07417
G1 X60.698 Y163.361 E.07416
G1 X59.864 Y161.348 E.07717
G1 X59.594 Y159.271 E.07417
G1 X59.864 Y157.194 E.07416
G1 X60.698 Y155.181 E.07717
G1 X61.976 Y153.521 E.07417
G1 X63.636 Y152.243 E.07418
G1 X65.595 Y151.424 E.07519
G1 X66.159 Y151.344 E.02021
G1 X66.218 Y151.365 E.00219
G1 X65.888 Y151.8 F10800
G1 F1200
G1 X65.918 Y151.875 E.00285
G1 X65.918 Y157.986 E.21641
G1 X65.959 Y158.467 E.01709
G1 X66.085 Y158.981 E.01875
G1 X66.3 Y159.474 E.01903
G1 X66.542 Y159.85 E.01584
G1 X67.028 Y160.361 E.02498
G1 X67.466 Y160.666 E.01891
G1 X67.953 Y160.892 E.019
G1 X68.474 Y161.03 E.0191
G1 X69.016 Y161.082 E.01929
G1 X75.122 Y161.082 E.21619
G1 X75.212 Y161.129 E.00361
G1 X75.23 Y161.208 E.00285
G1 X75.211 Y161.318 E.00397
G1 X74.467 Y163.115 E.06887
G1 X73.242 Y164.728 E.07173
G1 X71.593 Y165.998 E.0737
G1 X69.693 Y166.777 E.07271
G1 X67.74 Y167.031 E.06977
G1 X65.758 Y166.777 E.07073
G1 X63.809 Y165.97 E.07473
G1 X62.248 Y164.768 E.06974
G1 X61.027 Y163.188 E.07073
G1 X60.219 Y161.238 E.07473
G1 X59.966 Y159.285 E.06974
G1 X60.219 Y157.304 E.07073
G1 X61.027 Y155.354 E.07473
G1 X62.249 Y153.774 E.07074
G1 X63.81 Y152.572 E.06978
G1 X65.68 Y151.786 E.07182
G1 X65.792 Y151.766 E.00406
G1 X65.851 Y151.787 E.00219
G1 X65.5 Y152.31 F10800
G1 F1200
G1 X65.551 Y152.402 E.00375
G1 X65.551 Y157.982 E.19757
G1 X65.593 Y158.49 E.01808
G1 X65.727 Y159.06 E.02071
G1 X65.996 Y159.679 E.02391
G1 X66.283 Y160.109 E.01833
G1 X66.756 Y160.605 E.02425
G1 X67.32 Y161.002 E.02444
G1 X67.867 Y161.248 E.02124
G1 X68.448 Y161.396 E.02121
G1 X68.976 Y161.446 E.0188
G1 X74.596 Y161.449 E.19901
G1 X74.686 Y161.496 E.00361
G1 X74.698 Y161.601 E.00373
G1 X74.138 Y162.942 E.05149
G1 X72.968 Y164.477 E.06833
G1 X71.42 Y165.669 E.06919
G1 X69.612 Y166.415 E.06927
G1 X67.753 Y166.66 E.06639
G1 X65.868 Y166.422 E.06729
G1 X63.982 Y165.641 E.07228
G1 X62.501 Y164.496 E.06632
G1 X61.356 Y163.014 E.0663
G1 X60.582 Y161.156 E.07127
G1 X60.337 Y159.299 E.06635
G1 X60.575 Y157.414 E.06729
G1 X61.341 Y155.553 E.07125
G1 X62.521 Y154.027 E.06832
G1 X64.009 Y152.885 E.06641
G1 X65.399 Y152.301 E.0534
G1 X65.461 Y152.306 E.00219
G1 X65.134 Y152.861 F10800
G1 F1200
G1 X65.185 Y152.954 E.00375
G1 X65.185 Y157.977 E.17787
G1 X65.238 Y158.582 E.02151
G1 X65.368 Y159.134 E.02008
G1 X65.697 Y159.889 E.02917
G1 X66.024 Y160.369 E.02056
G1 X66.483 Y160.85 E.02355
G1 X67.179 Y161.34 E.03015
G1 X67.786 Y161.606 E.02345
G1 X68.35 Y161.749 E.02061
G1 X68.937 Y161.811 E.0209
G1 X74.047 Y161.815 E.18095
G1 X74.137 Y161.862 E.00361
G1 X74.148 Y161.967 E.00374
G1 X73.809 Y162.769 E.03083
G1 X72.695 Y164.225 E.06493
G1 X71.222 Y165.355 E.06573
G1 X69.53 Y166.052 E.06482
G1 X67.766 Y166.289 E.06301
G1 X65.977 Y166.067 E.06384
G1 X64.156 Y165.312 E.06981
G1 X62.753 Y164.223 E.06289
G1 X61.684 Y162.84 E.06191
G1 X60.944 Y161.074 E.06781
G1 X60.708 Y159.312 E.06295
G1 X60.93 Y157.523 E.06385
G1 X61.655 Y155.752 E.06775
G1 X62.793 Y154.28 E.06588
G1 X64.183 Y153.214 E.06204
G1 X65.033 Y152.853 E.03268
G1 X65.094 Y152.858 E.00219
G1 X64.767 Y153.415 F10800
G1 F1200
G1 X64.819 Y153.508 E.00376
G1 X64.819 Y157.972 E.15809
G1 X64.873 Y158.607 E.02255
G1 X65.009 Y159.208 E.02184
G1 X65.4 Y160.104 E.03461
G1 X65.765 Y160.627 E.02259
G1 X66.21 Y161.095 E.02287
G1 X67.042 Y161.68 E.03602
G1 X67.703 Y161.963 E.02546
G1 X68.319 Y162.114 E.02244
G1 X68.942 Y162.177 E.02218
G1 X73.495 Y162.181 E.16122
G1 X73.585 Y162.228 E.00361
G1 X73.596 Y162.333 E.00375
G1 X73.482 Y162.595 E.0101
G1 X72.442 Y163.952 E.06055
G1 X71.024 Y165.04 E.06329
G1 X69.447 Y165.69 E.0604
G1 X67.779 Y165.918 E.05964
G1 X66.058 Y165.704 E.0614
G1 X64.33 Y164.984 E.06629
G1 X63.006 Y163.951 E.05945
G1 X61.998 Y162.641 E.05856
G1 X61.299 Y160.963 E.06437
G1 X61.079 Y159.296 E.05953
G1 X61.293 Y157.603 E.06045
G1 X61.97 Y155.95 E.06322
G1 X63.045 Y154.553 E.06244
G1 X64.358 Y153.541 E.05871
G1 X64.666 Y153.406 E.01189
G1 X64.727 Y153.411 E.00219
G1 X64.376 Y154.05 F10800
G1 F1200
G1 X64.452 Y154.154 E.0046
G1 X64.452 Y157.967 E.13503
G1 X64.507 Y158.631 E.02357
G1 X64.65 Y159.279 E.02352
G1 X65.105 Y160.322 E.04029
G1 X65.505 Y160.886 E.02446
G1 X65.937 Y161.34 E.02221
G1 X66.908 Y162.021 E.04201
G1 X67.624 Y162.32 E.02747
G1 X68.224 Y162.468 E.02188
G1 X68.9 Y162.541 E.02407
G1 X72.835 Y162.546 E.13934
G1 X72.925 Y162.594 E.00361
G1 X72.922 Y162.723 E.00458
G1 X72.19 Y163.68 E.04266
G1 X70.851 Y164.711 E.05984
G1 X69.364 Y165.328 E.05701
G1 X67.791 Y165.546 E.05626
G1 X66.168 Y165.348 E.0579
G1 X64.505 Y164.655 E.06379
G1 X63.279 Y163.7 E.05504
G1 X62.326 Y162.467 E.05518
G1 X61.654 Y160.852 E.06194
G1 X61.45 Y159.281 E.0561
G1 X61.649 Y157.711 E.05604
G1 X62.285 Y156.148 E.05974
G1 X63.298 Y154.825 E.05901
G1 X64.275 Y154.067 E.04381
G1 X64.336 Y154.057 E.00219
G1 X64.009 Y154.797 F10800
G1 F1200
G1 X64.086 Y154.902 E.00461
G1 X64.086 Y157.963 E.1084
G1 X64.142 Y158.654 E.02455
G1 X64.29 Y159.348 E.02512
G1 X64.813 Y160.543 E.04621
G1 X65.202 Y161.091 E.0238
G1 X65.665 Y161.585 E.02398
G1 X66.689 Y162.315 E.04453
G1 X67.476 Y162.655 E.03035
G1 X68.192 Y162.833 E.02613
G1 X68.905 Y162.907 E.02539
G1 X72.094 Y162.912 E.11292
G1 X72.184 Y162.959 E.00361
G1 X72.181 Y163.088 E.00458
G1 X71.917 Y163.428 E.01523
G1 X70.653 Y164.397 E.0564
G1 X69.253 Y164.974 E.05359
G1 X67.773 Y165.175 E.05289
G1 X66.248 Y164.985 E.05444
G1 X64.705 Y164.342 E.0592
G1 X63.532 Y163.428 E.05264
G1 X62.64 Y162.268 E.05183
G1 X62.017 Y160.77 E.05745
G1 X61.822 Y159.266 E.05369
G1 X62.012 Y157.791 E.05267
G1 X62.6 Y156.346 E.05527
G1 X63.571 Y155.077 E.05658
G1 X63.909 Y154.815 E.01514
G1 X63.97 Y154.804 E.00219
G1 X63.615 Y155.7 F10800
G1 F1200
G1 X63.703 Y155.751 E.00361
G1 X63.72 Y155.81 E.00216
G1 X63.72 Y157.959 E.0761
G1 X63.776 Y158.677 E.0255
G1 X63.929 Y159.414 E.02667
G1 X64.473 Y160.681 E.04881
G1 X64.899 Y161.297 E.02653
G1 X65.461 Y161.889 E.02891
G1 X66.554 Y162.655 E.04728
G1 X67.322 Y162.988 E.02965
G1 X68.097 Y163.187 E.02832
G1 X68.91 Y163.274 E.02897
G1 X71.187 Y163.277 E.08063
G1 X71.277 Y163.324 E.00361
G1 X71.29 Y163.425 E.00361
G1 X71.254 Y163.474 E.00215
G1 X70.455 Y164.082 E.03557
G1 X69.17 Y164.612 E.04919
G1 X67.757 Y164.804 E.0505
G1 X66.329 Y164.622 E.05098
G1 X64.905 Y164.028 E.05464
G1 X63.786 Y163.157 E.05023
G1 X62.954 Y162.069 E.04847
G1 X62.379 Y160.688 E.05299
G1 X62.193 Y159.28 E.05028
G1 X62.374 Y157.872 E.05028
G1 X62.915 Y156.543 E.05081
G1 X63.522 Y155.743 E.03556
G1 X63.579 Y155.717 E.00219
G1 E-.56 F1800
;WIPE_START
G1 F1200
G1 X63.703 Y155.751 E-.03094
G1 X63.72 Y155.81 E-.01463
G1 X63.72 Y156.62 E-.19443
;WIPE_END
G1 X63.262 Y156.904 Z.65 F10800
G1 Z.25 F720
G1 E.8 F1800
G1 F1200
G1 X63.318 Y156.919 E.00204
G1 X63.353 Y157 E.00313
G1 X63.353 Y157.955 E.03379
G1 X63.41 Y158.699 E.02643
G1 X63.569 Y159.478 E.02818
G1 X64.133 Y160.816 E.05139
G1 X64.639 Y161.555 E.03174
G1 X65.259 Y162.195 E.03155
G1 X66.335 Y162.949 E.04652
G1 X67.24 Y163.345 E.03498
G1 X68.066 Y163.552 E.03015
G1 X68.916 Y163.64 E.03026
G1 X70.007 Y163.641 E.03866
G1 X70.097 Y163.689 E.00361
G1 X70.11 Y163.79 E.00361
G1 X70.049 Y163.853 E.00311
G1 X69.06 Y164.257 E.03782
G1 X67.77 Y164.432 E.04611
G1 X66.439 Y164.266 E.0475
G1 X65.105 Y163.715 E.05113
G1 X64.04 Y162.886 E.0478
G1 X63.269 Y161.872 E.0451
G1 X62.742 Y160.605 E.04857
G1 X62.564 Y159.294 E.04686
G1 X62.737 Y157.953 E.04788
G1 X63.142 Y156.959 E.03801
G1 X63.219 Y156.893 E.00361
G1 X63.223 Y156.894 E.00015
G1 E-.56 F1800
;WIPE_START
G1 F1200
G1 X63.318 Y156.919 E-.02343
G1 X63.353 Y157 E-.02124
G1 X63.353 Y157.814 E-.19533
;WIPE_END
G1 X63.069 Y159.184 Z.65 F10800
M73 P1 R71
G1 Z.25 F720
G1 E.8 F1800
G1 F1200
G1 X63.152 Y159.269 E.00423
G1 X63.208 Y159.541 E.00981
G1 X63.837 Y161.032 E.0573
G1 X64.331 Y161.755 E.03103
G1 X64.989 Y162.443 E.03371
G1 X66.198 Y163.289 E.05226
G1 X67.085 Y163.677 E.03429
G1 X67.667 Y163.83 E.02132
G1 X67.743 Y163.898 E.00361
G1 X67.73 Y163.999 E.00361
G1 X67.626 Y164.045 E.00401
G1 X66.52 Y163.903 E.03949
G1 X65.304 Y163.401 E.04657
G1 X64.294 Y162.614 E.04535
G1 X63.584 Y161.674 E.04172
G1 X63.104 Y160.522 E.0442
G1 X62.936 Y159.306 E.04347
G1 X62.97 Y159.21 E.00361
G1 X63.03 Y159.194 E.00219
G1 E-.56 F1800
;WIPE_START
G1 F1200
G1 X63.152 Y159.269 E-.03443
G1 X63.208 Y159.541 E-.06646
G1 X63.433 Y160.075 E-.13912
;WIPE_END
G1 X63.705 Y152.447 Z.65 F10800
G1 X67.017 Y59.506 Z.65
G1 Z.25 F720
G1 E.8 F1800
G1 F1200
G1 X65.432 Y59.297 E.05661
G1 X63.292 Y58.411 E.08203
G1 X61.454 Y57.001 E.08203
G1 X60.044 Y55.163 E.08203
G1 X59.157 Y53.022 E.08203
G1 X58.855 Y50.726 E.08203
G1 X59.157 Y48.429 E.08203
G1 X60.044 Y46.289 E.08203
G1 X61.454 Y44.451 E.08203
G1 X63.292 Y43.041 E.08203
G1 X65.432 Y42.154 E.08203
G1 X67.729 Y41.852 E.08203
G1 X70.026 Y42.154 E.08203
G1 X72.166 Y43.041 E.08203
G1 X74.004 Y44.451 E.08203
G1 X75.414 Y46.289 E.08203
G1 X76.3 Y48.429 E.08203
G1 X76.509 Y50.017 E.05672
G1 X68.919 Y50.019 E.26878
G1 X68.584 Y50.062 E.01196
G1 X68.258 Y50.162 E.01208
G1 X67.993 Y50.292 E.01047
G1 X67.74 Y50.47 E.01096
G1 X67.467 Y50.743 E.01366
G1 X67.235 Y51.097 E.015
G1 X67.101 Y51.431 E.01275
G1 X67.024 Y51.845 E.0149
G1 X67.017 Y59.466 E.26987
G1 X66.604 Y59.053 F10800
G1 F1200
G1 X66.527 Y59.072 E.0028
G1 X65.542 Y58.942 E.03518
G1 X63.465 Y58.082 E.07961
G1 X61.727 Y56.748 E.07759
G1 X60.372 Y54.989 E.0786
G1 X59.512 Y52.912 E.07961
M73 P1 R70
G1 X59.226 Y50.74 E.07759
G1 X59.512 Y48.539 E.0786
G1 X60.372 Y46.462 E.07961
G1 X61.706 Y44.724 E.07759
G1 X63.465 Y43.369 E.0786
G1 X65.542 Y42.509 E.07961
G1 X67.714 Y42.223 E.07759
G1 X69.916 Y42.509 E.0786
G1 X71.968 Y43.355 E.0786
G1 X73.751 Y44.724 E.07961
G1 X75.099 Y46.487 E.0786
G1 X75.938 Y48.511 E.07759
G1 X76.075 Y49.526 E.03628
G1 X76.04 Y49.622 E.00361
G1 X75.966 Y49.651 E.00281
G1 X68.867 Y49.656 E.25142
G1 X68.47 Y49.714 E.01421
G1 X68.09 Y49.836 E.01414
G1 X67.778 Y49.996 E.01241
G1 X67.475 Y50.217 E.01327
G1 X67.156 Y50.55 E.01636
G1 X66.934 Y50.888 E.0143
G1 X66.764 Y51.287 E.01537
G1 X66.665 Y51.769 E.0174
G1 X66.651 Y58.963 E.25478
G1 X66.622 Y59.018 E.00219
G1 X66.238 Y58.636 F10800
G1 F1200
G1 X66.161 Y58.654 E.0028
G1 X65.652 Y58.587 E.01819
G1 X63.638 Y57.753 E.07718
G1 X61.979 Y56.475 E.07417
G1 X60.701 Y54.816 E.07416
G1 X59.867 Y52.802 E.07717
G1 X59.598 Y50.725 E.07417
G1 X59.867 Y48.649 E.07416
G1 X60.701 Y46.635 E.07717
G1 X61.979 Y44.976 E.07417
G1 X63.639 Y43.698 E.07416
G1 X65.652 Y42.864 E.07717
G1 X67.729 Y42.594 E.07417
G1 X69.806 Y42.864 E.07418
G1 X71.795 Y43.684 E.07617
G1 X73.498 Y44.996 E.07615
