; generated by PrusaSlicer 2.7.4 on 2024-06-25 at 17:25:16 UTC


;
;
; 

; external perimeters extrusion width = 0.45mm
; perimeters extrusion width = 0.45mm
; infill extrusion width = 0.45mm
; solid infill extrusion width = 0.45mm
; top infill extrusion width = 0.40mm
; first layer extrusion width = 0.42mm

; external perimeters extrusion width = 0.45mm
; perimeters extrusion width = 0.45mm
; infill extrusion width = 0.45mm
; solid infill extrusion width = 0.45mm
; top infill extrusion width = 0.40mm
; first layer extrusion width = 0.42mm

M73 P0 R362
M73 Q0 S362
M201 X1000 Y1000 Z200 E5000 ; sets maximum accelerations, mm/sec^2
M203 X200 Y200 Z12 E120 ; sets maximum feedrates, mm / sec
M204 S1250 T1250 ; sets acceleration (S) and retract acceleration (R), mm/sec^2
M205 X8.00 Y8.00 Z0.40 E4.50 ; sets the jerk limits, mm/sec
M205 S0 T0 ; sets the minimum extruding and travel feed rate, mm/sec

; printing object marker - marker_torso.stl id:0 copy 0
; stop printing object marker - marker_torso.stl id:0 copy 0
; printing object marker - marker_torso.stl id:1 copy 0
; stop printing object marker - marker_torso.stl id:1 copy 0

;TYPE:Custom
M862.3 P "MK3S" ; printer model check
M862.1 P0.4 ; nozzle diameter check
M115 U3.13.3 ; tell printer latest fw version
G90 ; use absolute coordinates
M83 ; extruder relative mode
M104 S230 ; set extruder temp
M140 S60 ; set bed temp
M190 S60 ; wait for bed temp
M109 S230 ; wait for extruder temp
G28 W ; home all without mesh bed level
G80 X54.3416 Y11.4666 W141.317 H187.067 ; mesh bed levelling

G1 Z0.2 F720
G1 Y-3 F1000 ; go outside print area
G92 E0
G1 X60 E9 F1000 ; intro line
G1 X100 E12.5 F1000 ; intro line

G92 E0
M221 S95

; Don't change E values below. Excessive value can damage the printer.
M907 E430 ; set extruder motor current
G21 ; set units to millimeters
G90 ; use absolute coordinates
M83 ; use relative distances for extrusion
M900 K0 ; Filament gcode
M107
;LAYER_CHANGE
;Z:0.3
;HEIGHT:0.3
G1 X54.73 Y14.662 F10800
G1 Z.3 F720
M204 S800
;TYPE:Skirt/Brim
;WIDTH:0.42
G1 F900
G1 X54.98 Y14.052 E.03216
G1 X55.326 Y13.475 E.03283
G1 X55.971 Y12.754 E.0472
G1 X56.81 Y12.165 E.05002
G1 X57.798 Y11.78 E.05174
G1 X58.814 Y11.645 E.05001
G1 X191.125 Y11.644 E6.45549
G1 X191.932 Y11.72 E.03955
G1 X192.744 Y11.957 E.04127
G1 X193.508 Y12.355 E.04203
G1 X194.168 Y12.884 E.04127
G1 X194.722 Y13.544 E.04204
G1 X195.129 Y14.286 E.04129
G1 X195.384 Y15.09 E.04115
G1 X195.48 Y15.949 E.04217
G1 X195.48 Y187.051 E8.34812
G1 X195.316 Y188.921 E.09159
G1 X194.939 Y190.464 E.0775
G1 X194.221 Y192.198 E.09157
G1 X193.397 Y193.555 E.07746
M73 P0 R361
G1 X192.532 Y194.634 E.06747
G1 X191.758 Y195.407 E.05337
G1 X190.68 Y196.272 E.06743
G1 X189.414 Y197.048 E.07245
G1 X188.423 Y197.51 E.05335
G1 X187.014 Y197.981 E.07248
G1 X185.658 Y198.251 E.06746
G1 X184.176 Y198.355 E.07249
G1 X65.824 Y198.355 E5.77443
G1 X63.954 Y198.191 E.09159
M73 Q0 S361
G1 X62.411 Y197.814 E.0775
G1 X60.677 Y197.096 E.09157
G1 X59.32 Y196.272 E.07746
G1 X58.242 Y195.407 E.06743
G1 X57.235 Y194.368 E.0706
G1 X56.544 Y193.471 E.05524
G1 X55.827 Y192.289 E.06745
G1 X55.365 Y191.298 E.05335
G1 X54.92 Y189.988 E.0675
G1 X54.624 Y188.533 E.07244
G1 X54.529 Y187.444 E.05333
G1 X54.519 Y16 E8.3648
G1 X54.574 Y15.313 E.03363
G1 X54.716 Y14.72 E.02975
M204 S1000
; printing object marker - marker_torso.stl id:0 copy 0
G1 X54.716 Y14.72 F10800
G1 X58.039 Y15.759
M204 S800
;TYPE:Perimeter
;WIDTH:0.42
G1 F900
G1 X58.206 Y15.439 E.01761
G1 X58.506 Y15.209 E.01844
G1 X58.857 Y15.123 E.01763
G1 X191.129 Y15.13 E6.45358
G1 X191.468 Y15.213 E.01703
G1 X191.767 Y15.412 E.01752
G1 X191.935 Y15.701 E.01631
G1 X192.003 Y16.048 E.01725
G1 X191.997 Y16.728 E.03318
G1 X191.848 Y17.309 E.02926
G1 X191.42 Y18.213 E.0488
G1 X191.226 Y18.708 E.02594
G1 X191.085 Y19.23 E.02638
G1 X191.009 Y19.851 E.03052
G1 X191.038 Y20.488 E.03111
G1 X191.165 Y21.1 E.0305
G1 X191.353 Y21.628 E.02735
G1 X191.756 Y22.485 E.04621
G1 X191.944 Y22.985 E.02606
G1 X192.004 Y23.528 E.02665
G1 X192.004 Y92.968 E3.38799
G1 X191.934 Y94.028 E.05183
G1 X191.731 Y95.048 E.05074
G1 X191.528 Y95.694 E.03304
G1 X191.265 Y96.329 E.03353
G1 X190.952 Y96.931 E.0331
G1 X190.374 Y97.795 E.05072
G1 X189.688 Y98.577 E.05075
G1 X189.189 Y99.035 E.03305
G1 X188.651 Y99.447 E.03306
G1 X187.754 Y99.992 E.05121
G1 X187.139 Y100.278 E.03309
G1 X186.494 Y100.513 E.03349
G1 X185.83 Y100.691 E.03354
G1 X185.195 Y100.804 E.03147
G1 X184.092 Y100.879 E.05394
G1 X65.907 Y100.879 E5.76627
G1 X64.837 Y100.809 E.05232
G1 X64.17 Y100.691 E.03305
G1 X63.506 Y100.513 E.03354
G1 X62.86 Y100.278 E.03354
G1 X62.237 Y99.988 E.03353
G1 X61.642 Y99.644 E.03353
G1 X61.087 Y99.255 E.03307
G1 X60.305 Y98.57 E.05072
G1 X59.626 Y97.795 E.05027
G1 X59.048 Y96.93 E.05076
G1 X58.735 Y96.33 E.03302
G1 X58.476 Y95.703 E.0331
G1 X58.182 Y94.696 E.05118
G1 X58.066 Y94.038 E.0326
G1 X57.996 Y92.968 E.05232
G1 X57.996 Y23.528 E3.38799
G1 X58.056 Y22.985 E.02665
G1 X58.244 Y22.485 E.02606
G1 X58.684 Y21.538 E.05095
G1 X58.863 Y20.996 E.02785
G1 X58.962 Y20.488 E.02525
G1 X58.991 Y19.851 E.03111
G1 X58.915 Y19.23 E.03052
G1 X58.774 Y18.708 E.02638
G1 X58.58 Y18.213 E.02594
G1 X58.122 Y17.221 E.05331
G1 X58.003 Y16.729 E.0247
G1 X57.999 Y16.064 E.03245
G1 X58.027 Y15.817 E.01213
M204 S1000
G1 X58.027 Y15.817 F10800
G1 X57.755 Y15.53
M204 S800
G1 F900
G1 X57.783 Y15.432 E.00497
G1 X58.029 Y15.116 E.01954
G1 X58.355 Y14.884 E.01952
G1 X58.834 Y14.767 E.02406
G1 X190.998 Y14.766 E6.44831
G1 X191.437 Y14.812 E.02154
G1 X191.629 Y14.896 E.01023
G1 X191.916 Y15.072 E.01643
G1 X192.118 Y15.293 E.01461
G1 X192.276 Y15.598 E.01676
G1 X192.359 Y16.03 E.02146
G1 X192.353 Y16.621 E.02884
G1 X192.301 Y17.079 E.02249
G1 X192.13 Y17.546 E.02426
G1 X191.57 Y18.801 E.06705
G1 X191.428 Y19.323 E.02639
G1 X191.363 Y19.887 E.0277
G1 X191.393 Y20.465 E.02824
G1 X191.502 Y20.984 E.02587
G1 X191.674 Y21.477 E.02548
G1 X192.17 Y22.548 E.05759
G1 X192.331 Y23.066 E.02647
G1 X192.359 Y23.528 E.02258
G1 X192.359 Y92.98 E3.38858
G1 X192.288 Y94.075 E.05354
M73 P0 R360
G1 X192.076 Y95.137 E.05284
G1 X191.862 Y95.816 E.03473
G1 X191.587 Y96.48 E.03507
G1 X191.258 Y97.112 E.03476
G1 X190.657 Y98.012 E.0528
G1 X189.943 Y98.826 E.05283
G1 X189.418 Y99.307 E.03474
G1 X188.852 Y99.741 E.0348
G1 X187.922 Y100.306 E.05309
G1 X187.276 Y100.607 E.03477
G1 X186.601 Y100.853 E.03505
G1 X185.907 Y101.039 E.03506
G1 X185.239 Y101.157 E.0331
G1 X184.104 Y101.234 E.0555
G1 X65.895 Y101.234 E5.76745
G1 X64.795 Y101.162 E.05378
M73 Q0 S360
G1 X64.093 Y101.039 E.03477
G1 X63.399 Y100.853 E.03506
G1 X62.724 Y100.607 E.03505
G1 X62.073 Y100.303 E.03505
G1 X61.451 Y99.944 E.03504
G1 X60.867 Y99.535 E.03479
G1 X60.053 Y98.822 E.0528
G1 X59.343 Y98.012 E.05255
G1 X58.741 Y97.111 E.05287
G1 X58.413 Y96.48 E.0347
G1 X58.14 Y95.821 E.0348
G1 X57.835 Y94.776 E.05311
G1 X57.713 Y94.08 E.03448
G1 X57.641 Y92.98 E.05378
G1 X57.641 Y23.424 E3.39365
G1 X57.711 Y22.899 E.02584
G1 X57.886 Y22.41 E.02534
G1 X58.326 Y21.477 E.05033
G1 X58.498 Y20.984 E.02548
G1 X58.607 Y20.465 E.02587
G1 X58.637 Y19.887 E.02824
G1 X58.572 Y19.323 E.0277
G1 X58.43 Y18.801 E.02639
G1 X58.258 Y18.365 E.02287
G1 X57.87 Y17.546 E.04422
G1 X57.699 Y17.079 E.02426
G1 X57.647 Y16.619 E.02259
G1 X57.658 Y15.861 E.03699
G1 X57.738 Y15.587 E.01393
M204 S1000
G1 X57.738 Y15.587 F10800
G1 X57.403 Y15.428
M204 S800
;TYPE:External perimeter
G1 F900
G1 X57.562 Y15.123 E.01678
G1 X57.783 Y14.859 E.0168
G1 X58.056 Y14.65 E.01677
G1 X58.367 Y14.505 E.01674
G1 X58.81 Y14.412 E.02209
G1 X190.998 Y14.41 E6.44948
G1 X191.534 Y14.466 E.02629
G1 X191.98 Y14.662 E.02377
G1 X192.296 Y14.927 E.02012
G1 X192.534 Y15.267 E.02025
G1 X192.676 Y15.657 E.02025
G1 X192.715 Y16.013 E.01747
G1 X192.709 Y16.625 E.02986
G1 X192.647 Y17.165 E.02652
G1 X192.451 Y17.698 E.02771
G1 X191.913 Y18.895 E.06403
G1 X191.771 Y19.416 E.02635
G1 X191.716 Y19.924 E.02493
G1 X191.747 Y20.442 E.02532
G1 X191.832 Y20.848 E.02024
G1 X191.996 Y21.325 E.02461
G1 X192.531 Y22.493 E.06268
G1 X192.683 Y23.009 E.02625
G1 X192.715 Y23.528 E.02537
G1 X192.715 Y92.992 E3.38917
G1 X192.641 Y94.122 E.05525
G1 X192.421 Y95.225 E.05488
G1 X192.197 Y95.938 E.03646
G1 X191.91 Y96.63 E.03655
G1 X191.565 Y97.293 E.03647
G1 X190.939 Y98.229 E.05494
G1 X190.197 Y99.075 E.0549
G1 X189.647 Y99.58 E.03643
G1 X189.053 Y100.035 E.03651
G1 X188.09 Y100.62 E.05498
G1 X187.412 Y100.936 E.0365
G1 X186.708 Y101.192 E.03655
G1 X185.984 Y101.386 E.03657
G1 X185.282 Y101.511 E.03479
G1 X184.116 Y101.59 E.05702
G1 X65.883 Y101.59 E5.76862
G1 X64.752 Y101.516 E.0553
G1 X64.015 Y101.386 E.03651
G1 X63.292 Y101.192 E.03652
G1 X62.588 Y100.936 E.03655
G1 X61.909 Y100.619 E.03656
G1 X61.26 Y100.245 E.03655
G1 X60.647 Y99.816 E.03651
G1 X59.801 Y99.073 E.05494
G1 X59.06 Y98.229 E.0548
G1 X58.435 Y97.293 E.05491
G1 X58.09 Y96.631 E.03642
G1 X57.804 Y95.939 E.03653
G1 X57.489 Y94.857 E.05498
G1 X57.359 Y94.123 E.03637
G1 X57.285 Y92.991 E.05535
G1 X57.285 Y23.41 E3.39487
G1 X57.365 Y22.813 E.02939
G1 X57.56 Y22.268 E.02824
G1 X58.004 Y21.325 E.05085
G1 X58.162 Y20.868 E.02359
G1 X58.253 Y20.442 E.02125
G1 X58.284 Y19.924 E.02532
G1 X58.229 Y19.416 E.02493
G1 X58.087 Y18.895 E.02635
G1 X57.937 Y18.517 E.01984
G1 X57.549 Y17.698 E.04422
G1 X57.352 Y17.165 E.02772
G1 X57.291 Y16.622 E.02666
G1 X57.307 Y15.807 E.03977
G1 X57.388 Y15.486 E.01615
M204 S1000
G1 X57.572 Y15.13 F10800
G1 X191.84 Y16.443
M204 S800
;TYPE:Solid infill
;WIDTH:0.420788
G1 F900
G1 X190.845 Y15.448 E.06881
G1 X190.341 Y15.448 E.02464
G1 X191.666 Y16.773 E.09163
G1 X191.643 Y16.917 E.00713
G1 X191.558 Y17.169 E.013
G1 X189.837 Y15.448 E.11901
G1 X189.333 Y15.448 E.02464
G1 X191.398 Y17.513 E.1428
G1 X191.236 Y17.855 E.0185
G1 X188.829 Y15.448 E.16645
G1 X188.325 Y15.448 E.02464
G1 X191.081 Y18.204 E.19058
G1 X190.939 Y18.567 E.01906
G1 X187.821 Y15.448 E.21565
G1 X187.317 Y15.448 E.02464
G1 X190.832 Y18.964 E.24311
G1 X190.737 Y19.373 E.02053
G1 X186.813 Y15.448 E.27139
G1 X186.309 Y15.448 E.02464
G1 X190.7 Y19.839 E.30365
G1 X190.686 Y20.011 E.00844
G1 X190.714 Y20.358 E.01702
G1 X185.804 Y15.448 E.33954
G1 X185.3 Y15.448 E.02464
G1 X190.804 Y20.952 E.38062
G1 X190.86 Y21.197 E.01229
G1 X191.026 Y21.678 E.02488
G1 X184.796 Y15.448 E.43082
G1 X184.292 Y15.448 E.02464
G1 X191.468 Y22.624 E.49624
G1 X191.61 Y22.968 E.0182
G1 X191.662 Y23.175 E.01044
G1 X191.674 Y23.334 E.0078
G1 X183.788 Y15.448 E.54534
G1 X183.284 Y15.448 E.02464
G1 X191.684 Y23.848 E.58088
G1 X191.684 Y24.352 E.02464
G1 X182.78 Y15.448 E.61574
G1 X182.276 Y15.448 E.02464
G1 X191.684 Y24.856 E.65059
G1 X191.684 Y25.36 E.02464
G1 X181.772 Y15.448 E.68544
G1 X181.268 Y15.448 E.02464
G1 X191.684 Y25.864 E.72029
G1 X191.684 Y26.368 E.02464
M73 P0 R359
G1 X180.764 Y15.448 E.75515
G1 X180.26 Y15.448 E.02464
G1 X191.684 Y26.872 E.79
G1 X191.684 Y27.376 E.02464
G1 X179.756 Y15.448 E.82485
G1 X179.252 Y15.448 E.02464
G1 X191.684 Y27.88 E.85971
G1 X191.684 Y28.384 E.02464
G1 X178.748 Y15.448 E.89456
G1 X178.244 Y15.448 E.02464
G1 X191.684 Y28.888 E.92941
G1 X191.684 Y29.392 E.02464
G1 X177.74 Y15.448 E.96427
G1 X177.236 Y15.448 E.02464
M73 Q0 S359
G1 X191.684 Y29.896 E.99912
G1 X191.684 Y30.4 E.02464
G1 X176.731 Y15.448 E1.03401
G1 X176.227 Y15.448 E.02464
G1 X191.684 Y30.904 E1.06886
G1 X191.684 Y31.408 E.02464
G1 X175.723 Y15.448 E1.10371
G1 X175.219 Y15.448 E.02464
G1 X191.684 Y31.912 E1.13856
G1 X191.684 Y32.416 E.02464
G1 X174.715 Y15.448 E1.17342
G1 X174.211 Y15.448 E.02464
G1 X191.684 Y32.92 E1.20827
G1 X191.684 Y33.424 E.02464
G1 X173.707 Y15.448 E1.24312
G1 X173.203 Y15.448 E.02464
G1 X191.684 Y33.928 E1.27798
G1 X191.684 Y34.432 E.02464
G1 X172.699 Y15.448 E1.31283
G1 X172.195 Y15.448 E.02464
G1 X191.684 Y34.936 E1.34768
G1 X191.684 Y35.44 E.02464
G1 X171.691 Y15.448 E1.38254
G1 X171.187 Y15.448 E.02464
G1 X191.684 Y35.944 E1.41739
G1 X191.684 Y36.448 E.02464
G1 X170.683 Y15.447 E1.45228
G1 X170.179 Y15.447 E.02464
G1 X191.684 Y36.952 E1.48713
G1 X191.684 Y37.456 E.02464
G1 X169.675 Y15.447 E1.52198
G1 X169.171 Y15.447 E.02464
G1 X191.684 Y37.961 E1.55687
G1 X191.684 Y38.465 E.02464
G1 X168.667 Y15.447 E1.59172
G1 X168.163 Y15.447 E.02464
G1 X191.684 Y38.969 E1.62658
G1 X191.684 Y39.473 E.02464
G1 X167.658 Y15.447 E1.66146
G1 X167.154 Y15.447 E.02464
G1 X191.684 Y39.977 E1.69632
G1 X191.684 Y40.481 E.02464
G1 X166.65 Y15.447 E1.73117
G1 X166.146 Y15.447 E.02464
G1 X191.684 Y40.985 E1.76602
G1 X191.684 Y41.489 E.02464
G1 X165.642 Y15.447 E1.80087
G1 X165.138 Y15.447 E.02464
G1 X191.684 Y41.993 E1.83573
G1 X191.684 Y42.497 E.02464
G1 X164.634 Y15.447 E1.87058
G1 X164.13 Y15.447 E.02464
M73 P0 R358
G1 X191.684 Y43.001 E1.90543
G1 X191.684 Y43.505 E.02464
G1 X163.626 Y15.447 E1.94029
G1 X163.122 Y15.447 E.02464
G1 X191.684 Y44.009 E1.97514
G1 X191.684 Y44.513 E.02464
M73 Q0 S358
G1 X162.618 Y15.447 E2.00999
G1 X162.114 Y15.447 E.02464
M73 P1 R358
M73 Q1 S358
G1 X191.684 Y45.017 E2.04485
G1 X191.684 Y45.521 E.02464
G1 X161.61 Y15.447 E2.0797
G1 X161.106 Y15.447 E.02464
G1 X191.684 Y46.025 E2.11455
G1 X191.684 Y46.529 E.02464
G1 X160.602 Y15.447 E2.1494
G1 X160.098 Y15.447 E.02464
G1 X191.684 Y47.033 E2.18426
G1 X191.684 Y47.537 E.02464
G1 X159.594 Y15.447 E2.21911
G1 X159.09 Y15.447 E.02464
G1 X191.684 Y48.041 E2.25396
G1 X191.684 Y48.545 E.02464
G1 X158.585 Y15.447 E2.28885
G1 X158.081 Y15.447 E.02464
G1 X191.684 Y49.049 E2.3237
G1 X191.684 Y49.553 E.02464
G1 X157.577 Y15.447 E2.35856
G1 X157.073 Y15.447 E.02464
G1 X191.684 Y50.057 E2.39341
G1 X191.684 Y50.561 E.02464
G1 X156.569 Y15.447 E2.42826
G1 X156.065 Y15.447 E.02464
G1 X191.684 Y51.065 E2.46312
G1 X191.684 Y51.569 E.02464
G1 X155.561 Y15.447 E2.49797
G1 X155.057 Y15.447 E.02464
G1 X191.684 Y52.073 E2.53282
G1 X191.684 Y52.578 E.02469
G1 X154.553 Y15.447 E2.56771
G1 X154.049 Y15.447 E.02464
M73 P1 R357
G1 X191.684 Y53.082 E2.60256
G1 X191.684 Y53.586 E.02464
G1 X153.545 Y15.447 E2.63742
G1 X153.041 Y15.447 E.02464
M73 Q1 S357
G1 X191.684 Y54.09 E2.67227
G1 X191.684 Y54.594 E.02464
G1 X152.537 Y15.447 E2.70712
G1 X152.033 Y15.447 E.02464
G1 X191.684 Y55.098 E2.74197
G1 X191.684 Y55.602 E.02464
G1 X151.529 Y15.447 E2.77683
G1 X151.025 Y15.447 E.02464
G1 X191.684 Y56.106 E2.81168
G1 X191.684 Y56.61 E.02464
G1 X150.521 Y15.447 E2.84653
G1 X150.017 Y15.447 E.02464
G1 X191.684 Y57.114 E2.88139
G1 X191.684 Y57.618 E.02464
G1 X149.512 Y15.447 E2.91627
G1 X149.008 Y15.447 E.02464
G1 X191.684 Y58.122 E2.95113
G1 X191.684 Y58.626 E.02464
G1 X148.504 Y15.447 E2.98598
G1 X148 Y15.447 E.02464
G1 X191.684 Y59.13 E3.02083
G1 X191.684 Y59.634 E.02464
G1 X147.496 Y15.447 E3.05569
G1 X146.992 Y15.447 E.02464
G1 X191.684 Y60.138 E3.09054
G1 X191.684 Y60.642 E.02464
M73 P1 R356
G1 X146.488 Y15.447 E3.12539
G1 X145.984 Y15.447 E.02464
G1 X191.684 Y61.146 E3.16024
G1 X191.684 Y61.65 E.02464
M73 Q1 S356
G1 X145.48 Y15.446 E3.19513
G1 X144.976 Y15.446 E.02464
G1 X191.684 Y62.154 E3.22998
G1 X191.684 Y62.658 E.02464
G1 X144.472 Y15.446 E3.26484
G1 X143.968 Y15.446 E.02464
G1 X191.684 Y63.162 E3.29969
G1 X191.684 Y63.666 E.02464
G1 X143.464 Y15.446 E3.33454
G1 X142.96 Y15.446 E.02464
G1 X191.684 Y64.17 E3.3694
G1 X191.684 Y64.674 E.02464
G1 X142.456 Y15.446 E3.40425
G1 X141.952 Y15.446 E.02464
G1 X191.684 Y65.178 E3.4391
G1 X191.684 Y65.682 E.02464
G1 X141.448 Y15.446 E3.47396
G1 X140.944 Y15.446 E.02464
G1 X191.684 Y66.186 E3.50881
G1 X191.684 Y66.691 E.02469
G1 X140.439 Y15.446 E3.54373
G1 X139.935 Y15.446 E.02464
M73 P1 R355
G1 X191.684 Y67.195 E3.57858
G1 X191.684 Y67.699 E.02464
G1 X139.431 Y15.446 E3.61344
G1 X138.927 Y15.446 E.02464
M73 Q1 S355
G1 X191.684 Y68.203 E3.64829
G1 X191.684 Y68.707 E.02464
G1 X138.423 Y15.446 E3.68314
G1 X137.919 Y15.446 E.02464
G1 X191.684 Y69.211 E3.718
G1 X191.684 Y69.715 E.02464
G1 X137.415 Y15.446 E3.75285
G1 X136.911 Y15.446 E.02464
G1 X191.684 Y70.219 E3.7877
G1 X191.684 Y70.723 E.02464
G1 X136.407 Y15.446 E3.82255
G1 X135.903 Y15.446 E.02464
G1 X191.684 Y71.227 E3.85741
G1 X191.684 Y71.731 E.02464
M73 Q2 S355
G1 X135.399 Y15.446 E3.89226
G1 X134.895 Y15.446 E.02464
M73 P2 R355
