; generated by PrusaSlicer 2.7.4 on 2024-06-27 at 12:02:57 UTC


;
;
; 

; external perimeters extrusion width = 0.45mm
; perimeters extrusion width = 0.45mm
; infill extrusion width = 0.45mm
; solid infill extrusion width = 0.45mm
; top infill extrusion width = 0.40mm
; first layer extrusion width = 0.42mm

; external perimeters extrusion width = 0.45mm
; perimeters extrusion width = 0.45mm
; infill extrusion width = 0.45mm
; solid infill extrusion width = 0.45mm
; top infill extrusion width = 0.40mm
; first layer extrusion width = 0.42mm

; external perimeters extrusion width = 0.45mm
; perimeters extrusion width = 0.45mm
; infill extrusion width = 0.45mm
; solid infill extrusion width = 0.45mm
; top infill extrusion width = 0.40mm
; first layer extrusion width = 0.42mm

M73 P0 R543
M73 Q0 S543
M201 X1000 Y1000 Z200 E5000 ; sets maximum accelerations, mm/sec^2
M203 X200 Y200 Z12 E120 ; sets maximum feedrates, mm / sec
M204 S1250 T1250 ; sets acceleration (S) and retract acceleration (R), mm/sec^2
M205 X8.00 Y8.00 Z0.40 E4.50 ; sets the jerk limits, mm/sec
M205 S0 T0 ; sets the minimum extruding and travel feed rate, mm/sec

; printing object marker - marker_torso.stl id:1 copy 0
; stop printing object marker - marker_torso.stl id:1 copy 0
; printing object marker - marker_torso.stl id:0 copy 0
; stop printing object marker - marker_torso.stl id:0 copy 0
; printing object marker - marker_torso.stl id:2 copy 0
; stop printing object marker - marker_torso.stl id:2 copy 0

;TYPE:Custom
M862.3 P "MK3S" ; printer model check
M862.1 P0.4 ; nozzle diameter check
M115 U3.13.3 ; tell printer latest fw version
G90 ; use absolute coordinates
M83 ; extruder relative mode
M104 S230 ; set extruder temp
M140 S60 ; set bed temp
M190 S60 ; wait for bed temp
M109 S230 ; wait for extruder temp
G28 W ; home all without mesh bed level
G80 X7.34156 Y11.4666 W235.317 H187.067 ; mesh bed levelling

G1 Z0.2 F720
G1 Y-3 F1000 ; go outside print area
G92 E0
G1 X60 E9 F1000 ; intro line
G1 X100 E12.5 F1000 ; intro line
M73 P0 R542

G92 E0
M221 S95

; Don't change E values below. Excessive value can damage the printer.
M907 E430 ; set extruder motor current
G21 ; set units to millimeters
G90 ; use absolute coordinates
M83 ; use relative distances for extrusion
M900 K0 ; Filament gcode
M107
;LAYER_CHANGE
;Z:0.3
;HEIGHT:0.3
G1 X20.758 Y48.037 F10800
G1 Z.3 F720
M204 S800
;TYPE:Skirt/Brim
;WIDTH:0.42
G1 F900
G1 X104.175 Y11.99 E4.43369
G1 X105.059 Y11.722 E.04507
G1 X105.875 Y11.644 E.03999
G1 X238.125 Y11.644 E6.45252
G1 X238.932 Y11.72 E.03955
M73 Q0 S542
G1 X239.744 Y11.957 E.04127
G1 X240.508 Y12.355 E.04203
G1 X241.168 Y12.884 E.04127
G1 X241.722 Y13.544 E.04204
G1 X242.094 Y14.206 E.03705
G1 X242.364 Y14.999 E.04087
G1 X242.478 Y15.861 E.04242
G1 X242.481 Y187 E8.34992
G1 X242.39 Y188.431 E.06996
G1 X242.2 Y189.508 E.05336
G1 X241.813 Y190.835 E.06744
G1 X241.221 Y192.198 E.0725
G1 X240.674 Y193.144 E.05332
G1 X239.856 Y194.26 E.06751
G1 X239.118 Y195.066 E.05332
G1 X237.997 Y196.04 E.07246
G1 X236.414 Y197.048 E.09156
G1 X234.589 Y197.814 E.09657
G1 X233.046 Y198.191 E.0775
G1 X231.176 Y198.355 E.09159
G1 X112.431 Y198.346 E5.7936
G1 X17.444 Y190.734 E4.6493
G1 X15.411 Y190.284 E.10159
G1 X14.123 Y189.782 E.06745
G1 X13.242 Y189.329 E.04833
G1 X11.537 Y188.135 E.10156
G1 X10.538 Y187.179 E.06746
G1 X9.835 Y186.341 E.05337
G1 X8.827 Y184.758 E.09156
G1 X8.061 Y182.933 E.09657
G1 X7.684 Y181.391 E.07745
G1 X7.52 Y179.521 E.09159
G1 X7.52 Y61.168 E5.77448
G1 X7.61 Y59.788 E.06747
G1 X7.884 Y58.368 E.07056
G1 X8.222 Y57.287 E.05526
G1 X8.779 Y56.022 E.06744
G1 X9.326 Y55.075 E.05336
G1 X10.144 Y53.96 E.06747
G1 X10.882 Y53.154 E.05332
G1 X12.003 Y52.18 E.07246
G1 X13.242 Y51.36 E.07249
G1 X14.496 Y50.742 E.06821
G1 X20.703 Y48.06 E.3299
M204 S1000
; printing object marker - marker_torso.stl id:2 copy 0
G1 X20.703 Y48.06 F10800
G1 X96.172 Y53.404
M204 S800
;TYPE:Perimeter
;WIDTH:0.42
G1 F900
G1 X96.429 Y53.545 E.0143
G1 X96.678 Y53.877 E.02025
G1 X96.747 Y54.209 E.01654
G1 X96.754 Y186.408 E6.45002
G1 X96.673 Y186.8 E.01953
M73 P0 R541
G1 X96.491 Y187.085 E.0165
G1 X96.206 Y187.267 E.0165
G1 X95.818 Y187.348 E.01934
G1 X95.147 Y187.341 E.03274
G1 X94.566 Y187.193 E.02925
G1 X93.662 Y186.765 E.0488
G1 X93.167 Y186.571 E.02594
G1 X92.645 Y186.429 E.02639
G1 X92.024 Y186.353 E.03052
G1 X91.387 Y186.382 E.03111
G1 X90.775 Y186.51 E.03051
G1 X90.247 Y186.697 E.02733
G1 X89.006 Y187.26 E.06649
G1 X88.437 Y187.348 E.02809
G1 X18.907 Y187.348 E3.39239
G1 X17.847 Y187.279 E.05183
G1 X16.827 Y187.076 E.05074
G1 X16.18 Y186.872 E.0331
G1 X15.546 Y186.609 E.03349
G1 X14.944 Y186.296 E.0331
G1 X14.08 Y185.718 E.05072
G1 X13.298 Y185.033 E.05072
G1 X12.84 Y184.533 E.03308
G1 X12.422 Y183.988 E.03351
G1 X12.058 Y183.416 E.03308
G1 X11.593 Y182.475 E.05121
G1 X11.362 Y181.838 E.03306
G1 X11.184 Y181.174 E.03354
G1 X11.065 Y180.498 E.03349
G1 X11.005 Y179.813 E.03355
G1 X10.996 Y61.251 E5.78467
G1 X11.066 Y60.182 E.05227
M73 Q0 S541
G1 X11.184 Y59.514 E.0331
G1 X11.362 Y58.851 E.03349
G1 X11.597 Y58.205 E.03354
G1 X11.887 Y57.582 E.03353
G1 X12.231 Y56.987 E.03353
G1 X12.62 Y56.431 E.03311
G1 X13.312 Y55.642 E.0512
G1 X13.804 Y55.191 E.03256
G1 X14.643 Y54.576 E.05075
G1 X15.555 Y54.076 E.05075
G1 X16.181 Y53.817 E.03305
G1 X16.836 Y53.61 E.03352
G1 X17.498 Y53.463 E.03309
G1 X18.541 Y53.349 E.05119
G1 X88.409 Y53.343 E3.40888
G1 X88.813 Y53.377 E.01978
G1 X89.221 Y53.522 E.02113
G1 X90.121 Y53.938 E.04838
G1 X90.709 Y54.16 E.03067
G1 X91.219 Y54.281 E.02557
G1 X91.868 Y54.338 E.03179
G1 X92.489 Y54.288 E.0304
G1 X93.112 Y54.137 E.03128
G1 X93.662 Y53.924 E.02878
G1 X94.462 Y53.546 E.04317
G1 X94.813 Y53.419 E.01821
G1 X95.234 Y53.342 E.02088
G1 X95.768 Y53.342 E.02605
G1 X96.113 Y53.395 E.01703
M204 S1000
G1 X96.113 Y53.395 F10800
G1 X96.295 Y53.066
M204 S800
G1 F900
G1 X96.459 Y53.156 E.00913
G1 X96.77 Y53.375 E.01856
G1 X97.037 Y53.823 E.02545
G1 X97.102 Y54.209 E.0191
G1 X97.109 Y186.343 E6.44685
G1 X97.063 Y186.788 E.02183
G1 X96.94 Y187.084 E.01564
G1 X96.744 Y187.339 E.01569
G1 X96.49 Y187.534 E.01562
G1 X96.193 Y187.657 E.01568
G1 X95.84 Y187.703 E.01737
G1 X95.254 Y187.698 E.02859
G1 X94.796 Y187.645 E.0225
G1 X94.329 Y187.474 E.02426
G1 X93.074 Y186.914 E.06705
G1 X92.552 Y186.772 E.02639
G1 X91.988 Y186.707 E.0277
G1 X91.41 Y186.737 E.02824
G1 X90.891 Y186.846 E.02587
G1 X90.398 Y187.019 E.02549
G1 X89.464 Y187.459 E.05037
G1 X88.976 Y187.634 E.02529
G1 X88.451 Y187.704 E.02584
G1 X18.895 Y187.704 E3.39365
G1 X17.8 Y187.632 E.05354
G1 X16.738 Y187.421 E.05283
G1 X16.059 Y187.207 E.03473
G1 X15.396 Y186.932 E.03502
G1 X14.763 Y186.603 E.03481
G1 X13.863 Y186.001 E.05283
G1 X13.049 Y185.287 E.05283
G1 X12.567 Y184.762 E.03477
G1 X12.13 Y184.192 E.03504
G1 X11.747 Y183.591 E.03477
G1 X11.266 Y182.615 E.05309
G1 X11.022 Y181.945 E.03479
G1 X10.836 Y181.251 E.03506
G1 X10.712 Y180.544 E.03502
G1 X10.649 Y179.829 E.03502
G1 X10.641 Y61.239 E5.78603
G1 X10.713 Y60.139 E.05378
G1 X10.836 Y59.437 E.03477
G1 X11.022 Y58.744 E.03501
G1 X11.268 Y58.068 E.0351
G1 X11.572 Y57.417 E.03505
G1 X11.93 Y56.796 E.03497
G1 X12.34 Y56.212 E.03481
G1 X13.057 Y55.393 E.05311
G1 X13.578 Y54.916 E.03446
G1 X14.452 Y54.275 E.05288
G1 X15.401 Y53.755 E.0528
G1 X16.059 Y53.482 E.03476
G1 X16.744 Y53.266 E.03504
G1 X17.44 Y53.112 E.03478
G1 X18.522 Y52.993 E.05311
G1 X88.409 Y52.987 E3.4098
G1 X88.884 Y53.027 E.02326
G1 X89.371 Y53.2 E.02522
G1 X90.25 Y53.607 E.04726
G1 X90.737 Y53.796 E.02549
G1 X91.257 Y53.928 E.02618
G1 X91.846 Y53.984 E.02887
G1 X92.41 Y53.942 E.02759
G1 X92.985 Y53.805 E.02884
G1 X93.51 Y53.603 E.02745
G1 X94.309 Y53.224 E.04315
G1 X94.706 Y53.08 E.0206
G1 X95.213 Y52.987 E.02515
G1 X95.768 Y52.987 E.02708
G1 X96.236 Y53.057 E.02309
M204 S1000
G1 X96.236 Y53.057 F10800
G1 X96.418 Y52.728
M204 S800
;TYPE:External perimeter
G1 F900
G1 X96.945 Y53.052 E.03018
G1 X97.23 Y53.422 E.02279
G1 X97.41 Y53.808 E.02078
G1 X97.458 Y54.209 E.0197
G1 X97.465 Y186.343 E6.44685
G1 X97.409 Y186.881 E.02639
M73 P0 R540
G1 X97.251 Y187.264 E.02021
G1 X96.998 Y187.593 E.02025
G1 X96.669 Y187.845 E.02022
G1 X96.286 Y188.004 E.02023
G1 X95.861 Y188.059 E.02091
G1 X95.25 Y188.054 E.02981
G1 X94.71 Y187.992 E.02652
G1 X94.177 Y187.796 E.02771
G1 X92.98 Y187.257 E.06405
G1 X92.459 Y187.116 E.02633
G1 X91.951 Y187.061 E.02493
G1 X91.433 Y187.092 E.02532
G1 X91.027 Y187.177 E.02024
G1 X90.55 Y187.34 E.02459
G1 X89.607 Y187.785 E.05087
G1 X89.062 Y187.979 E.02823
G1 X88.465 Y188.059 E.02939
G1 X18.883 Y188.059 E3.39492
G1 X17.753 Y187.985 E.05525
G1 X16.65 Y187.766 E.05487
G1 X15.937 Y187.541 E.03648
G1 X15.245 Y187.255 E.03653
G1 X14.582 Y186.909 E.03649
G1 X13.646 Y186.284 E.05491
G1 X12.8 Y185.542 E.0549
G1 X12.295 Y184.991 E.03647
G1 X11.839 Y184.397 E.03654
G1 X11.437 Y183.766 E.0365
G1 X10.938 Y182.755 E.05501
G1 X10.683 Y182.052 E.03649
G1 X10.489 Y181.328 E.03657
G1 X10.359 Y180.591 E.03651
G1 X10.293 Y179.844 E.03659
G1 X10.285 Y61.228 E5.7873
G1 X10.359 Y60.096 E.05535
M73 Q0 S540
G1 X10.489 Y59.36 E.03647
G1 X10.683 Y58.637 E.03652
G1 X10.939 Y57.932 E.03659
G1 X11.256 Y57.253 E.03656
G1 X11.63 Y56.604 E.03655
G1 X12.059 Y55.992 E.03647
G1 X12.803 Y55.144 E.05504
G1 X13.352 Y54.64 E.03636
G1 X14.26 Y53.975 E.05491
G1 X15.247 Y53.434 E.05492
G1 X15.937 Y53.148 E.03644
G1 X16.651 Y52.922 E.03654
G1 X17.382 Y52.761 E.03652
G1 X18.502 Y52.638 E.05497
G1 X88.409 Y52.631 E3.41078
G1 X88.955 Y52.678 E.02674
G1 X89.521 Y52.877 E.02927
G1 X90.597 Y53.36 E.05754
G1 X91.295 Y53.574 E.03562
G1 X91.825 Y53.629 E.026
G1 X92.331 Y53.595 E.02474
G1 X92.858 Y53.472 E.0264
G1 X93.357 Y53.282 E.02605
G1 X94.298 Y52.836 E.05081
G1 X94.798 Y52.677 E.0256
G1 X95.192 Y52.631 E.01935
G1 X95.768 Y52.631 E.0281
G1 X96.359 Y52.719 E.02915
M204 S1000
G1 X96.71 Y52.911 F10800
G1 X96.587 Y54.654
M204 S800
;TYPE:Solid infill
;WIDTH:0.4208
G1 F900
G1 X95.596 Y53.662 E.06857
G1 X95.111 Y53.682 E.02374
G1 X96.427 Y54.998 E.09101
G1 X96.427 Y55.502 E.02465
G1 X94.712 Y53.787 E.1186
G1 X94.366 Y53.945 E.0186
G1 X96.427 Y56.006 E.14253
G1 X96.427 Y56.51 E.02465
G1 X94.024 Y54.107 E.16618
G1 X93.673 Y54.261 E.01874
G1 X96.427 Y57.014 E.19042
G1 X96.427 Y57.518 E.02465
G1 X93.306 Y54.397 E.21583
G1 X92.922 Y54.518 E.01969
G1 X96.427 Y58.022 E.24235
G1 X96.427 Y58.526 E.02465
G1 X92.507 Y54.606 E.27109
G1 X92.042 Y54.645 E.02282
G1 X96.427 Y59.03 E.30324
G1 X96.427 Y59.535 E.02469
G1 X91.521 Y54.628 E.33931
G1 X91.177 Y54.599 E.01688
G1 X90.929 Y54.54 E.01247
G1 X96.427 Y60.039 E.38025
G1 X96.427 Y60.543 E.02465
G1 X90.187 Y54.303 E.43153
G1 X89.938 Y54.208 E.01303
G1 X89.285 Y53.905 E.0352
G1 X96.427 Y61.047 E.49391
G1 X96.427 Y61.551 E.02465
G1 X88.544 Y53.667 E.54518
G1 X88.035 Y53.663 E.02489
G1 X96.427 Y62.055 E.58035
G1 X96.427 Y62.559 E.02465
G1 X87.531 Y53.663 E.6152
G1 X87.027 Y53.663 E.02465
G1 X96.427 Y63.063 E.65006
G1 X96.427 Y63.567 E.02465
G1 X86.523 Y53.663 E.68491
G1 X86.019 Y53.663 E.02465
G1 X96.427 Y64.071 E.71977
G1 X96.427 Y64.575 E.02465
G1 X85.515 Y53.663 E.75462
G1 X85.011 Y53.663 E.02465
G1 X96.427 Y65.079 E.78947
G1 X96.427 Y65.583 E.02465
G1 X84.507 Y53.663 E.82433
G1 X84.003 Y53.663 E.02465
G1 X96.427 Y66.088 E.85922
G1 X96.427 Y66.592 E.02465
G1 X83.499 Y53.663 E.89407
G1 X82.995 Y53.663 E.02465
G1 X96.427 Y67.096 E.92893
G1 X96.428 Y67.6 E.02465
G1 X82.491 Y53.663 E.96381
G1 X81.987 Y53.663 E.02465
G1 X96.428 Y68.104 E.99867
G1 X96.428 Y68.608 E.02465
G1 X81.483 Y53.663 E1.03352
G1 X80.979 Y53.663 E.02465
G1 X96.428 Y69.112 E1.06838
G1 X96.428 Y69.616 E.02465
G1 X80.475 Y53.663 E1.10323
G1 X79.971 Y53.664 E.02465
G1 X96.428 Y70.12 E1.13805
G1 X96.428 Y70.624 E.02465
G1 X79.467 Y53.664 E1.1729
G1 X78.963 Y53.664 E.02465
G1 X96.428 Y71.128 E1.20776
G1 X96.428 Y71.632 E.02465
G1 X78.459 Y53.664 E1.24261
G1 X77.955 Y53.664 E.02465
G1 X96.428 Y72.136 E1.27747
G1 X96.428 Y72.641 E.02469
G1 X77.451 Y53.664 E1.31236
G1 X76.947 Y53.664 E.02465
G1 X96.428 Y73.145 E1.34721
G1 X96.428 Y73.649 E.02465
M73 P0 R539
G1 X76.443 Y53.664 E1.38206
G1 X75.939 Y53.664 E.02465
G1 X96.428 Y74.153 E1.41692
G1 X96.428 Y74.657 E.02465
G1 X75.435 Y53.664 E1.45177
G1 X74.931 Y53.664 E.02465
G1 X96.428 Y75.161 E1.48663
G1 X96.428 Y75.665 E.02465
G1 X74.427 Y53.664 E1.52148
G1 X73.923 Y53.664 E.02465
G1 X96.428 Y76.169 E1.55633
G1 X96.428 Y76.673 E.02465
G1 X73.419 Y53.664 E1.59119
G1 X72.915 Y53.664 E.02465
M73 Q0 S539
G1 X96.428 Y77.177 E1.62604
G1 X96.428 Y77.681 E.02465
G1 X72.411 Y53.664 E1.6609
G1 X71.907 Y53.664 E.02465
G1 X96.428 Y78.185 E1.69575
G1 X96.428 Y78.689 E.02465
G1 X71.403 Y53.664 E1.7306
G1 X70.899 Y53.664 E.02465
G1 X96.428 Y79.194 E1.76549
G1 X96.428 Y79.698 E.02465
G1 X70.395 Y53.664 E1.80035
G1 X69.891 Y53.664 E.02465
G1 X96.428 Y80.202 E1.8352
G1 X96.428 Y80.706 E.02465
G1 X69.387 Y53.665 E1.87002
G1 X68.883 Y53.665 E.02465
G1 X96.428 Y81.21 E1.90488
G1 X96.428 Y81.714 E.02465
G1 X68.379 Y53.665 E1.93973
G1 X67.875 Y53.665 E.02465
G1 X96.428 Y82.218 E1.97458
G1 X96.428 Y82.722 E.02465
G1 X67.371 Y53.665 E2.00944
G1 X66.867 Y53.665 E.02465
G1 X96.428 Y83.226 E2.04429
G1 X96.428 Y83.73 E.02465
G1 X66.363 Y53.665 E2.07915
G1 X65.859 Y53.665 E.02465
G1 X96.428 Y84.234 E2.114
G1 X96.428 Y84.738 E.02465
G1 X65.355 Y53.665 E2.14885
G1 X64.851 Y53.665 E.02465
G1 X96.428 Y85.243 E2.18374
G1 X96.428 Y85.747 E.02465
M73 P0 R538
G1 X64.347 Y53.665 E2.2186
G1 X63.843 Y53.665 E.02465
G1 X96.428 Y86.251 E2.25345
G1 X96.429 Y86.755 E.02465
G1 X63.339 Y53.665 E2.28834
G1 X62.835 Y53.665 E.02465
G1 X96.429 Y87.259 E2.32319
G1 X96.429 Y87.763 E.02465
G1 X62.331 Y53.665 E2.35805
G1 X61.827 Y53.665 E.02465
M73 Q0 S538
G1 X96.429 Y88.267 E2.3929
G1 X96.429 Y88.771 E.02465
G1 X61.323 Y53.665 E2.42776
G1 X60.819 Y53.665 E.02465
G1 X96.429 Y89.275 E2.46261
G1 X96.429 Y89.779 E.02465
G1 X60.315 Y53.665 E2.49747
G1 X59.811 Y53.665 E.02465
G1 X96.429 Y90.283 E2.53232
G1 X96.429 Y90.787 E.02465
G1 X59.307 Y53.665 E2.56717
G1 X58.803 Y53.665 E.02465
G1 X96.429 Y91.291 E2.60203
G1 X96.429 Y91.796 E.02469
G1 X58.299 Y53.666 E2.63688
G1 X57.795 Y53.666 E.02465
G1 X96.429 Y92.3 E2.67174
G1 X96.429 Y92.804 E.02465
G1 X57.291 Y53.666 E2.70659
G1 X56.787 Y53.666 E.02465
G1 X96.429 Y93.308 E2.74144
G1 X96.429 Y93.812 E.02465
G1 X56.283 Y53.666 E2.7763
G1 X55.779 Y53.666 E.02465
G1 X96.429 Y94.316 E2.81115
G1 X96.429 Y94.82 E.02465
M73 P0 R537
G1 X55.275 Y53.666 E2.84601
G1 X54.771 Y53.666 E.02465
G1 X96.429 Y95.324 E2.88086
G1 X96.429 Y95.828 E.02465
G1 X54.267 Y53.666 E2.91571
G1 X53.763 Y53.666 E.02465
M73 Q0 S537
G1 X96.429 Y96.332 E2.95057
G1 X96.429 Y96.836 E.02465
G1 X53.259 Y53.666 E2.98542
G1 X52.755 Y53.666 E.02465
M73 P1 R537
M73 Q1 S537
G1 X96.429 Y97.34 E3.02028
G1 X96.429 Y97.844 E.02465
G1 X52.251 Y53.666 E3.05513
G1 X51.747 Y53.666 E.02465
G1 X96.429 Y98.349 E3.09002
G1 X96.429 Y98.853 E.02465
G1 X51.243 Y53.666 E3.12487
G1 X50.739 Y53.666 E.02465
G1 X96.429 Y99.357 E3.15973
G1 X96.429 Y99.861 E.02465
G1 X50.235 Y53.666 E3.19458
G1 X49.731 Y53.666 E.02465
G1 X96.429 Y100.365 E3.22944
G1 X96.429 Y100.869 E.02465
G1 X49.227 Y53.666 E3.26429
G1 X48.723 Y53.666 E.02465
G1 X96.429 Y101.373 E3.29914
G1 X96.429 Y101.877 E.02465
M73 P1 R536
G1 X48.219 Y53.666 E3.334
G1 X47.715 Y53.666 E.02465
G1 X96.429 Y102.381 E3.36885
G1 X96.429 Y102.885 E.02465
G1 X47.211 Y53.667 E3.40367
G1 X46.707 Y53.667 E.02465
M73 Q1 S536
G1 X96.429 Y103.389 E3.43853
G1 X96.429 Y103.893 E.02465
G1 X46.203 Y53.667 E3.47338
G1 X45.699 Y53.667 E.02465
G1 X96.429 Y104.398 E3.50827
G1 X96.429 Y104.902 E.02465
G1 X45.195 Y53.667 E3.54312
G1 X44.691 Y53.667 E.02465
G1 X96.429 Y105.406 E3.57798
G1 X96.43 Y105.91 E.02465
G1 X44.187 Y53.667 E3.61287
G1 X43.683 Y53.667 E.02465
G1 X96.43 Y106.414 E3.64772
G1 X96.43 Y106.918 E.02465
G1 X43.179 Y53.667 E3.68257
G1 X42.675 Y53.667 E.02465
G1 X96.43 Y107.422 E3.71743
G1 X96.43 Y107.926 E.02465
M73 P1 R535
G1 X42.171 Y53.667 E3.75228
G1 X41.667 Y53.667 E.02465
G1 X96.43 Y108.43 E3.78714
G1 X96.43 Y108.934 E.02465
G1 X41.163 Y53.667 E3.82199
G1 X40.659 Y53.667 E.02465
M73 Q1 S535
