; generated by PrusaSlicer 2.7.4 on 2024-06-06 at 08:45:51 UTC


;
;
; 

; external perimeters extrusion width = 0.45mm
; perimeters extrusion width = 0.45mm
; infill extrusion width = 0.45mm
; solid infill extrusion width = 0.45mm
; top infill extrusion width = 0.40mm
; support material extrusion width = 0.35mm
; first layer extrusion width = 0.42mm

M73 P0 R92
M73 Q0 S95
M201 X1000 Y1000 Z200 E5000 ; sets maximum accelerations, mm/sec^2
M203 X200 Y200 Z12 E120 ; sets maximum feedrates, mm / sec
M204 S1250 T1250 ; sets acceleration (S) and retract acceleration (R), mm/sec^2
M205 X8.00 Y8.00 Z0.40 E4.50 ; sets the jerk limits, mm/sec
M205 S0 T0 ; sets the minimum extruding and travel feed rate, mm/sec

; printing object frame - frame_torso.stl id:0 copy 0
; stop printing object frame - frame_torso.stl id:0 copy 0

;TYPE:Custom
M862.3 P "MK3S" ; printer model check
M862.1 P0.4 ; nozzle diameter check
M115 U3.13.3 ; tell printer latest fw version
G90 ; use absolute coordinates
M83 ; extruder relative mode
M104 S215 ; set extruder temp
M140 S60 ; set bed temp
M190 S60 ; wait for bed temp
M109 S215 ; wait for extruder temp
G28 W ; home all without mesh bed level
G80 X46.3852 Y62.4344 W157.23 H89.6021 ; mesh bed levelling

G1 Z0.2 F720
G1 Y-3 F1000 ; go outside print area
G92 E0
G1 X60 E9 F1000 ; intro line
G1 X100 E12.5 F1000 ; intro line

G92 E0
M221 S95

; Don't change E values below. Excessive value can damage the printer.

M907 E538 ; set extruder motor current
G21 ; set units to millimeters
G90 ; use absolute coordinates
M83 ; use relative distances for extrusion

M900 K0.05 ; Filament gcode LA 1.5
M900 K30 ; Filament gcode LA 1.0




M107
;LAYER_CHANGE
;Z:0.2
;HEIGHT:0.2
G1 E-.8 F2100
G1 Z.6 F720
G1 X49.005 Y63.808 F10800
G1 Z.2 F720
G1 E.8 F2100
M204 S800
;TYPE:Skirt/Brim
;WIDTH:0.42
G1 F1200
G1 X49.767 Y63.236 E.02987
G1 X50.817 Y62.786 E.03582
G1 X52 Y62.623 E.03744
G1 X198.052 Y62.623 E4.57936
G1 X198.709 Y62.681 E.02068
G1 X199.365 Y62.842 E.02118
G1 X199.975 Y63.094 E.02069
G1 X200.62 Y63.494 E.0238
G1 X201.125 Y63.935 E.02102
G1 X201.555 Y64.447 E.02096
G1 X201.945 Y65.103 E.02393
G1 X202.19 Y65.733 E.02119
G1 X202.362 Y66.633 E.02873
G1 X203.426 Y79.923 E.41803
G1 X203.412 Y130.422 E1.58336
G1 X202.262 Y143.998 E.42719
M73 Q0 S94
G1 X201.988 Y144.802 E.02663
G1 X199.305 Y150.486 E.19707
G1 X198.393 Y151.501 E.04278
G1 X197.156 Y151.848 E.04028
G1 X52.844 Y151.848 E4.5248
G1 X51.537 Y151.456 E.04278
G1 X50.695 Y150.486 E.04027
G1 X48.012 Y144.802 E.19707
G1 X47.716 Y143.896 E.02988
G1 X46.574 Y130.084 E.43454
G1 X46.583 Y79.668 E1.58076
G1 X47.699 Y66.189 E.42407
G1 X47.973 Y65.287 E.02956
G1 X48.439 Y64.455 E.0299
G1 X48.966 Y63.854 E.02506
M204 S1000
;WIPE_START
G1 F8640
G1 X49.005 Y63.808 E-.01393
G1 X49.767 Y63.236 E-.22
G1 X50.817 Y62.786 E-.26378
G1 X52 Y62.623 E-.27574
G1 X52.115 Y62.623 E-.02655
;WIPE_END
G1 Z.6 F720
; printing object frame - frame_torso.stl id:0 copy 0
G1 X197.156 Y149.471 F10800
G1 Z.2 F720
G1 E.8 F2100
M204 S800
;TYPE:Support material
G1 F1200
G1 X184.348 Y149.471 E.40159
G1 X184.348 Y145.48 E.12514
G1 X197.156 Y145.48 E.40159
G1 X197.156 Y149.414 E.12335
M204 S1000
G1 X197.156 Y149.414 F10800
G1 X196.645 Y149.301
M204 S800
G1 F1200
G1 X196.645 Y145.819 E.10918
G1 X196.226 Y145.819 E.01314
G1 X196.226 Y149.132 E.10388
G1 X195.807 Y149.132 E.01314
G1 X195.807 Y145.819 E.10388
G1 X195.388 Y145.819 E.01314
G1 X195.388 Y149.132 E.10388
G1 X194.969 Y149.132 E.01314
G1 X194.969 Y145.819 E.10388
G1 X194.55 Y145.819 E.01314
G1 X194.55 Y149.132 E.10388
G1 X194.131 Y149.132 E.01314
G1 X194.131 Y145.819 E.10388
G1 X193.712 Y145.819 E.01314
G1 X193.712 Y149.132 E.10388
G1 X193.293 Y149.132 E.01314
G1 X193.293 Y145.819 E.10388
G1 X192.874 Y145.819 E.01314
G1 X192.874 Y149.132 E.10388
G1 X192.455 Y149.132 E.01314
G1 X192.455 Y145.819 E.10388
G1 X192.036 Y145.819 E.01314
G1 X192.036 Y149.132 E.10388
G1 X191.617 Y149.132 E.01314
G1 X191.617 Y145.819 E.10388
G1 X191.198 Y145.819 E.01314
G1 X191.198 Y149.132 E.10388
G1 X190.779 Y149.132 E.01314
G1 X190.779 Y145.819 E.10388
G1 X190.36 Y145.819 E.01314
G1 X190.36 Y149.132 E.10388
G1 X189.941 Y149.132 E.01314
G1 X189.941 Y145.819 E.10388
G1 X189.522 Y145.819 E.01314
G1 X189.522 Y149.132 E.10388
G1 X189.103 Y149.132 E.01314
G1 X189.103 Y145.819 E.10388
G1 X188.685 Y145.819 E.01311
G1 X188.685 Y149.132 E.10388
G1 X188.266 Y149.132 E.01314
G1 X188.266 Y145.819 E.10388
G1 X187.847 Y145.819 E.01314
G1 X187.847 Y149.132 E.10388
G1 X187.428 Y149.132 E.01314
G1 X187.428 Y145.819 E.10388
G1 X187.009 Y145.819 E.01314
G1 X187.009 Y149.132 E.10388
G1 X186.59 Y149.132 E.01314
G1 X186.59 Y145.819 E.10388
G1 X186.171 Y145.819 E.01314
G1 X186.171 Y149.132 E.10388
G1 X185.752 Y149.132 E.01314
G1 X185.752 Y145.819 E.10388
G1 X185.333 Y145.819 E.01314
G1 X185.333 Y149.132 E.10388
G1 X184.914 Y149.132 E.01314
G1 X184.914 Y145.65 E.10918
M204 S1000
;WIPE_START
G1 F8640
G1 X184.914 Y149.114 E-.8
;WIPE_END
G1 Z.6 F720
G1 X186.059 Y107.981 F10800
G1 Z.2 F720
G1 E.8 F2100
M204 S800
G1 F1200
G1 X186.582 Y108.096 E.01679
G1 X187.075 Y108.425 E.01858
G1 X187.377 Y108.858 E.01655
G1 X187.518 Y109.434 E.01859
G1 X187.518 Y138.066 E.89774
G1 X187.45 Y138.457 E.01244
G1 X187.282 Y138.817 E.01246
G1 X187.027 Y139.121 E.01244
G1 X186.642 Y139.377 E.0145
G1 X186.066 Y139.518 E.01859
G1 X184.348 Y139.52 E.05387
G1 X184.348 Y107.98 E.98891
G1 X186.003 Y107.98 E.05189
M204 S1000
G1 X186.003 Y107.98 F10800
G1 X187.009 Y138.897
M204 S800
G1 F1200
G1 X187.009 Y108.887 E.94094
G1 X186.59 Y108.477 E.01838
G1 X186.59 Y139.023 E.95775
G1 X186.171 Y139.168 E.0139
G1 X186.171 Y108.332 E.96684
G1 X185.752 Y108.319 E.01314
G1 X185.752 Y139.181 E.96766
G1 X185.333 Y139.181 E.01314
M73 P0 R91
G1 X185.333 Y108.319 E.96766
G1 X184.914 Y108.319 E.01314
G1 X184.914 Y139.35 E.97296
M204 S1000
;WIPE_START
G1 F8640
G1 X184.914 Y135.885 E-.8
;WIPE_END
G1 Z.6 F720
G1 X186.059 Y80.481 F10800
G1 Z.2 F720
G1 E.8 F2100
M204 S800
G1 F1200
G1 X186.582 Y80.596 E.01679
G1 X187.027 Y80.879 E.01654
G1 X187.374 Y81.351 E.01837
G1 X187.514 Y81.868 E.01679
G1 X187.514 Y100.632 E.58833
G1 X187.428 Y101.02 E.01246
M73 P1 R91
G1 X187.245 Y101.372 E.01244
G1 X186.977 Y101.664 E.01243
G1 X186.582 Y101.904 E.01449
G1 X186.066 Y102.018 E.01657
G1 X184.348 Y102.02 E.05387
G1 X184.348 Y80.48 E.67537
G1 X186.003 Y80.48 E.05189
M73 Q1 S94
M204 S1000
G1 X186.003 Y80.48 F10800
G1 X187.009 Y101.397
M204 S800
G1 F1200
G1 X187.009 Y81.387 E.6274
G1 X186.59 Y80.977 E.01838
G1 X186.59 Y101.523 E.64421
G1 X186.171 Y101.668 E.0139
G1 X186.171 Y80.832 E.6533
G1 X185.752 Y80.819 E.01314
G1 X185.752 Y101.681 E.65411
G1 X185.333 Y101.681 E.01314
G1 X185.333 Y80.819 E.65411
G1 X184.914 Y80.819 E.01314
G1 X184.914 Y101.85 E.65941
M204 S1000
;WIPE_START
G1 F8640
G1 X184.914 Y98.385 E-.8
;WIPE_END
G1 Z.6 F720
G1 X65.652 Y102.02 F10800
G1 Z.2 F720
G1 E.8 F2100
M204 S800
G1 F1200
G1 X63.934 Y102.018 E.05387
G1 X63.418 Y101.904 E.01657
G1 X63.075 Y101.706 E.01242
G1 X62.794 Y101.425 E.01246
G1 X62.574 Y101.026 E.01429
G1 X62.486 Y100.632 E.01266
G1 X62.486 Y81.868 E.58833
G1 X62.623 Y81.358 E.01656
G1 X62.925 Y80.925 E.01655
G1 X63.358 Y80.623 E.01655
G1 X63.868 Y80.486 E.01656
G1 X65.652 Y80.48 E.05594
G1 X65.652 Y101.963 E.67358
M204 S1000
G1 X65.652 Y101.963 F10800
G1 X65.086 Y101.85
M204 S800
G1 F1200
G1 X65.086 Y80.819 E.65941
G1 X64.667 Y80.819 E.01314
G1 X64.667 Y101.681 E.65411
G1 X64.248 Y101.681 E.01314
G1 X64.248 Y80.819 E.65411
G1 X63.829 Y80.832 E.01314
G1 X63.829 Y101.668 E.6533
G1 X63.41 Y101.523 E.0139
G1 X63.41 Y80.977 E.64421
G1 X62.991 Y81.387 E.01838
G1 X62.991 Y101.397 E.6274
M204 S1000
;WIPE_START
G1 F8640
G1 X62.991 Y97.932 E-.8
;WIPE_END
G1 Z.6 F720
G1 X65.652 Y139.52 F10800
G1 Z.2 F720
G1 E.8 F2100
M73 Q1 S93
M204 S800
G1 F1200
G1 X63.934 Y139.518 E.05387
G1 X63.358 Y139.377 E.01859
G1 X63.023 Y139.164 E.01245
G1 X62.718 Y138.817 E.01449
G1 X62.55 Y138.457 E.01246
G1 X62.482 Y138.066 E.01244
G1 X62.482 Y109.434 E.89774
G1 X62.62 Y108.864 E.01839
G1 X62.925 Y108.425 E.01676
G1 X63.412 Y108.099 E.01837
G1 X63.934 Y107.982 E.01677
G1 X65.652 Y107.98 E.05387
G1 X65.652 Y139.463 E.98713
M204 S1000
G1 X65.652 Y139.463 F10800
G1 X65.086 Y139.35
M204 S800
G1 F1200
G1 X65.086 Y108.319 E.97296
G1 X64.667 Y108.319 E.01314
G1 X64.667 Y139.181 E.96766
G1 X64.248 Y139.181 E.01314
G1 X64.248 Y108.319 E.96766
G1 X63.829 Y108.332 E.01314
G1 X63.829 Y139.168 E.96684
G1 X63.41 Y139.023 E.0139
G1 X63.41 Y108.477 E.95775
G1 X62.991 Y108.887 E.01838
G1 X62.991 Y138.897 E.94094
M204 S1000
;WIPE_START
G1 F8640
G1 X62.991 Y135.432 E-.8
;WIPE_END
G1 Z.6 F720
G1 X65.652 Y149.471 F10800
G1 Z.2 F720
G1 E.8 F2100
M204 S800
G1 F1200
G1 X52.844 Y149.471 E.40159
G1 X52.844 Y145.48 E.12514
G1 X65.652 Y145.48 E.40159
G1 X65.652 Y149.414 E.12335
M204 S1000
G1 X65.652 Y149.414 F10800
G1 X65.086 Y149.301
M204 S800
G1 F1200
G1 X65.086 Y145.819 E.10918
G1 X64.667 Y145.819 E.01314
G1 X64.667 Y149.132 E.10388
G1 X64.248 Y149.132 E.01314
G1 X64.248 Y145.819 E.10388
G1 X63.829 Y145.819 E.01314
G1 X63.829 Y149.132 E.10388
G1 X63.41 Y149.132 E.01314
G1 X63.41 Y145.819 E.10388
G1 X62.991 Y145.819 E.01314
G1 X62.991 Y149.132 E.10388
G1 X62.572 Y149.132 E.01314
G1 X62.572 Y145.819 E.10388
G1 X62.153 Y145.819 E.01314
G1 X62.153 Y149.132 E.10388
G1 X61.734 Y149.132 E.01314
G1 X61.734 Y145.819 E.10388
G1 X61.315 Y145.819 E.01314
G1 X61.315 Y149.132 E.10388
G1 X60.897 Y149.132 E.01311
G1 X60.897 Y145.819 E.10388
G1 X60.478 Y145.819 E.01314
G1 X60.478 Y149.132 E.10388
G1 X60.059 Y149.132 E.01314
G1 X60.059 Y145.819 E.10388
G1 X59.64 Y145.819 E.01314
G1 X59.64 Y149.132 E.10388
G1 X59.221 Y149.132 E.01314
G1 X59.221 Y145.819 E.10388
G1 X58.802 Y145.819 E.01314
G1 X58.802 Y149.132 E.10388
G1 X58.383 Y149.132 E.01314
G1 X58.383 Y145.819 E.10388
G1 X57.964 Y145.819 E.01314
G1 X57.964 Y149.132 E.10388
G1 X57.545 Y149.132 E.01314
G1 X57.545 Y145.819 E.10388
G1 X57.126 Y145.819 E.01314
G1 X57.126 Y149.132 E.10388
G1 X56.707 Y149.132 E.01314
G1 X56.707 Y145.819 E.10388
G1 X56.288 Y145.819 E.01314
G1 X56.288 Y149.132 E.10388
G1 X55.869 Y149.132 E.01314
G1 X55.869 Y145.819 E.10388
G1 X55.45 Y145.819 E.01314
G1 X55.45 Y149.132 E.10388
G1 X55.031 Y149.132 E.01314
G1 X55.031 Y145.819 E.10388
G1 X54.612 Y145.819 E.01314
G1 X54.612 Y149.132 E.10388
G1 X54.193 Y149.132 E.01314
G1 X54.193 Y145.819 E.10388
G1 X53.774 Y145.819 E.01314
G1 X53.774 Y149.132 E.10388
G1 X53.355 Y149.132 E.01314
G1 X53.355 Y145.65 E.10918
M204 S1000
;WIPE_START
G1 F8640
G1 X53.355 Y149.114 E-.8
;WIPE_END
G1 Z.6 F720
G1 X199.015 Y132.247 F10800
G1 Z.2 F720
G1 E.8 F2100
M204 S800
;TYPE:Perimeter
;WIDTH:0.419999
G1 F1200
G1 X198.918 Y132.542 E.00974
G1 X198.843 Y133.063 E.0165
G1 X198.836 Y142.895 E.30828
G1 X198.782 Y143.274 E.012
G1 X198.567 Y143.604 E.01235
G1 X198.281 Y143.771 E.01038
G1 X197.945 Y143.836 E.01073
G1 X52.064 Y143.836 E4.57399
G1 X51.689 Y143.759 E.012
G1 X51.423 Y143.592 E.00985
G1 X51.222 Y143.263 E.01209
G1 X51.164 Y142.945 E.01014
G1 X51.157 Y133.229 E.30464
G1 X51.101 Y132.656 E.01805
G1 X50.985 Y132.247 E.01333
G1 X51.37 Y132.464 E.01386
G1 X51.928 Y132.65 E.01844
G1 X52.418 Y132.711 E.01548
G1 X52.89 Y132.684 E.01482
G1 X53.442 Y132.542 E.01787
G1 X53.969 Y132.278 E.01848
G1 X54.359 Y131.975 E.01548
G1 X54.729 Y131.542 E.01786
G1 X54.973 Y131.113 E.01547
G1 X55.131 Y130.657 E.01513
G1 X55.209 Y130.101 E.0176
G1 X55.184 Y129.61 E.01541
G1 X55.042 Y129.058 E.01787
G1 X54.83 Y128.613 E.01546
G1 X54.488 Y128.157 E.01787
G1 X54.122 Y127.826 E.01547
G1 X53.631 Y127.537 E.01786
G1 X53.072 Y127.35 E.01848
G1 X52.572 Y127.289 E.01579
G1 X52.012 Y127.333 E.01761
G1 X51.538 Y127.464 E.01542
G1 X51.031 Y127.722 E.01784
G1 X51.106 Y127.353 E.01181
G1 X51.162 Y126.845 E.01602
G1 X51.162 Y108.224 E.58385
G1 X51.109 Y107.671 E.01742
G1 X50.998 Y107.257 E.01344
G1 X51.369 Y107.463 E.01331
G1 X51.862 Y107.63 E.01632
G1 X52.418 Y107.711 E.01762
G1 X52.89 Y107.684 E.01482
G1 X53.442 Y107.542 E.01787
G1 X53.969 Y107.278 E.01848
G1 X54.359 Y106.975 E.01548
G1 X54.729 Y106.542 E.01786
G1 X54.973 Y106.113 E.01547
G1 X55.142 Y105.62 E.01634
G1 X55.209 Y105.103 E.01635
G1 X55.184 Y104.61 E.01548
G1 X55.042 Y104.058 E.01787
G1 X54.798 Y103.556 E.0175
G1 X54.488 Y103.157 E.01584
G1 X54.122 Y102.827 E.01545
G1 X53.631 Y102.537 E.01788
G1 X53.072 Y102.35 E.01848
G1 X52.572 Y102.289 E.01579
G1 X52.012 Y102.333 E.01761
G1 X51.538 Y102.464 E.01542
G1 X51.031 Y102.722 E.01784
G1 X51.105 Y102.353 E.0118
G1 X51.162 Y101.845 E.01603
G1 X51.164 Y83.232 E.5836
G1 X51.111 Y82.691 E.01704
G1 X50.998 Y82.256 E.01409
G1 X51.407 Y82.483 E.01467
G1 X51.928 Y82.65 E.01715
G1 X52.418 Y82.711 E.01548
G1 X52.89 Y82.684 E.01482
G1 X53.442 Y82.542 E.01787
G1 X53.969 Y82.278 E.01848
G1 X54.359 Y81.975 E.01548
G1 X54.729 Y81.542 E.01786
G1 X54.973 Y81.113 E.01547
G1 X55.15 Y80.572 E.01785
G1 X55.211 Y80.082 E.01548
G1 X55.184 Y79.61 E.01482
G1 X55.042 Y79.058 E.01787
G1 X54.825 Y78.604 E.01578
G1 X54.487 Y78.156 E.0176
G1 X54.122 Y77.826 E.01543
G1 X53.631 Y77.537 E.01786
G1 X53.072 Y77.35 E.01848
G1 X52.572 Y77.289 E.01579
G1 X52.012 Y77.333 E.01761
G1 X51.538 Y77.464 E.01542
G1 X50.985 Y77.753 E.01956
G1 X51.082 Y77.458 E.00974
G1 X51.157 Y76.937 E.0165
G1 X51.164 Y67.105 E.30828
G1 X51.218 Y66.726 E.012
G1 X51.433 Y66.396 E.01235
G1 X51.719 Y66.229 E.01038
G1 X52.055 Y66.164 E.01073
G1 X197.917 Y66.166 E4.57339
G1 X198.244 Y66.208 E.01034
M73 P2 R90
M73 Q2 S93
G1 X198.537 Y66.368 E.01047
G1 X198.762 Y66.672 E.01186
G1 X198.836 Y67.044 E.01189
G1 X198.843 Y76.771 E.30498
G1 X198.899 Y77.346 E.01811
G1 X199.015 Y77.753 E.01327
G1 X198.631 Y77.537 E.01381
G1 X198.072 Y77.35 E.01848
G1 X197.572 Y77.289 E.01579
G1 X197.012 Y77.333 E.01761
G1 X196.538 Y77.464 E.01542
G1 X196.031 Y77.722 E.01784
G1 X195.59 Y78.071 E.01763
G1 X195.271 Y78.458 E.01573
G1 X195.027 Y78.887 E.01547
G1 X194.854 Y79.396 E.01686
G1 X194.791 Y79.899 E.01589
G1 X194.818 Y80.4 E.01573
G1 X194.959 Y80.943 E.01759
G1 X195.17 Y81.387 E.01541
G1 X195.512 Y81.843 E.01787
G1 X195.878 Y82.173 E.01545
G1 X196.369 Y82.463 E.01788
G1 X196.928 Y82.65 E.01848
G1 X197.418 Y82.711 E.01548
G1 X197.89 Y82.684 E.01482
G1 X198.442 Y82.542 E.01787
G1 X198.969 Y82.278 E.01848
G1 X198.889 Y82.691 E.01319
G1 X198.836 Y83.245 E.01745
G1 X198.838 Y101.776 E.58103
G1 X198.891 Y102.329 E.01742
G1 X199.002 Y102.743 E.01344
G1 X198.61 Y102.525 E.01406
G1 X198.072 Y102.35 E.01774
G1 X197.572 Y102.289 E.01579
G1 X197.012 Y102.333 E.01761
G1 X196.538 Y102.464 E.01542
G1 X196.031 Y102.722 E.01784
G1 X195.641 Y103.025 E.01548
G1 X195.271 Y103.458 E.01786
G1 X195.024 Y103.892 E.01566
G1 X194.86 Y104.375 E.01599
G1 X194.79 Y104.907 E.01682
G1 X194.823 Y105.443 E.01684
G1 X194.959 Y105.943 E.01625
G1 X195.175 Y106.396 E.01574
G1 X195.513 Y106.844 E.0176
G1 X195.878 Y107.174 E.01543
G1 X196.369 Y107.463 E.01786
G1 X196.928 Y107.65 E.01848
G1 X197.418 Y107.711 E.01548
G1 X197.89 Y107.684 E.01482
G1 X198.442 Y107.542 E.01787
G1 X198.969 Y107.278 E.01848
G1 X198.895 Y107.647 E.0118
G1 X198.838 Y108.155 E.01603
G1 X198.838 Y126.776 E.58385
G1 X198.891 Y127.329 E.01742
G1 X199.002 Y127.743 E.01344
G1 X198.61 Y127.525 E.01406
G1 X198.072 Y127.35 E.01774
G1 X197.572 Y127.289 E.01579
G1 X197.012 Y127.333 E.01761
G1 X196.538 Y127.464 E.01542
G1 X196.031 Y127.722 E.01784
G1 X195.641 Y128.025 E.01548
G1 X195.271 Y128.458 E.01786
G1 X195.027 Y128.887 E.01547
G1 X194.869 Y129.343 E.01513
G1 X194.791 Y129.899 E.0176
G1 X194.818 Y130.4 E.01573
G1 X194.959 Y130.943 E.01759
G1 X195.17 Y131.387 E.01541
G1 X195.512 Y131.843 E.01787
G1 X195.878 Y132.173 E.01545
G1 X196.369 Y132.463 E.01788
G1 X196.928 Y132.65 E.01848
G1 X197.418 Y132.711 E.01548
G1 X197.89 Y132.684 E.01482
G1 X198.444 Y132.541 E.01794
G1 X198.961 Y132.274 E.01824
M204 S1000
;WIPE_START
G1 F8640
G1 X199.015 Y132.247 E-.01394
G1 X198.918 Y132.542 E-.0717
G1 X198.843 Y133.063 E-.12154
G1 X198.841 Y135.63 E-.59282
;WIPE_END
G1 Z.6 F720
G1 X50.502 Y127.967 F10800
G1 Z.2 F720
G1 E.8 F2100
M204 S800
;WIDTH:0.433712
G1 F1200
G1 X50.715 Y127.373 E.02051
