; generated by PrusaSlicer 2.7.4 on 2024-06-21 at 15:51:29 UTC


;
;
; 

; external perimeters extrusion width = 0.45mm
; perimeters extrusion width = 0.45mm
; infill extrusion width = 0.45mm
; solid infill extrusion width = 0.45mm
; top infill extrusion width = 0.40mm
; support material extrusion width = 0.35mm
; first layer extrusion width = 0.42mm

M73 P0 R97
M73 Q0 S100
M201 X1000 Y1000 Z200 E5000 ; sets maximum accelerations, mm/sec^2
M203 X200 Y200 Z12 E120 ; sets maximum feedrates, mm / sec
M204 S1250 T1250 ; sets acceleration (S) and retract acceleration (R), mm/sec^2
M205 X8.00 Y8.00 Z0.40 E4.50 ; sets the jerk limits, mm/sec
M205 S0 T0 ; sets the minimum extruding and travel feed rate, mm/sec

; printing object frame_front - frame_front_torso.stl id:0 copy 0
; stop printing object frame_front - frame_front_torso.stl id:0 copy 0

;TYPE:Custom
M862.3 P "MK3S" ; printer model check
M862.1 P0.4 ; nozzle diameter check
M115 U3.13.3 ; tell printer latest fw version
G90 ; use absolute coordinates
M83 ; extruder relative mode
M104 S215 ; set extruder temp
M140 S60 ; set bed temp
M190 S60 ; wait for bed temp
M109 S215 ; wait for extruder temp
G28 W ; home all without mesh bed level
G80 X41.4852 Y57.5344 W167.03 H94.9312 ; mesh bed levelling

G1 Z0.2 F720
G1 Y-3 F1000 ; go outside print area
G92 E0
G1 X60 E9 F1000 ; intro line
G1 X100 E12.5 F1000 ; intro line
M73 Q0 S99

G92 E0
M221 S95

; Don't change E values below. Excessive value can damage the printer.

M907 E538 ; set extruder motor current
G21 ; set units to millimeters
G90 ; use absolute coordinates
M83 ; use relative distances for extrusion

M900 K0.05 ; Filament gcode LA 1.5
M900 K30 ; Filament gcode LA 1.0




M107
;LAYER_CHANGE
;Z:0.2
;HEIGHT:0.2
G1 E-.8 F2100
G1 Z.6 F720
G1 X45.812 Y60.088 F10800
G1 Z.2 F720
G1 E.8 F2100
M204 S800
;TYPE:Skirt/Brim
;WIDTH:0.42
G1 F1200
G1 X47.313 Y58.994 E.05824
G1 X48.399 Y58.45 E.03808
G1 X49.545 Y58.054 E.03802
G1 X50.734 Y57.81 E.03806
G1 X51.948 Y57.723 E.03816
G1 X198.052 Y57.723 E4.58099
G1 X199.266 Y57.81 E.03816
G1 X200.505 Y58.068 E.03968
G1 X201.823 Y58.547 E.04397
G1 X202.938 Y59.146 E.03969
G1 X204.006 Y59.929 E.04152
G1 X204.912 Y60.812 E.03967
G1 X205.766 Y61.925 E.04399
G1 X206.384 Y63.029 E.03967
G1 X206.933 Y64.495 E.04908
G1 X207.211 Y65.896 E.04478
G1 X208.311 Y79.406 E.425
G1 X208.298 Y130.793 E1.6112
G1 X207.237 Y143.864 E.41118
G1 X206.947 Y145.455 E.05071
G1 X206.278 Y147.188 E.05825
G1 X205.326 Y148.692 E.05581
G1 X204.188 Y149.912 E.05231
G1 X202.687 Y151.006 E.05824
G1 X201.601 Y151.55 E.03808
G1 X200.455 Y151.946 E.03802
G1 X199.266 Y152.19 E.03806
G1 X198.052 Y152.277 E.03816
G1 X51.867 Y152.276 E4.58353
G1 X50.734 Y152.19 E.03563
G1 X49.545 Y151.946 E.03806
G1 X48.399 Y151.55 E.03802
G1 X47.313 Y151.006 E.03808
G1 X46.308 Y150.326 E.03805
G1 X45.479 Y149.599 E.03457
G1 X44.674 Y148.692 E.03802
G1 X43.994 Y147.687 E.03805
G1 X43.246 Y146.072 E.0558
G1 X42.81 Y144.266 E.05825
G1 X41.678 Y130.339 E.43811
G1 X41.678 Y79.661 E1.58897
G1 X42.763 Y66.136 E.42543
G1 X43.053 Y64.545 E.05071
G1 X43.638 Y62.982 E.05233
G1 X44.606 Y61.397 E.05823
G1 X45.772 Y60.132 E.05394
M204 S1000
;WIPE_START
G1 F8640
G1 X45.812 Y60.088 E-.01373
G1 X47.313 Y58.994 E-.42887
G1 X48.399 Y58.45 E-.28046
G1 X48.714 Y58.341 E-.07694
;WIPE_END
G1 Z.6 F720
G1 X47.634 Y62.028 F10800
G1 Z.2 F720
G1 E.8 F2100
M204 S800
G1 F1200
G1 X48.746 Y61.242 E.0427
G1 X49.523 Y60.868 E.02704
G1 X50.372 Y60.587 E.02804
G1 X51.863 Y60.387 E.04717
G1 X198.105 Y60.387 E4.58532
G1 X199.169 Y60.491 E.03352
M73 P0 R96
G1 X200.184 Y60.758 E.03291
G1 X201.143 Y61.181 E.03286
G1 X202.026 Y61.753 E.03299
G1 X202.914 Y62.576 E.03796
G1 X203.563 Y63.424 E.03348
G1 X204.067 Y64.369 E.03358
G1 X204.43 Y65.45 E.03575
G1 X204.613 Y66.857 E.04449
G1 X204.62 Y76.014 E.28711
G1 X205.26 Y77.466 E.04975
G1 X205.532 Y78.532 E.03449
G1 X205.66 Y79.774 E.03915
G1 X205.586 Y81.118 E.0422
G1 X205.448 Y81.865 E.02382
G1 X205.032 Y83.149 E.04232
G1 X204.614 Y83.992 E.0295
G1 X204.615 Y101.006 E.53346
G1 X205.275 Y102.516 E.05167
G1 X205.534 Y103.544 E.03324
G1 X205.663 Y104.966 E.04477
G1 X205.574 Y106.204 E.03892
G1 X205.442 Y106.888 E.02184
G1 X205.033 Y108.145 E.04145
G1 X204.615 Y108.987 E.02947
G1 X204.615 Y126.011 E.53378
G1 X205.038 Y126.867 E.02994
G1 X205.449 Y128.142 E.042
G1 X205.591 Y128.918 E.02473
G1 X205.658 Y130.312 E.04376
G1 X205.53 Y131.478 E.03678
G1 X205.259 Y132.536 E.03424
G1 X204.62 Y133.986 E.04968
G1 X204.613 Y143.097 E.28567
G1 X204.495 Y144.231 E.03575
G1 X204.157 Y145.423 E.03885
G1 X203.502 Y146.676 E.04433
G1 X202.367 Y147.971 E.05399
G1 X201.255 Y148.757 E.0427
G1 X200.478 Y149.132 E.02705
G1 X199.628 Y149.413 E.02807
G1 X198.137 Y149.613 E.04717
G1 X51.917 Y149.613 E4.58463
G1 X51.055 Y149.545 E.02711
G1 X50.204 Y149.365 E.02727
G1 X49.385 Y149.074 E.02725
G1 X48.63 Y148.69 E.02656
G1 X47.915 Y148.201 E.02716
G1 X47.267 Y147.619 E.02731
G1 X46.711 Y146.97 E.0268
G1 X46.231 Y146.242 E.02734
G1 X45.573 Y144.575 E.05619
G1 X45.392 Y143.226 E.04268
G1 X45.38 Y133.987 E.28968
G1 X44.741 Y132.535 E.04974
G1 X44.469 Y131.472 E.0344
G1 X44.341 Y130.255 E.03837
G1 X44.413 Y128.888 E.04292
G1 X44.555 Y128.123 E.0244
G1 X44.962 Y126.867 E.0414
G1 X45.386 Y126.008 E.03004
G1 X45.385 Y108.994 E.53346
G1 X44.725 Y107.484 E.05167
G1 X44.466 Y106.456 E.03324
G1 X44.337 Y105.034 E.04477
G1 X44.426 Y103.796 E.03892
G1 X44.558 Y103.112 E.02184
G1 X44.967 Y101.855 E.04145
G1 X45.385 Y101.013 E.02947
G1 X45.385 Y83.989 E.53378
G1 X44.969 Y83.149 E.02939
G1 X44.553 Y81.865 E.04232
G1 X44.353 Y80.516 E.04276
G1 X44.34 Y79.777 E.02317
G1 X44.467 Y78.539 E.03902
G1 X44.74 Y77.468 E.03465
G1 X45.38 Y76.014 E.04981
G1 X45.387 Y66.903 E.28567
G1 X45.505 Y65.769 E.03575
G1 X45.843 Y64.577 E.03885
G1 X46.498 Y63.323 E.04436
G1 X47.594 Y62.073 E.05212
M204 S1000
G1 X47.594 Y62.073 F10800
G1 X47.875 Y62.319
M204 S800
G1 F1200
G1 X47.88 Y62.314 E.00022
G1 X48.383 Y61.92 E.02003
G1 X49.674 Y61.214 E.04614
G1 X50.473 Y60.951 E.02637
G1 X51.876 Y60.764 E.04438
G1 X198.096 Y60.764 E4.58463
G1 X199.088 Y60.86 E.03125
M73 P1 R96
M73 Q1 S98
G1 X200.073 Y61.118 E.03193
G1 X200.975 Y61.52 E.03096
G1 X201.807 Y62.06 E.0311
G1 X202.625 Y62.818 E.03497
G1 X203.238 Y63.616 E.03155
G1 X203.715 Y64.505 E.03163
G1 X204.058 Y65.518 E.03353
G1 X204.236 Y66.87 E.04276
G1 X204.243 Y76.123 E.29012
G1 X204.897 Y77.57 E.04979
G1 X205.16 Y78.595 E.03318
G1 X205.283 Y79.791 E.0377
G1 X205.212 Y81.073 E.04026
G1 X205.082 Y81.772 E.02229
G1 X204.681 Y83.01 E.0408
G1 X204.236 Y83.89 E.03092
G1 X204.238 Y101.115 E.54008
G1 X204.912 Y102.619 E.05168
G1 X205.161 Y103.605 E.03189
G1 X205.286 Y104.961 E.0427
G1 X205.077 Y106.794 E.05784
G1 X204.682 Y108.007 E.04
G1 X204.238 Y108.884 E.03082
G1 X204.238 Y126.114 E.54023
G1 X204.687 Y127.005 E.03128
G1 X205.083 Y128.234 E.04049
G1 X205.217 Y128.961 E.02318
G1 X205.281 Y130.291 E.04175
G1 X205.158 Y131.414 E.03542
G1 X204.896 Y132.431 E.03293
G1 X204.243 Y133.877 E.04975
G1 X204.236 Y143.087 E.28877
G1 X204.128 Y144.145 E.03335
G1 X203.808 Y145.279 E.03694
G1 X203.529 Y145.884 E.02089
G1 X203.186 Y146.47 E.02129
G1 X202.121 Y147.685 E.05066
G1 X201.063 Y148.433 E.04063
G1 X200.326 Y148.786 E.02562
G1 X199.527 Y149.049 E.02637
G1 X198.124 Y149.236 E.04438
G1 X51.924 Y149.236 E4.584
G1 X51.121 Y149.174 E.02525
G1 X50.317 Y149.005 E.02576
G1 X49.545 Y148.733 E.02566
G1 X48.813 Y148.36 E.02576
G1 X48.139 Y147.897 E.02564
G1 X47.529 Y147.347 E.02575
G1 X47.006 Y146.734 E.02526
G1 X46.557 Y146.051 E.02563
G1 X45.94 Y144.488 E.05269
G1 X45.768 Y143.203 E.04065
G1 X45.757 Y133.877 E.29241
G1 X45.103 Y132.431 E.04976
G1 X44.841 Y131.409 E.03308
G1 X44.717 Y130.237 E.03695
G1 X44.787 Y128.932 E.04098
G1 X44.921 Y128.216 E.02284
G1 X45.313 Y127.006 E.03988
G1 X45.764 Y126.11 E.03145
G1 X45.762 Y108.885 E.54008
G1 X45.088 Y107.381 E.05168
G1 X44.839 Y106.395 E.03189
G1 X44.714 Y105.039 E.0427
G1 X44.8 Y103.845 E.03753
G1 X44.923 Y103.205 E.02043
G1 X45.318 Y101.993 E.03997
G1 X45.762 Y101.116 E.03082
G1 X45.762 Y83.886 E.54023
G1 X45.319 Y83.011 E.03075
G1 X44.918 Y81.772 E.04083
G1 X44.729 Y80.485 E.04079
G1 X44.716 Y79.794 E.02167
G1 X44.839 Y78.602 E.03757
G1 X45.103 Y77.571 E.03337
G1 X45.757 Y76.123 E.04982
G1 X45.764 Y66.913 E.28877
G1 X45.872 Y65.855 E.03335
G1 X46.192 Y64.721 E.03694
G1 X46.814 Y63.53 E.04213
G1 X47.836 Y62.364 E.04861
M204 S1000
G1 X47.836 Y62.364 F10800
G1 X48.117 Y62.611
M204 S800
G1 F1200
G1 X48.127 Y62.6 E.00047
G1 X49.131 Y61.891 E.03854
G1 X49.826 Y61.559 E.02415
G1 X50.574 Y61.315 E.02467
G1 X51.888 Y61.141 E.04156
G1 X198.087 Y61.141 E4.58397
G1 X199.008 Y61.228 E.02901
G1 X199.934 Y61.469 E.03
G1 X200.808 Y61.858 E.03
G1 X201.587 Y62.367 E.02918
G1 X202.337 Y63.061 E.03204
G1 X202.914 Y63.809 E.02962
G1 X203.364 Y64.643 E.02971
G1 X203.687 Y65.587 E.03128
G1 X203.859 Y66.883 E.04099
G1 X203.866 Y76.226 E.29294
G1 X204.534 Y77.675 E.05003
G1 X204.788 Y78.659 E.03186
G1 X204.907 Y79.808 E.03622
G1 X204.838 Y81.028 E.03831
G1 X204.716 Y81.679 E.02077
G1 X204.33 Y82.871 E.03929
G1 X203.859 Y83.787 E.03229
G1 X203.861 Y101.218 E.54654
G1 X204.55 Y102.722 E.05187
G1 X204.789 Y103.667 E.03056
G1 X204.909 Y104.956 E.04059
G1 X204.711 Y106.7 E.05503
G1 X204.331 Y107.868 E.03851
G1 X203.861 Y108.781 E.0322
G1 X203.861 Y126.217 E.54669
G1 X204.336 Y127.143 E.03263
G1 X204.718 Y128.327 E.03901
G1 X204.842 Y129.004 E.02158
G1 X204.904 Y130.271 E.03977
G1 X204.786 Y131.35 E.03403
G1 X204.534 Y132.327 E.03164
G1 X203.866 Y133.774 E.04997
G1 X203.859 Y143.077 E.29169
G1 X203.76 Y144.059 E.03095
G1 X203.459 Y145.135 E.03503
G1 X202.87 Y146.264 E.03993
G1 X201.875 Y147.399 E.04733
G1 X200.87 Y148.108 E.03856
G1 X200.175 Y148.441 E.02416
G1 X199.426 Y148.685 E.0247
G1 X198.112 Y148.859 E.04156
G1 X51.932 Y148.859 E4.58337
G1 X51.163 Y148.799 E.02418
M73 P1 R95
G1 X50.408 Y148.639 E.0242
G1 X49.683 Y148.381 E.02413
G1 X48.996 Y148.03 E.02419
G1 X48.363 Y147.594 E.0241
G1 X47.791 Y147.076 E.0242
G1 X46.883 Y145.861 E.04756
G1 X46.307 Y144.401 E.04921
G1 X46.145 Y143.179 E.03865
G1 X46.134 Y133.774 E.29489
G1 X45.466 Y132.326 E.05
G1 X45.213 Y131.344 E.0318
G1 X45.094 Y130.219 E.03547
G1 X45.162 Y128.977 E.039
G1 X45.286 Y128.309 E.0213
G1 X45.663 Y127.144 E.03839
G1 X46.141 Y126.213 E.03281
G1 X46.139 Y108.782 E.54654
G1 X45.451 Y107.278 E.05186
G1 X45.211 Y106.334 E.03054
G1 X45.091 Y105.043 E.04065
G1 X45.289 Y103.299 E.05503
G1 X45.669 Y102.132 E.03848
G1 X46.139 Y101.219 E.0322
G1 X46.139 Y83.783 E.54669
G1 X45.67 Y82.872 E.03213
G1 X45.283 Y81.679 E.03932
G1 X45.105 Y80.454 E.03881
G1 X45.093 Y79.81 E.0202
G1 X45.211 Y78.666 E.03606
G1 X45.465 Y77.676 E.03205
G1 X46.134 Y76.226 E.05007
G1 X46.141 Y66.923 E.29169
G1 X46.24 Y65.941 E.03095
G1 X46.541 Y64.865 E.03503
G1 X47.13 Y63.736 E.03993
G1 X48.077 Y62.656 E.04504
M204 S1000
G1 X48.077 Y62.656 F10800
G1 X48.358 Y62.902
M204 S800
G1 F1200
G1 X48.373 Y62.886 E.00069
G1 X48.833 Y62.525 E.01833
G1 X49.976 Y61.905 E.04077
G1 X50.674 Y61.679 E.023
G1 X51.9 Y61.518 E.03877
G1 X198.078 Y61.518 E4.58331
G1 X198.956 Y61.602 E.02765
G1 X199.823 Y61.83 E.02811
G1 X200.64 Y62.196 E.02807
G1 X201.366 Y62.673 E.02724
G1 X202.048 Y63.305 E.02915
G1 X202.59 Y64.003 E.02771
G1 X203.013 Y64.781 E.02777
G1 X203.316 Y65.656 E.02903
G1 X203.482 Y66.896 E.03923
G1 X203.489 Y76.33 E.2958
G1 X204.172 Y77.78 E.05025
G1 X204.416 Y78.722 E.03051
G1 X204.53 Y79.825 E.03477
G1 X204.463 Y80.983 E.03637
G1 X204.351 Y81.587 E.01926
G1 X203.979 Y82.733 E.03778
G1 X203.482 Y83.684 E.03364
G1 X203.484 Y101.322 E.55303
G1 X203.959 Y102.22 E.03185
G1 X204.187 Y102.825 E.02027
G1 X204.417 Y103.729 E.02925
G1 X204.532 Y104.952 E.03852
G1 X204.452 Y106.057 E.03474
G1 X204.2 Y107.136 E.03474
G1 X203.981 Y107.73 E.01985
G1 X203.484 Y108.678 E.03356
G1 X203.484 Y126.321 E.55318
G1 X203.986 Y127.282 E.03399
G1 X204.352 Y128.419 E.03745
G1 X204.467 Y129.047 E.02002
G1 X204.528 Y130.252 E.03783
G1 X204.415 Y131.285 E.03258
G1 X204.172 Y132.222 E.03035
G1 X203.489 Y133.67 E.0502
G1 X203.482 Y143.068 E.29467
G1 X203.393 Y143.974 E.02854
M73 P2 R95
G1 X203.11 Y144.992 E.03313
G1 X202.861 Y145.535 E.01873
G1 X202.554 Y146.058 E.01901
G1 X201.628 Y147.113 E.04401
G1 X200.679 Y147.783 E.03642
G1 X199.326 Y148.321 E.04565
G1 X198.1 Y148.482 E.03877
G1 X51.939 Y148.482 E4.58278
G1 X50.521 Y148.279 E.04491
M73 Q2 S97
G1 X49.199 Y147.712 E.0451
G1 X48.606 Y147.305 E.02255
G1 X47.61 Y146.283 E.04474
G1 X47.209 Y145.671 E.02294
G1 X46.675 Y144.314 E.04572
G1 X46.521 Y143.157 E.0366
G1 X46.511 Y133.67 E.29746
G1 X45.828 Y132.222 E.0502
G1 X45.584 Y131.28 E.03051
G1 X45.471 Y130.201 E.03402
G1 X45.536 Y129.022 E.03702
G1 X45.652 Y128.402 E.01978
G1 X46.014 Y127.283 E.03688
G1 X46.518 Y126.316 E.03419
G1 X46.516 Y108.678 E.55303
G1 X46.041 Y107.78 E.03185
G1 X45.813 Y107.175 E.02027
G1 X45.583 Y106.272 E.02922
G1 X45.468 Y105.048 E.03855
G1 X45.548 Y103.943 E.03474
G1 X45.8 Y102.864 E.03474
G1 X46.019 Y102.27 E.01985
G1 X46.516 Y101.322 E.03356
G1 X46.516 Y83.679 E.55318
G1 X46.021 Y82.733 E.03348
G1 X45.649 Y81.586 E.03781
G1 X45.47 Y79.827 E.05544
G1 X45.583 Y78.729 E.03461
G1 X45.828 Y77.78 E.03073
G1 X46.511 Y76.33 E.05025
G1 X46.518 Y66.932 E.29467
G1 X46.607 Y66.026 E.02854
G1 X46.89 Y65.008 E.03313
G1 X47.446 Y63.942 E.0377
G1 X48.319 Y62.947 E.0415
M204 S1000
G1 X48.319 Y62.947 F10800
G1 X48.6 Y63.194
M204 S800
G1 F1200
G1 X48.62 Y63.171 E.00096
G1 X49.514 Y62.541 E.03429
G1 X50.773 Y62.043 E.04245
G1 X51.912 Y61.895 E.03601
G1 X198.069 Y61.895 E4.58265
G1 X198.904 Y61.976 E.0263
G1 X199.711 Y62.19 E.02618
G1 X200.471 Y62.533 E.02614
G1 X201.145 Y62.979 E.02534
G1 X201.761 Y63.549 E.02631
G1 X202.267 Y64.198 E.0258
G1 X202.662 Y64.921 E.02583
G1 X202.945 Y65.726 E.02675
G1 X203.105 Y66.909 E.03743
G1 X203.112 Y76.434 E.29865
G1 X203.81 Y77.885 E.05049
G1 X204.044 Y78.787 E.02922
G1 X204.153 Y79.841 E.03322
G1 X204.089 Y80.937 E.03442
G1 X203.839 Y82.027 E.03506
G1 X203.629 Y82.594 E.01896
G1 X203.105 Y83.58 E.03501
G1 X203.107 Y101.426 E.55955
G1 X203.39 Y101.901 E.01734
G1 X203.824 Y102.929 E.03499
G1 X204.045 Y103.791 E.0279
G1 X204.155 Y104.948 E.03644
G1 X204.08 Y105.993 E.03285
G1 X203.839 Y107.028 E.03332
G1 X203.393 Y108.093 E.0362
G1 X203.107 Y108.574 E.01755
G1 X203.107 Y126.425 E.55971
G1 X203.635 Y127.421 E.03535
G1 X203.986 Y128.511 E.0359
G1 X204.093 Y129.091 E.01849
G1 X204.151 Y130.232 E.03582
G1 X204.043 Y131.22 E.03116
G1 X203.809 Y132.116 E.02904
G1 X203.112 Y133.566 E.05044
G1 X203.105 Y143.059 E.29765
G1 X203.025 Y143.89 E.02618
G1 X202.761 Y144.849 E.03119
G1 X202.238 Y145.851 E.03544
G1 X201.381 Y146.828 E.04075
G1 X200.487 Y147.459 E.03431
G1 X199.227 Y147.957 E.04248
G1 X198.088 Y148.105 E.03601
G1 X51.946 Y148.105 E4.58218
G1 X50.612 Y147.913 E.04226
G1 X49.382 Y147.382 E.04201
G1 X48.333 Y146.551 E.04196
G1 X47.536 Y145.481 E.04183
G1 X47.042 Y144.227 E.04226
G1 X46.898 Y143.134 E.03457
G1 X46.888 Y133.566 E.3
G1 X46.19 Y132.116 E.05046
G1 X45.956 Y131.216 E.02916
G1 X45.847 Y130.184 E.03254
G1 X45.911 Y129.068 E.03505
G1 X46.165 Y127.96 E.03564
G1 X46.618 Y126.887 E.03652
G1 X46.895 Y126.42 E.01702
G1 X46.893 Y108.574 E.55955
G1 X46.61 Y108.099 E.01734
G1 X46.176 Y107.071 E.03499
G1 X45.955 Y106.209 E.0279
G1 X45.845 Y105.051 E.03647
G1 X45.92 Y104.007 E.03282
G1 X46.161 Y102.972 E.03332
G1 X46.607 Y101.907 E.0362
G1 X46.893 Y101.426 E.01755
G1 X46.893 Y83.575 E.55971
G1 X46.372 Y82.594 E.03483
G1 X46.161 Y82.025 E.01903
G1 X45.914 Y80.954 E.03446
G1 X45.847 Y79.843 E.0349
G1 X45.955 Y78.793 E.0331
G1 X46.19 Y77.885 E.02941
G1 X46.888 Y76.434 E.05049
G1 X46.895 Y66.941 E.29765
G1 X46.975 Y66.11 E.02618
G1 X47.239 Y65.151 E.03119
G1 X47.762 Y64.149 E.03544
G1 X48.56 Y63.239 E.03795
M204 S1000
G1 X48.56 Y63.239 F10800
G1 X48.841 Y63.485
M204 S800
G1 F1200
G1 X48.866 Y63.457 E.00118
G1 X49.268 Y63.141 E.01603
G1 X50.275 Y62.598 E.03587
G1 X50.871 Y62.407 E.01962
G1 X51.924 Y62.272 E.03329
G1 X198.06 Y62.272 E4.58199
G1 X198.823 Y62.345 E.02403
M73 P2 R94
G1 X199.571 Y62.541 E.02424
