; generated by PrusaSlicer 2.7.4 on 2024-06-27 at 07:56:39 UTC


;
;
; 

; external perimeters extrusion width = 0.45mm
; perimeters extrusion width = 0.45mm
; infill extrusion width = 0.45mm
; solid infill extrusion width = 0.45mm
; top infill extrusion width = 0.40mm
; support material extrusion width = 0.35mm
; first layer extrusion width = 0.42mm

M73 P0 R97
M73 Q0 S99
M201 X1000 Y1000 Z200 E5000 ; sets maximum accelerations, mm/sec^2
M203 X200 Y200 Z12 E120 ; sets maximum feedrates, mm / sec
M204 S1250 T1250 ; sets acceleration (S) and retract acceleration (R), mm/sec^2
M205 X8.00 Y8.00 Z0.40 E4.50 ; sets the jerk limits, mm/sec
M205 S0 T0 ; sets the minimum extruding and travel feed rate, mm/sec

; printing object frame_back - frame_back_torso.stl id:0 copy 0
; stop printing object frame_back - frame_back_torso.stl id:0 copy 0

;TYPE:Custom
M862.3 P "MK3S" ; printer model check
M862.1 P0.4 ; nozzle diameter check
M115 U3.13.3 ; tell printer latest fw version
G90 ; use absolute coordinates
M83 ; extruder relative mode
M104 S215 ; set extruder temp
M140 S60 ; set bed temp
M190 S60 ; wait for bed temp
M109 S215 ; wait for extruder temp
G28 W ; home all without mesh bed level
G80 X41.4852 Y57.5344 W167.03 H94.9312 ; mesh bed levelling

G1 Z0.2 F720
G1 Y-3 F1000 ; go outside print area
G92 E0
G1 X60 E9 F1000 ; intro line
G1 X100 E12.5 F1000 ; intro line

G92 E0
M221 S95

; Don't change E values below. Excessive value can damage the printer.

M907 E538 ; set extruder motor current
G21 ; set units to millimeters
G90 ; use absolute coordinates
M83 ; use relative distances for extrusion

M900 K0.05 ; Filament gcode LA 1.5
M900 K30 ; Filament gcode LA 1.0




M107
;LAYER_CHANGE
;Z:0.2
;HEIGHT:0.2
G1 E-.8 F2100
G1 Z.6 F720
G1 X46.309 Y60.2 F10800
G1 Z.2 F720
G1 E.8 F2100
M204 S800
;TYPE:Skirt/Brim
;WIDTH:0.42
G1 F1200
G1 X47.813 Y59.128 E.05791
G1 X49.016 Y58.527 E.04216
G1 X50.286 Y58.088 E.04213
G1 X51.603 Y57.818 E.04215
G1 X52.948 Y57.723 E.04228
G1 X197.051 Y57.723 E4.51825
G1 X198.397 Y57.818 E.04231
G1 X199.764 Y58.102 E.04378
G1 X201.032 Y58.547 E.04213
G1 X202.427 Y59.273 E.04931
G1 X203.563 Y60.092 E.04391
G1 X204.539 Y61.016 E.04214
G1 X205.387 Y62.06 E.04217
G1 X206.141 Y63.304 E.04561
G1 X206.785 Y64.857 E.05271
G1 X207.182 Y66.604 E.05617
G1 X208.308 Y79.355 E.40135
G1 X208.297 Y130.806 E1.61321
G1 X207.228 Y143.002 E.38386
G1 X207.056 Y144.119 E.03544
G1 X206.818 Y145.037 E.02973
G1 X206.09 Y146.795 E.05966
G1 X205.092 Y148.336 E.05756
G1 X203.691 Y149.8 E.06353
G1 X202.186 Y150.872 E.05794
G1 X200.984 Y151.473 E.04214
G1 X199.714 Y151.912 E.04213
G1 X198.397 Y152.182 E.04215
G1 X197.051 Y152.277 E.04231
G1 X52.659 Y152.271 E4.52731
G1 X51.553 Y152.175 E.03481
G1 X50.237 Y151.899 E.04216
G1 X49.016 Y151.473 E.04055
G1 X47.769 Y150.846 E.04376
G1 X46.699 Y150.119 E.04056
G1 X45.694 Y149.228 E.04211
G1 X44.816 Y148.217 E.04198
G1 X44.128 Y147.187 E.03884
G1 X43.309 Y145.42 E.06106
G1 X42.826 Y143.452 E.06354
G1 X41.678 Y130.339 E.41272
M73 P0 R96
G1 X41.678 Y79.661 E1.58897
G1 X42.772 Y66.998 E.39852
G1 X43.167 Y65.012 E.06349
G1 X43.859 Y63.304 E.05778
G1 X44.908 Y61.664 E.06104
G1 X46.267 Y60.243 E.06165
M204 S1000
;WIPE_START
G1 F8640
G1 X46.309 Y60.2 E-.01388
G1 X47.813 Y59.128 E-.42646
G1 X49.016 Y58.527 E-.31051
G1 X49.217 Y58.457 E-.04915
;WIPE_END
G1 Z.6 F720
G1 X47.983 Y62.274 F10800
G1 Z.2 F720
G1 E.8 F2100
M204 S800
G1 F1200
G1 X49.308 Y61.341 E.05081
G1 X50.177 Y60.929 E.03015
G1 X51.119 Y60.623 E.03106
G1 X52.077 Y60.444 E.03056
G1 X52.939 Y60.387 E.02709
G1 X197.099 Y60.387 E4.52004
G1 X198.247 Y60.49 E.03614
G1 X199.391 Y60.772 E.03694
G1 X200.507 Y61.244 E.03799
G1 X201.482 Y61.845 E.03591
G1 X202.578 Y62.818 E.04595
G1 X203.332 Y63.774 E.03818
G1 X203.924 Y64.835 E.03809
G1 X204.322 Y65.914 E.03606
G1 X204.527 Y66.856 E.03023
G1 X204.61 Y67.819 E.03031
G1 X204.62 Y76.014 E.25695
G1 X205.259 Y77.466 E.04974
G1 X205.531 Y78.527 E.03434
G1 X205.659 Y79.723 E.03771
G1 X205.587 Y81.11 E.04355
G1 X205.444 Y81.88 E.02456
G1 X205.038 Y83.133 E.0413
G1 X204.614 Y83.992 E.03004
G1 X204.615 Y101.006 E.53346
G1 X205.275 Y102.516 E.05167
G1 X205.534 Y103.544 E.03324
G1 X205.663 Y104.966 E.04477
G1 X205.574 Y106.204 E.03892
G1 X205.442 Y106.888 E.02184
G1 X205.033 Y108.145 E.04145
G1 X204.615 Y108.987 E.02947
G1 X204.615 Y126.011 E.53378
G1 X205.038 Y126.867 E.02994
G1 X205.449 Y128.142 E.042
G1 X205.591 Y128.918 E.02473
G1 X205.658 Y130.312 E.04376
G1 X205.53 Y131.478 E.03678
G1 X205.259 Y132.536 E.03424
G1 X204.62 Y133.986 E.04968
G1 X204.613 Y142.11 E.25472
G1 X204.489 Y143.373 E.03979
G1 X204.279 Y144.229 E.02764
G1 X203.957 Y145.092 E.02888
G1 X203.127 Y146.519 E.05176
G1 X202.017 Y147.726 E.05141
G1 X200.692 Y148.659 E.05081
G1 X199.823 Y149.07 E.03014
G1 X198.899 Y149.372 E.03048
G1 X197.995 Y149.548 E.02888
G1 X197.073 Y149.613 E.02898
G1 X52.919 Y149.613 E4.51985
G1 X51.91 Y149.535 E.03173
G1 X50.93 Y149.326 E.03142
G1 X49.985 Y148.991 E.03144
G1 X49.109 Y148.544 E.03084
G1 X48.289 Y147.98 E.0312
G1 X47.553 Y147.318 E.03104
G1 X46.89 Y146.541 E.03203
G1 X46.354 Y145.713 E.03093
G1 X45.69 Y144.129 E.05385
G1 X45.398 Y142.407 E.05476
G1 X45.381 Y133.987 E.264
G1 X44.741 Y132.536 E.04972
G1 X44.47 Y131.475 E.03433
G1 X44.341 Y130.267 E.03809
G1 X44.409 Y128.913 E.04251
G1 X44.55 Y128.145 E.02448
G1 X44.962 Y126.867 E.0421
G1 X45.385 Y126.011 E.02994
G1 X45.385 Y108.989 E.53371
G1 X44.969 Y108.15 E.02936
G1 X44.562 Y106.906 E.04104
M73 Q0 S98
G1 X44.426 Y106.206 E.02236
G1 X44.337 Y104.966 E.03898
G1 X44.466 Y103.544 E.04477
G1 X44.725 Y102.516 E.03324
G1 X45.385 Y101.004 E.05173
G1 X45.386 Y83.992 E.5334
G1 X44.962 Y83.132 E.03006
G1 X44.551 Y81.859 E.04194
G1 X44.41 Y81.089 E.02454
G1 X44.341 Y79.725 E.04282
G1 X44.468 Y78.534 E.03755
G1 X44.74 Y77.467 E.03452
G1 X45.38 Y76.014 E.04978
G1 X45.387 Y67.89 E.25472
G1 X45.511 Y66.627 E.03979
G1 X45.721 Y65.771 E.02764
G1 X46.043 Y64.908 E.02888
G1 X46.873 Y63.482 E.05173
G1 X47.942 Y62.318 E.04955
M204 S1000
G1 X47.942 Y62.318 F10800
G1 X48.214 Y62.627
M204 S800
G1 F1200
G1 X48.826 Y62.089 E.02555
G1 X49.499 Y61.667 E.02491
G1 X50.327 Y61.276 E.02871
G1 X51.223 Y60.985 E.02954
G1 X52.135 Y60.817 E.02908
G1 X52.945 Y60.764 E.02545
G1 X197.091 Y60.764 E4.5196
G1 X198.198 Y60.864 E.03485
M73 P1 R96
M73 Q1 S98
G1 X199.285 Y61.134 E.03512
G1 X200.345 Y61.585 E.03612
G1 X201.27 Y62.157 E.0341
G1 X202.292 Y63.065 E.04286
G1 X203.011 Y63.972 E.03629
G1 X203.575 Y64.98 E.03622
G1 X203.956 Y66.007 E.03435
G1 X204.156 Y66.925 E.02946
G1 X204.233 Y67.843 E.02888
G1 X204.243 Y76.123 E.25961
G1 X204.897 Y77.57 E.04979
G1 X205.159 Y78.591 E.03305
G1 X205.282 Y79.742 E.03629
G1 X205.213 Y81.066 E.04157
G1 X205.078 Y81.787 E.023
G1 X204.687 Y82.995 E.03981
G1 X204.236 Y83.89 E.03142
G1 X204.238 Y101.115 E.54008
G1 X204.912 Y102.619 E.05168
G1 X205.161 Y103.605 E.03189
G1 X205.286 Y104.961 E.0427
G1 X205.077 Y106.794 E.05784
G1 X204.682 Y108.007 E.04
G1 X204.238 Y108.884 E.03082
G1 X204.238 Y126.114 E.54023
G1 X204.687 Y127.005 E.03128
G1 X205.083 Y128.234 E.04049
G1 X205.217 Y128.961 E.02318
G1 X205.281 Y130.291 E.04175
G1 X205.158 Y131.414 E.03542
G1 X204.896 Y132.431 E.03293
G1 X204.243 Y133.877 E.04975
G1 X204.236 Y142.101 E.25786
G1 X204.115 Y143.322 E.03847
G1 X203.916 Y144.128 E.02603
G1 X203.26 Y145.63 E.05139
G1 X202.33 Y146.894 E.0492
G1 X201.174 Y147.911 E.04828
G1 X200.501 Y148.333 E.02491
G1 X199.673 Y148.724 E.02871
G1 X198.794 Y149.01 E.02898
G1 X197.957 Y149.172 E.02673
G1 X197.066 Y149.236 E.02801
G1 X52.927 Y149.236 E4.51938
G1 X51.975 Y149.163 E.02994
G1 X51.043 Y148.967 E.02986
G1 X50.145 Y148.649 E.02987
G1 X49.292 Y148.214 E.03002
G1 X48.513 Y147.677 E.02967
G1 X47.815 Y147.047 E.02948
G1 X47.185 Y146.306 E.0305
G1 X46.678 Y145.519 E.02935
G1 X46.05 Y144.015 E.0511
G1 X45.775 Y142.396 E.05149
G1 X45.758 Y133.878 E.26708
G1 X45.104 Y132.431 E.04979
G1 X44.841 Y131.411 E.03303
G1 X44.718 Y130.248 E.03667
G1 X44.784 Y128.957 E.04053
G1 X44.916 Y128.237 E.02295
G1 X45.313 Y127.005 E.04058
G1 X45.762 Y126.114 E.03128
G1 X45.762 Y108.886 E.54017
G1 X45.32 Y108.011 E.03074
G1 X44.927 Y106.811 E.03959
G1 X44.8 Y106.157 E.02089
G1 X44.714 Y104.962 E.03757
G1 X44.839 Y103.606 E.0427
G1 X45.088 Y102.618 E.03195
G1 X45.762 Y101.113 E.0517
G1 X45.764 Y83.89 E.54002
G1 X45.312 Y82.994 E.03147
G1 X44.917 Y81.766 E.04045
G1 X44.784 Y81.046 E.02296
G1 X44.718 Y79.743 E.04091
G1 X44.84 Y78.598 E.0361
G1 X45.103 Y77.571 E.03324
G1 X45.757 Y76.123 E.04982
G1 X45.764 Y67.899 E.25786
G1 X45.885 Y66.678 E.03847
G1 X46.384 Y65.069 E.05282
G1 X47.171 Y63.713 E.04916
G1 X47.67 Y63.107 E.02461
G1 X48.169 Y62.667 E.02086
M204 S1000
G1 X48.169 Y62.667 F10800
G1 X48.425 Y62.901
M204 S800
G1 F1200
G1 X48.481 Y62.84 E.0026
G1 X49.689 Y61.992 E.04628
G1 X50.476 Y61.622 E.02727
G1 X51.327 Y61.348 E.02803
G1 X52.951 Y61.141 E.05133
G1 X197.082 Y61.141 E4.51913
G1 X198.122 Y61.234 E.03274
M73 P1 R95
G1 X199.152 Y61.487 E.03325
G1 X200.184 Y61.926 E.03516
G1 X201.057 Y62.469 E.03224
G1 X202.008 Y63.313 E.03987
G1 X202.69 Y64.17 E.03434
G1 X203.227 Y65.126 E.03438
G1 X203.591 Y66.101 E.03263
G1 X203.781 Y66.969 E.02786
G1 X203.857 Y67.867 E.02826
G1 X203.866 Y76.226 E.26209
G1 X204.534 Y77.674 E.05
G1 X204.787 Y78.655 E.03177
G1 X204.905 Y79.761 E.03487
G1 X204.838 Y81.022 E.03959
G1 X204.713 Y81.693 E.0214
G1 X204.337 Y82.856 E.03832
G1 X203.859 Y83.787 E.03281
G1 X203.861 Y101.218 E.54654
G1 X204.55 Y102.722 E.05187
G1 X204.789 Y103.667 E.03056
G1 X204.909 Y104.956 E.04059
G1 X204.711 Y106.7 E.05503
G1 X204.331 Y107.868 E.03851
G1 X203.861 Y108.781 E.0322
G1 X203.861 Y126.217 E.54669
G1 X204.336 Y127.143 E.03263
G1 X204.718 Y128.327 E.03901
G1 X204.842 Y129.004 E.02158
G1 X204.904 Y130.271 E.03977
G1 X204.786 Y131.35 E.03403
G1 X204.534 Y132.327 E.03164
G1 X203.866 Y133.774 E.04997
G1 X203.859 Y142.091 E.26077
G1 X203.741 Y143.271 E.03718
G1 X203.553 Y144.026 E.0244
G1 X203.275 Y144.77 E.0249
G1 X202.531 Y146.056 E.04658
G1 X201.519 Y147.16 E.04696
G1 X200.311 Y148.008 E.04628
G1 X199.524 Y148.378 E.02727
G1 X198.69 Y148.647 E.02748
G1 X197.06 Y148.859 E.05154
G1 X52.934 Y148.859 E4.51897
G1 X52.04 Y148.792 E.02811
G1 X51.156 Y148.607 E.02832
G1 X50.305 Y148.307 E.02829
G1 X49.495 Y147.896 E.02848
G1 X48.756 Y147.388 E.02812
G1 X48.077 Y146.775 E.02868
G1 X47.481 Y146.072 E.0289
G1 X47.001 Y145.325 E.02784
G1 X46.409 Y143.901 E.04835
G1 X46.151 Y142.366 E.0488
G1 X46.134 Y133.775 E.26937
G1 X45.466 Y132.327 E.05
G1 X45.213 Y131.347 E.03173
G1 X45.094 Y130.23 E.03522
G1 X45.159 Y129 E.03862
G1 X45.282 Y128.33 E.02136
G1 X45.664 Y127.143 E.0391
G1 X46.139 Y126.217 E.03263
G1 X46.139 Y108.783 E.54663
G1 X45.67 Y107.872 E.03213
G1 X45.293 Y106.717 E.03809
G1 X45.091 Y104.957 E.05555
G1 X45.211 Y103.667 E.04062
G1 X45.451 Y102.721 E.0306
G1 X46.139 Y101.217 E.05186
G1 X46.141 Y83.787 E.54651
G1 X45.663 Y82.856 E.03281
G1 X45.282 Y81.674 E.03894
G1 X45.159 Y81.002 E.02142
G1 X45.095 Y79.762 E.03893
G1 X45.212 Y78.662 E.03468
G1 X45.465 Y77.675 E.03195
G1 X46.134 Y76.226 E.05004
G1 X46.141 Y67.909 E.26077
G1 X46.259 Y66.729 E.03718
G1 X46.447 Y65.974 E.0244
G1 X46.725 Y65.231 E.02487
G1 X47.469 Y63.944 E.04661
G1 X48.384 Y62.946 E.04245
M204 S1000
G1 X48.384 Y62.946 F10800
G1 X48.648 Y63.246
M204 S800
G1 F1200
G1 X49.275 Y62.695 E.02617
G1 X50.625 Y61.969 E.04806
G1 X51.43 Y61.711 E.0265
G1 X52.956 Y61.518 E.04823
G1 X197.074 Y61.518 E4.51872
G1 X198.074 Y61.608 E.03148
G1 X199.046 Y61.849 E.0314
G1 X200.022 Y62.267 E.03329
G1 X200.844 Y62.78 E.03038
G1 X201.723 Y63.561 E.03687
G1 X202.369 Y64.37 E.03246
G1 X202.88 Y65.272 E.0325
G1 X203.225 Y66.195 E.0309
G1 X203.41 Y67.037 E.02703
G1 X203.48 Y67.89 E.02684
G1 X203.489 Y76.33 E.26463
G1 X204.172 Y77.779 E.05023
G1 X204.415 Y78.719 E.03044
G1 X204.529 Y79.779 E.03343
G1 X204.464 Y80.977 E.03762
G1 X204.348 Y81.6 E.01987
G1 X203.986 Y82.717 E.03682
G1 X203.482 Y83.684 E.03419
G1 X203.484 Y101.322 E.55303
G1 X203.959 Y102.22 E.03185
M73 Q1 S97
G1 X204.187 Y102.825 E.02027
G1 X204.417 Y103.729 E.02925
G1 X204.532 Y104.952 E.03852
G1 X204.452 Y106.057 E.03474
G1 X204.2 Y107.136 E.03474
G1 X203.981 Y107.73 E.01985
G1 X203.484 Y108.678 E.03356
G1 X203.484 Y126.321 E.55318
G1 X203.986 Y127.282 E.03399
G1 X204.352 Y128.419 E.03745
G1 X204.467 Y129.047 E.02002
G1 X204.528 Y130.252 E.03783
G1 X204.415 Y131.285 E.03258
G1 X204.172 Y132.222 E.03035
G1 X203.489 Y133.67 E.0502
G1 X203.482 Y142.081 E.26372
G1 X203.367 Y143.219 E.03586
G1 X203.19 Y143.924 E.02279
G1 X202.617 Y145.236 E.04489
G1 X201.774 Y146.384 E.04466
M73 P2 R95
G1 X201.263 Y146.882 E.02237
G1 X200.121 Y147.682 E.04372
G1 X199.375 Y148.031 E.02582
G1 X198.586 Y148.284 E.02598
G1 X197.053 Y148.482 E.04847
G1 X52.941 Y148.482 E4.51853
G1 X52.081 Y148.417 E.02704
M73 Q2 S97
G1 X51.247 Y148.24 E.02673
G1 X50.442 Y147.956 E.02676
G1 X49.678 Y147.566 E.0269
G1 X48.981 Y147.085 E.02655
G1 X48.34 Y146.505 E.0271
G1 X47.777 Y145.839 E.02734
G1 X47.325 Y145.132 E.02631
G1 X46.769 Y143.787 E.04563
G1 X46.527 Y142.336 E.04612
G1 X46.511 Y133.671 E.27169
G1 X45.828 Y132.222 E.05023
G1 X45.585 Y131.283 E.03041
G1 X45.471 Y130.212 E.03377
G1 X45.533 Y129.044 E.03667
G1 X45.647 Y128.422 E.01983
G1 X46.014 Y127.282 E.03755
G1 X46.516 Y126.321 E.03399
G1 X46.516 Y108.679 E.55315
G1 X45.805 Y107.151 E.05284
G1 X45.548 Y106.058 E.0352
G1 X45.468 Y104.952 E.03477
G1 X45.583 Y103.729 E.03852
G1 X45.813 Y102.825 E.02925
G1 X46.048 Y102.203 E.02085
G1 X46.516 Y101.321 E.03131
G1 X46.518 Y83.684 E.553
G1 X46.014 Y82.717 E.03419
G1 X45.648 Y81.581 E.03742
G1 X45.533 Y80.958 E.01986
G1 X45.471 Y79.78 E.03699
G1 X45.583 Y78.726 E.03323
G1 X45.828 Y77.78 E.03064
G1 X46.511 Y76.33 E.05025
G1 X46.518 Y67.919 E.26372
G1 X46.633 Y66.781 E.03586
G1 X47.066 Y65.391 E.04565
G1 X47.767 Y64.175 E.04401
G1 X48.226 Y63.616 E.02268
G1 X48.603 Y63.285 E.01573
M204 S1000
G1 X48.603 Y63.285 F10800
G1 X48.869 Y63.53
M204 S800
G1 F1200
G1 X48.992 Y63.395 E.00573
G1 X50.069 Y62.645 E.04115
G1 X50.773 Y62.316 E.02436
G1 X51.532 Y62.074 E.02498
G1 X52.962 Y61.895 E.04519
G1 X197.066 Y61.895 E4.51828
G1 X197.998 Y61.977 E.02934
G1 X198.912 Y62.202 E.02951
G1 X199.86 Y62.608 E.03234
G1 X200.63 Y63.091 E.0285
G1 X201.439 Y63.809 E.03391
G1 X202.065 Y64.593 E.03146
G1 X202.532 Y65.419 E.02975
G1 X202.86 Y66.29 E.02918
G1 X203.035 Y67.081 E.0254
G1 X203.104 Y67.913 E.02618
G1 X203.112 Y76.434 E.26717
G1 X203.81 Y77.885 E.05049
G1 X204.044 Y78.784 E.02913
G1 X204.152 Y79.797 E.03194
G1 X203.982 Y81.508 E.05391
G1 X203.635 Y82.578 E.03527
G1 X203.105 Y83.58 E.03554
G1 X203.107 Y101.426 E.55955
G1 X203.39 Y101.901 E.01734
G1 X203.824 Y102.929 E.03499
G1 X204.045 Y103.791 E.0279
G1 X204.155 Y104.948 E.03644
G1 X204.08 Y105.993 E.03285
G1 X203.839 Y107.028 E.03332
G1 X203.393 Y108.093 E.0362
G1 X203.107 Y108.574 E.01755
G1 X203.107 Y126.425 E.55971
G1 X203.635 Y127.421 E.03535
G1 X203.986 Y128.511 E.0359
G1 X204.093 Y129.091 E.01849
G1 X204.151 Y130.232 E.03582
G1 X204.043 Y131.22 E.03116
G1 X203.809 Y132.116 E.02904
G1 X203.112 Y133.566 E.05044
G1 X203.105 Y142.071 E.26667
G1 X202.994 Y143.167 E.03454
G1 X202.592 Y144.449 E.04213
G1 X201.934 Y145.595 E.04143
G1 X201.008 Y146.605 E.04296
G1 X199.931 Y147.355 E.04115
G1 X198.482 Y147.922 E.04879
G1 X197.047 Y148.105 E.04536
G1 X52.948 Y148.105 E4.51812
G1 X52.123 Y148.042 E.02594
M73 P2 R94
G1 X51.338 Y147.874 E.02517
G1 X50.581 Y147.605 E.02519
G1 X49.861 Y147.236 E.02537
G1 X49.206 Y146.783 E.02497
G1 X48.603 Y146.234 E.02557
G1 X48.074 Y145.606 E.02575
G1 X47.65 Y144.939 E.02478
G1 X47.129 Y143.674 E.0429
G1 X46.903 Y142.306 E.04347
G1 X46.888 Y133.567 E.27401
G1 X46.191 Y132.116 E.05047
G1 X45.957 Y131.218 E.0291
G1 X45.848 Y130.194 E.03229
G1 X45.908 Y129.088 E.03473
G1 X46.165 Y127.961 E.03624
G1 X46.617 Y126.888 E.03651
G1 X46.893 Y126.425 E.0169
G1 X46.893 Y108.575 E.55967
G1 X46.372 Y107.594 E.03483
G1 X46.161 Y107.028 E.01894
G1 X45.922 Y106.008 E.03285
G1 X45.845 Y104.948 E.03332
G1 X45.955 Y103.791 E.03644
G1 X46.176 Y102.929 E.0279
G1 X46.391 Y102.359 E.0191
