; generated by PrusaSlicer 2.7.4 on 2024-06-12 at 17:13:06 UTC


;
;
; 

; external perimeters extrusion width = 0.45mm
; perimeters extrusion width = 0.45mm
; infill extrusion width = 0.45mm
; solid infill extrusion width = 0.45mm
; top infill extrusion width = 0.40mm
; first layer extrusion width = 0.42mm

M73 P0 R181
M73 Q0 S181
M201 X1000 Y1000 Z200 E5000 ; sets maximum accelerations, mm/sec^2
M203 X200 Y200 Z12 E120 ; sets maximum feedrates, mm / sec
M204 S1250 T1250 ; sets acceleration (S) and retract acceleration (R), mm/sec^2
M205 X8.00 Y8.00 Z0.40 E4.50 ; sets the jerk limits, mm/sec
M205 S0 T0 ; sets the minimum extruding and travel feed rate, mm/sec

; printing object marker - teammarker_torso.stl id:0 copy 0
; stop printing object marker - teammarker_torso.stl id:0 copy 0

;TYPE:Custom
M862.3 P "MK3S" ; printer model check
M862.1 P0.4 ; nozzle diameter check
M115 U3.13.3 ; tell printer latest fw version
G90 ; use absolute coordinates
M83 ; extruder relative mode
M104 S230 ; set extruder temp
M140 S60 ; set bed temp
M190 S60 ; wait for bed temp
M109 S230 ; wait for extruder temp
G28 W ; home all without mesh bed level
G80 X54.3416 Y58.4666 W141.317 H93.0669 ; mesh bed levelling

G1 Z0.2 F720
G1 Y-3 F1000 ; go outside print area
G92 E0
G1 X60 E9 F1000 ; intro line
G1 X100 E12.5 F1000 ; intro line

G92 E0
M221 S95

; Don't change E values below. Excessive value can damage the printer.
M907 E430 ; set extruder motor current
G21 ; set units to millimeters
G90 ; use absolute coordinates
M83 ; use relative distances for extrusion
M900 K0 ; Filament gcode
M107
;LAYER_CHANGE
;Z:0.3
;HEIGHT:0.3
G1 X55.684 Y60.036 F10800
G1 Z.3 F720
M204 S800
;TYPE:Skirt/Brim
;WIDTH:0.42
G1 F900
G1 X56.492 Y59.355 E.05156
G1 X57.597 Y58.837 E.05954
G1 X58.875 Y58.644 E.06306
G1 X191.125 Y58.644 E6.45252
G1 X191.932 Y58.72 E.03955
G1 X192.744 Y58.957 E.04127
G1 X193.422 Y59.299 E.03705
G1 X194.105 Y59.824 E.04203
G1 X194.663 Y60.46 E.04128
G1 X195.05 Y61.113 E.03703
G1 X195.345 Y61.923 E.04206
G1 X195.474 Y62.759 E.04127
G1 X195.481 Y140 E3.76861
G1 X195.39 Y141.431 E.06996
G1 X195.106 Y142.889 E.07247
G1 X194.778 Y143.932 E.05335
G1 X194.173 Y145.289 E.07249
G1 X193.397 Y146.555 E.07245
G1 X192.532 Y147.634 E.06747
G1 X191.463 Y148.665 E.07246
G1 X190.269 Y149.549 E.07248
G1 X188.97 Y150.269 E.07246
G1 X187.491 Y150.845 E.07744
G1 X185.658 Y151.251 E.0916
G1 X184.176 Y151.355 E.07249
G1 X65.431 Y151.346 E5.7936
G1 X64.342 Y151.251 E.05333
G1 X62.886 Y150.955 E.07249
G1 X61.577 Y150.51 E.06746
G1 X60.242 Y149.859 E.07247
G1 X59.003 Y149.04 E.07246
G1 X58.166 Y148.337 E.05333
G1 X57.144 Y147.26 E.07244
G1 X56.326 Y146.144 E.06751
G1 X55.562 Y144.752 E.07747
G1 X55.03 Y143.366 E.07243
G1 X54.624 Y141.533 E.0916
G1 X54.52 Y140.051 E.07249
G1 X54.519 Y63 E3.75934
G1 X54.653 Y61.931 E.05256
G1 X55.026 Y60.963 E.05061
G1 X55.649 Y60.085 E.05253
M204 S1000
; printing object marker - teammarker_torso.stl id:0 copy 0
G1 X55.649 Y60.085 F10800
G1 X58.039 Y62.759
M204 S800
;TYPE:Perimeter
;WIDTH:0.42
G1 F900
G1 X58.206 Y62.439 E.01761
G1 X58.506 Y62.209 E.01844
G1 X58.857 Y62.123 E.01763
G1 X191.129 Y62.13 E6.45358
G1 X191.468 Y62.213 E.01703
G1 X191.767 Y62.412 E.01752
G1 X191.935 Y62.701 E.01631
G1 X192.003 Y63.048 E.01725
G1 X191.997 Y63.728 E.03318
G1 X191.848 Y64.309 E.02926
G1 X191.42 Y65.213 E.0488
G1 X191.226 Y65.708 E.02594
G1 X191.085 Y66.23 E.02638
G1 X191.009 Y66.851 E.03052
G1 X191.038 Y67.488 E.03111
G1 X191.165 Y68.1 E.0305
G1 X191.353 Y68.628 E.02735
G1 X191.756 Y69.485 E.04621
G1 X191.944 Y69.985 E.02606
G1 X192.004 Y70.528 E.02665
G1 X192.004 Y139.968 E3.38799
G1 X191.934 Y141.028 E.05183
M73 P0 R180
G1 X191.731 Y142.048 E.05074
G1 X191.528 Y142.694 E.03304
G1 X191.265 Y143.329 E.03353
G1 X190.952 Y143.931 E.0331
G1 X190.374 Y144.795 E.05072
G1 X189.688 Y145.577 E.05075
G1 X189.189 Y146.035 E.03305
G1 X188.651 Y146.447 E.03306
G1 X187.754 Y146.992 E.05121
G1 X187.139 Y147.278 E.03309
G1 X186.494 Y147.513 E.03349
G1 X185.83 Y147.691 E.03354
G1 X185.195 Y147.804 E.03147
G1 X184.092 Y147.879 E.05394
G1 X65.907 Y147.879 E5.76627
M73 Q0 S180
G1 X64.837 Y147.809 E.05232
G1 X64.17 Y147.691 E.03305
G1 X63.506 Y147.513 E.03354
G1 X62.86 Y147.278 E.03354
G1 X62.237 Y146.988 E.03353
G1 X61.642 Y146.644 E.03353
G1 X61.087 Y146.255 E.03307
G1 X60.305 Y145.57 E.05072
G1 X59.626 Y144.795 E.05027
G1 X59.048 Y143.93 E.05076
G1 X58.735 Y143.33 E.03302
G1 X58.476 Y142.703 E.0331
G1 X58.182 Y141.696 E.05118
G1 X58.066 Y141.038 E.0326
G1 X57.996 Y139.968 E.05232
G1 X57.996 Y70.528 E3.38799
G1 X58.056 Y69.985 E.02665
G1 X58.244 Y69.485 E.02606
G1 X58.684 Y68.538 E.05095
G1 X58.863 Y67.996 E.02785
G1 X58.962 Y67.488 E.02525
G1 X58.991 Y66.851 E.03111
G1 X58.915 Y66.23 E.03052
G1 X58.774 Y65.708 E.02638
G1 X58.58 Y65.213 E.02594
G1 X58.122 Y64.221 E.05331
G1 X58.003 Y63.729 E.0247
G1 X57.999 Y63.064 E.03245
G1 X58.027 Y62.817 E.01213
M204 S1000
G1 X58.027 Y62.817 F10800
G1 X57.755 Y62.53
M204 S800
G1 F900
G1 X57.783 Y62.432 E.00497
G1 X58.029 Y62.116 E.01954
G1 X58.355 Y61.884 E.01952
G1 X58.834 Y61.767 E.02406
G1 X190.998 Y61.766 E6.44831
G1 X191.437 Y61.812 E.02154
G1 X191.629 Y61.896 E.01023
G1 X191.916 Y62.072 E.01643
G1 X192.118 Y62.293 E.01461
G1 X192.276 Y62.598 E.01676
G1 X192.359 Y63.03 E.02146
G1 X192.354 Y63.621 E.02884
G1 X192.301 Y64.079 E.0225
G1 X192.13 Y64.546 E.02426
G1 X191.57 Y65.801 E.06705
G1 X191.428 Y66.323 E.02639
G1 X191.363 Y66.887 E.0277
G1 X191.393 Y67.465 E.02824
G1 X191.502 Y67.984 E.02587
G1 X191.674 Y68.477 E.02548
G1 X192.17 Y69.548 E.05759
G1 X192.331 Y70.066 E.02647
G1 X192.359 Y70.528 E.02258
G1 X192.359 Y139.98 E3.38858
G1 X192.288 Y141.075 E.05354
G1 X192.076 Y142.137 E.05284
G1 X191.862 Y142.816 E.03473
G1 X191.587 Y143.48 E.03507
G1 X191.258 Y144.112 E.03476
G1 X190.657 Y145.012 E.0528
G1 X189.943 Y145.826 E.05283
G1 X189.418 Y146.307 E.03474
G1 X188.852 Y146.741 E.0348
G1 X187.922 Y147.306 E.05309
G1 X187.276 Y147.607 E.03477
G1 X186.601 Y147.853 E.03505
G1 X185.907 Y148.039 E.03506
G1 X185.239 Y148.157 E.0331
G1 X184.104 Y148.234 E.0555
G1 X65.895 Y148.234 E5.76745
G1 X64.795 Y148.162 E.05378
G1 X64.093 Y148.039 E.03477
G1 X63.399 Y147.853 E.03506
G1 X62.724 Y147.607 E.03505
G1 X62.073 Y147.303 E.03505
G1 X61.451 Y146.944 E.03504
G1 X60.867 Y146.535 E.03479
G1 X60.053 Y145.822 E.0528
G1 X59.343 Y145.012 E.05255
G1 X58.741 Y144.111 E.05287
G1 X58.413 Y143.48 E.0347
G1 X58.14 Y142.821 E.0348
G1 X57.835 Y141.776 E.05311
G1 X57.713 Y141.08 E.03448
G1 X57.641 Y139.98 E.05378
G1 X57.641 Y70.424 E3.39365
G1 X57.711 Y69.899 E.02584
G1 X57.886 Y69.41 E.02534
G1 X58.326 Y68.477 E.05033
G1 X58.498 Y67.984 E.02548
G1 X58.607 Y67.465 E.02587
G1 X58.637 Y66.887 E.02824
G1 X58.572 Y66.323 E.0277
G1 X58.43 Y65.801 E.02639
G1 X58.258 Y65.365 E.02287
G1 X57.87 Y64.546 E.04422
G1 X57.699 Y64.079 E.02426
G1 X57.647 Y63.619 E.02259
G1 X57.658 Y62.861 E.03699
G1 X57.738 Y62.587 E.01393
M204 S1000
G1 X57.738 Y62.587 F10800
G1 X57.403 Y62.428
M204 S800
;TYPE:External perimeter
G1 F900
G1 X57.562 Y62.123 E.01678
G1 X57.783 Y61.859 E.0168
G1 X58.056 Y61.65 E.01677
G1 X58.367 Y61.505 E.01674
G1 X58.81 Y61.412 E.02209
G1 X190.998 Y61.41 E6.44948
G1 X191.534 Y61.466 E.02629
G1 X191.98 Y61.662 E.02377
G1 X192.296 Y61.927 E.02012
G1 X192.534 Y62.267 E.02025
G1 X192.676 Y62.657 E.02025
G1 X192.715 Y63.013 E.01747
G1 X192.709 Y63.625 E.02986
G1 X192.648 Y64.165 E.02651
G1 X192.451 Y64.698 E.02772
G1 X191.913 Y65.895 E.06403
G1 X191.771 Y66.416 E.02635
G1 X191.716 Y66.924 E.02493
G1 X191.747 Y67.442 E.02532
G1 X191.832 Y67.848 E.02024
G1 X191.996 Y68.325 E.02461
G1 X192.531 Y69.493 E.06268
G1 X192.683 Y70.009 E.02625
G1 X192.715 Y70.528 E.02537
G1 X192.715 Y139.992 E3.38917
G1 X192.641 Y141.122 E.05525
M73 P1 R179
M73 Q1 S180
G1 X192.421 Y142.225 E.05488
G1 X192.197 Y142.938 E.03646
G1 X191.91 Y143.63 E.03655
G1 X191.565 Y144.293 E.03647
G1 X190.939 Y145.229 E.05494
G1 X190.197 Y146.075 E.0549
G1 X189.647 Y146.58 E.03643
G1 X189.053 Y147.035 E.03651
G1 X188.09 Y147.62 E.05498
G1 X187.412 Y147.936 E.0365
G1 X186.708 Y148.192 E.03655
G1 X185.984 Y148.386 E.03657
G1 X185.282 Y148.511 E.03479
G1 X184.116 Y148.59 E.05702
G1 X65.883 Y148.59 E5.76862
G1 X64.752 Y148.516 E.0553
M73 Q1 S179
G1 X64.016 Y148.386 E.03647
G1 X63.292 Y148.192 E.03657
G1 X62.588 Y147.936 E.03655
G1 X61.909 Y147.619 E.03656
G1 X61.26 Y147.245 E.03655
G1 X60.647 Y146.816 E.03651
G1 X59.801 Y146.073 E.05494
G1 X59.06 Y145.229 E.0548
G1 X58.435 Y144.293 E.05491
G1 X58.09 Y143.631 E.03642
G1 X57.804 Y142.939 E.03653
G1 X57.489 Y141.857 E.05498
G1 X57.359 Y141.123 E.03637
G1 X57.285 Y139.991 E.05535
G1 X57.285 Y70.41 E3.39487
G1 X57.365 Y69.813 E.02939
G1 X57.56 Y69.268 E.02824
G1 X58.004 Y68.325 E.05085
G1 X58.162 Y67.868 E.02359
G1 X58.253 Y67.442 E.02125
G1 X58.284 Y66.924 E.02532
G1 X58.229 Y66.416 E.02493
G1 X58.087 Y65.895 E.02635
G1 X57.937 Y65.517 E.01984
G1 X57.549 Y64.698 E.04422
G1 X57.353 Y64.165 E.02771
G1 X57.291 Y63.622 E.02667
G1 X57.307 Y62.807 E.03977
G1 X57.388 Y62.486 E.01615
M204 S1000
G1 X57.572 Y62.13 F10800
G1 X191.84 Y63.443
M204 S800
;TYPE:Solid infill
;WIDTH:0.420788
G1 F900
G1 X190.845 Y62.448 E.06881
G1 X190.341 Y62.448 E.02464
G1 X191.666 Y63.773 E.09163
G1 X191.643 Y63.917 E.00713
G1 X191.558 Y64.169 E.013
G1 X189.837 Y62.448 E.11901
G1 X189.333 Y62.448 E.02464
G1 X191.398 Y64.513 E.1428
G1 X191.236 Y64.855 E.0185
G1 X188.829 Y62.448 E.16645
G1 X188.325 Y62.448 E.02464
G1 X191.081 Y65.204 E.19058
G1 X190.939 Y65.567 E.01906
G1 X187.821 Y62.448 E.21565
G1 X187.317 Y62.448 E.02464
G1 X190.832 Y65.964 E.24311
G1 X190.737 Y66.373 E.02053
G1 X186.813 Y62.448 E.27139
G1 X186.309 Y62.448 E.02464
G1 X190.7 Y66.839 E.30365
G1 X190.686 Y67.011 E.00844
G1 X190.714 Y67.358 E.01702
G1 X185.804 Y62.448 E.33954
G1 X185.3 Y62.448 E.02464
G1 X190.804 Y67.952 E.38062
G1 X190.86 Y68.197 E.01229
G1 X191.026 Y68.678 E.02488
G1 X184.796 Y62.448 E.43082
G1 X184.292 Y62.448 E.02464
G1 X191.468 Y69.624 E.49624
G1 X191.61 Y69.968 E.0182
G1 X191.662 Y70.175 E.01044
G1 X191.674 Y70.334 E.0078
G1 X183.788 Y62.448 E.54534
G1 X183.284 Y62.448 E.02464
G1 X191.684 Y70.848 E.58088
G1 X191.684 Y71.352 E.02464
G1 X182.78 Y62.448 E.61574
G1 X182.276 Y62.448 E.02464
G1 X191.684 Y71.856 E.65059
G1 X191.684 Y72.36 E.02464
G1 X181.772 Y62.448 E.68544
G1 X181.268 Y62.448 E.02464
G1 X191.684 Y72.864 E.72029
G1 X191.684 Y73.368 E.02464
G1 X180.764 Y62.448 E.75515
G1 X180.26 Y62.448 E.02464
G1 X191.684 Y73.872 E.79
G1 X191.684 Y74.376 E.02464
G1 X179.756 Y62.448 E.82485
G1 X179.252 Y62.448 E.02464
G1 X191.684 Y74.88 E.85971
G1 X191.684 Y75.384 E.02464
G1 X178.748 Y62.448 E.89456
G1 X178.244 Y62.448 E.02464
G1 X191.684 Y75.888 E.92941
G1 X191.684 Y76.392 E.02464
G1 X177.74 Y62.448 E.96427
G1 X177.236 Y62.448 E.02464
G1 X191.684 Y76.896 E.99912
G1 X191.684 Y77.4 E.02464
G1 X176.731 Y62.448 E1.03401
G1 X176.227 Y62.448 E.02464
G1 X191.684 Y77.904 E1.06886
G1 X191.684 Y78.408 E.02464
G1 X175.723 Y62.448 E1.10371
G1 X175.219 Y62.448 E.02464
G1 X191.684 Y78.912 E1.13856
G1 X191.684 Y79.416 E.02464
G1 X174.715 Y62.448 E1.17342
G1 X174.211 Y62.448 E.02464
G1 X191.684 Y79.92 E1.20827
G1 X191.684 Y80.424 E.02464
G1 X173.707 Y62.448 E1.24312
G1 X173.203 Y62.448 E.02464
G1 X191.684 Y80.928 E1.27798
G1 X191.684 Y81.432 E.02464
G1 X172.699 Y62.448 E1.31283
G1 X172.195 Y62.448 E.02464
G1 X191.684 Y81.936 E1.34768
G1 X191.684 Y82.44 E.02464
G1 X171.691 Y62.448 E1.38254
G1 X171.187 Y62.448 E.02464
G1 X191.684 Y82.944 E1.41739
G1 X191.684 Y83.448 E.02464
G1 X170.683 Y62.447 E1.45228
G1 X170.179 Y62.447 E.02464
M73 P1 R178
G1 X191.684 Y83.952 E1.48713
G1 X191.684 Y84.456 E.02464
G1 X169.675 Y62.447 E1.52198
G1 X169.171 Y62.447 E.02464
M73 Q1 S178
G1 X191.684 Y84.961 E1.55687
G1 X191.684 Y85.465 E.02464
G1 X168.667 Y62.447 E1.59172
G1 X168.163 Y62.447 E.02464
G1 X191.684 Y85.969 E1.62658
G1 X191.684 Y86.473 E.02464
G1 X167.658 Y62.447 E1.66146
G1 X167.154 Y62.447 E.02464
G1 X191.684 Y86.977 E1.69632
G1 X191.684 Y87.481 E.02464
G1 X166.65 Y62.447 E1.73117
G1 X166.146 Y62.447 E.02464
G1 X191.684 Y87.985 E1.76602
G1 X191.684 Y88.489 E.02464
G1 X165.642 Y62.447 E1.80087
G1 X165.138 Y62.447 E.02464
G1 X191.684 Y88.993 E1.83573
G1 X191.684 Y89.497 E.02464
G1 X164.634 Y62.447 E1.87058
G1 X164.13 Y62.447 E.02464
G1 X191.684 Y90.001 E1.90543
G1 X191.684 Y90.505 E.02464
G1 X163.626 Y62.447 E1.94029
G1 X163.122 Y62.447 E.02464
G1 X191.684 Y91.009 E1.97514
G1 X191.684 Y91.513 E.02464
G1 X162.618 Y62.447 E2.00999
G1 X162.114 Y62.447 E.02464
G1 X191.684 Y92.017 E2.04485
G1 X191.684 Y92.521 E.02464
G1 X161.61 Y62.447 E2.0797
G1 X161.106 Y62.447 E.02464
G1 X191.684 Y93.025 E2.11455
G1 X191.684 Y93.529 E.02464
G1 X160.602 Y62.447 E2.1494
G1 X160.098 Y62.447 E.02464
M73 P2 R178
M73 Q2 S178
G1 X191.684 Y94.033 E2.18426
G1 X191.684 Y94.537 E.02464
G1 X159.594 Y62.447 E2.21911
G1 X159.09 Y62.447 E.02464
G1 X191.684 Y95.041 E2.25396
G1 X191.684 Y95.545 E.02464
M73 P2 R177
G1 X158.585 Y62.447 E2.28885
G1 X158.081 Y62.447 E.02464
G1 X191.684 Y96.049 E2.3237
G1 X191.684 Y96.553 E.02464
M73 Q2 S177
G1 X157.577 Y62.447 E2.35856
G1 X157.073 Y62.447 E.02464
G1 X191.684 Y97.057 E2.39341
G1 X191.684 Y97.561 E.02464
G1 X156.569 Y62.447 E2.42826
G1 X156.065 Y62.447 E.02464
G1 X191.684 Y98.065 E2.46312
G1 X191.684 Y98.569 E.02464
G1 X155.561 Y62.447 E2.49797
G1 X155.057 Y62.447 E.02464
G1 X191.684 Y99.073 E2.53282
G1 X191.684 Y99.578 E.02469
G1 X154.553 Y62.447 E2.56771
G1 X154.049 Y62.447 E.02464
G1 X191.684 Y100.082 E2.60256
G1 X191.684 Y100.586 E.02464
G1 X153.545 Y62.447 E2.63742
G1 X153.041 Y62.447 E.02464
G1 X191.684 Y101.09 E2.67227
G1 X191.684 Y101.594 E.02464
G1 X152.537 Y62.447 E2.70712
G1 X152.033 Y62.447 E.02464
G1 X191.684 Y102.098 E2.74197
G1 X191.684 Y102.602 E.02464
G1 X151.529 Y62.447 E2.77683
G1 X151.025 Y62.447 E.02464
G1 X191.684 Y103.106 E2.81168
G1 X191.684 Y103.61 E.02464
G1 X150.521 Y62.447 E2.84653
G1 X150.017 Y62.447 E.02464
M73 P2 R176
G1 X191.684 Y104.114 E2.88139
G1 X191.684 Y104.618 E.02464
M73 Q2 S176
G1 X149.512 Y62.447 E2.91627
G1 X149.008 Y62.447 E.02464
G1 X191.684 Y105.122 E2.95113
G1 X191.684 Y105.626 E.02464
G1 X148.504 Y62.447 E2.98598
G1 X148 Y62.447 E.02464
G1 X191.684 Y106.13 E3.02083
G1 X191.684 Y106.634 E.02464
G1 X147.496 Y62.447 E3.05569
G1 X146.992 Y62.447 E.02464
G1 X191.684 Y107.138 E3.09054
G1 X191.684 Y107.642 E.02464
G1 X146.488 Y62.447 E3.12539
G1 X145.984 Y62.447 E.02464
G1 X191.684 Y108.146 E3.16024
G1 X191.684 Y108.65 E.02464
G1 X145.48 Y62.446 E3.19513
G1 X144.976 Y62.446 E.02464
M73 P3 R176
M73 Q3 S176
G1 X191.684 Y109.154 E3.22998
G1 X191.684 Y109.658 E.02464
G1 X144.472 Y62.446 E3.26484
G1 X143.968 Y62.446 E.02464
G1 X191.684 Y110.162 E3.29969
G1 X191.684 Y110.666 E.02464
G1 X143.464 Y62.446 E3.33454
G1 X142.96 Y62.446 E.02464
M73 P3 R175
G1 X191.684 Y111.17 E3.3694
G1 X191.684 Y111.674 E.02464
M73 Q3 S175
G1 X142.456 Y62.446 E3.40425
G1 X141.952 Y62.446 E.02464
G1 X191.684 Y112.178 E3.4391
G1 X191.684 Y112.682 E.02464
G1 X141.448 Y62.446 E3.47396
G1 X140.944 Y62.446 E.02464
G1 X191.684 Y113.186 E3.50881
G1 X191.684 Y113.691 E.02469
G1 X140.439 Y62.446 E3.54373
G1 X139.935 Y62.446 E.02464
G1 X191.684 Y114.195 E3.57858
G1 X191.684 Y114.699 E.02464
G1 X139.431 Y62.446 E3.61344
G1 X138.927 Y62.446 E.02464
G1 X191.684 Y115.203 E3.64829
G1 X191.684 Y115.707 E.02464
G1 X138.423 Y62.446 E3.68314
G1 X137.919 Y62.446 E.02464
G1 X191.684 Y116.211 E3.718
G1 X191.684 Y116.715 E.02464
G1 X137.415 Y62.446 E3.75285
G1 X136.911 Y62.446 E.02464
G1 X191.684 Y117.219 E3.7877
G1 X191.684 Y117.723 E.02464
M73 P3 R174
M73 Q3 S174
G1 X136.407 Y62.446 E3.82255
G1 X135.903 Y62.446 E.02464
G1 X191.684 Y118.227 E3.85741
G1 X191.684 Y118.731 E.02464
G1 X135.399 Y62.446 E3.89226
G1 X134.895 Y62.446 E.02464
G1 X191.684 Y119.235 E3.92711
G1 X191.684 Y119.739 E.02464
G1 X134.391 Y62.446 E3.96197
G1 X133.887 Y62.446 E.02464
M73 P4 R174
M73 Q4 S174
G1 X191.684 Y120.243 E3.99682
G1 X191.684 Y120.747 E.02464
G1 X133.383 Y62.446 E4.03167
G1 X132.879 Y62.446 E.02464
G1 X191.684 Y121.251 E4.06652
