; generated by PrusaSlicer 2.7.4 on 2024-06-07 at 13:36:07 UTC


;
;
; 

; external perimeters extrusion width = 0.45mm
; perimeters extrusion width = 0.45mm
; infill extrusion width = 0.45mm
; solid infill extrusion width = 0.45mm
; top infill extrusion width = 0.40mm
; first layer extrusion width = 0.42mm

M73 P0 R279
M73 Q0 S279
M201 X1000 Y1000 Z200 E5000 ; sets maximum accelerations, mm/sec^2
M203 X200 Y200 Z12 E120 ; sets maximum feedrates, mm / sec
M204 S1250 T1250 ; sets acceleration (S) and retract acceleration (R), mm/sec^2
M205 X8.00 Y8.00 Z0.40 E4.50 ; sets the jerk limits, mm/sec
M205 S0 T0 ; sets the minimum extruding and travel feed rate, mm/sec

; printing object marker - teammarker_torso.stl id:0 copy 0
; stop printing object marker - teammarker_torso.stl id:0 copy 0

;TYPE:Custom
M862.3 P "MK3S" ; printer model check
M862.1 P0.4 ; nozzle diameter check
M115 U3.13.3 ; tell printer latest fw version
G90 ; use absolute coordinates
M83 ; extruder relative mode
M104 S230 ; set extruder temp
M140 S60 ; set bed temp
M190 S60 ; wait for bed temp
M109 S230 ; wait for extruder temp
G28 W ; home all without mesh bed level
G80 X54.3416 Y53.4666 W141.317 H103.067 ; mesh bed levelling

G1 Z0.2 F720
G1 Y-3 F1000 ; go outside print area
G92 E0
G1 X60 E9 F1000 ; intro line
G1 X100 E12.5 F1000 ; intro line

G92 E0
M221 S95

; Don't change E values below. Excessive value can damage the printer.
M907 E430 ; set extruder motor current
G21 ; set units to millimeters
G90 ; use absolute coordinates
M83 ; use relative distances for extrusion
M900 K0 ; Filament gcode
M107
;LAYER_CHANGE
;Z:0.3
;HEIGHT:0.3
G1 X55.617 Y55.11 F10800
G1 Z.3 F720
M204 S800
;TYPE:Skirt/Brim
;WIDTH:0.42
G1 F900
G1 X56.335 Y54.462 E.04719
G1 X56.91 Y54.113 E.03282
G1 X57.517 Y53.862 E.03205
G1 X58.169 Y53.702 E.03276
G1 X58.875 Y53.644 E.03456
G1 X191.176 Y53.645 E6.455
G1 X192.011 Y53.736 E.04098
G1 X192.744 Y53.957 E.03735
G1 X193.496 Y54.347 E.04133
G1 X194.105 Y54.824 E.03774
G1 X194.611 Y55.39 E.03704
G1 X195.05 Y56.113 E.04127
G1 X195.345 Y56.923 E.04206
G1 X195.474 Y57.759 E.04127
G1 X195.481 Y145 E4.25651
G1 X195.39 Y146.431 E.06996
M73 P0 R278
G1 X195.2 Y147.508 E.05336
G1 X194.813 Y148.835 E.06744
G1 X194.221 Y150.198 E.0725
G1 X193.674 Y151.144 E.05332
G1 X192.79 Y152.338 E.07248
G1 X191.758 Y153.407 E.0725
G1 X190.68 Y154.272 E.06743
G1 X189.323 Y155.096 E.07746
G1 X187.589 Y155.814 E.09157
G1 X186.046 Y156.191 E.0775
G1 X184.176 Y156.355 E.09159
G1 X65.824 Y156.355 E5.77443
G1 X64.444 Y156.265 E.06747
M73 Q0 S278
G1 X62.986 Y155.981 E.07247
G1 X61.577 Y155.51 E.07248
G1 X60.586 Y155.048 E.05335
G1 X59.404 Y154.331 E.06745
G1 X58.347 Y153.499 E.06563
G1 X57.468 Y152.633 E.0602
G1 X56.603 Y151.555 E.06743
G1 X55.779 Y150.198 E.07746
G1 X55.061 Y148.463 E.09161
G1 X54.684 Y146.921 E.07745
G1 X54.519 Y145 E.09407
G1 X54.52 Y57.949 E4.24724
G1 X54.653 Y56.929 E.05019
G1 X55.029 Y55.957 E.05085
G1 X55.583 Y55.159 E.0474
M204 S1000
; printing object marker - teammarker_torso.stl id:0 copy 0
G1 X55.583 Y55.159 F10800
G1 X58.102 Y57.598
M204 S800
;TYPE:Perimeter
;WIDTH:0.42
G1 F900
G1 X58.296 Y57.354 E.01521
G1 X58.613 Y57.172 E.01783
G1 X58.946 Y57.121 E.01644
G1 X190.483 Y57.123 E6.41772
G1 X191.305 Y57.144 E.04012
G1 X191.665 Y57.313 E.0194
G1 X191.857 Y57.522 E.01385
G1 X191.979 Y57.818 E.01562
G1 X191.995 Y58.74 E.04499
G1 X191.848 Y59.309 E.02867
G1 X191.42 Y60.213 E.0488
G1 X191.226 Y60.708 E.02594
G1 X191.085 Y61.23 E.02638
G1 X191.009 Y61.851 E.03052
G1 X191.038 Y62.488 E.03111
G1 X191.165 Y63.099 E.03045
G1 X191.353 Y63.628 E.02739
G1 X191.756 Y64.485 E.04621
G1 X191.944 Y64.985 E.02606
G1 X192.004 Y65.528 E.02665
G1 X192.004 Y144.978 E3.87638
G1 X191.973 Y145.677 E.03414
G1 X191.814 Y146.714 E.05119
G1 X191.641 Y147.36 E.03263
G1 X191.264 Y148.329 E.05073
G1 X190.764 Y149.241 E.05075
G1 X190.38 Y149.788 E.03261
G1 X189.695 Y150.57 E.05072
G1 X188.92 Y151.249 E.05027
G1 X188.055 Y151.827 E.05076
G1 X187.454 Y152.14 E.03306
G1 X186.828 Y152.399 E.03305
G1 X186.182 Y152.587 E.03283
G1 X185.45 Y152.758 E.03668
G1 X184.717 Y152.849 E.03604
G1 X184.113 Y152.879 E.02951
G1 X65.897 Y152.879 E5.76779
G1 X65.198 Y152.848 E.03414
G1 X64.17 Y152.69 E.05075
G1 X63.172 Y152.399 E.05072
G1 X62.554 Y152.143 E.03264
G1 X61.634 Y151.639 E.05118
G1 X61.087 Y151.255 E.03261
G1 X60.305 Y150.569 E.05075
G1 X59.886 Y150.093 E.03094
G1 X59.413 Y149.491 E.03735
G1 X59.051 Y148.922 E.0329
G1 X58.739 Y148.319 E.03313
G1 X58.478 Y147.687 E.03336
G1 X58.272 Y147.033 E.03345
G1 X58.124 Y146.364 E.03343
G1 X58.026 Y145.592 E.03797
G1 X57.996 Y144.988 E.02951
G1 X57.996 Y65.528 E3.87687
G1 X58.056 Y64.985 E.02665
G1 X58.244 Y64.485 E.02606
G1 X58.684 Y63.538 E.05095
G1 X58.863 Y62.996 E.02785
G1 X58.962 Y62.488 E.02525
G1 X58.991 Y61.851 E.03111
G1 X58.915 Y61.23 E.03052
G1 X58.774 Y60.708 E.02638
G1 X58.58 Y60.213 E.02594
G1 X58.192 Y59.393 E.04426
G1 X58.046 Y58.994 E.02073
G1 X58.002 Y58.618 E.01847
G1 X58.003 Y57.991 E.03059
G1 X58.088 Y57.656 E.01686
M204 S1000
G1 X58.088 Y57.656 F10800
G1 X57.805 Y57.439
M204 S800
G1 F900
G1 X57.874 Y57.304 E.0074
G1 X58.161 Y56.999 E.02043
G1 X58.505 Y56.829 E.01872
G1 X58.919 Y56.766 E.02043
G1 X191.165 Y56.767 E6.45231
G1 X191.501 Y56.835 E.01673
G1 X191.88 Y57.027 E.02073
G1 X192.16 Y57.333 E.02024
G1 X192.334 Y57.768 E.02286
G1 X192.348 Y58.6 E.0406
G1 X192.301 Y59.079 E.02348
G1 X192.13 Y59.546 E.02426
G1 X191.57 Y60.801 E.06705
G1 X191.428 Y61.323 E.02639
G1 X191.363 Y61.888 E.02775
G1 X191.393 Y62.465 E.02819
G1 X191.502 Y62.984 E.02587
G1 X191.674 Y63.477 E.02548
G1 X192.17 Y64.548 E.05759
G1 X192.331 Y65.066 E.02647
G1 X192.359 Y65.528 E.02258
G1 X192.359 Y144.986 E3.87677
G1 X192.328 Y145.712 E.03545
M73 P0 R277
G1 X192.162 Y146.788 E.05312
G1 X191.979 Y147.471 E.0345
G1 X191.587 Y148.48 E.05281
G1 X191.066 Y149.429 E.05282
G1 X190.66 Y150.008 E.0345
G1 X189.947 Y150.822 E.0528
G1 X189.137 Y151.532 E.05255
G1 X188.237 Y152.133 E.0528
G1 X187.605 Y152.462 E.03476
G1 X186.946 Y152.735 E.0348
G1 X186.281 Y152.929 E.0338
G1 X185.512 Y153.108 E.03852
G1 X184.748 Y153.203 E.03756
G1 X184.117 Y153.234 E.03082
G1 X65.889 Y153.234 E5.76837
G1 X65.163 Y153.203 E.03545
M73 Q0 S277
G1 X64.093 Y153.038 E.05282
G1 X63.053 Y152.735 E.05285
G1 X62.4 Y152.464 E.03449
G1 X61.446 Y151.941 E.05308
G1 X60.867 Y151.535 E.0345
G1 X60.053 Y150.821 E.05283
G1 X59.619 Y150.328 E.03205
G1 X59.122 Y149.696 E.03923
G1 X58.743 Y149.1 E.03446
G1 X58.416 Y148.469 E.03468
G1 X58.143 Y147.809 E.03485
G1 X57.928 Y147.126 E.03494
G1 X57.774 Y146.426 E.03497
G1 X57.672 Y145.623 E.03949
G1 X57.641 Y144.992 E.03082
G1 X57.641 Y65.424 E3.88214
G1 X57.711 Y64.899 E.02584
G1 X57.886 Y64.41 E.02534
G1 X58.326 Y63.477 E.05033
G1 X58.498 Y62.984 E.02548
G1 X58.607 Y62.465 E.02587
G1 X58.637 Y61.887 E.02824
G1 X58.572 Y61.323 E.0277
G1 X58.43 Y60.801 E.02639
G1 X58.258 Y60.365 E.02287
G1 X57.785 Y59.334 E.05534
G1 X57.648 Y58.758 E.02889
G1 X57.641 Y58.03 E.03552
G1 X57.724 Y57.598 E.02146
G1 X57.778 Y57.492 E.0058
M204 S1000
G1 X57.778 Y57.492 F10800
G1 X57.466 Y57.267
M204 S800
;TYPE:External perimeter
G1 F900
G1 X57.703 Y56.927 E.02022
G1 X57.961 Y56.701 E.01673
G1 X58.397 Y56.486 E.02372
G1 X58.892 Y56.41 E.02443
G1 X191.083 Y56.412 E6.44963
G1 X191.467 Y56.448 E.01882
G1 X191.942 Y56.649 E.02516
G1 X192.297 Y56.926 E.02197
G1 X192.528 Y57.275 E.02042
G1 X192.688 Y57.718 E.02298
G1 X192.704 Y58.596 E.04284
G1 X192.647 Y59.165 E.0279
G1 X192.451 Y59.698 E.02771
G1 X191.913 Y60.894 E.06399
G1 X191.771 Y61.416 E.02639
G1 X191.716 Y61.924 E.02493
G1 X191.747 Y62.442 E.02532
G1 X191.832 Y62.848 E.02024
G1 X191.996 Y63.325 E.02461
G1 X192.531 Y64.493 E.06268
G1 X192.683 Y65.009 E.02625
G1 X192.715 Y65.528 E.02537
G1 X192.715 Y144.993 E3.87712
G1 X192.682 Y145.747 E.03682
G1 X192.511 Y146.861 E.05499
G1 X192.318 Y147.581 E.03637
G1 X191.91 Y148.63 E.05492
G1 X191.368 Y149.617 E.05494
G1 X190.941 Y150.228 E.03637
G1 X190.199 Y151.074 E.0549
G1 X189.354 Y151.815 E.05483
G1 X188.418 Y152.44 E.05491
G1 X187.755 Y152.785 E.03647
G1 X187.064 Y153.071 E.03649
G1 X186.381 Y153.27 E.03471
G1 X185.573 Y153.459 E.04049
G1 X184.779 Y153.557 E.03903
G1 X184.121 Y153.59 E.03214
G1 X65.882 Y153.59 E5.76891
G1 X65.128 Y153.557 E.03682
G1 X64.016 Y153.386 E.05489
G1 X62.935 Y153.071 E.05494
G1 X62.246 Y152.786 E.03638
G1 X61.258 Y152.243 E.05501
G1 X60.647 Y151.816 E.03637
G1 X59.801 Y151.073 E.05494
G1 X59.352 Y150.562 E.03319
G1 X58.831 Y149.9 E.0411
G1 X58.435 Y149.277 E.03602
G1 X58.094 Y148.619 E.03616
G1 X57.809 Y147.93 E.03638
G1 X57.585 Y147.218 E.03642
G1 X57.423 Y146.488 E.03648
G1 X57.318 Y145.654 E.04101
G1 X57.285 Y144.996 E.03214
G1 X57.285 Y65.41 E3.88302
G1 X57.365 Y64.813 E.02939
G1 X57.56 Y64.268 E.02824
G1 X58.004 Y63.325 E.05085
G1 X58.162 Y62.868 E.02359
G1 X58.253 Y62.442 E.02125
G1 X58.284 Y61.924 E.02532
G1 X58.229 Y61.416 E.02493
G1 X58.087 Y60.895 E.02635
G1 X57.937 Y60.517 E.01984
G1 X57.412 Y59.341 E.06284
G1 X57.292 Y58.788 E.02761
G1 X57.287 Y58.164 E.03045
G1 X57.324 Y57.657 E.0248
G1 X57.446 Y57.323 E.01735
M204 S1000
G1 X57.664 Y56.988 F10800
G1 X190.68 Y57.283
M204 S800
;TYPE:Solid infill
;WIDTH:0.420661
G1 F900
G1 X191.667 Y58.269 E.06819
G1 X191.666 Y58.772 E.02459
G1 X190.336 Y57.443 E.09191
G1 X189.833 Y57.443 E.02459
G1 X191.558 Y59.168 E.11925
G1 X191.398 Y59.512 E.01854
G1 X189.329 Y57.443 E.14303
G1 X188.825 Y57.443 E.02464
G1 X191.236 Y59.854 E.16667
G1 X191.081 Y60.203 E.01867
G1 X188.321 Y57.443 E.19079
G1 X187.817 Y57.443 E.02464
G1 X190.94 Y60.565 E.21585
G1 X190.833 Y60.962 E.0201
G1 X187.313 Y57.443 E.2433
G1 X186.809 Y57.443 E.02464
G1 X190.737 Y61.371 E.27154
G1 X190.7 Y61.837 E.02285
G1 X186.306 Y57.443 E.30375
G1 X185.802 Y57.443 E.02464
G1 X190.714 Y62.356 E.33959
G1 X190.741 Y62.675 E.01565
G1 X190.803 Y62.948 E.01368
G1 X185.298 Y57.443 E.38055
G1 X184.794 Y57.443 E.02464
G1 X191.025 Y63.674 E.43074
G1 X191.466 Y64.618 E.05093
G1 X184.29 Y57.443 E.49603
G1 X183.786 Y57.443 E.02464
G1 X191.674 Y65.331 E.54528
G1 X191.684 Y65.844 E.02508
G1 X183.282 Y57.443 E.58078
G1 X182.779 Y57.443 E.02459
G1 X191.684 Y66.348 E.61559
G1 X191.684 Y66.852 E.02464
G1 X182.275 Y57.443 E.65043
G1 X181.771 Y57.443 E.02464
G1 X191.684 Y67.356 E.68527
G1 X191.684 Y67.86 E.02464
M73 P0 R276
G1 X181.267 Y57.443 E.72011
G1 X180.763 Y57.443 E.02464
G1 X191.684 Y68.364 E.75495
G1 X191.684 Y68.867 E.02459
G1 X180.259 Y57.443 E.78975
G1 X179.755 Y57.443 E.02464
G1 X191.684 Y69.371 E.82459
G1 X191.684 Y69.875 E.02464
G1 X179.251 Y57.443 E.85943
G1 X178.748 Y57.443 E.02459
M73 Q0 S276
G1 X191.684 Y70.379 E.89424
G1 X191.684 Y70.883 E.02464
G1 X178.244 Y57.443 E.92908
G1 X177.74 Y57.443 E.02464
G1 X191.684 Y71.387 E.96392
G1 X191.684 Y71.891 E.02464
G1 X177.236 Y57.443 E.99876
G1 X176.732 Y57.443 E.02464
G1 X191.684 Y72.394 E1.03357
G1 X191.684 Y72.898 E.02464
G1 X176.228 Y57.443 E1.06841
G1 X175.724 Y57.443 E.02464
G1 X191.684 Y73.402 E1.10325
G1 X191.684 Y73.906 E.02464
G1 X175.221 Y57.443 E1.13806
G1 X174.717 Y57.443 E.02464
G1 X191.684 Y74.41 E1.1729
G1 X191.684 Y74.914 E.02464
G1 X174.213 Y57.443 E1.20774
G1 X173.709 Y57.443 E.02464
G1 X191.684 Y75.418 E1.24258
G1 X191.684 Y75.921 E.02459
G1 X173.205 Y57.443 E1.27738
G1 X172.701 Y57.443 E.02464
G1 X191.684 Y76.425 E1.31222
G1 X191.684 Y76.929 E.02464
G1 X172.197 Y57.443 E1.34706
G1 X171.694 Y57.443 E.02459
M73 P1 R276
M73 Q1 S276
G1 X191.684 Y77.433 E1.38187
G1 X191.684 Y77.937 E.02464
G1 X171.19 Y57.443 E1.41671
G1 X170.686 Y57.443 E.02464
G1 X191.684 Y78.441 E1.45155
G1 X191.684 Y78.944 E.02459
G1 X170.182 Y57.443 E1.48636
G1 X169.678 Y57.443 E.02464
G1 X191.684 Y79.448 E1.5212
G1 X191.684 Y79.952 E.02464
G1 X169.174 Y57.443 E1.55604
G1 X168.67 Y57.443 E.02464
G1 X191.684 Y80.456 E1.59088
G1 X191.684 Y80.96 E.02464
G1 X168.167 Y57.443 E1.62568
G1 X167.663 Y57.443 E.02464
G1 X191.684 Y81.464 E1.66053
G1 X191.684 Y81.968 E.02464
G1 X167.159 Y57.443 E1.69537
G1 X166.655 Y57.443 E.02464
G1 X191.684 Y82.471 E1.73017
G1 X191.684 Y82.975 E.02464
G1 X166.151 Y57.443 E1.76501
G1 X165.647 Y57.443 E.02464
G1 X191.684 Y83.479 E1.79985
G1 X191.684 Y83.983 E.02464
G1 X165.143 Y57.443 E1.83469
G1 X164.639 Y57.443 E.02464
G1 X191.684 Y84.487 E1.86953
G1 X191.684 Y84.991 E.02464
M73 P1 R275
G1 X164.136 Y57.443 E1.90434
G1 X163.632 Y57.443 E.02464
G1 X191.684 Y85.495 E1.93918
G1 X191.684 Y85.998 E.02459
M73 Q1 S275
G1 X163.128 Y57.443 E1.97399
G1 X162.624 Y57.443 E.02464
G1 X191.684 Y86.502 E2.00883
G1 X191.684 Y87.006 E.02464
G1 X162.12 Y57.443 E2.04367
G1 X161.616 Y57.443 E.02464
G1 X191.684 Y87.51 E2.07851
G1 X191.684 Y88.014 E.02464
G1 X161.112 Y57.443 E2.11335
G1 X160.609 Y57.443 E.02459
G1 X191.684 Y88.518 E2.14815
G1 X191.684 Y89.022 E.02464
G1 X160.105 Y57.443 E2.183
G1 X159.601 Y57.443 E.02464
G1 X191.684 Y89.525 E2.2178
G1 X191.684 Y90.029 E.02464
G1 X159.097 Y57.443 E2.25264
G1 X158.593 Y57.443 E.02464
G1 X191.684 Y90.533 E2.28748
G1 X191.684 Y91.037 E.02464
G1 X158.089 Y57.443 E2.32232
G1 X157.585 Y57.443 E.02464
G1 X191.684 Y91.541 E2.35716
G1 X191.684 Y92.045 E.02464
G1 X157.082 Y57.443 E2.39197
G1 X156.578 Y57.443 E.02464
G1 X191.684 Y92.549 E2.42681
G1 X191.684 Y93.052 E.02459
G1 X156.074 Y57.443 E2.46162
G1 X155.57 Y57.443 E.02464
G1 X191.684 Y93.556 E2.49646
G1 X191.684 Y94.06 E.02464
G1 X155.066 Y57.443 E2.5313
G1 X154.562 Y57.443 E.02464
M73 P1 R274
G1 X191.684 Y94.564 E2.56614
G1 X191.684 Y95.068 E.02464
G1 X154.058 Y57.443 E2.60098
G1 X153.554 Y57.443 E.02464
M73 Q1 S274
G1 X191.684 Y95.572 E2.63582
G1 X191.684 Y96.076 E.02464
G1 X153.051 Y57.443 E2.67062
G1 X152.547 Y57.443 E.02464
G1 X191.684 Y96.579 E2.70543
G1 X191.684 Y97.083 E.02464
G1 X152.043 Y57.443 E2.74027
G1 X151.539 Y57.443 E.02464
G1 X191.684 Y97.587 E2.77511
G1 X191.684 Y98.091 E.02464
G1 X151.035 Y57.442 E2.80999
G1 X150.531 Y57.442 E.02464
G1 X191.684 Y98.595 E2.84483
G1 X191.684 Y99.099 E.02464
G1 X150.027 Y57.442 E2.87967
G1 X149.524 Y57.442 E.02459
G1 X191.684 Y99.603 E2.91447
G1 X191.684 Y100.106 E.02459
G1 X149.02 Y57.442 E2.94928
G1 X148.516 Y57.442 E.02464
G1 X191.684 Y100.61 E2.98412
G1 X191.684 Y101.114 E.02464
G1 X148.012 Y57.442 E3.01896
G1 X147.508 Y57.442 E.02464
G1 X191.684 Y101.618 E3.0538
G1 X191.684 Y102.122 E.02464
G1 X147.004 Y57.442 E3.08864
G1 X146.5 Y57.442 E.02464
M73 P1 R273
G1 X191.684 Y102.626 E3.12348
G1 X191.684 Y103.13 E.02464
M73 Q1 S273
G1 X145.997 Y57.442 E3.15829
G1 X145.493 Y57.442 E.02464
G1 X191.684 Y103.633 E3.19309
G1 X191.684 Y104.137 E.02464
M73 Q2 S273
G1 X144.989 Y57.442 E3.22794
G1 X144.485 Y57.442 E.02464
M73 P2 R273
G1 X191.684 Y104.641 E3.26278
G1 X191.684 Y105.145 E.02464
G1 X143.981 Y57.442 E3.29762
G1 X143.477 Y57.442 E.02464
G1 X191.684 Y105.649 E3.33246
G1 X191.684 Y106.153 E.02464
G1 X142.973 Y57.442 E3.3673
G1 X142.47 Y57.442 E.02459
G1 X191.684 Y106.657 E3.4021
G1 X191.684 Y107.16 E.02459
G1 X141.966 Y57.442 E3.43691
G1 X141.462 Y57.442 E.02464
G1 X191.684 Y107.664 E3.47175
G1 X191.684 Y108.168 E.02464
G1 X140.958 Y57.442 E3.50659
G1 X140.454 Y57.442 E.02464
G1 X191.684 Y108.672 E3.54143
G1 X191.684 Y109.176 E.02464
M73 P2 R272
G1 X139.95 Y57.442 E3.57627
G1 X139.446 Y57.442 E.02464
M73 Q2 S272
G1 X191.684 Y109.68 E3.61111
G1 X191.684 Y110.184 E.02464
G1 X138.942 Y57.442 E3.64595
G1 X138.439 Y57.442 E.02459
G1 X191.684 Y110.687 E3.68072
G1 X191.684 Y111.191 E.02464
G1 X137.935 Y57.442 E3.71556
G1 X137.431 Y57.442 E.02464
G1 X191.684 Y111.695 E3.75041
G1 X191.684 Y112.199 E.02464
G1 X136.927 Y57.442 E3.78525
G1 X136.423 Y57.442 E.02464
G1 X191.684 Y112.703 E3.82009
G1 X191.684 Y113.207 E.02464
G1 X135.919 Y57.442 E3.85493
G1 X135.415 Y57.442 E.02464
G1 X191.684 Y113.711 E3.88977
G1 X191.684 Y114.214 E.02459
G1 X134.912 Y57.442 E3.92454
G1 X134.408 Y57.442 E.02464
G1 X191.684 Y114.718 E3.95938
G1 X191.684 Y115.222 E.02464
M73 P2 R271
G1 X133.904 Y57.442 E3.99422
G1 X133.4 Y57.442 E.02464
M73 Q2 S271
G1 X191.684 Y115.726 E4.02906
G1 X191.684 Y116.23 E.02464
G1 X132.896 Y57.442 E4.0639
G1 X132.392 Y57.442 E.02464
G1 X191.684 Y116.734 E4.09874
