; generated by PrusaSlicer 2.7.4 on 2024-05-30 at 09:31:15 UTC


;
;
; 

; external perimeters extrusion width = 0.45mm
; perimeters extrusion width = 0.45mm
; infill extrusion width = 0.45mm
; solid infill extrusion width = 0.45mm
; top infill extrusion width = 0.40mm
; first layer extrusion width = 0.42mm

M73 P0 R363
M73 Q0 S363
M201 X1000 Y1000 Z200 E5000 ; sets maximum accelerations, mm/sec^2
M203 X200 Y200 Z12 E120 ; sets maximum feedrates, mm / sec
M204 S1250 T1250 ; sets acceleration (S) and retract acceleration (R), mm/sec^2
M205 X8.00 Y8.00 Z0.40 E4.50 ; sets the jerk limits, mm/sec
M205 S0 T0 ; sets the minimum extruding and travel feed rate, mm/sec

; printing object marker - teammarker_torso.stl id:0 copy 0
; stop printing object marker - teammarker_torso.stl id:0 copy 0

;TYPE:Custom
M862.3 P "MK3S" ; printer model check
M862.1 P0.4 ; nozzle diameter check
M115 U3.13.3 ; tell printer latest fw version
G90 ; use absolute coordinates
M83 ; extruder relative mode
M104 S230 ; set extruder temp
M140 S50 ; set bed temp
M190 S50 ; wait for bed temp
M109 S230 ; wait for extruder temp
G28 W ; home all without mesh bed level
G80 X54.3094 Y53.4344 W141.381 H103.131 ; mesh bed levelling

G1 Z0.2 F720
G1 Y-3 F1000 ; go outside print area
G92 E0
G1 X60 E9 F1000 ; intro line
G1 X100 E12.5 F1000 ; intro line

G92 E0
M221 S95

; Don't change E values below. Excessive value can damage the printer.
M907 E430 ; set extruder motor current
G21 ; set units to millimeters
G90 ; use absolute coordinates
M83 ; use relative distances for extrusion
M900 K0 ; Filament gcode
M107
;LAYER_CHANGE
;Z:0.2
;HEIGHT:0.2
G1 E-1 F2100
G1 Z.2 F720
G1 X55.549 Y55.155 F10800
G1 Z.2 F720
G1 E1 F900
M204 S800
;TYPE:Skirt/Brim
;WIDTH:0.42
G1 F1200
G1 X56.322 Y54.445 E.0362
G1 X56.891 Y54.099 E.02297
G1 X57.505 Y53.843 E.02294
G1 X58.166 Y53.681 E.02347
G1 X58.875 Y53.623 E.02453
G1 X191.177 Y53.623 E4.56306
G1 X192.012 Y53.714 E.02897
G1 X192.752 Y53.937 E.02666
G1 X193.433 Y54.281 E.02631
G1 X194.12 Y54.808 E.02986
G1 X194.677 Y55.443 E.02913
G1 X195.113 Y56.198 E.03007
G1 X195.366 Y56.918 E.02632
G1 X195.495 Y57.757 E.02928
G1 X195.502 Y145 E3.00899
G1 X195.411 Y146.434 E.04956
G1 X195.221 Y147.513 E.03779
G1 X194.833 Y148.842 E.04775
G1 X194.24 Y150.207 E.05133
G1 X193.692 Y151.156 E.0378
G1 X192.807 Y152.352 E.05131
G1 X191.773 Y153.423 E.05134
G1 X190.693 Y154.289 E.04774
G1 X189.332 Y155.115 E.05491
G1 X187.595 Y155.834 E.06484
G1 X186.049 Y156.213 E.0549
G1 X184.177 Y156.377 E.06481
G1 X65.823 Y156.377 E4.082
G1 X64.441 Y156.286 E.04777
G1 X62.981 Y156.002 E.0513
G1 X61.935 Y155.673 E.03782
G1 X60.668 Y155.115 E.04775
G1 X59.719 Y154.567 E.0378
G1 X58.523 Y153.682 E.05131
G1 X57.522 Y152.724 E.04779
G1 X56.586 Y151.568 E.0513
G1 X55.76 Y150.207 E.05491
G1 X55.041 Y148.47 E.06484
G1 X54.662 Y146.925 E.05487
G1 X54.498 Y145 E.06663
G1 X54.498 Y57.948 E3.0024
G1 X54.633 Y56.922 E.03569
G1 X54.969 Y56.025 E.03304
G1 X55.516 Y55.205 E.034
M204 S1000
G1 E-1 F2100
G1 X55.516 Y55.205 F10800
; printing object marker - teammarker_torso.stl id:0 copy 0
G1 X58.141 Y57.618
G1 E1 F900
M204 S800
;TYPE:Perimeter
;WIDTH:0.419999
G1 F1200
G1 X58.325 Y57.385 E.01024
G1 X58.627 Y57.214 E.01197
G1 X58.95 Y57.164 E.01127
G1 X190.483 Y57.166 E4.53653
G1 X191.295 Y57.186 E.02801
G1 X191.639 Y57.347 E.0131
G1 X191.82 Y57.544 E.00923
G1 X191.936 Y57.823 E.01042
G1 X191.952 Y58.737 E.03153
G1 X191.808 Y59.293 E.01981
G1 X191.382 Y60.194 E.03437
G1 X191.185 Y60.697 E.01863
G1 X191.016 Y61.368 E.02387
G1 X190.963 Y62.003 E.02198
G1 X191.014 Y62.626 E.02156
G1 X191.125 Y63.114 E.01726
G1 X191.314 Y63.647 E.0195
G1 X191.717 Y64.503 E.03263
G1 X191.903 Y64.995 E.01814
G1 X191.961 Y65.528 E.01849
G1 X191.961 Y144.977 E2.74017
G1 X191.93 Y145.673 E.02403
M73 P0 R362
G1 X191.771 Y146.706 E.03605
G1 X191.6 Y147.346 E.02285
G1 X191.225 Y148.311 E.03571
G1 X190.727 Y149.218 E.03569
G1 X190.347 Y149.761 E.02286
G1 X189.657 Y150.547 E.03607
G1 X189.161 Y151.002 E.02321
G1 X188.619 Y151.418 E.02356
G1 X188.051 Y151.78 E.02323
G1 X187.449 Y152.077 E.02315
G1 X186.762 Y152.37 E.02576
G1 X186.135 Y152.565 E.02265
G1 X185.476 Y152.71 E.02327
G1 X184.713 Y152.806 E.02652
G1 X184.112 Y152.836 E.02075
G1 X65.898 Y152.836 E4.07716
G1 X65.202 Y152.805 E.02403
M73 Q0 S362
G1 X64.169 Y152.646 E.03605
G1 X63.529 Y152.475 E.02285
G1 X62.554 Y152.096 E.03608
G1 X61.958 Y151.785 E.02319
G1 X61.39 Y151.423 E.02323
G1 X60.582 Y150.775 E.03572
G1 X59.876 Y150.039 E.03517
G1 X59.457 Y149.493 E.02374
G1 X59.09 Y148.917 E.02356
G1 X58.785 Y148.333 E.02272
G1 X58.536 Y147.695 E.02362
G1 X58.303 Y146.983 E.02584
G1 X58.164 Y146.342 E.02262
G1 X58.069 Y145.588 E.02621
G1 X58.039 Y144.987 E.02075
G1 X58.039 Y65.528 E2.74051
G1 X58.097 Y64.995 E.01849
G1 X58.283 Y64.503 E.01814
G1 X58.725 Y63.552 E.03617
G1 X58.906 Y63.004 E.0199
G1 X59.005 Y62.49 E.01805
G1 X59.034 Y61.846 E.02223
G1 X58.956 Y61.218 E.02183
G1 X58.815 Y60.698 E.01858
G1 X58.618 Y60.194 E.01866
G1 X58.23 Y59.375 E.03126
G1 X58.087 Y58.984 E.01436
G1 X58.045 Y58.617 E.01274
G1 X58.046 Y57.996 E.02142
G1 X58.126 Y57.676 E.01138
M204 S1000
G1 X58.126 Y57.676 F10800
G1 X57.804 Y57.442
M204 S800
G1 F1200
G1 X58.076 Y57.102 E.01502
G1 X58.512 Y56.85 E.01737
G1 X58.921 Y56.787 E.01427
G1 X191.165 Y56.789 E4.56105
G1 X191.494 Y56.856 E.01158
G1 X191.867 Y57.044 E.01441
G1 X192.142 Y57.344 E.01404
G1 X192.312 Y57.771 E.01585
G1 X192.327 Y58.6 E.0286
G1 X192.28 Y59.074 E.01643
G1 X192.11 Y59.536 E.01698
G1 X191.549 Y60.796 E.04757
G1 X191.407 Y61.316 E.01859
G1 X191.341 Y61.884 E.01972
G1 X191.371 Y62.466 E.0201
G1 X191.481 Y62.991 E.0185
G1 X191.655 Y63.487 E.01813
G1 X192.15 Y64.556 E.04063
G1 X192.31 Y65.069 E.01853
G1 X192.338 Y65.528 E.01586
G1 X192.338 Y144.985 E2.74045
G1 X192.306 Y145.71 E.02503
G1 X192.141 Y146.783 E.03744
G1 X191.959 Y147.464 E.02431
G1 X191.567 Y148.471 E.03727
G1 X191.048 Y149.418 E.03725
G1 X190.644 Y149.994 E.02427
G1 X189.927 Y150.811 E.03749
G1 X189.404 Y151.291 E.02448
G1 X188.835 Y151.727 E.02472
G1 X188.236 Y152.109 E.0245
G1 X187.616 Y152.415 E.02385
G1 X186.891 Y152.724 E.02718
G1 X186.233 Y152.929 E.02377
G1 X185.541 Y153.081 E.02444
G1 X184.746 Y153.181 E.02764
G1 X184.116 Y153.213 E.02176
G1 X65.89 Y153.213 E4.07758
G1 X65.165 Y153.181 E.02503
G1 X64.092 Y153.016 E.03744
G1 X63.411 Y152.834 E.02431
G1 X62.399 Y152.44 E.03746
G1 X61.769 Y152.112 E.0245
G1 X61.17 Y151.73 E.0245
G1 X60.327 Y151.054 E.03727
G1 X59.59 Y150.285 E.03674
G1 X59.148 Y149.71 E.02501
G1 X58.763 Y149.106 E.0247
G1 X58.441 Y148.489 E.024
G1 X58.185 Y147.832 E.02432
G1 X57.939 Y147.08 E.02729
G1 X57.792 Y146.408 E.02373
G1 X57.694 Y145.621 E.02735
G1 X57.662 Y144.991 E.02176
G1 X57.662 Y65.425 E2.74421
G1 X57.731 Y64.904 E.01813
G1 X57.905 Y64.419 E.01777
G1 X58.345 Y63.486 E.03558
G1 X58.519 Y62.991 E.0181
G1 X58.629 Y62.466 E.0185
G1 X58.659 Y61.884 E.0201
G1 X58.593 Y61.316 E.01972
G1 X58.451 Y60.796 E.01859
G1 X58.278 Y60.356 E.01631
G1 X57.89 Y59.536 E.03129
G1 X57.72 Y59.074 E.01698
G1 X57.668 Y58.621 E.01573
G1 X57.678 Y57.89 E.02521
G1 X57.787 Y57.5 E.01397
M204 S1000
G1 X57.787 Y57.5 F10800
G1 X57.466 Y57.267
M204 S800
;TYPE:External perimeter
G1 F1200
G1 X57.705 Y56.926 E.01436
G1 X57.961 Y56.701 E.01175
G1 X58.397 Y56.486 E.01677
G1 X58.892 Y56.41 E.01727
G1 X191.084 Y56.412 E4.55926
G1 X191.467 Y56.448 E.01327
G1 X191.942 Y56.649 E.01779
G1 X192.297 Y56.926 E.01553
G1 X192.528 Y57.275 E.01443
G1 X192.688 Y57.718 E.01624
G1 X192.704 Y58.596 E.03029
G1 X192.647 Y59.165 E.01972
G1 X192.451 Y59.698 E.01959
G1 X191.913 Y60.895 E.04526
G1 X191.771 Y61.415 E.01859
G1 X191.716 Y61.923 E.01762
G1 X191.747 Y62.441 E.0179
G1 X191.832 Y62.847 E.01431
G1 X191.996 Y63.326 E.01746
G1 X192.531 Y64.493 E.04428
G1 X192.683 Y65.009 E.01855
G1 X192.715 Y65.528 E.01793
G1 X192.715 Y144.993 E2.74072
G1 X192.682 Y145.747 E.02603
G1 X192.511 Y146.861 E.03887
G1 X192.318 Y147.581 E.02571
G1 X191.91 Y148.63 E.03882
G1 X191.368 Y149.617 E.03884
G1 X190.941 Y150.228 E.02571
G1 X190.197 Y151.075 E.03888
G1 X189.647 Y151.58 E.02575
G1 X189.052 Y152.036 E.02585
G1 X188.421 Y152.438 E.0258
G1 X187.783 Y152.753 E.02454
G1 X187.02 Y153.079 E.02862
G1 X186.33 Y153.293 E.02492
G1 X185.607 Y153.453 E.02554
G1 X184.779 Y153.557 E.02878
G1 X184.121 Y153.59 E.02272
G1 X65.882 Y153.59 E4.07802
G1 X65.128 Y153.557 E.02603
G1 X64.014 Y153.386 E.03887
G1 X63.294 Y153.193 E.02571
G1 X62.243 Y152.784 E.0389
G1 X61.58 Y152.439 E.02578
G1 X60.95 Y152.037 E.02578
G1 X60.072 Y151.333 E.03881
G1 X59.304 Y150.531 E.0383
G1 X58.839 Y149.927 E.02629
G1 X58.436 Y149.295 E.02585
G1 X58.098 Y148.645 E.02527
G1 X57.834 Y147.97 E.025
G1 X57.574 Y147.178 E.02875
G1 X57.421 Y146.473 E.02488
G1 X57.318 Y145.654 E.02847
G1 X57.285 Y144.996 E.02272
G1 X57.285 Y65.41 E2.74489
G1 X57.365 Y64.813 E.02077
G1 X57.56 Y64.268 E.01996
G1 X58.004 Y63.326 E.03592
G1 X58.162 Y62.869 E.01668
G1 X58.253 Y62.441 E.01509
G1 X58.284 Y61.923 E.0179
G1 X58.229 Y61.415 E.01762
G1 X58.087 Y60.895 E.01859
G1 X57.937 Y60.517 E.01403
G1 X57.412 Y59.341 E.04442
G1 X57.292 Y58.788 E.01952
G1 X57.287 Y58.165 E.02149
G1 X57.324 Y57.658 E.01753
G1 X57.446 Y57.323 E.0123
M204 S1000
G1 X57.664 Y56.988 F10800
G1 E-1 F2100
G1 X191.778 Y58.498 F10800
G1 E1 F900
M204 S800
;TYPE:Solid infill
;WIDTH:0.420145
G1 F1200
G1 X190.786 Y57.505 E.04843
G1 X190.252 Y57.505 E.01842
G1 X191.591 Y58.844 E.06534
G1 X191.457 Y59.243 E.01452
G1 X189.719 Y57.505 E.08481
G1 X189.185 Y57.505 E.01842
G1 X191.285 Y59.605 E.10247
G1 X191.114 Y59.967 E.01381
G1 X188.652 Y57.505 E.12013
G1 X188.118 Y57.505 E.01842
M73 P0 R361
G1 X190.959 Y60.346 E.13863
G1 X190.823 Y60.744 E.01451
G1 X187.585 Y57.505 E.15802
G1 X187.051 Y57.505 E.01842
G1 X190.717 Y61.171 E.17888
G1 X190.679 Y61.324 E.00544
G1 X190.654 Y61.641 E.01097
G1 X186.518 Y57.505 E.20181
G1 X185.984 Y57.505 E.01842
G1 X190.635 Y62.156 E.22694
G1 X190.693 Y62.748 E.02052
G1 X185.451 Y57.505 E.25581
G1 X184.917 Y57.505 E.01842
G1 X190.892 Y63.48 E.29155
G1 X190.971 Y63.71 E.00839
G1 X191.309 Y64.43 E.02744
G1 X184.384 Y57.505 E.3379
G1 X183.85 Y57.505 E.01842
G1 X191.606 Y65.261 E.37845
G1 X191.621 Y65.81 E.01895
G1 X183.317 Y57.505 E.40522
G1 X182.783 Y57.505 E.01842
G1 X191.621 Y66.343 E.43125
G1 X191.621 Y66.877 E.01842
G1 X182.25 Y57.505 E.45728
G1 X181.717 Y57.505 E.01839
M73 Q0 S361
G1 X191.621 Y67.41 E.48329
G1 X191.621 Y67.944 E.01842
G1 X181.183 Y57.505 E.50934
G1 X180.65 Y57.505 E.01839
G1 X191.621 Y68.477 E.53535
G1 X191.621 Y69.011 E.01842
G1 X180.116 Y57.505 E.56141
G1 X179.583 Y57.505 E.01839
G1 X191.621 Y69.544 E.58741
G1 X191.621 Y70.078 E.01842
G1 X179.049 Y57.505 E.61347
G1 X178.516 Y57.505 E.01839
G1 X191.621 Y70.611 E.63948
G1 X191.621 Y71.144 E.01839
G1 X177.982 Y57.505 E.66551
G1 X177.449 Y57.505 E.01839
G1 X191.621 Y71.678 E.69154
G1 X191.621 Y72.211 E.01839
G1 X176.915 Y57.505 E.71757
G1 X176.382 Y57.505 E.01839
G1 X191.621 Y72.745 E.74361
G1 X191.621 Y73.278 E.01839
G1 X175.848 Y57.505 E.76964
G1 X175.315 Y57.505 E.01839
G1 X191.621 Y73.812 E.79567
G1 X191.621 Y74.345 E.01839
G1 X174.781 Y57.505 E.8217
G1 X174.248 Y57.505 E.01839
G1 X191.621 Y74.879 E.84773
G1 X191.621 Y75.412 E.01839
G1 X173.714 Y57.505 E.87377
G1 X173.181 Y57.505 E.01839
G1 X191.621 Y75.946 E.8998
G1 X191.621 Y76.479 E.01839
G1 X172.647 Y57.505 E.92583
G1 X172.114 Y57.505 E.01839
G1 X191.621 Y77.013 E.95186
G1 X191.621 Y77.546 E.01839
G1 X171.58 Y57.505 E.97789
G1 X171.047 Y57.505 E.01839
G1 X191.621 Y78.08 E1.00393
G1 X191.621 Y78.613 E.01839
G1 X170.513 Y57.505 E1.02996
G1 X169.98 Y57.505 E.01839
G1 X191.621 Y79.147 E1.05599
G1 X191.621 Y79.68 E.01839
G1 X169.446 Y57.505 E1.08202
G1 X168.913 Y57.505 E.01839
G1 X191.621 Y80.214 E1.10805
G1 X191.621 Y80.747 E.01839
G1 X168.379 Y57.505 E1.13409
G1 X167.846 Y57.505 E.01839
G1 X191.621 Y81.281 E1.16012
G1 X191.621 Y81.814 E.01839
G1 X167.312 Y57.505 E1.18615
G1 X166.779 Y57.505 E.01839
G1 X191.621 Y82.347 E1.21216
G1 X191.621 Y82.881 E.01842
G1 X166.245 Y57.505 E1.23821
G1 X165.712 Y57.505 E.01839
G1 X191.621 Y83.414 E1.26422
G1 X191.621 Y83.948 E.01842
G1 X165.179 Y57.505 E1.29025
G1 X164.645 Y57.505 E.01842
G1 X191.621 Y84.481 E1.31628
G1 X191.621 Y85.015 E.01842
G1 X164.112 Y57.505 E1.34232
G1 X163.578 Y57.505 E.01842
G1 X191.621 Y85.548 E1.36835
G1 X191.621 Y86.082 E.01842
G1 X163.045 Y57.505 E1.39438
G1 X162.511 Y57.505 E.01842
G1 X191.621 Y86.615 E1.42041
G1 X191.621 Y87.149 E.01842
G1 X161.978 Y57.505 E1.44644
G1 X161.444 Y57.505 E.01842
M73 P0 R360
G1 X191.621 Y87.682 E1.47248
G1 X191.621 Y88.216 E.01842
G1 X160.911 Y57.505 E1.49851
G1 X160.377 Y57.505 E.01842
G1 X191.621 Y88.749 E1.52454
G1 X191.621 Y89.283 E.01842
M73 Q0 S360
G1 X159.844 Y57.505 E1.55057
G1 X159.31 Y57.505 E.01842
G1 X191.621 Y89.816 E1.5766
G1 X191.621 Y90.35 E.01842
G1 X158.777 Y57.505 E1.60264
G1 X158.243 Y57.505 E.01842
G1 X191.621 Y90.883 E1.62867
G1 X191.621 Y91.417 E.01842
G1 X157.71 Y57.505 E1.6547
G1 X157.176 Y57.505 E.01842
G1 X191.621 Y91.95 E1.68073
G1 X191.621 Y92.484 E.01842
G1 X156.643 Y57.505 E1.70676
G1 X156.109 Y57.505 E.01842
G1 X191.621 Y93.017 E1.7328
G1 X191.621 Y93.55 E.01839
G1 X155.576 Y57.505 E1.7588
G1 X155.042 Y57.505 E.01842
G1 X191.621 Y94.084 E1.78486
G1 X191.621 Y94.617 E.01839
G1 X154.509 Y57.505 E1.81087
G1 X153.975 Y57.505 E.01842
G1 X191.621 Y95.151 E1.83692
G1 X191.621 Y95.684 E.01839
G1 X153.442 Y57.505 E1.86293
G1 X152.908 Y57.505 E.01842
G1 X191.621 Y96.218 E1.88899
G1 X191.621 Y96.751 E.01839
G1 X152.375 Y57.505 E1.91499
G1 X151.841 Y57.505 E.01842
G1 X191.621 Y97.285 E1.94105
G1 X191.621 Y97.818 E.01839
G1 X151.308 Y57.505 E1.96706
G1 X150.774 Y57.505 E.01842
G1 X191.621 Y98.352 E1.99311
G1 X191.621 Y98.885 E.01839
G1 X150.241 Y57.505 E2.01912
G1 X149.707 Y57.505 E.01842
M73 Q1 S360
G1 X191.621 Y99.419 E2.04518
G1 X191.621 Y99.952 E.01839
M73 P1 R360
G1 X149.174 Y57.505 E2.07119
G1 X148.641 Y57.505 E.01839
M73 P1 R359
G1 X191.621 Y100.486 E2.09722
G1 X191.621 Y101.019 E.01839
M73 Q1 S359
G1 X148.107 Y57.505 E2.12325
G1 X147.574 Y57.505 E.01839
G1 X191.621 Y101.553 E2.14928
G1 X191.621 Y102.086 E.01839
G1 X147.04 Y57.505 E2.17531
G1 X146.507 Y57.505 E.01839
G1 X191.621 Y102.62 E2.20135
G1 X191.621 Y103.153 E.01839
G1 X145.973 Y57.505 E2.22738
G1 X145.44 Y57.505 E.01839
G1 X191.621 Y103.687 E2.25341
G1 X191.621 Y104.22 E.01839
G1 X144.906 Y57.505 E2.27944
G1 X144.373 Y57.505 E.01839
G1 X191.621 Y104.753 E2.30545
G1 X191.621 Y105.287 E.01842
G1 X143.839 Y57.505 E2.33151
G1 X143.306 Y57.505 E.01839
G1 X191.621 Y105.82 E2.35751
G1 X191.621 Y106.354 E.01842
G1 X142.772 Y57.505 E2.38357
G1 X142.239 Y57.505 E.01839
G1 X191.621 Y106.887 E2.40958
G1 X191.621 Y107.421 E.01842
G1 X141.705 Y57.505 E2.43563
G1 X141.172 Y57.505 E.01839
G1 X191.621 Y107.954 E2.46164
G1 X191.621 Y108.488 E.01842
G1 X140.638 Y57.505 E2.4877
G1 X140.105 Y57.505 E.01839
G1 X191.621 Y109.021 E2.51371
G1 X191.621 Y109.555 E.01842
M73 P1 R358
G1 X139.571 Y57.505 E2.53976
G1 X139.038 Y57.505 E.01839
G1 X191.621 Y110.088 E2.56577
G1 X191.621 Y110.622 E.01842
M73 Q1 S358
G1 X138.504 Y57.505 E2.59183
G1 X137.971 Y57.505 E.01839
G1 X191.621 Y111.155 E2.61783
G1 X191.621 Y111.689 E.01842
G1 X137.437 Y57.505 E2.64389
G1 X136.904 Y57.505 E.01839
G1 X191.621 Y112.222 E2.6699
G1 X191.621 Y112.756 E.01842
G1 X136.37 Y57.505 E2.69595
G1 X135.837 Y57.505 E.01839
G1 X191.621 Y113.289 E2.72196
G1 X191.621 Y113.823 E.01842
G1 X135.303 Y57.505 E2.74802
G1 X134.77 Y57.505 E.01839
G1 X191.621 Y114.356 E2.77402
G1 X191.621 Y114.89 E.01842
G1 X134.236 Y57.505 E2.80008
G1 X133.703 Y57.505 E.01839
G1 X191.621 Y115.423 E2.82609
G1 X191.621 Y115.957 E.01842
G1 X133.169 Y57.505 E2.85214
G1 X132.636 Y57.505 E.01839
G1 X191.621 Y116.49 E2.87815
G1 X191.621 Y117.023 E.01839
G1 X132.103 Y57.505 E2.90416
G1 X131.569 Y57.504 E.01842
M73 P1 R357
G1 X191.621 Y117.557 E2.93024
G1 X191.621 Y118.09 E.01839
G1 X131.036 Y57.504 E2.95625
G1 X130.502 Y57.504 E.01842
M73 Q1 S357
G1 X191.621 Y118.624 E2.9823
G1 X191.621 Y119.157 E.01839
G1 X129.969 Y57.504 E3.00831
