; HEADER_BLOCK_START
; generated by OrcaSlicer 2.0.0 on 2024-06-20 at 17:54:25
; total layer number: 8
; filament_density: 1.24
; filament_diameter: 1.75
; max_z_height: 1.60
; HEADER_BLOCK_END

; THUMBNAIL_BLOCK_START

;
; THUMBNAIL_BLOCK_END

; external perimeters extrusion width = 0.60mm
; perimeters extrusion width = 0.66mm
; infill extrusion width = 0.66mm
; solid infill extrusion width = 0.72mm
; top infill extrusion width = 0.56mm
; first layer extrusion width = 0.72mm

; EXECUTABLE_BLOCK_START
M73 P0 R22
M201 X2500 Y2500 Z400 E5000
M203 X180 Y180 Z12 E80
M204 P1250 R5000 T3000 ; sets acceleration (P, T) and retract acceleration (R), mm/sec^2
M205 X8.00 Y8.00 Z0.20 E10.00 ; sets the jerk limits, mm/sec
;TYPE:Custom
M862.3 P "MINI" ; printer model check
G90 ; use absolute coordinates
M83 ; extruder relative mode
M104 S170 ; set extruder temp for bed leveling
M140 S60 ; set bed temp
M109 R170 ; wait for bed leveling temp
M190 S60 ; wait for bed temp
M204 T1250 ; set travel acceleration
G28 ; home all without mesh bed level
G29 ; mesh bed leveling 
M204 T3000 ; restore travel acceleration
M104 S220 ; set extruder temp
G92 E0
G1 Y-2 X179 F2400
G1 Z3 F720
M109 S220 ; wait for extruder temp

; intro line
G1 X170 F1000
G1 Z0.2 F720
G1 X110 E8 F900
G1 X40 E10 F700
G92 E0

M221 S95 ; set flow
G90
G21
M83 ; use relative distances for extrusion
; filament start gcode
M900 K0.12 ; Filament gcode LA 1.5
; ; Filament gcode LA 1.0
M106 S0
;LAYER_CHANGE
;Z:0.2
;HEIGHT:0.2
;BEFORE_LAYER_CHANGE
;0.2
G92 E0

G1 E-3.2 F4200
;AFTER_LAYER_CHANGE
;0.2
;_SET_FAN_SPEED_CHANGING_LAYER
M204 P700
M205 X8 Y8
; printing object Embossed text id:2816 copy 0
M204 T700
M73 P1 R22
G1 Z.4 F9000
G1 X54.649 Y43.97
G1 Z.4
G1 Z.2
G1 E3.2 F1800
;TYPE:Inner wall
;WIDTH:0.719999
G1 F1200
G1 X54.311 Y44.121 E.02043
G1 X53.904 Y44.375 E.02645
G1 X53.348 Y44.867 E.04098
G1 X53.021 Y45.273 E.02874
G1 X52.7 Y45.833 E.0356
G1 X52.451 Y46.558 E.04231
G1 X52.415 Y46.978 E.02328
;WIDTH:0.694605
G1 X52.38 Y47.399 E.0224
G1 X52.345 Y46.978 E.0224
;WIDTH:0.719999
G1 X52.309 Y46.558 E.02328
G1 X52.06 Y45.833 E.04231
G1 X51.739 Y45.273 E.0356
G1 X51.412 Y44.867 E.02874
G1 X51.127 Y44.59 E.02194
G1 X50.415 Y44.103 E.0476
G1 X50.053 Y43.945 E.02178
G1 X50.409 Y43.775 E.02178
G1 X50.8 Y43.517 E.02582
G1 X51.336 Y43.025 E.04016
G1 X51.653 Y42.617 E.02851
G1 X51.961 Y42.063 E.03497
;WIDTH:0.734338
G1 X52.203 Y41.356 E.04207
;WIDTH:0.776129
G1 X52.261 Y41.113 E.01493
;WIDTH:0.81792
G1 X52.32 Y40.87 E.01578
G1 X52.379 Y41.113 E.01578
;WIDTH:0.776129
G1 X52.437 Y41.356 E.01493
;WIDTH:0.734338
G1 X52.679 Y42.063 E.04207
;WIDTH:0.719999
G1 X52.987 Y42.617 E.03497
G1 X53.348 Y43.073 E.03209
G1 X53.904 Y43.565 E.04098
G1 X54.311 Y43.819 E.02645
G1 X54.594 Y43.946 E.01712
G1 E-2.24 F4200
;WIPE_START
G1 F1200
G1 X54.311 Y44.121 E-.31996
G1 X53.904 Y44.375 E-.46023
G1 X53.764 Y44.499 E-.17981
;WIPE_END
G1 Z.6 F9000
G1 X34.769 Y45.916 Z.6
G1 Z.2
G1 E3.2 F1800
;WIDTH:0.664511
G1 F1200
G1 X34.973 Y44.238 E.08566
G1 X36.094 Y44.238 E.05674
G1 X36.022 Y44.279 E.00419
G1 X35.476 Y44.76 E.03685
G1 X34.996 Y45.405 E.04074
G1 X34.794 Y45.861 E.02528
G1 E-2.24 F4200
;WIPE_START
G1 F1200
G1 X34.904 Y44.868 E-.96
;WIPE_END
G1 Z.6 F9000
G1 X48.12 Y68.902 Z.6
G1 Z.2
G1 E3.2 F1800
;WIDTH:0.579436
G1 F1200
G1 X47.696 Y68.908 E.01853
;WIDTH:0.566493
G1 X46.688 Y68.911 E.043
;WIDTH:0.561248
G1 X46.614 Y68.779 E.0064
;WIDTH:0.604563
G1 X46.542 Y68.607 E.00854
;WIDTH:0.647877
G1 X46.47 Y68.435 E.00919
;WIDTH:0.691192
G1 X46.398 Y68.263 E.00985
;WIDTH:0.734506
G1 X46.326 Y68.091 E.01051
;WIDTH:0.77782
G1 X46.254 Y67.919 E.01117
G1 X46.33 Y67.979 E.00584
;WIDTH:0.742723
G1 X46.407 Y68.04 E.00556
;WIDTH:0.707626
G1 X46.599 Y68.172 E.01264
;WIDTH:0.658834
G1 X46.791 Y68.304 E.01172
;WIDTH:0.610041
G1 X46.984 Y68.436 E.01079
;WIDTH:0.566493
G1 X47.714 Y68.794 E.03469
;WIDTH:0.579436
G1 X48.062 Y68.887 E.01573
G1 E-2.24 F4200
;WIPE_START
G1 F1200
G1 X47.696 Y68.908 E-.35179
G1 X47.062 Y68.91 E-.60821
;WIPE_END
G1 Z.6 F9000
G1 X51.581 Y68.215 Z.6
G1 Z.2
G1 E3.2 F1800
;WIDTH:0.598267
G1 F1200
G1 X51.898 Y67.797 E.02376
G1 X52.175 Y67.215 E.02915
;WIDTH:0.632338
G1 X52.278 Y66.898 E.01603
;WIDTH:0.666408
G1 X52.381 Y66.581 E.01695
G1 X52.398 Y66.92 E.01724
;WIDTH:0.632338
G1 X52.415 Y67.258 E.0163
;WIDTH:0.598267
G1 X52.415 Y68.215 E.04331
G1 X51.641 Y68.215 E.03504
G1 E-2.24 F4200
;WIPE_START
G1 F1200
G1 X51.898 Y67.797 E-.47143
G1 X52.117 Y67.337 E-.48857
;WIPE_END
G1 Z.6 F9000
G1 X55.754 Y43.576 Z.6
G1 Z.2
G1 E3.2 F1800
;WIDTH:0.763143
G1 F1200
G1 X56.079 Y43.61 E.01916
G1 X59.07 Y43.61 E.17557
G1 X59.07 Y44.33 E.04227
;WIDTH:0.763144
G1 X56.079 Y44.33 E.17557
G1 X55.537 Y44.387 E.03195
;WIDTH:0.746575
G1 X55.048 Y44.531 E.02927
;WIDTH:0.719999
G1 X54.632 Y44.717 E.0251
G1 X54.042 Y45.133 E.03985
G1 X53.577 Y45.659 E.03875
G1 X53.314 Y46.117 E.02913
G1 X53.11 Y46.711 E.03462
G1 X53.032 Y47.399 E.0382
G1 X53.032 Y68.832 E1.18254
G1 X49.653 Y68.832 E.18643
G1 X50.313 Y68.551 E.0396
G1 X50.934 Y68.055 E.04385
G1 X51.367 Y67.485 E.0395
G1 X51.597 Y67.001 E.02956
G1 X51.741 Y66.467 E.03052
G1 X51.787 Y65.907 E.03101
G1 X51.728 Y60.842 E.27945
G1 X51.728 Y47.399 E.74174
G1 X51.65 Y46.711 E.0382
G1 X51.446 Y46.117 E.03462
G1 X51.183 Y45.659 E.02913
G1 X50.682 Y45.101 E.04139
G1 X50.1 Y44.702 E.03894
G1 X49.693 Y44.525 E.02448
G1 X49.212 Y44.398 E.02742
;WIDTH:0.76313
G1 X48.561 Y44.33 E.03844
G1 X44.384 Y44.327 E.24516
;WIDTH:0.761298
G1 X41.504 Y44.285 E.16857
;WIDTH:0.733466
G1 X39.723 Y44.274 E.10025
;WIDTH:0.725864
G1 X38.194 Y44.238 E.0851
;WIDTH:0.727153
G1 X37.595 Y44.284 E.03349
G1 X36.957 Y44.488 E.03735
;WIDTH:0.719999
G1 X36.401 Y44.805 E.03532
G1 X35.952 Y45.202 E.03309
G1 X35.556 Y45.734 E.03658
G1 X35.275 Y46.369 E.0383
G1 X35.14 Y47.128 E.04256
;WIDTH:0.769005
G1 X35.134 Y47.341 E.01258
;WIDTH:0.81801
G1 X35.128 Y47.553 E.01343
;WIDTH:0.867015
G1 X35.123 Y47.766 E.01428
;WIDTH:0.91602
G1 X35.117 Y47.978 E.01513
G1 X34.987 Y47.798 E.01582
;WIDTH:0.867015
G1 X34.858 Y47.617 E.01493
;WIDTH:0.81801
G1 X34.728 Y47.437 E.01404
;WIDTH:0.769005
G1 X34.598 Y47.256 E.01316
;WIDTH:0.719999
G1 X34.067 Y46.312 E.05976
G1 X34.398 Y43.588 E.15138
G1 X36.768 Y43.588 E.13077
;WIDTH:0.728076
G1 X38.288 Y43.58 E.08485
;WIDTH:0.725864
G1 X39.727 Y43.591 E.08011
;WIDTH:0.733204
G1 X41.507 Y43.595 E.10012
;WIDTH:0.761298
G1 X44.386 Y43.609 E.16853
;WIDTH:0.76313
G1 X48.663 Y43.61 E.25099
G1 X49.197 Y43.521 E.03178
;WIDTH:0.719999
G1 X49.673 Y43.378 E.02742
G1 X50.073 Y43.187 E.02448
G1 X50.641 Y42.768 E.03894
G1 X51.091 Y42.24 E.03828
G1 X51.343 Y41.786 E.02861
G1 X51.535 Y41.207 E.03367
G1 X51.608 Y40.541 E.03693
G1 X51.608 Y34.468 E.33508
G1 X53.032 Y34.468 E.07853
G1 X53.032 Y40.541 E.33508
G1 X53.105 Y41.207 E.03693
G1 X53.297 Y41.786 E.03367
G1 X53.549 Y42.24 E.02861
G1 X54.042 Y42.807 E.04148
G1 X54.632 Y43.223 E.03985
G1 X55.048 Y43.409 E.0251
;WIDTH:0.746575
G1 X55.537 Y43.553 E.02927
;WIDTH:0.763143
G1 X55.694 Y43.57 E.00927
G1 X55.858 Y42.892 F9000
;WIDTH:0.719999
G1 F1200
G1 X56.079 Y42.911 E.01223
G1 X59.769 Y42.911 E.2036
G1 X59.769 Y45.029 E.11683
G1 X55.913 Y45.029 E.21273
G1 X55.277 Y45.169 E.03595
M73 P2 R22
G1 X54.954 Y45.313 E.01952
G1 X54.494 Y45.636 E.03099
G1 X54.133 Y46.046 E.03014
G1 X53.928 Y46.402 E.02266
G1 X53.77 Y46.864 E.02692
G1 X53.709 Y47.399 E.02971
G1 X53.709 Y69.509 E1.2199
G1 X46.339 Y69.509 E.40664
G1 X33.368 Y46.451 E1.45966
G1 X33.798 Y42.911 E.19671
G1 X48.561 Y42.911 E.81453
G1 X49.056 Y42.859 E.02743
G1 X49.426 Y42.748 E.02133
G1 X49.737 Y42.599 E.01904
G1 X50.179 Y42.273 E.03029
G1 X50.529 Y41.862 E.02977
G1 X50.725 Y41.509 E.02225
G1 X50.874 Y41.059 E.02619
G1 X50.931 Y40.541 E.02872
G1 X50.931 Y33.791 E.37243
G1 X53.709 Y33.791 E.15325
G1 X53.709 Y40.541 E.37243
G1 X53.766 Y41.059 E.02872
G1 X53.915 Y41.509 E.02619
G1 X54.111 Y41.862 E.02225
G1 X54.313 Y42.122 E.01814
G1 X54.695 Y42.465 E.02835
G1 X55.277 Y42.771 E.03627
G1 X55.659 Y42.874 E.02185
G1 X55.798 Y42.886 E.00769
G1 X55.931 Y42.221 F9000
G1 F1200
G1 X56.079 Y42.234 E.00815
G1 X60.446 Y42.234 E.24096
G1 X60.446 Y45.706 E.19154
G1 X55.96 Y45.706 E.24748
G1 X55.506 Y45.806 E.02568
G1 X55.09 Y46.024 E.02591
G1 X54.837 Y46.248 E.01863
G1 X54.543 Y46.687 E.02916
G1 X54.43 Y47.016 E.01923
G1 X54.386 Y47.399 E.02122
G1 X54.386 Y70.186 E1.25725
G1 X45.943 Y70.186 E.46584
G1 X32.669 Y46.589 E1.49374
G1 X33.199 Y42.234 E.24204
M73 P2 R21
G1 X48.617 Y42.234 E.85068
G1 X49.179 Y42.117 E.03168
G1 X49.579 Y41.894 E.02528
G1 X49.823 Y41.67 E.01825
G1 X50.107 Y41.233 E.02877
G1 X50.213 Y40.911 E.01871
G1 X50.254 Y40.541 E.02052
G1 X50.254 Y33.114 E.40979
G1 X54.386 Y33.114 E.22796
G1 X54.386 Y40.664 E.41656
G1 X54.533 Y41.233 E.03242
G1 X54.673 Y41.485 E.01589
G1 X54.947 Y41.8 E.02305
G1 X55.275 Y42.031 E.02214
G1 X55.779 Y42.207 E.02946
G1 X55.872 Y42.216 E.00513
G1 X55.967 Y41.538 F9000
G1 F1200
G1 X56.079 Y41.557 E.00623
G1 X61.123 Y41.557 E.27832
G1 X61.123 Y46.383 E.26626
G1 X56.079 Y46.383 E.27832
G1 X55.735 Y46.443 E.01925
G1 X55.4 Y46.643 E.02155
G1 X55.157 Y46.971 E.02251
G1 X55.063 Y47.399 E.02413
G1 X55.063 Y70.863 E1.29461
G1 X45.547 Y70.863 E.52505
G1 X31.97 Y46.728 E1.52783
M73 P3 R21
G1 X32.599 Y41.557 E.28738
G1 X48.561 Y41.557 E.88072
G1 X48.932 Y41.487 E.02081
G1 X49.172 Y41.353 E.01517
G1 X49.405 Y41.107 E.01866
G1 X49.553 Y40.763 E.02067
G1 X49.577 Y40.541 E.01231
G1 X49.577 Y32.437 E.44715
G1 X55.063 Y32.437 E.30267
G1 X55.063 Y40.706 E.45623
G1 X55.235 Y41.107 E.0241
G1 X55.4 Y41.297 E.01383
G1 X55.735 Y41.497 E.02155
G1 X55.908 Y41.527 E.00971
G1 X56.079 Y40.88 F9000
;TYPE:Outer wall
G1 F1200
G1 X61.8 Y40.88 E.31567
G1 X61.8 Y47.06 E.34097
G1 X55.99 Y47.06 E.32056
G1 X55.801 Y47.205 E.01317
G1 X55.74 Y47.399 E.01117
G1 X55.74 Y71.54 E1.33197
G1 X45.151 Y71.54 E.58425
G1 X31.272 Y46.866 E1.56192
G1 X31.999 Y40.88 E.33271
G1 X48.656 Y40.88 E.91902
G1 X48.843 Y40.73 E.01321
G1 X48.9 Y40.541 E.01088
G1 X48.9 Y31.76 E.4845
G1 X55.74 Y31.76 E.37739
G1 X55.74 Y40.541 E.4845
G1 X55.77 Y40.68 E.0078
G1 X55.881 Y40.816 E.00972
G1 X56.021 Y40.862 E.00815
G1 E-2.24 F4200
;WIPE_START
G1 F1200
G1 X57.021 Y40.865 E-.96
;WIPE_END
G1 Z.6 F9000
G1 X52.38 Y47.399 Z.6
G1 Z.2
G1 E3.2 F1800
;TYPE:Inner wall
;WIDTH:0.66921
G1 F1200
G1 X52.38 Y60.839 E.68591
G1 X52.395 Y63.369 E.12915
;WIDTH:0.640128
G1 X52.409 Y65.9 E.12315
;WIDTH:0.638586
G1 X52.395 Y66.239 E.0165
;WIDTH:0.666126
G1 X52.382 Y66.579 E.01726
;WIDTH:0.666408
G1 X52.381 Y66.581 E.00008
G1 E-2.24 F4200
;WIPE_START
G1 F1200
G1 X52.382 Y66.579 E-.00156
G1 X52.395 Y66.239 E-.32635
G1 X52.409 Y65.9 E-.32635
G1 X52.407 Y65.581 E-.30573
;WIPE_END
G1 Z.6 F9000
G1 X49.701 Y68.083 Z.6
G1 Z.2
G1 E3.2 F1800
;WIDTH:0.719999
G1 F1200
G1 X49.351 Y68.232 E.021
G1 X49.043 Y68.304 E.01741
G1 X48.568 Y68.339 E.02628
G1 X47.9 Y68.223 E.03742
G1 X47.316 Y67.94 E.03581
G1 X46.898 Y67.583 E.03031
G1 X46.569 Y67.132 E.03083
G1 X36.114 Y48.434 E1.18194
G1 X35.873 Y47.806 E.03714
M73 P4 R21
G1 X35.816 Y47.161 E.03568
G1 X35.921 Y46.571 E.0331
G1 X36.139 Y46.077 E.02979
G1 X36.447 Y45.663 E.02845
G1 X36.797 Y45.355 E.02574
G1 X37.23 Y45.108 E.02747
G1 X37.726 Y44.952 E.02873
G1 X38.257 Y44.909 E.02936
G1 X39.707 Y44.954 E.08007
G1 X41.493 Y44.969 E.09855
G1 X44.376 Y45.025 E.15905
G1 X48.561 Y45.029 E.2309
G1 X49.094 Y45.065 E.02953
G1 X49.468 Y45.163 E.02133
G1 X50.039 Y45.456 E.03539
G1 X50.419 Y45.788 E.02783
G1 X50.627 Y46.046 E.01829
G1 X50.831 Y46.402 E.02266
G1 X50.99 Y46.864 E.02692
G1 X51.051 Y47.399 E.02971
G1 X51.051 Y60.846 E.74195
G1 X51.109 Y65.915 E.27966
G1 X51.074 Y66.351 E.02417
G1 X50.962 Y66.766 E.02368
G1 X50.783 Y67.142 E.02299
G1 X50.447 Y67.586 E.03072
G1 X49.964 Y67.971 E.0341
G1 X49.756 Y68.059 E.01244
G1 X49.404 Y67.474 F9000
G1 F1200
G1 X49.07 Y67.606 E.0198
G1 X48.587 Y67.662 E.02684
G1 X48.11 Y67.58 E.02673
G1 X47.693 Y67.377 E.02558
G1 X47.324 Y67.042 E.02746
G1 X47.157 Y66.796 E.01644
G1 X36.705 Y48.103 E1.1816
G1 X36.533 Y47.655 E.02653
G1 X36.492 Y47.195 E.02549
G1 X36.567 Y46.773 E.02364
G1 X36.723 Y46.42 E.02128
G1 X36.943 Y46.125 E.02032
G1 X37.193 Y45.904 E.01838
G1 X37.502 Y45.728 E.01962
G1 X37.89 Y45.61 E.02239
G1 X38.236 Y45.585 E.0191
G1 X39.694 Y45.631 E.0805
G1 X41.484 Y45.646 E.09876
G1 X44.369 Y45.702 E.15919
G1 X48.56 Y45.706 E.23125
G1 X48.976 Y45.732 E.02303
G1 X49.469 Y45.901 E.02875
G1 X49.793 Y46.122 E.02164
G1 X50.071 Y46.432 E.02299
G1 X50.217 Y46.687 E.01618
G1 X50.33 Y47.016 E.01923
G1 X50.374 Y47.399 E.02122
G1 X50.374 Y60.85 E.74216
G1 X50.432 Y65.922 E.27988
G1 X50.407 Y66.234 E.01727
G1 X50.327 Y66.53 E.01691
G1 X50.199 Y66.799 E.01642
G1 X49.959 Y67.116 E.02194
G1 X49.614 Y67.391 E.02436
G1 X49.46 Y67.452 E.00913
G1 X49.133 Y66.857 F9000
G1 F1200
G1 X48.809 Y66.97 E.01892
G1 X48.459 Y66.97 E.01936
G1 X48.069 Y66.814 E.02314
G1 X47.812 Y66.58 E.0192
G1 X37.296 Y47.773 E1.18884
G1 X37.193 Y47.504 E.01592
G1 X37.168 Y47.228 E.01529
G1 X37.213 Y46.974 E.01419
G1 X37.307 Y46.763 E.01277
G1 X37.589 Y46.453 E.0231
G1 X38.042 Y46.257 E.02726
G1 X39.681 Y46.308 E.09043
G1 X41.474 Y46.323 E.09898
G1 X44.362 Y46.379 E.15933
G1 X48.559 Y46.383 E.2316
G1 X48.858 Y46.399 E.01653
G1 X49.154 Y46.5 E.01725
G1 X49.426 Y46.708 E.01891
G1 X49.603 Y46.971 E.0175
G1 X49.697 Y47.399 E.02413
G1 X49.697 Y60.854 E.74238
G1 X49.755 Y65.93 E.28009
G1 X49.692 Y66.295 E.02042
G1 X49.471 Y66.646 E.0229
G1 X49.264 Y66.812 E.01462
G1 X49.19 Y66.838 E.00435
G1 X48.915 Y66.232 F9000
;TYPE:Outer wall
G1 F1200
G1 X48.625 Y66.309 E.01655
G1 X48.446 Y66.252 E.01036
G1 X48.339 Y66.135 E.00872
G1 X37.887 Y47.443 E1.1816
G1 X37.845 Y47.261 E.0103
G1 X37.935 Y47.047 E.01281
G1 X38.137 Y46.937 E.01267
G1 X39.667 Y46.985 E.08448
G1 X41.463 Y47 E.0991
G1 X44.355 Y47.056 E.15958
G1 X48.682 Y47.06 E.23873
G1 X48.875 Y47.121 E.0112
G1 X48.989 Y47.256 E.00973
G1 X49.02 Y47.399 E.00804
G1 X49.02 Y60.858 E.74259
G1 X49.078 Y65.942 E.28052
G1 X49.032 Y66.113 E.0098
G1 X48.957 Y66.189 E.00588
G1 E-2.24 F4200
;WIPE_START
G1 F1200
G1 X48.625 Y66.309 E-.33891
G1 X48.446 Y66.252 E-.18024
G1 X48.339 Y66.135 E-.15176
G1 X48.192 Y65.873 E-.28908
;WIPE_END
G1 Z.6 F9000
G1 X52.32 Y35.18 Z.6
G1 Z.2
G1 E3.2 F1800
;TYPE:Inner wall
;WIDTH:0.78921
G1 F1200
G1 X52.32 Y40.541 E.32605
;WIDTH:0.81792
G1 X52.32 Y40.87 E.02077
G1 E-2.24 F4200
;WIPE_START
G1 F1200
G1 X52.32 Y40.541 E-.31568
G1 X52.32 Y39.87 E-.64432
;WIPE_END
G1 Z.6 F9000
G1 X46.254 Y67.919 Z.6
G1 Z.2
G1 E3.2 F1800
;WIDTH:0.77782
G1 F1200
G1 X45.973 Y67.467 E.03186
;WIDTH:0.759225
G1 X40.734 Y58.124 E.62525
;WIDTH:0.786882
G1 X35.494 Y48.781 E.6494
;WIDTH:0.829928
G1 X35.368 Y48.513 E.01895
;WIDTH:0.872974
M73 P5 R21
G1 X35.243 Y48.246 E.01998
;WIDTH:0.91602
G1 X35.117 Y47.978 E.02102
G1 E-2.24 F4200
;WIPE_START
G1 F1200
G1 X35.243 Y48.246 E-.28364
G1 X35.368 Y48.513 E-.28364
G1 X35.494 Y48.781 E-.28364
G1 X35.55 Y48.88 E-.10909
;WIPE_END
G1 Z.6 F9000
G1 X49.148 Y68.902 Z.6
G1 Z.2
G1 E3.2 F1800
;WIDTH:0.579436
G1 F1200
G1 X48.634 Y68.924 E.02251
G1 X48.12 Y68.902 E.02251
G1 E-2.24 F4200
;WIPE_START
G1 F1200
G1 X48.634 Y68.924 E-.4942
G1 X49.119 Y68.903 E-.46581
;WIPE_END
G1 Z.6 F9000
G1 X51.766 Y42.802 Z.6
G1 Z.2
G1 E3.2 F1800
;TYPE:Bottom surface
;WIDTH:0.79475
G1 F1500
G1 X53.232 Y44.268 E.12705
G1 X52.973 Y44.523 E.02227
G1 X52.729 Y44.827 E.02393
G1 X51.277 Y43.376 E.12578
G1 E-2.24 F4200
;WIPE_START
G1 F1500
G1 X51.984 Y44.083 E-.96
;WIPE_END
G1 Z.6 F9000
G1 X52.516 Y45.484 Z.6
G1 Z.2
G1 E3.2 F1800
;TYPE:Gap infill
;WIDTH:0.440194
G1 F1200
G1 X52.395 Y45.324 E.0065
;WIDTH:0.405858
G1 X52.274 Y45.163 E.00594
;WIDTH:0.369283
G1 X52.136 Y44.983 E.00603
;WIDTH:0.334074
G1 X51.946 Y44.772 E.00675
;WIDTH:0.29557
G1 X51.427 Y44.236 E.01537
;WIDTH:0.309251
G1 X51.194 Y44.03 E.00675
;WIDTH:0.323464
G1 X50.961 Y43.824 E.00711
G1 E-2.24 F4200
;WIPE_START
G1 F1200
G1 X51.194 Y44.03 E-.96
;WIPE_END
G1 Z.6 F9000
G1 X53.756 Y44.061 Z.6
G1 Z.2
G1 E3.2 F1800
;WIDTH:0.29743
G1 F1200
G1 X53.526 Y43.854 E.00643
;WIDTH:0.263384
G1 X52.966 Y43.317 E.01393
;WIDTH:0.276716
G1 X52.779 Y43.105 E.00538
;WIDTH:0.3134
