; generated by PrusaSlicer 2.7.4 on 2024-05-09 at 10:53:03 UTC


;
;
; 

; external perimeters extrusion width = 0.45mm
; perimeters extrusion width = 0.45mm
; infill extrusion width = 0.45mm
; solid infill extrusion width = 0.45mm
; top infill extrusion width = 0.40mm
; support material extrusion width = 0.35mm
; first layer extrusion width = 0.42mm

M73 P0 R51
M73 Q0 S52
M201 X1000 Y1000 Z200 E5000 ; sets maximum accelerations, mm/sec^2
M203 X200 Y200 Z12 E120 ; sets maximum feedrates, mm / sec
M204 S1250 T1250 ; sets acceleration (S) and retract acceleration (R), mm/sec^2
M205 X8.00 Y8.00 Z0.40 E4.50 ; sets the jerk limits, mm/sec
M205 S0 T0 ; sets the minimum extruding and travel feed rate, mm/sec

; printing object Teammarker_torso_frame.stl id:0 copy 0
; stop printing object Teammarker_torso_frame.stl id:0 copy 0

;TYPE:Custom
M862.3 P "MK3S" ; printer model check
M862.1 P0.4 ; nozzle diameter check
M115 U3.13.3 ; tell printer latest fw version
G90 ; use absolute coordinates
M83 ; extruder relative mode
M104 S215 ; set extruder temp
M140 S60 ; set bed temp
M190 S60 ; wait for bed temp
M109 S215 ; wait for extruder temp
G28 W ; home all without mesh bed level
G80 X47.4344 Y89.9344 W155.131 H34.4172 ; mesh bed levelling

G1 Z0.2 F720
G1 Y-3 F1000 ; go outside print area
G92 E0
G1 X60 E9 F1000 ; intro line
G1 X100 E12.5 F1000 ; intro line

G92 E0
M221 S95

; Don't change E values below. Excessive value can damage the printer.
M907 E430 ; set extruder motor current
G21 ; set units to millimeters
G90 ; use absolute coordinates
M83 ; use relative distances for extrusion

M900 K0.05 ; Filament gcode LA 1.5
M900 K30 ; Filament gcode LA 1.0




M107
;LAYER_CHANGE
;Z:0.2
;HEIGHT:0.2
G1 E-.8 F2100
G1 Z.6 F720
G1 X49.925 Y90.647 F10800
G1 Z.2 F720
G1 E.8 F2100
M204 S800
;TYPE:Skirt/Brim
;WIDTH:0.42
G1 F1200
G1 X50.542 Y90.373 E.02117
G1 X51.189 Y90.199 E.02101
G1 X52 Y90.123 E.02554
G1 X198.052 Y90.123 E4.57936
G1 X198.811 Y90.199 E.02392
G1 X199.546 Y90.405 E.02393
G1 X200.233 Y90.736 E.02391
G1 X200.846 Y91.175 E.02364
G1 X201.386 Y91.726 E.02419
G1 X201.816 Y92.357 E.02394
G1 X202.13 Y93.052 E.02391
G1 X202.317 Y93.782 E.02363
G1 X202.377 Y94.5 E.02259
G1 X202.377 Y117.5 E.72115
G1 X201.981 Y118.814 E.04303
G1 X199.137 Y123.1 E.16128
G1 X198.088 Y123.973 E.04279
G1 X197.156 Y124.163 E.02982
G1 X52.844 Y124.163 E4.5248
G1 X51.537 Y123.771 E.04278
G1 X50.864 Y123.1 E.0298
G1 X48.019 Y118.814 E.1613
G1 X47.623 Y117.5 E.04303
G1 X47.654 Y93.98 E.73745
G1 X47.784 Y93.326 E.02091
G1 X48.012 Y92.698 E.02095
G1 X48.337 Y92.105 E.0212
G1 X48.808 Y91.505 E.02392
G1 X49.295 Y91.059 E.02071
G1 X49.875 Y90.679 E.02174
M204 S1000
;WIPE_START
G1 F8640
G1 X49.925 Y90.647 E-.01371
G1 X50.542 Y90.373 E-.15588
G1 X51.189 Y90.199 E-.1547
G1 X52 Y90.123 E-.18808
G1 X53.246 Y90.123 E-.28763
;WIPE_END
G1 Z.6 F720
; printing object Teammarker_torso_frame.stl id:0 copy 0
G1 X186.066 Y97.982 F10800
G1 Z.2 F720
G1 E.8 F2100
M204 S800
;TYPE:Support material
G1 F1200
G1 X186.582 Y98.096 E.01657
G1 X187.027 Y98.379 E.01654
G1 X187.377 Y98.858 E.0186
G1 X187.514 Y99.368 E.01656
G1 X187.52 Y117.699 E.57476
G1 X187.801 Y117.98 E.01246
G1 X197.156 Y117.98 E.29332
G1 X197.156 Y121.786 E.11933
G1 X184.348 Y121.786 E.40159
G1 X184.348 Y103.329 E.57871
G1 X165.48 Y103.329 E.59159
G1 X165.516 Y99.171 E.13038
M73 P1 R51
M73 Q1 S52
G1 X165.652 Y98.798 E.01245
G1 X165.879 Y98.473 E.01243
G1 X166.24 Y98.184 E.0145
G1 X166.607 Y98.032 E.01245
G1 X167.005 Y97.98 E.01259
G1 X186.01 Y97.98 E.59589
M204 S1000
;WIPE_START
G1 F8640
G1 X182.545 Y97.98 E-.8
;WIPE_END
G1 Z.6 F720
G1 X196.645 Y121.616 F10800
G1 Z.2 F720
G1 E.8 F2100
M204 S800
G1 F1200
G1 X196.645 Y118.319 E.10338
G1 X196.226 Y118.319 E.01314
G1 X196.226 Y121.447 E.09808
G1 X195.807 Y121.447 E.01314
G1 X195.807 Y118.319 E.09808
G1 X195.388 Y118.319 E.01314
G1 X195.388 Y121.447 E.09808
G1 X194.969 Y121.447 E.01314
G1 X194.969 Y118.319 E.09808
G1 X194.55 Y118.319 E.01314
G1 X194.55 Y121.447 E.09808
G1 X194.131 Y121.447 E.01314
G1 X194.131 Y118.319 E.09808
G1 X193.712 Y118.319 E.01314
G1 X193.712 Y121.447 E.09808
G1 X193.293 Y121.447 E.01314
G1 X193.293 Y118.319 E.09808
G1 X192.874 Y118.319 E.01314
G1 X192.874 Y121.447 E.09808
G1 X192.455 Y121.447 E.01314
G1 X192.455 Y118.319 E.09808
G1 X192.036 Y118.319 E.01314
G1 X192.036 Y121.447 E.09808
G1 X191.617 Y121.447 E.01314
G1 X191.617 Y118.319 E.09808
G1 X191.198 Y118.319 E.01314
G1 X191.198 Y121.447 E.09808
G1 X190.779 Y121.447 E.01314
G1 X190.779 Y118.319 E.09808
G1 X190.36 Y118.319 E.01314
G1 X190.36 Y121.447 E.09808
G1 X189.941 Y121.447 E.01314
G1 X189.941 Y118.319 E.09808
G1 X189.522 Y118.319 E.01314
G1 X189.522 Y121.447 E.09808
G1 X189.103 Y121.447 E.01314
G1 X189.103 Y118.319 E.09808
G1 X188.685 Y118.319 E.01311
G1 X188.685 Y121.447 E.09808
G1 X188.266 Y121.447 E.01314
G1 X188.266 Y118.319 E.09808
G1 X187.847 Y118.319 E.01314
G1 X187.847 Y121.447 E.09808
G1 X187.428 Y121.447 E.01314
G1 X187.428 Y118.086 E.10538
G1 X187.181 Y117.839 E.01095
G1 X187.181 Y99.509 E.57472
G1 X187.009 Y98.887 E.02023
M73 P1 R50
G1 X187.009 Y121.447 E.70735
G1 X186.59 Y121.447 E.01314
G1 X186.59 Y98.477 E.72021
G1 X186.171 Y98.332 E.0139
G1 X186.171 Y121.447 E.72475
G1 X185.752 Y121.447 E.01314
G1 X185.752 Y98.319 E.72516
G1 X185.333 Y98.319 E.01314
G1 X185.333 Y121.447 E.72516
G1 X184.914 Y121.447 E.01314
G1 X184.914 Y98.319 E.72516
G1 X184.495 Y98.319 E.01314
G1 X184.495 Y102.99 E.14646
G1 X184.076 Y102.99 E.01314
G1 X184.076 Y98.319 E.14646
G1 X183.657 Y98.319 E.01314
G1 X183.657 Y102.99 E.14646
G1 X183.238 Y102.99 E.01314
G1 X183.238 Y98.319 E.14646
G1 X182.819 Y98.319 E.01314
G1 X182.819 Y102.99 E.14646
G1 X182.4 Y102.99 E.01314
G1 X182.4 Y98.319 E.14646
G1 X181.981 Y98.319 E.01314
G1 X181.981 Y102.99 E.14646
G1 X181.562 Y102.99 E.01314
G1 X181.562 Y98.319 E.14646
G1 X181.143 Y98.319 E.01314
G1 X181.143 Y102.99 E.14646
G1 X180.724 Y102.99 E.01314
G1 X180.724 Y98.319 E.14646
G1 X180.305 Y98.319 E.01314
G1 X180.305 Y102.99 E.14646
G1 X179.886 Y102.99 E.01314
G1 X179.886 Y98.319 E.14646
G1 X179.467 Y98.319 E.01314
G1 X179.467 Y102.99 E.14646
G1 X179.048 Y102.99 E.01314
G1 X179.048 Y98.319 E.14646
G1 X178.629 Y98.319 E.01314
G1 X178.629 Y102.99 E.14646
G1 X178.21 Y102.99 E.01314
G1 X178.21 Y98.319 E.14646
G1 X177.791 Y98.319 E.01314
G1 X177.791 Y102.99 E.14646
G1 X177.372 Y102.99 E.01314
G1 X177.372 Y98.319 E.14646
G1 X176.953 Y98.319 E.01314
G1 X176.953 Y102.99 E.14646
G1 X176.534 Y102.99 E.01314
G1 X176.534 Y98.319 E.14646
G1 X176.115 Y98.319 E.01314
G1 X176.115 Y102.99 E.14646
G1 X175.696 Y102.99 E.01314
G1 X175.696 Y98.319 E.14646
G1 X175.277 Y98.319 E.01314
G1 X175.277 Y102.99 E.14646
G1 X174.858 Y102.99 E.01314
G1 X174.858 Y98.319 E.14646
G1 X174.439 Y98.319 E.01314
G1 X174.439 Y102.99 E.14646
G1 X174.02 Y102.99 E.01314
G1 X174.02 Y98.319 E.14646
G1 X173.601 Y98.319 E.01314
G1 X173.601 Y102.99 E.14646
G1 X173.182 Y102.99 E.01314
G1 X173.182 Y98.319 E.14646
G1 X172.763 Y98.319 E.01314
G1 X172.763 Y102.99 E.14646
G1 X172.344 Y102.99 E.01314
G1 X172.344 Y98.319 E.14646
G1 X171.925 Y98.319 E.01314
G1 X171.925 Y102.99 E.14646
G1 X171.506 Y102.99 E.01314
G1 X171.506 Y98.319 E.14646
G1 X171.087 Y98.319 E.01314
G1 X171.087 Y102.99 E.14646
G1 X170.668 Y102.99 E.01314
G1 X170.668 Y98.319 E.14646
G1 X170.25 Y98.319 E.01311
G1 X170.25 Y102.99 E.14646
G1 X169.831 Y102.99 E.01314
G1 X169.831 Y98.319 E.14646
G1 X169.412 Y98.319 E.01314
G1 X169.412 Y102.99 E.14646
G1 X168.993 Y102.99 E.01314
G1 X168.993 Y98.319 E.14646
G1 X168.574 Y98.319 E.01314
M73 Q1 S51
G1 X168.574 Y102.99 E.14646
G1 X168.155 Y102.99 E.01314
G1 X168.155 Y98.319 E.14646
G1 X167.736 Y98.319 E.01314
G1 X167.736 Y102.99 E.14646
G1 X167.317 Y102.99 E.01314
G1 X167.317 Y98.319 E.14646
G1 X166.898 Y98.324 E.01314
G1 X166.898 Y102.99 E.1463
G1 X166.479 Y102.99 E.01314
G1 X166.479 Y98.441 E.14263
G1 X166.06 Y98.787 E.01704
G1 X166.06 Y103.16 E.13711
M204 S1000
;WIPE_START
G1 F8640
G1 X166.06 Y99.695 E-.8
;WIPE_END
G1 Z.6 F720
G1 X158.066 Y97.982 F10800
G1 Z.2 F720
G1 E.8 F2100
M204 S800
G1 F1200
G1 X158.52 Y98.072 E.01451
G1 X158.977 Y98.336 E.01655
G1 X159.282 Y98.683 E.01449
G1 X159.468 Y99.107 E.01452
G1 X159.52 Y103.329 E.13239
G1 X127.98 Y103.329 E.98891
G1 X128.016 Y99.171 E.13038
G1 X128.184 Y98.74 E.0145
G1 X128.473 Y98.379 E.0145
G1 X128.798 Y98.152 E.01243
G1 X129.236 Y98.003 E.01451
G1 X158.01 Y97.98 E.90219
M204 S1000
G1 X158.01 Y97.98 F10800
G1 X158.937 Y103.16
M204 S800
G1 F1200
M73 P2 R50
G1 X158.937 Y98.782 E.13727
G1 X158.797 Y98.63 E.00648
G1 X158.518 Y98.44 E.01058
G1 X158.518 Y102.99 E.14266
G1 X158.099 Y102.99 E.01314
G1 X158.099 Y98.324 E.1463
G1 X157.991 Y98.319 E.00339
M73 Q2 S51
G1 X157.68 Y98.319 E.00975
G1 X157.68 Y102.99 E.14646
G1 X157.261 Y102.99 E.01314
G1 X157.261 Y98.319 E.14646
G1 X156.842 Y98.319 E.01314
G1 X156.842 Y102.99 E.14646
G1 X156.423 Y102.99 E.01314
G1 X156.423 Y98.319 E.14646
G1 X156.004 Y98.319 E.01314
G1 X156.004 Y102.99 E.14646
G1 X155.585 Y102.99 E.01314
G1 X155.585 Y98.319 E.14646
G1 X155.166 Y98.319 E.01314
G1 X155.166 Y102.99 E.14646
G1 X154.747 Y102.99 E.01314
G1 X154.747 Y98.319 E.14646
G1 X154.328 Y98.319 E.01314
G1 X154.328 Y102.99 E.14646
G1 X153.909 Y102.99 E.01314
G1 X153.909 Y98.319 E.14646
G1 X153.49 Y98.319 E.01314
G1 X153.49 Y102.99 E.14646
G1 X153.071 Y102.99 E.01314
G1 X153.071 Y98.319 E.14646
G1 X152.652 Y98.319 E.01314
G1 X152.652 Y102.99 E.14646
G1 X152.234 Y102.99 E.01311
G1 X152.234 Y98.319 E.14646
G1 X151.815 Y98.319 E.01314
G1 X151.815 Y102.99 E.14646
G1 X151.396 Y102.99 E.01314
G1 X151.396 Y98.319 E.14646
G1 X150.977 Y98.319 E.01314
G1 X150.977 Y102.99 E.14646
G1 X150.558 Y102.99 E.01314
G1 X150.558 Y98.319 E.14646
G1 X150.139 Y98.319 E.01314
G1 X150.139 Y102.99 E.14646
G1 X149.72 Y102.99 E.01314
G1 X149.72 Y98.319 E.14646
G1 X149.301 Y98.319 E.01314
G1 X149.301 Y102.99 E.14646
G1 X148.882 Y102.99 E.01314
G1 X148.882 Y98.319 E.14646
G1 X148.463 Y98.319 E.01314
G1 X148.463 Y102.99 E.14646
G1 X148.044 Y102.99 E.01314
G1 X148.044 Y98.319 E.14646
G1 X147.625 Y98.319 E.01314
G1 X147.625 Y102.99 E.14646
G1 X147.206 Y102.99 E.01314
G1 X147.206 Y98.319 E.14646
G1 X146.787 Y98.319 E.01314
G1 X146.787 Y102.99 E.14646
G1 X146.368 Y102.99 E.01314
G1 X146.368 Y98.319 E.14646
G1 X145.949 Y98.319 E.01314
G1 X145.949 Y102.99 E.14646
G1 X145.53 Y102.99 E.01314
G1 X145.53 Y98.319 E.14646
G1 X145.111 Y98.319 E.01314
G1 X145.111 Y102.99 E.14646
G1 X144.692 Y102.99 E.01314
G1 X144.692 Y98.319 E.14646
G1 X144.273 Y98.319 E.01314
G1 X144.273 Y102.99 E.14646
G1 X143.854 Y102.99 E.01314
G1 X143.854 Y98.319 E.14646
G1 X143.435 Y98.319 E.01314
G1 X143.435 Y102.99 E.14646
G1 X143.016 Y102.99 E.01314
G1 X143.016 Y98.319 E.14646
G1 X142.597 Y98.319 E.01314
G1 X142.597 Y102.99 E.14646
G1 X142.178 Y102.99 E.01314
G1 X142.178 Y98.319 E.14646
G1 X141.759 Y98.319 E.01314
G1 X141.759 Y102.99 E.14646
G1 X141.34 Y102.99 E.01314
G1 X141.34 Y98.319 E.14646
G1 X140.921 Y98.319 E.01314
G1 X140.921 Y102.99 E.14646
G1 X140.502 Y102.99 E.01314
G1 X140.502 Y98.319 E.14646
G1 X140.083 Y98.319 E.01314
G1 X140.083 Y102.99 E.14646
G1 X139.664 Y102.99 E.01314
G1 X139.664 Y98.319 E.14646
G1 X139.245 Y98.319 E.01314
G1 X139.245 Y102.99 E.14646
G1 X138.826 Y102.99 E.01314
G1 X138.826 Y98.319 E.14646
G1 X138.407 Y98.319 E.01314
G1 X138.407 Y102.99 E.14646
G1 X137.988 Y102.99 E.01314
G1 X137.988 Y98.319 E.14646
G1 X137.569 Y98.319 E.01314
G1 X137.569 Y102.99 E.14646
G1 X137.15 Y102.99 E.01314
G1 X137.15 Y98.319 E.14646
G1 X136.731 Y98.319 E.01314
G1 X136.731 Y102.99 E.14646
G1 X136.312 Y102.99 E.01314
G1 X136.312 Y98.319 E.14646
G1 X135.893 Y98.319 E.01314
G1 X135.893 Y102.99 E.14646
G1 X135.474 Y102.99 E.01314
G1 X135.474 Y98.319 E.14646
G1 X135.055 Y98.319 E.01314
G1 X135.055 Y102.99 E.14646
G1 X134.636 Y102.99 E.01314
G1 X134.636 Y98.319 E.14646
G1 X134.217 Y98.319 E.01314
G1 X134.217 Y102.99 E.14646
G1 X133.799 Y102.99 E.01311
G1 X133.799 Y98.319 E.14646
G1 X133.38 Y98.319 E.01314
G1 X133.38 Y102.99 E.14646
G1 X132.961 Y102.99 E.01314
G1 X132.961 Y98.319 E.14646
G1 X132.542 Y98.319 E.01314
G1 X132.542 Y102.99 E.14646
G1 X132.123 Y102.99 E.01314
G1 X132.123 Y98.319 E.14646
G1 X131.704 Y98.319 E.01314
G1 X131.704 Y102.99 E.14646
G1 X131.285 Y102.99 E.01314
G1 X131.285 Y98.319 E.14646
G1 X130.866 Y98.319 E.01314
G1 X130.866 Y102.99 E.14646
G1 X130.447 Y102.99 E.01314
G1 X130.447 Y98.319 E.14646
G1 X130.028 Y98.319 E.01314
G1 X130.028 Y102.99 E.14646
G1 X129.609 Y102.99 E.01314
G1 X129.609 Y98.319 E.14646
G1 X129.509 Y98.319 E.00314
G1 X129.19 Y98.361 E.01009
G1 X129.19 Y102.99 E.14514
G1 X128.771 Y102.99 E.01314
G1 X128.771 Y98.572 E.13852
G1 X128.504 Y98.866 E.01245
G1 X128.352 Y99.227 E.01228
G1 X128.352 Y103.16 E.12332
M204 S1000
;WIPE_START
G1 F8640
G1 X128.352 Y99.695 E-.8
;WIPE_END
G1 Z.6 F720
G1 X120.566 Y97.982 F10800
G1 Z.2 F720
G1 E.8 F2100
M204 S800
G1 F1200
G1 X121.02 Y98.072 E.01451
G1 X121.477 Y98.336 E.01655
G1 X121.782 Y98.683 E.01449
G1 X121.968 Y99.107 E.01452
G1 X122.02 Y103.329 E.13239
G1 X90.48 Y103.329 E.98891
G1 X90.516 Y99.171 E.13038
G1 X90.684 Y98.74 E.0145
G1 X90.973 Y98.379 E.0145
G1 X91.298 Y98.152 E.01243
G1 X91.736 Y98.003 E.01451
G1 X120.51 Y97.98 E.90219
M204 S1000
G1 X120.51 Y97.98 F10800
G1 X121.648 Y103.16
M204 S800
G1 F1200
G1 X121.648 Y99.227 E.12332
G1 X121.496 Y98.866 E.01228
G1 X121.229 Y98.572 E.01245
G1 X121.229 Y102.99 E.13852
G1 X120.81 Y102.99 E.01314
G1 X120.81 Y98.361 E.14514
G1 X120.603 Y98.324 E.00659
G1 X120.391 Y98.319 E.00665
G1 X120.391 Y102.99 E.14646
G1 X119.972 Y102.99 E.01314
G1 X119.972 Y98.319 E.14646
G1 X119.553 Y98.319 E.01314
G1 X119.553 Y102.99 E.14646
G1 X119.134 Y102.99 E.01314
G1 X119.134 Y98.319 E.14646
G1 X118.715 Y98.319 E.01314
G1 X118.715 Y102.99 E.14646
G1 X118.296 Y102.99 E.01314
G1 X118.296 Y98.319 E.14646
G1 X117.877 Y98.319 E.01314
G1 X117.877 Y102.99 E.14646
G1 X117.458 Y102.99 E.01314
G1 X117.458 Y98.319 E.14646
G1 X117.039 Y98.319 E.01314
G1 X117.039 Y102.99 E.14646
G1 X116.62 Y102.99 E.01314
G1 X116.62 Y98.319 E.14646
G1 X116.201 Y98.319 E.01314
G1 X116.201 Y102.99 E.14646
G1 X115.783 Y102.99 E.01311
G1 X115.783 Y98.319 E.14646
G1 X115.364 Y98.319 E.01314
G1 X115.364 Y102.99 E.14646
G1 X114.945 Y102.99 E.01314
G1 X114.945 Y98.319 E.14646
G1 X114.526 Y98.319 E.01314
G1 X114.526 Y102.99 E.14646
G1 X114.107 Y102.99 E.01314
G1 X114.107 Y98.319 E.14646
G1 X113.688 Y98.319 E.01314
G1 X113.688 Y102.99 E.14646
G1 X113.269 Y102.99 E.01314
G1 X113.269 Y98.319 E.14646
G1 X112.85 Y98.319 E.01314
G1 X112.85 Y102.99 E.14646
G1 X112.431 Y102.99 E.01314
G1 X112.431 Y98.319 E.14646
G1 X112.012 Y98.319 E.01314
G1 X112.012 Y102.99 E.14646
G1 X111.593 Y102.99 E.01314
G1 X111.593 Y98.319 E.14646
G1 X111.174 Y98.319 E.01314
M73 P3 R50
G1 X111.174 Y102.99 E.14646
G1 X110.755 Y102.99 E.01314
G1 X110.755 Y98.319 E.14646
G1 X110.336 Y98.319 E.01314
G1 X110.336 Y102.99 E.14646
G1 X109.917 Y102.99 E.01314
G1 X109.917 Y98.319 E.14646
G1 X109.498 Y98.319 E.01314
G1 X109.498 Y102.99 E.14646
G1 X109.079 Y102.99 E.01314
M73 Q3 S51
G1 X109.079 Y98.319 E.14646
G1 X108.66 Y98.319 E.01314
G1 X108.66 Y102.99 E.14646
G1 X108.241 Y102.99 E.01314
G1 X108.241 Y98.319 E.14646
G1 X107.822 Y98.319 E.01314
G1 X107.822 Y102.99 E.14646
G1 X107.403 Y102.99 E.01314
G1 X107.403 Y98.319 E.14646
G1 X106.984 Y98.319 E.01314
G1 X106.984 Y102.99 E.14646
G1 X106.565 Y102.99 E.01314
G1 X106.565 Y98.319 E.14646
G1 X106.146 Y98.319 E.01314
G1 X106.146 Y102.99 E.14646
G1 X105.727 Y102.99 E.01314
G1 X105.727 Y98.319 E.14646
G1 X105.308 Y98.319 E.01314
G1 X105.308 Y102.99 E.14646
G1 X104.889 Y102.99 E.01314
G1 X104.889 Y98.319 E.14646
G1 X104.47 Y98.319 E.01314
G1 X104.47 Y102.99 E.14646
G1 X104.051 Y102.99 E.01314
G1 X104.051 Y98.319 E.14646
G1 X103.632 Y98.319 E.01314
G1 X103.632 Y102.99 E.14646
G1 X103.213 Y102.99 E.01314
M73 P3 R49
G1 X103.213 Y98.319 E.14646
G1 X102.794 Y98.319 E.01314
G1 X102.794 Y102.99 E.14646
G1 X102.375 Y102.99 E.01314
G1 X102.375 Y98.319 E.14646
G1 X101.956 Y98.319 E.01314
G1 X101.956 Y102.99 E.14646
G1 X101.537 Y102.99 E.01314
