; generated by PrusaSlicer 2.7.4 on 2024-05-09 at 10:54:35 UTC


;
;
; 

; external perimeters extrusion width = 0.45mm
; perimeters extrusion width = 0.45mm
; infill extrusion width = 0.45mm
; solid infill extrusion width = 0.45mm
; top infill extrusion width = 0.40mm
; first layer extrusion width = 0.42mm

M73 P0 R78
M73 Q0 S78
M201 X1000 Y1000 Z200 E5000 ; sets maximum accelerations, mm/sec^2
M203 X200 Y200 Z12 E120 ; sets maximum feedrates, mm / sec
M204 S1250 T1250 ; sets acceleration (S) and retract acceleration (R), mm/sec^2
M205 X8.00 Y8.00 Z0.40 E4.50 ; sets the jerk limits, mm/sec
M205 S0 T0 ; sets the minimum extruding and travel feed rate, mm/sec

; printing object Teammarker_torso.stl id:0 copy 0
; stop printing object Teammarker_torso.stl id:0 copy 0

;TYPE:Custom
M862.3 P "MK3S" ; printer model check
M862.1 P0.4 ; nozzle diameter check
M115 U3.13.3 ; tell printer latest fw version
G90 ; use absolute coordinates
M83 ; extruder relative mode
M104 S225 ; set extruder temp
M140 S50 ; set bed temp
M190 S50 ; wait for bed temp
M109 S225 ; wait for extruder temp
G28 W ; home all without mesh bed level
G80 X54.9344 Y87.4344 W140.131 H35.1312 ; mesh bed levelling

G1 Z0.2 F720
G1 Y-3 F1000 ; go outside print area
G92 E0
G1 X60 E9 F1000 ; intro line
G1 X100 E12.5 F1000 ; intro line
M73 P0 R77

G92 E0
M221 S95

; Don't change E values below. Excessive value can damage the printer.
M907 E430 ; set extruder motor current
G21 ; set units to millimeters
G90 ; use absolute coordinates
M83 ; use relative distances for extrusion
M900 K0 ; Filament gcode
M107
;LAYER_CHANGE
;Z:0.2
;HEIGHT:0.2
G1 E-1 F2100
M73 Q0 S77
G1 Z.2 F720
G1 X56.56 Y87.817 F10800
G1 Z.2 F720
G1 E1 F1200
M204 S800
;TYPE:Skirt/Brim
;WIDTH:0.42
G1 X57.5 Y87.623 E.0331
G1 X192.5 Y87.623 E4.65611
G1 X193.807 Y88.015 E.04706
G1 X194.683 Y89.06 E.04703
G1 X194.877 Y90 E.0331
G1 X194.864 Y118.33 E.97709
G1 X194.741 Y119.083 E.02631
G1 X194.524 Y119.723 E.02331
G1 X194.219 Y120.308 E.02275
G1 X193.819 Y120.853 E.02332
G1 X193.281 Y121.379 E.02595
G1 X192.733 Y121.764 E.0231
G1 X192.127 Y122.063 E.02331
G1 X191.498 Y122.262 E.02275
G1 X190.5 Y122.377 E.03465
G1 X59.361 Y122.375 E4.52295
G1 X58.689 Y122.301 E.02332
G1 X57.954 Y122.095 E.02633
G1 X57.357 Y121.816 E.02273
G1 X56.727 Y121.386 E.02631
G1 X56.238 Y120.918 E.02334
G1 X55.781 Y120.308 E.02629
G1 X55.441 Y119.638 E.02591
G1 X55.238 Y118.998 E.02316
G1 X55.123 Y118.005 E.03448
G1 X55.123 Y90 E.96588
G1 X55.515 Y88.693 E.04706
G1 X56.514 Y87.855 E.04497
M204 S1000
G1 E-1 F2100
G1 X56.514 Y87.855 F10800
; printing object Teammarker_torso.stl id:0 copy 0
G1 X58.664 Y91.164
G1 E1 F1200
M204 S800
;TYPE:Perimeter
;WIDTH:0.419999
G1 X191.336 Y91.164 E4.57581
G1 X191.336 Y104.997 E.4771
G1 X191.322 Y110.799 E.20011
G1 X191.193 Y111.271 E.01688
G1 X190.768 Y112.168 E.03423
G1 X190.572 Y112.661 E.0183
G1 X190.396 Y113.34 E.02419
G1 X190.338 Y113.997 E.02275
G1 X190.389 Y114.625 E.02173
G1 X190.543 Y115.253 E.0223
G1 X190.756 Y115.806 E.02044
G1 X191.135 Y116.605 E.0305
G1 X191.26 Y116.951 E.01269
G1 X191.334 Y117.361 E.01437
G1 X191.334 Y117.892 E.01831
G1 X191.269 Y118.313 E.01469
G1 X191.057 Y118.608 E.01253
G1 X190.822 Y118.765 E.00975
G1 X190.573 Y118.829 E.00887
G1 X59.65 Y118.836 E4.51549
G1 X59.221 Y118.782 E.01491
G1 X58.936 Y118.607 E.01153
G1 X58.731 Y118.318 E.01222
G1 X58.666 Y118.018 E.01059
G1 X58.671 Y117.274 E.02566
G1 X58.817 Y116.707 E.02019
G1 X59.243 Y115.806 E.03437
G1 X59.44 Y115.302 E.01866
G1 X59.609 Y114.632 E.02383
G1 X59.662 Y113.997 E.02198
G1 X59.607 Y113.354 E.02226
G1 X59.448 Y112.718 E.02261
G1 X59.235 Y112.175 E.02012
G1 X58.774 Y111.182 E.03776
G1 X58.666 Y110.653 E.01862
G1 X58.664 Y91.224 E.6701
M204 S1000
G1 X58.664 Y91.224 F10800
G1 X58.287 Y90.787
M204 S800
G1 F1200
G1 X191.713 Y90.787 E4.60182
G1 X191.713 Y104.997 E.4901
M73 P1 R77
M73 Q1 S77
G1 X191.709 Y110.653 E.19507
G1 X191.633 Y111.157 E.01758
G1 X191.479 Y111.547 E.01446
G1 X190.935 Y112.762 E.04591
G1 X190.77 Y113.38 E.02206
G1 X190.715 Y113.974 E.02057
G1 X190.757 Y114.541 E.01961
G1 X190.895 Y115.119 E.0205
G1 X191.097 Y115.644 E.0194
G1 X191.476 Y116.443 E.0305
G1 X191.619 Y116.837 E.01446
G1 X191.711 Y117.339 E.0176
G1 X191.711 Y118.022 E.02356
G1 X191.593 Y118.51 E.01732
G1 X191.315 Y118.889 E.01621
G1 X190.994 Y119.104 E.01333
G1 X190.606 Y119.206 E.01384
G1 X60.113 Y119.213 E4.50066
G1 X59.332 Y119.18 E.02696
G1 X58.941 Y119.074 E.01397
G1 X58.607 Y118.818 E.01451
G1 X58.382 Y118.463 E.0145
G1 X58.289 Y118.042 E.01487
G1 X58.293 Y117.381 E.0228
G1 X58.345 Y116.926 E.01579
G1 X58.515 Y116.464 E.01698
G1 X59.076 Y115.204 E.04757
G1 X59.234 Y114.593 E.02177
G1 X59.285 Y114.021 E.01981
G1 X59.24 Y113.441 E.02006
G1 X59.096 Y112.854 E.02085
G1 X58.893 Y112.334 E.01925
G1 X58.376 Y111.166 E.04405
G1 X58.289 Y110.675 E.0172
G1 X58.287 Y90.847 E.68386
M204 S1000
G1 X58.287 Y90.847 F10800
G1 X57.91 Y90.41
M204 S800
;TYPE:External perimeter
G1 F1200
G1 X192.09 Y90.41 E4.62782
G1 X192.09 Y104.997 E.5031
M73 P1 R76
G1 X192.083 Y110.71 E.19704
G1 X191.997 Y111.259 E.01917
G1 X191.82 Y111.708 E.01665
G1 X191.299 Y112.864 E.04373
G1 X191.145 Y113.421 E.01993
G1 X191.091 Y113.95 E.01834
G1 X191.125 Y114.456 E.01749
G1 X191.247 Y114.984 E.01869
G1 X191.438 Y115.483 E.01843
G1 X191.883 Y116.423 E.03587
G1 X192.042 Y116.923 E.0181
G1 X192.088 Y117.317 E.01368
G1 X192.088 Y118.059 E.02559
G1 X191.935 Y118.669 E.02169
G1 X191.573 Y119.171 E.02135
G1 X191.166 Y119.442 E.01686
G1 X190.639 Y119.583 E.01882
G1 X59.65 Y119.59 E4.51777
G1 X59.172 Y119.537 E.01659
M73 Q1 S76
G1 X58.766 Y119.41 E.01467
G1 X58.328 Y119.074 E.01904
G1 X58.032 Y118.608 E.01904
G1 X57.912 Y118.065 E.01918
G1 X57.916 Y117.379 E.02366
G1 X57.978 Y116.835 E.01888
G1 X58.174 Y116.302 E.01959
G1 X58.712 Y115.105 E.04526
G1 X58.859 Y114.555 E.01964
G1 X58.909 Y114.045 E.01767
G1 X58.873 Y113.527 E.01791
G1 X58.745 Y112.991 E.01901
G1 X58.551 Y112.493 E.01843
G1 X58.014 Y111.272 E.046
G1 X57.912 Y110.698 E.02011
G1 X57.91 Y90.47 E.69766
M204 S1000
G1 X58.306 Y90.411 F10800
G1 E-1 F2100
G1 X191.166 Y92.098 F10800
G1 E1 F1200
M204 S800
;TYPE:Solid infill
;WIDTH:0.420973
G1 X190.572 Y91.504 E.02905
G1 X190.037 Y91.504 E.0185
G1 X190.996 Y92.463 E.0469
G1 X190.996 Y92.998 E.0185
G1 X189.502 Y91.504 E.07306
G1 X188.968 Y91.504 E.01847
G1 X190.996 Y93.532 E.09917
G1 X190.996 Y94.067 E.0185
G1 X188.433 Y91.504 E.12534
G1 X187.898 Y91.504 E.0185
G1 X190.996 Y94.602 E.1515
G1 X190.996 Y95.136 E.01847
G1 X187.364 Y91.504 E.17761
G1 X186.829 Y91.504 E.0185
G1 X190.996 Y95.671 E.20377
G1 X190.996 Y96.206 E.0185
G1 X186.294 Y91.504 E.22994
G1 X185.76 Y91.504 E.01847
G1 X190.996 Y96.74 E.25605
G1 X190.996 Y97.275 E.0185
G1 X185.225 Y91.504 E.28221
G1 X184.69 Y91.504 E.0185
G1 X190.996 Y97.81 E.30837
G1 X190.996 Y98.344 E.01847
G1 X184.156 Y91.504 E.33449
G1 X183.621 Y91.504 E.0185
G1 X190.996 Y98.879 E.36065
G1 X190.996 Y99.414 E.0185
G1 X183.086 Y91.504 E.38681
G1 X182.552 Y91.504 E.01847
G1 X190.996 Y99.948 E.41293
G1 X190.996 Y100.483 E.0185
G1 X182.017 Y91.504 E.43909
G1 X181.483 Y91.504 E.01847
G1 X190.996 Y101.018 E.46523
G1 X190.996 Y101.552 E.01847
G1 X180.948 Y91.504 E.49136
G1 X180.413 Y91.504 E.0185
G1 X190.996 Y102.087 E.51753
G1 X190.996 Y102.621 E.01847
G1 X179.879 Y91.504 E.54364
G1 X179.344 Y91.504 E.0185
G1 X190.996 Y103.156 E.5698
G1 X190.996 Y103.691 E.0185
G1 X178.809 Y91.504 E.59597
G1 X178.275 Y91.504 E.01847
G1 X190.996 Y104.225 E.62208
G1 X190.996 Y104.76 E.0185
G1 X177.74 Y91.504 E.64824
G1 X177.205 Y91.504 E.0185
G1 X190.996 Y105.295 E.6744
G1 X190.996 Y105.829 E.01847
G1 X176.671 Y91.504 E.70052
G1 X176.136 Y91.504 E.0185
G1 X190.996 Y106.364 E.72668
G1 X190.996 Y106.899 E.0185
G1 X175.601 Y91.504 E.75284
G1 X175.067 Y91.504 E.01847
G1 X190.996 Y107.433 E.77896
G1 X190.996 Y107.968 E.0185
G1 X174.532 Y91.504 E.80512
G1 X173.997 Y91.504 E.0185
M73 P2 R76
M73 Q2 S76
G1 X190.996 Y108.503 E.83128
G1 X190.996 Y109.037 E.01847
G1 X173.463 Y91.504 E.85739
G1 X172.928 Y91.504 E.0185
G1 X190.996 Y109.572 E.88356
G1 X190.996 Y110.107 E.0185
G1 X172.393 Y91.504 E.90972
G1 X171.859 Y91.504 E.01847
G1 X190.992 Y110.637 E.93564
G1 X190.985 Y110.755 E.00409
G1 X190.901 Y111.08 E.01161
G1 X171.324 Y91.504 E.95733
G1 X170.79 Y91.504 E.01847
G1 X190.734 Y111.448 E.9753
G1 X190.562 Y111.811 E.01389
G1 X170.255 Y91.504 E.99305
G1 X169.72 Y91.504 E.0185
G1 X190.398 Y112.182 E1.01119
G1 X190.247 Y112.565 E.01424
G1 X169.186 Y91.504 E1.02992
G1 X168.651 Y91.504 E.0185
G1 X190.132 Y112.984 E1.05043
G1 X190.074 Y113.194 E.00753
G1 X190.047 Y113.434 E.00835
G1 X168.116 Y91.504 E1.07244
G1 X167.582 Y91.504 E.01847
G1 X190.008 Y113.929 E1.09665
G1 X190.028 Y114.485 E.01924
G1 X167.047 Y91.504 E1.12381
G1 X166.512 Y91.504 E.0185
G1 X190.164 Y115.155 E1.1566
G1 X190.472 Y115.998 E.03103
G1 X165.978 Y91.504 E1.1978
G1 X165.443 Y91.504 E.0185
G1 X190.91 Y116.97 E1.24536
G1 X190.968 Y117.155 E.0067
G1 X190.995 Y117.381 E.00787
G1 X190.995 Y117.59 E.00723
G1 X164.908 Y91.504 E1.27568
G1 X164.374 Y91.504 E.01847
M73 P2 R75
G1 X190.966 Y118.096 E1.3004
G1 X190.947 Y118.191 E.00335
G1 X190.823 Y118.356 E.00714
G1 X190.744 Y118.409 E.00329
G1 X163.839 Y91.504 E1.3157
G1 X163.304 Y91.504 E.0185
M73 Q2 S75
G1 X190.291 Y118.49 E1.31969
G1 X189.756 Y118.49 E.0185
G1 X162.77 Y91.504 E1.31966
G1 X162.235 Y91.504 E.0185
G1 X189.221 Y118.49 E1.31966
G1 X188.687 Y118.49 E.01847
G1 X161.701 Y91.504 E1.31966
G1 X161.166 Y91.504 E.0185
G1 X188.152 Y118.49 E1.31966
G1 X187.617 Y118.49 E.0185
G1 X160.631 Y91.504 E1.31966
G1 X160.097 Y91.504 E.01847
G1 X187.083 Y118.49 E1.31966
G1 X186.548 Y118.49 E.0185
G1 X159.562 Y91.504 E1.31966
G1 X159.027 Y91.504 E.0185
M73 P3 R75
M73 Q3 S75
G1 X186.014 Y118.49 E1.31969
G1 X185.479 Y118.49 E.0185
G1 X158.493 Y91.504 E1.31966
G1 X157.958 Y91.504 E.0185
G1 X184.944 Y118.49 E1.31966
G1 X184.41 Y118.49 E.01847
G1 X157.423 Y91.504 E1.31969
G1 X156.889 Y91.504 E.01847
G1 X183.875 Y118.49 E1.31966
G1 X183.34 Y118.49 E.0185
G1 X156.354 Y91.504 E1.31966
G1 X155.819 Y91.504 E.0185
G1 X182.806 Y118.49 E1.31969
G1 X182.271 Y118.49 E.0185
G1 X155.285 Y91.504 E1.31966
G1 X154.75 Y91.504 E.0185
G1 X181.737 Y118.49 E1.31969
G1 X181.202 Y118.49 E.0185
G1 X154.215 Y91.504 E1.31969
G1 X153.681 Y91.504 E.01847
G1 X180.667 Y118.49 E1.31966
G1 X180.133 Y118.49 E.01847
G1 X153.146 Y91.504 E1.31969
G1 X152.612 Y91.504 E.01847
G1 X179.598 Y118.49 E1.31966
G1 X179.064 Y118.49 E.01847
G1 X152.077 Y91.504 E1.31969
G1 X151.542 Y91.504 E.0185
G1 X178.529 Y118.49 E1.31969
G1 X177.994 Y118.49 E.0185
G1 X151.008 Y91.504 E1.31966
G1 X150.473 Y91.504 E.0185
G1 X177.46 Y118.49 E1.31969
G1 X176.925 Y118.49 E.0185
G1 X149.938 Y91.504 E1.31969
G1 X149.404 Y91.504 E.01847
G1 X176.39 Y118.49 E1.31966
G1 X175.856 Y118.49 E.01847
G1 X148.869 Y91.504 E1.31969
G1 X148.334 Y91.504 E.0185
G1 X175.321 Y118.49 E1.31969
G1 X174.787 Y118.49 E.01847
M73 P3 R74
G1 X147.8 Y91.504 E1.31969
G1 X147.265 Y91.504 E.0185
G1 X174.252 Y118.49 E1.31969
G1 X173.717 Y118.49 E.0185
M73 Q3 S74
G1 X146.73 Y91.504 E1.31969
G1 X146.196 Y91.504 E.01847
M73 P4 R74
M73 Q4 S74
G1 X173.183 Y118.49 E1.31969
G1 X172.648 Y118.491 E.0185
G1 X145.661 Y91.504 E1.31971
G1 X145.126 Y91.504 E.0185
G1 X172.113 Y118.491 E1.31971
G1 X171.579 Y118.491 E.01847
G1 X144.592 Y91.504 E1.31971
G1 X144.057 Y91.504 E.0185
G1 X171.044 Y118.491 E1.31971
G1 X170.51 Y118.491 E.01847
G1 X143.523 Y91.504 E1.31971
G1 X142.988 Y91.504 E.0185
G1 X169.975 Y118.491 E1.31971
G1 X169.44 Y118.491 E.0185
G1 X142.453 Y91.504 E1.31971
G1 X141.919 Y91.504 E.01847
G1 X168.906 Y118.491 E1.31971
G1 X168.371 Y118.491 E.0185
G1 X141.384 Y91.504 E1.31971
G1 X140.849 Y91.504 E.0185
G1 X167.837 Y118.491 E1.31974
G1 X167.302 Y118.491 E.0185
G1 X140.315 Y91.504 E1.31971
G1 X139.78 Y91.504 E.0185
G1 X166.767 Y118.491 E1.31971
G1 X166.233 Y118.491 E.01847
G1 X139.245 Y91.504 E1.31974
G1 X138.711 Y91.504 E.01847
G1 X165.698 Y118.491 E1.31971
G1 X165.163 Y118.491 E.0185
G1 X138.176 Y91.504 E1.31971
G1 X137.641 Y91.504 E.0185
G1 X164.629 Y118.491 E1.31974
G1 X164.094 Y118.491 E.0185
G1 X137.107 Y91.504 E1.31971
G1 X136.572 Y91.504 E.0185
G1 X163.56 Y118.491 E1.31974
G1 X163.025 Y118.491 E.0185
G1 X136.037 Y91.504 E1.31974
G1 X135.503 Y91.504 E.01847
G1 X162.49 Y118.491 E1.31971
G1 X161.956 Y118.491 E.01847
G1 X134.968 Y91.504 E1.31974
G1 X134.434 Y91.504 E.01847
G1 X161.421 Y118.491 E1.31971
G1 X160.886 Y118.491 E.0185
G1 X133.899 Y91.504 E1.31971
G1 X133.364 Y91.504 E.0185
M73 P5 R74
M73 Q5 S74
G1 X160.352 Y118.491 E1.31974
G1 X159.817 Y118.491 E.0185
G1 X132.83 Y91.504 E1.31971
G1 X132.295 Y91.504 E.0185
G1 X159.283 Y118.491 E1.31974
G1 X158.748 Y118.491 E.0185
G1 X131.76 Y91.504 E1.31974
G1 X131.226 Y91.504 E.01847
M73 P5 R73
G1 X158.213 Y118.491 E1.31971
G1 X157.679 Y118.491 E.01847
G1 X130.691 Y91.504 E1.31974
G1 X130.156 Y91.504 E.0185
M73 Q5 S73
G1 X157.144 Y118.491 E1.31974
G1 X156.61 Y118.491 E.01847
G1 X129.622 Y91.504 E1.31974
G1 X129.087 Y91.504 E.0185
G1 X156.075 Y118.491 E1.31974
G1 X155.54 Y118.491 E.0185
G1 X128.552 Y91.504 E1.31974
G1 X128.018 Y91.504 E.01847
G1 X155.006 Y118.491 E1.31974
G1 X154.471 Y118.491 E.0185
G1 X127.483 Y91.504 E1.31974
G1 X126.948 Y91.504 E.0185
G1 X153.936 Y118.492 E1.31976
G1 X153.402 Y118.492 E.01847
G1 X126.414 Y91.504 E1.31976
G1 X125.879 Y91.504 E.0185
G1 X152.867 Y118.492 E1.31976
G1 X152.333 Y118.492 E.01847
G1 X125.344 Y91.504 E1.31978
G1 X124.81 Y91.504 E.01847
G1 X151.798 Y118.492 E1.31976
G1 X151.263 Y118.492 E.0185
G1 X124.275 Y91.504 E1.31976
G1 X123.741 Y91.504 E.01847
G1 X150.729 Y118.492 E1.31976
G1 X150.194 Y118.492 E.0185
G1 X123.206 Y91.504 E1.31976
G1 X122.671 Y91.504 E.0185
G1 X149.659 Y118.492 E1.31976
G1 X149.125 Y118.492 E.01847
G1 X122.137 Y91.504 E1.31976
G1 X121.602 Y91.504 E.0185
G1 X148.59 Y118.492 E1.31976
G1 X148.056 Y118.492 E.01847
G1 X121.067 Y91.504 E1.31978
G1 X120.533 Y91.504 E.01847
M73 P6 R73
M73 Q6 S73
G1 X147.521 Y118.492 E1.31976
G1 X146.986 Y118.492 E.0185
G1 X119.998 Y91.504 E1.31976
G1 X119.463 Y91.504 E.0185
G1 X146.452 Y118.492 E1.31978
G1 X145.917 Y118.492 E.0185
G1 X118.929 Y91.504 E1.31976
G1 X118.394 Y91.504 E.0185
G1 X145.383 Y118.492 E1.31978
G1 X144.848 Y118.492 E.0185
G1 X117.859 Y91.504 E1.31978
G1 X117.325 Y91.504 E.01847
G1 X144.313 Y118.492 E1.31976
G1 X143.779 Y118.492 E.01847
G1 X116.79 Y91.504 E1.31978
G1 X116.255 Y91.504 E.0185
G1 X143.244 Y118.492 E1.31978
G1 X142.709 Y118.492 E.0185
G1 X115.721 Y91.504 E1.31976
G1 X115.186 Y91.504 E.0185
M73 P6 R72
G1 X142.175 Y118.492 E1.31978
G1 X141.64 Y118.492 E.0185
G1 X114.652 Y91.504 E1.31976
G1 X114.117 Y91.504 E.0185
G1 X141.106 Y118.492 E1.31978
G1 X140.571 Y118.492 E.0185
M73 Q6 S72
G1 X113.582 Y91.504 E1.31978
G1 X113.048 Y91.504 E.01847
G1 X140.036 Y118.492 E1.31976
G1 X139.502 Y118.492 E.01847
G1 X112.513 Y91.504 E1.31978
G1 X111.978 Y91.504 E.0185
G1 X138.967 Y118.492 E1.31978
G1 X138.432 Y118.492 E.0185
G1 X111.444 Y91.504 E1.31976
G1 X110.909 Y91.504 E.0185
G1 X137.898 Y118.492 E1.31978
G1 X137.363 Y118.492 E.0185
G1 X110.374 Y91.504 E1.31978
G1 X109.84 Y91.504 E.01847
G1 X136.829 Y118.492 E1.31978
G1 X136.294 Y118.492 E.0185
G1 X109.305 Y91.504 E1.31978
G1 X108.77 Y91.504 E.0185
G1 X135.759 Y118.492 E1.31978
G1 X135.225 Y118.492 E.01847
G1 X108.236 Y91.504 E1.31978
G1 X107.701 Y91.504 E.0185
M73 P7 R72
M73 Q7 S72
G1 X134.69 Y118.493 E1.31981
G1 X134.155 Y118.493 E.0185
G1 X107.166 Y91.504 E1.31981
G1 X106.632 Y91.504 E.01847
G1 X133.621 Y118.493 E1.31981
G1 X133.086 Y118.493 E.0185
G1 X106.097 Y91.504 E1.31981
G1 X105.563 Y91.504 E.01847
G1 X132.552 Y118.493 E1.31981
G1 X132.017 Y118.493 E.0185
G1 X105.028 Y91.504 E1.31981
G1 X104.493 Y91.504 E.0185
G1 X131.482 Y118.493 E1.31981
G1 X130.948 Y118.493 E.01847
G1 X103.959 Y91.504 E1.31981
G1 X103.424 Y91.504 E.0185
G1 X130.413 Y118.493 E1.31981
G1 X129.879 Y118.493 E.01847
G1 X102.889 Y91.504 E1.31983
G1 X102.355 Y91.504 E.01847
G1 X129.344 Y118.493 E1.31981
G1 X128.809 Y118.493 E.0185
G1 X101.82 Y91.504 E1.31981
G1 X101.285 Y91.504 E.0185
