; generated by PrusaSlicer 2.7.4 on 2024-04-15 at 12:19:50 UTC


;
;
; 

; external perimeters extrusion width = 0.45mm
; perimeters extrusion width = 0.45mm
; infill extrusion width = 0.45mm
; solid infill extrusion width = 0.45mm
; top infill extrusion width = 0.40mm
; first layer extrusion width = 0.42mm

; external perimeters extrusion width = 0.45mm
; perimeters extrusion width = 0.45mm
; infill extrusion width = 0.45mm
; solid infill extrusion width = 0.45mm
; top infill extrusion width = 0.40mm
; first layer extrusion width = 0.42mm

; external perimeters extrusion width = 0.45mm
; perimeters extrusion width = 0.45mm
; infill extrusion width = 0.45mm
; solid infill extrusion width = 0.45mm
; top infill extrusion width = 0.40mm
; first layer extrusion width = 0.42mm

; external perimeters extrusion width = 0.45mm
; perimeters extrusion width = 0.45mm
; infill extrusion width = 0.45mm
; solid infill extrusion width = 0.45mm
; top infill extrusion width = 0.40mm
; first layer extrusion width = 0.42mm

M73 P0 R95
M73 Q0 S96
M201 X1000 Y1000 Z200 E5000 ; sets maximum accelerations, mm/sec^2
M203 X200 Y200 Z12 E120 ; sets maximum feedrates, mm / sec
M204 S1250 T1250 ; sets acceleration (S) and retract acceleration (R), mm/sec^2
M205 X8.00 Y8.00 Z0.40 E4.50 ; sets the jerk limits, mm/sec
M205 S0 T0 ; sets the minimum extruding and travel feed rate, mm/sec

; printing object minipc_holder_left - Part 1.stl id:2 copy 0
; stop printing object minipc_holder_left - Part 1.stl id:2 copy 0
; printing object minipc_holder_left - Part 1.stl id:1 copy 0
; stop printing object minipc_holder_left - Part 1.stl id:1 copy 0
; printing object minipc_holder_left - Part 1.stl id:0 copy 0
; stop printing object minipc_holder_left - Part 1.stl id:0 copy 0
; printing object minipc_holder_left - Part 1.stl id:3 copy 0
; stop printing object minipc_holder_left - Part 1.stl id:3 copy 0

;TYPE:Custom
M862.3 P "MK3" ; printer model check
M862.1 P0.4 ; nozzle diameter check
M115 U3.13.3 ; tell printer latest fw version
G90 ; use absolute coordinates
M83 ; extruder relative mode
M104 S215 ; set extruder temp
M140 S60 ; set bed temp
M190 S60 ; wait for bed temp
M109 S215 ; wait for extruder temp
G28 W ; home all without mesh bed level
G80 X98.147 Y77.9594 W53.706 H54.0812 ; mesh bed levelling

G1 Z0.2 F720
G1 Y-3 F1000 ; go outside print area
G92 E0
G1 X60 E9 F1000 ; intro line
G1 X100 E12.5 F1000 ; intro line

G92 E0
M221 S95

; Don't change E values below. Excessive value can damage the printer.

M907 E538 ; set extruder motor current
G21 ; set units to millimeters
G90 ; use absolute coordinates
M83 ; use relative distances for extrusion

M900 K0.05 ; Filament gcode LA 1.5
M900 K30 ; Filament gcode LA 1.0




M107
;LAYER_CHANGE
;Z:0.2
;HEIGHT:0.2
G1 E-.8 F2100
G1 Z.6 F720
G1 X99.032 Y81.832 F10800
G1 Z.2 F720
G1 E.8 F2100
M204 S800
;TYPE:Skirt/Brim
;WIDTH:0.42
G1 F1200
G1 X102.02 Y78.844 E.13249
G1 X103.701 Y78.148 E.05705
G1 X132.706 Y78.148 E.90943
G1 X134.826 Y78.341 E.06675
G1 X136.877 Y78.897 E.06663
G1 X138.802 Y79.798 E.06664
G1 X140.542 Y81.017 E.06661
G1 X141.623 Y82.04 E.04667
G1 X150.326 Y91.427 E.40136
G1 X150.796 Y92.175 E.0277
G1 X151.5 Y93.971 E.06048
G1 X151.664 Y94.839 E.0277
G1 X151.664 Y126.487 E.9923
G1 X150.968 Y128.168 E.05705
G1 X147.981 Y131.156 E.13247
G1 X146.3 Y131.852 E.05705
G1 X113.351 Y131.852 E1.03309
G1 X112.4 Y131.654 E.03046
G1 X110.448 Y130.802 E.06678
G1 X109.656 Y130.239 E.03047
G1 X101.541 Y121.486 E.37425
G1 X100.673 Y120.42 E.0431
M73 Q0 S95
G1 X99.879 Y119.172 E.04638
G1 X99.339 Y118.074 E.03837
G1 X98.836 Y116.682 E.04641
G1 X98.488 Y115.143 E.04947
G1 X98.336 Y113.316 E.05748
G1 X98.336 Y83.512 E.93448
G1 X99.01 Y81.887 E.05516
M204 S1000
;WIPE_START
G1 F8640
G1 X99.032 Y81.832 E-.01368
G1 X101.44 Y79.424 E-.78632
;WIPE_END
G1 Z.6 F720
G1 X101.58 Y83.381 F10800
G1 Z.2 F720
G1 E.8 F2100
M204 S800
G1 F1200
G1 X101.967 Y82.716 E.02412
G1 X102.923 Y81.76 E.04239
G1 X104.063 Y81.132 E.04081
G1 X105.395 Y80.812 E.04295
G1 X112.391 Y80.812 E.21935
G1 X113.974 Y80.953 E.04983
G1 X114.882 Y81.156 E.02917
G1 X115.744 Y81.439 E.02845
G1 X117.386 Y82.248 E.05739
G1 X118.754 Y83.272 E.05358
G1 X121.326 Y85.988 E.11728
G1 X121.343 Y85.057 E.0292
G1 X121.665 Y83.824 E.03996
G1 X122.164 Y82.885 E.03334
G1 X123.092 Y81.883 E.04282
G1 X124.277 Y81.176 E.04327
G1 X125.717 Y80.812 E.04657
G1 X132.708 Y80.812 E.2192
G1 X134.397 Y80.971 E.05319
G1 X136.018 Y81.42 E.05274
G1 X137.658 Y82.217 E.05717
G1 X139.074 Y83.268 E.05529
G1 X147.996 Y92.86 E.41074
G1 X148.635 Y93.967 E.04008
G1 X149.001 Y95.463 E.04829
G1 X149.001 Y103.946 E.26598
G1 X148.638 Y105.383 E.04647
G1 X147.959 Y106.536 E.04195
G1 X147.217 Y107.272 E.03277
G1 X146.425 Y107.806 E.02995
G1 X144.808 Y108.312 E.05312
G1 X143.033 Y108.329 E.05566
G1 X147.894 Y113.576 E.22427
G1 X148.597 Y114.728 E.04231
G1 X148.981 Y116.159 E.04646
G1 X148.979 Y124.956 E.27582
G1 X148.534 Y126.47 E.04948
G1 X147.882 Y127.477 E.03761
G1 X146.999 Y128.296 E.03776
G1 X146.026 Y128.833 E.03485
G1 X144.668 Y129.181 E.04395
G1 X134.201 Y129.163 E.32819
G1 X132.784 Y128.774 E.04607
G1 X131.519 Y127.956 E.04723
G1 X128.676 Y124.909 E.13066
G1 X128.301 Y126.26 E.04396
G1 X127.755 Y127.232 E.03496
G1 X126.824 Y128.179 E.04164
G1 X125.786 Y128.799 E.03791
G1 X124.285 Y129.189 E.04863
G1 X113.753 Y129.146 E.33023
G1 X112.329 Y128.714 E.04666
G1 X111.089 Y127.867 E.04708
G1 X103.004 Y119.089 E.37418
G1 X102.461 Y118.307 E.02985
G1 X101.952 Y117.387 E.03297
G1 X101.52 Y116.333 E.03572
G1 X101.216 Y115.242 E.03551
G1 X101.044 Y114.135 E.03513
G1 X101.017 Y105.915 E.25773
G1 X101.356 Y104.634 E.04155
G1 X101.883 Y103.674 E.03434
G1 X102.626 Y102.855 E.03467
G1 X103.694 Y102.139 E.04032
G1 X105.148 Y101.695 E.04767
G1 X106.136 Y101.674 E.03099
G1 X103.015 Y98.253 E.14519
G1 X101.978 Y96.588 E.0615
G1 X101.514 Y95.464 E.03813
G1 X101.183 Y94.229 E.04009
G1 X101.001 Y92.473 E.05535
G1 X101.036 Y84.936 E.23632
G1 X101.376 Y83.732 E.03923
G1 X101.55 Y83.433 E.01085
M204 S1000
G1 X101.55 Y83.433 F10800
G1 X101.871 Y83.62
M204 S800
G1 F1200
G1 X102.253 Y82.963 E.02383
G1 X103.131 Y82.076 E.03913
G1 X104.178 Y81.492 E.03759
G1 X105.418 Y81.189 E.04002
G1 X113.154 Y81.226 E.24256
G1 X114.774 Y81.518 E.05161
G1 X115.601 Y81.788 E.02728
G1 X117.195 Y82.573 E.05571
G1 X118.496 Y83.548 E.05098
G1 X121.703 Y86.949 E.14657
G1 X121.714 Y85.129 E.05707
G1 X122.024 Y83.941 E.0385
G1 X122.484 Y83.086 E.03044
G1 X123.349 Y82.16 E.03973
G1 X124.397 Y81.535 E.03826
G1 X125.741 Y81.189 E.04351
G1 X132.703 Y81.189 E.21829
G1 X133.523 Y81.23 E.02574
G1 X135.124 Y81.525 E.05104
G1 X136.73 Y82.137 E.05389
G1 X137.469 Y82.543 E.02644
G1 X138.816 Y83.544 E.05262
G1 X147.681 Y93.069 E.40798
G1 X148.276 Y94.085 E.03692
G1 X148.624 Y95.487 E.04529
G1 X148.624 Y103.922 E.26447
G1 X148.279 Y105.263 E.04342
G1 X147.676 Y106.285 E.03721
G1 X146.965 Y106.992 E.03144
G1 X146.239 Y107.477 E.02738
G1 X144.725 Y107.943 E.04967
G1 X142.17 Y107.952 E.08011
G1 X147.583 Y113.791 E.24964
G1 X148.24 Y114.853 E.03916
G1 X148.611 Y116.232 E.04478
G1 X148.61 Y124.878 E.27109
G1 X148.202 Y126.291 E.04611
G1 X147.607 Y127.218 E.03454
G1 X146.795 Y127.978 E.03487
G1 X145.907 Y128.474 E.03189
G1 X144.644 Y128.804 E.04093
G1 X134.277 Y128.793 E.32505
G1 X132.913 Y128.418 E.04435
G1 X131.745 Y127.654 E.04376
G1 X128.293 Y123.942 E.15894
G1 X128.278 Y124.929 E.03095
G1 X127.96 Y126.098 E.03799
G1 X127.468 Y126.986 E.03183
G1 X126.571 Y127.898 E.04011
G1 X125.664 Y128.441 E.03315
G1 X124.261 Y128.812 E.0455
G1 X113.834 Y128.776 E.32693
G1 X112.516 Y128.385 E.04311
G1 X111.351 Y127.595 E.04413
G1 X103.809 Y119.461 E.3478
G1 X102.786 Y118.116 E.05298
G1 X102.288 Y117.214 E.03231
G1 X101.873 Y116.201 E.03432
G1 X101.582 Y115.153 E.0341
G1 X101.376 Y113.266 E.05952
G1 X101.388 Y105.986 E.22826
G1 X101.698 Y104.793 E.03865
G1 X102.178 Y103.91 E.03151
G1 X102.89 Y103.125 E.03323
G1 X103.831 Y102.491 E.03558
G1 X105.231 Y102.064 E.04589
G1 X106.999 Y102.05 E.05544
G1 X103.319 Y98.03 E.17088
G1 X102.313 Y96.414 E.05968
G1 X101.875 Y95.354 E.03596
G1 X101.554 Y94.164 E.03865
G1 X101.378 Y92.459 E.05374
G1 X101.406 Y85.014 E.23343
G1 X101.733 Y83.858 E.03767
G1 X101.841 Y83.672 E.00674
M204 S1000
G1 X101.841 Y83.672 F10800
G1 X102.162 Y83.858
M204 S800
G1 F1200
G1 X102.539 Y83.21 E.02351
G1 X103.34 Y82.39 E.03594
G1 X104.294 Y81.851 E.03436
G1 X105.442 Y81.566 E.03709
G1 X112.382 Y81.566 E.2176
G1 X113.858 Y81.698 E.04646
M73 P0 R94
G1 X114.666 Y81.879 E.02596
G1 X115.458 Y82.137 E.02612
G1 X117.003 Y82.898 E.054
G1 X117.641 Y83.334 E.02423
G1 X118.78 Y84.351 E.04788
G1 X122.081 Y87.911 E.15222
G1 X122.085 Y85.2 E.085
G1 X122.383 Y84.059 E.03698
G1 X122.803 Y83.287 E.02756
G1 X123.567 Y82.469 E.03509
G1 X124.52 Y81.892 E.03493
G1 X125.765 Y81.566 E.04035
G1 X132.699 Y81.566 E.21741
G1 X134.261 Y81.713 E.04919
G1 X135.768 Y82.131 E.04903
G1 X137.28 Y82.869 E.05275
G1 X138.559 Y83.82 E.04997
G1 X147.367 Y93.279 E.40525
G1 X147.917 Y94.205 E.03377
G1 X148.247 Y95.51 E.04221
G1 X148.247 Y103.897 E.26297
G1 X147.922 Y105.141 E.04031
G1 X147.393 Y106.035 E.03257
G1 X146.712 Y106.711 E.03009
G1 X146.053 Y107.147 E.02478
G1 X144.696 Y107.566 E.04453
G1 X141.309 Y107.578 E.1062
G1 X147.295 Y114.034 E.27605
G1 X147.884 Y114.978 E.03489
G1 X148.24 Y116.306 E.04311
G1 X148.24 Y124.801 E.26635
G1 X147.869 Y126.112 E.04272
G1 X147.33 Y126.961 E.03153
G1 X146.588 Y127.662 E.03201
G1 X145.786 Y128.116 E.0289
G1 X144.619 Y128.427 E.03787
G1 X134.35 Y128.422 E.32198
G1 X133.093 Y128.086 E.0408
G1 X131.971 Y127.351 E.04206
G1 X127.913 Y122.978 E.18705
G1 X127.907 Y124.855 E.05885
G1 X127.603 Y125.976 E.03642
G1 X127.152 Y126.778 E.02885
G1 X126.321 Y127.615 E.03698
G1 X125.54 Y128.084 E.02856
G1 X124.237 Y128.434 E.0423
G1 X113.913 Y128.407 E.3237
G1 X112.701 Y128.056 E.03956
G1 X111.612 Y127.322 E.04118
G1 X103.613 Y118.644 E.37005
G1 X102.623 Y117.042 E.05905
G1 X102.226 Y116.069 E.03295
G1 X101.949 Y115.063 E.03272
G1 X101.793 Y114.04 E.03245
G1 X101.759 Y106.056 E.25033
G1 X102.042 Y104.95 E.0358
G1 X102.474 Y104.145 E.02865
G1 X103.123 Y103.423 E.03044
G1 X103.97 Y102.843 E.03219
G1 X105.314 Y102.433 E.04406
G1 X107.864 Y102.428 E.07995
G1 X103.623 Y97.806 E.19668
G1 X102.647 Y96.24 E.05786
G1 X102.235 Y95.244 E.0338
G1 X101.926 Y94.099 E.03719
G1 X101.755 Y92.445 E.05214
G1 X101.775 Y85.092 E.23055
G1 X102.089 Y83.983 E.03614
G1 X102.132 Y83.91 E.00266
M204 S1000
G1 X102.132 Y83.91 F10800
G1 X102.453 Y84.097
M204 S800
G1 F1200
G1 X102.825 Y83.457 E.02321
G1 X103.591 Y82.673 E.03437
G1 X104.412 Y82.21 E.02955
G1 X105.466 Y81.943 E.03409
G1 X113.087 Y81.977 E.23895
G1 X114.558 Y82.241 E.04686
G1 X115.316 Y82.486 E.02498
G1 X116.798 Y83.215 E.05178
G1 X117.993 Y84.11 E.04681
G1 X122.457 Y88.871 E.20463
G1 X122.462 Y85.225 E.11432
G1 X122.726 Y84.217 E.03267
G1 X123.096 Y83.526 E.02458
G1 X123.825 Y82.745 E.0335
G1 X124.643 Y82.249 E.02999
G1 X125.79 Y81.943 E.03722
G1 X132.694 Y81.943 E.21647
G1 X133.453 Y81.981 E.02383
G1 X134.922 Y82.252 E.04684
G1 X136.413 Y82.822 E.05005
G1 X137.09 Y83.195 E.02424
G1 X138.301 Y84.096 E.04733
G1 X147.055 Y93.49 E.40261
G1 X147.559 Y94.326 E.03061
G1 X147.87 Y95.535 E.03914
G1 X147.87 Y103.872 E.2614
G1 X147.564 Y105.019 E.03722
G1 X147.111 Y105.784 E.02788
G1 X146.459 Y106.431 E.0288
G1 X145.914 Y106.796 E.02057
G1 X144.665 Y107.189 E.04105
G1 X140.448 Y107.204 E.13222
G1 X147.006 Y114.278 E.30245
G1 X147.527 Y115.104 E.03062
G1 X147.87 Y116.38 E.04143
G1 X147.87 Y124.725 E.26165
G1 X147.535 Y125.934 E.03934
G1 X147.025 Y126.738 E.02985
G1 X146.348 Y127.371 E.02906
G1 X145.663 Y127.759 E.02468
G1 X144.593 Y128.05 E.03477
G1 X134.42 Y128.051 E.31897
G1 X133.274 Y127.753 E.03713
G1 X132.197 Y127.048 E.04036
G1 X127.539 Y122.018 E.21495
G1 X127.53 Y124.829 E.08814
G1 X127.262 Y125.814 E.03201
G1 X126.866 Y126.532 E.02571
G1 X126.069 Y127.333 E.03543
G1 X125.415 Y127.728 E.02396
G1 X124.211 Y128.057 E.03913
G1 X113.99 Y128.037 E.32047
G1 X112.885 Y127.725 E.036
G1 X111.874 Y127.049 E.03813
G1 X104.368 Y118.955 E.34611
G1 X103.437 Y117.734 E.04814
G1 X102.959 Y116.869 E.03099
G1 X102.58 Y115.938 E.03152
G1 X102.315 Y114.974 E.03135
G1 X102.167 Y113.994 E.03108
G1 X102.13 Y106.127 E.24667
G1 X102.401 Y105.067 E.0343
G1 X102.794 Y104.346 E.02575
G1 X103.386 Y103.694 E.02761
G1 X104.157 Y103.172 E.02919
G1 X105.342 Y102.81 E.03885
G1 X108.726 Y102.804 E.1061
G1 X103.916 Y97.569 E.22291
G1 X102.982 Y96.065 E.05551
G1 X102.589 Y95.111 E.03235
G1 X102.297 Y94.033 E.03502
G1 X102.132 Y92.432 E.05046
G1 X102.145 Y85.169 E.22773
G1 X102.433 Y84.153 E.03311
M204 S1000
G1 X102.796 Y84.256 F10800
M204 S800
G1 F1200
G1 X102.802 Y84.236 E.00065
G1 X103.137 Y83.67 E.02062
G1 X103.84 Y82.957 E.03139
G1 X104.53 Y82.569 E.02482
G1 X105.49 Y82.32 E.0311
G1 X112.373 Y82.32 E.21581
G1 X113.743 Y82.444 E.04313
G1 X114.451 Y82.602 E.02274
G1 X115.982 Y83.189 E.05141
G1 X117.176 Y83.928 E.04403
G1 X117.748 Y84.396 E.02317
G1 X122.833 Y89.831 E.23337
G1 X122.839 Y85.251 E.1436
M73 P1 R94
M73 Q1 S95
G1 X123.084 Y84.336 E.0297
G1 X123.389 Y83.765 E.0203
G1 X124.082 Y83.022 E.03186
G1 X124.813 Y82.587 E.02667
G1 X125.815 Y82.32 E.03251
G1 X132.689 Y82.32 E.21553
G1 X134.139 Y82.457 E.04567
G1 X135.516 Y82.842 E.04483
G1 X136.9 Y83.521 E.04834
G1 X138.044 Y84.371 E.04469
G1 X146.744 Y93.704 E.40005
G1 X147.202 Y94.45 E.02745
G1 X147.493 Y95.559 E.03595
G1 X147.493 Y103.848 E.2599
G1 X147.225 Y104.851 E.03255
G1 X146.827 Y105.534 E.02479
G1 X146.206 Y106.152 E.02747
G1 X145.771 Y106.446 E.01646
G1 X144.634 Y106.812 E.03745
G1 X139.587 Y106.83 E.15825
G1 X146.719 Y114.522 E.32889
G1 X147.171 Y115.232 E.02639
G1 X147.493 Y116.406 E.03817
G1 X147.493 Y124.7 E.26005
G1 X147.201 Y125.758 E.03441
G1 X146.749 Y126.48 E.02671
G1 X146.106 Y127.08 E.02757
G1 X145.539 Y127.402 E.02044
G1 X144.567 Y127.673 E.03164
G1 X134.445 Y127.674 E.31737
G1 X133.401 Y127.397 E.03387
G1 X132.459 Y126.776 E.03538
G1 X127.165 Y121.059 E.2443
G1 X127.153 Y124.803 E.11739
G1 X126.919 Y125.654 E.02767
G1 X126.578 Y126.286 E.02252
G1 X125.818 Y127.051 E.03381
G1 X125.288 Y127.372 E.01943
G1 X124.185 Y127.68 E.03591
G1 X114.064 Y127.667 E.31734
G1 X113.067 Y127.394 E.03241
G1 X112.135 Y126.776 E.03506
G1 X104.22 Y118.197 E.36598
G1 X103.294 Y116.697 E.05527
G1 X102.934 Y115.807 E.0301
G1 X102.682 Y114.886 E.02994
G1 X102.508 Y113.252 E.05152
G1 X102.507 Y106.151 E.22265
G1 X102.76 Y105.185 E.03131
G1 X103.088 Y104.583 E.0215
G1 X103.65 Y103.964 E.02621
G1 X104.297 Y103.523 E.02455
G1 X105.372 Y103.187 E.03531
G1 X109.589 Y103.179 E.13222
G1 X104.21 Y97.332 E.24911
G1 X103.316 Y95.891 E.05317
G1 X102.942 Y94.979 E.03091
G1 X102.669 Y93.968 E.03283
G1 X102.509 Y92.418 E.04886
G1 X102.515 Y85.247 E.22484
G1 X102.78 Y84.313 E.03044
M204 S1000
G1 X102.78 Y84.313 F10800
G1 X103.142 Y84.416
M204 S800
G1 F1200
G1 X103.157 Y84.363 E.00173
G1 X103.446 Y83.886 E.01749
G1 X104.088 Y83.242 E.02851
G1 X104.651 Y82.927 E.02023
G1 X105.515 Y82.697 E.02803
G1 X113.004 Y82.726 E.23481
G1 X114.343 Y82.964 E.04264
G1 X115.049 Y83.191 E.02325
G1 X116.401 Y83.856 E.04724
G1 X117.502 Y84.682 E.04316
G1 X123.209 Y90.791 E.26212
G1 X123.216 Y85.277 E.17289
G1 X123.442 Y84.456 E.0267
G1 X123.682 Y84.004 E.01605
G1 X124.338 Y83.3 E.03017
G1 X124.981 Y82.925 E.02334
G1 X125.839 Y82.697 E.02784
G1 X133.382 Y82.731 E.23651
G1 X134.719 Y82.978 E.04263
G1 X135.39 Y83.198 E.02214
G1 X136.71 Y83.846 E.04611
G1 X137.787 Y84.647 E.04208
G1 X138.302 Y85.149 E.02255
G1 X146.434 Y93.92 E.37502
G1 X146.845 Y94.576 E.02427
G1 X147.115 Y95.584 E.03272
G1 X147.115 Y103.823 E.25833
G1 X146.886 Y104.686 E.028
G1 X146.542 Y105.286 E.02169
G1 X145.627 Y106.096 E.03832
G1 X144.547 Y106.444 E.03558
G1 X138.723 Y106.454 E.18261
G1 X146.432 Y114.767 E.35547
G1 X146.816 Y115.362 E.0222
G1 X147.115 Y116.432 E.03483
G1 X147.115 Y124.675 E.25845
G1 X146.865 Y125.584 E.02956
G1 X146.473 Y126.222 E.02348
G1 X145.865 Y126.79 E.02609
G1 X145.414 Y127.046 E.01626
G1 X144.54 Y127.296 E.0285
G1 X134.471 Y127.297 E.31571
