; HEADER_BLOCK_START
; generated by OrcaSlicer 2.1.1 on 2024-06-29 at 21:04:49
; total layer number: 4
; filament_density: 1.24
; filament_diameter: 1.75
; max_z_height: 0.80
; HEADER_BLOCK_END

; THUMBNAIL_BLOCK_START

;
; THUMBNAIL_BLOCK_END

; external perimeters extrusion width = 0.45mm
; perimeters extrusion width = 0.45mm
; infill extrusion width = 0.45mm
; solid infill extrusion width = 0.45mm
; top infill extrusion width = 0.40mm
; first layer extrusion width = 0.42mm

; external perimeters extrusion width = 0.45mm
; perimeters extrusion width = 0.45mm
; infill extrusion width = 0.45mm
; solid infill extrusion width = 0.45mm
; top infill extrusion width = 0.40mm
; first layer extrusion width = 0.42mm

; external perimeters extrusion width = 0.45mm
; perimeters extrusion width = 0.45mm
; infill extrusion width = 0.45mm
; solid infill extrusion width = 0.45mm
; top infill extrusion width = 0.40mm
; first layer extrusion width = 0.42mm

; EXECUTABLE_BLOCK_START
M73 P0 R45
M201 X2000 Y2000 Z300 E5000
M203 X200 Y200 Z12 E120
M204 P2000 R2500 T2000
M205 X9.00 Y9.00 Z0.20 E2.50 ; sets the jerk limits, mm/sec
;TYPE:Custom
M862.3 P "MK3S" ; printer model check
M862.1 P0.4 ; nozzle diameter check
M115 U3.13.0 ; tell printer latest fw version
G90 ; use absolute coordinates
M83 ; extruder relative mode
M104 S210 ; set extruder temp
M140 S60 ; set bed temp
M190 S60 ; wait for bed temp
M109 S210 ; wait for extruder temp
G28 W ; home all without mesh bed level
G80 ; mesh bed leveling

G1 Z0.2 F720
G1 Y-3 F1000 ; go outside print area
G92 E0
G1 X60 E9 F1000 ; intro line
G1 X100 E12.5 F1000 ; intro line

G92 E0
M221 S95
G90
G21
M83 ; use relative distances for extrusion
; filament start gcode
M900 K0.05 ; Filament gcode LA 1.5
M900 K30 ; Filament gcode LA 1.0
M106 S0
;LAYER_CHANGE
;Z:0.2
;HEIGHT:0.2
;BEFORE_LAYER_CHANGE
;0.2
G92 E0

G1 E-.8 F1800
;AFTER_LAYER_CHANGE
;0.2
;_SET_FAN_SPEED_CHANGING_LAYER
M204 S800
G1 X55.997 Y32.292 F10800
G1 Z.4 F720
G1 Z.2
G1 E.8 F1800
;TYPE:Skirt
;WIDTH:0.42
G1 F3000
G1 X56.187 Y31.962 E.01169
G1 X59.135 Y28.116 E.14891
G1 X59.574 Y27.677 E.01907
G1 X61.506 Y26.195 E.07482
G1 X62.043 Y25.884 E.01907
G1 X64.293 Y24.953 E.07482
G1 X64.892 Y24.792 E.01907
G1 X67.614 Y24.454 E.08429
G1 X182.062 Y24.376 E3.51667
G1 X184.476 Y24.694 E.07482
G1 X185.076 Y24.855 E.01907
G1 X187.325 Y25.786 E.07482
G1 X187.863 Y26.097 E.01907
G1 X189.794 Y27.579 E.07482
G1 X192.126 Y29.882 E.10069
G1 X193.813 Y32.047 E.08435
G1 X194.124 Y32.585 E.01907
G1 X195.055 Y34.834 E.07482
G1 X195.216 Y35.434 E.01907
G1 X195.554 Y38.158 E.08435
G1 X195.552 Y171.93 E4.11043
G1 X195.214 Y174.654 E.08435
G1 X195.053 Y175.253 E.01907
G1 X194.122 Y177.503 E.07482
G1 X193.813 Y178.038 E.01899
G1 X190.865 Y181.884 E.14891
G1 X190.426 Y182.323 E.01907
G1 X188.494 Y183.805 E.07482
G1 X187.957 Y184.116 E.01907
G1 X185.707 Y185.047 E.07482
G1 X185.108 Y185.208 E.01907
G1 X182.386 Y185.546 E.08429
G1 X68.25 Y185.644 E3.50707
G1 X65.524 Y185.306 E.08441
G1 X64.924 Y185.145 E.01907
G1 X62.675 Y184.214 E.07482
G1 X62.179 Y183.934 E.01749
G1 X58.206 Y180.955 E.1526
G1 X57.767 Y180.516 E.01907
G1 X56.285 Y178.584 E.07482
G1 X55.974 Y178.047 E.01907
G1 X55.043 Y175.797 E.07482
G1 X54.882 Y175.198 E.01907
G1 X54.544 Y172.48 E.08416
G1 X54.448 Y136.751 E1.09787
G1 X54.448 Y38.071 E3.03216
G1 X54.786 Y35.346 E.08435
G1 X54.947 Y34.747 E.01907
G1 X55.878 Y32.497 E.07482
G1 X55.977 Y32.326 E.00607
; printing object battery_cage2 - Cover.stl id:22 copy 0
G1 E-.56 F1800
;WIPE_START
G1 F3000
G1 X56.187 Y31.962 E-.1009
G1 X56.54 Y31.502 E-.1391
;WIPE_END
G1 X57.084 Y39.115 Z.6 F10800
G1 X65.961 Y163.374 Z.6
G1 Z.2 F720
G1 E.8 F1800
;TYPE:Brim
G1 F1200
G1 X65.961 Y171.84 E.26012
G1 X65.994 Y172.219 E.01168
G1 X66.094 Y172.605 E.01225
G1 X66.259 Y172.968 E.01225
G1 X66.485 Y173.296 E.01225
G1 X66.765 Y173.58 E.01225
G1 X67.09 Y173.812 E.01225
G1 X67.45 Y173.983 E.01225
G1 X67.834 Y174.09 E.01225
G1 X68.25 Y174.129 E.01283
G1 X77.36 Y174.129 E.27992
G1 X77.073 Y176.305 E.06745
G1 X76.161 Y178.508 E.07329
G1 X74.709 Y180.401 E.07329
G1 X72.816 Y181.853 E.07329
G1 X70.613 Y182.765 E.07329
G1 X68.248 Y183.077 E.07329
G1 X65.883 Y182.765 E.07329
G1 X63.679 Y181.853 E.07329
G1 X61.892 Y180.481 E.06922
G1 X61.679 Y180.386 E.00716
G1 X59.787 Y178.934 E.07329
G1 X58.335 Y177.042 E.07329
G1 X57.422 Y174.838 E.07329
G1 X57.111 Y172.474 E.07329
G1 X57.422 Y170.109 E.07329
G1 X58.335 Y167.905 E.07329
G1 X59.787 Y166.013 E.07329
G1 X61.679 Y164.561 E.07329
G1 X63.883 Y163.648 E.07329
G1 X65.922 Y163.38 E.06318
G1 X65.554 Y163.856 F10800
G1 F1200
G1 X65.584 Y163.933 E.00255
G1 X65.584 Y171.835 E.24281
G1 X65.617 Y172.242 E.01254
G1 X65.727 Y172.691 E.0142
G1 X65.913 Y173.117 E.01426
G1 X66.17 Y173.503 E.01426
G1 X66.491 Y173.839 E.01426
G1 X66.864 Y174.114 E.01426
G1 X67.28 Y174.32 E.01426
G1 X67.725 Y174.451 E.01425
G1 X68.256 Y174.506 E.01639
G1 X76.801 Y174.506 E.26256
G1 X76.893 Y174.553 E.00318
G1 X76.913 Y174.634 E.00255
G1 X76.7 Y176.22 E.04919
G1 X75.837 Y178.304 E.06932
G1 X74.449 Y180.12 E.07022
G1 X72.612 Y181.529 E.07112
G1 X70.499 Y182.4 E.07022
G1 X68.263 Y182.695 E.06932
G1 X65.996 Y182.4 E.07022
G1 X63.858 Y181.514 E.07112
G1 X62.13 Y180.189 E.06691
G1 X61.863 Y180.052 E.00922
G1 X60.047 Y178.653 E.07043
G1 X58.659 Y176.838 E.07022
G1 X57.788 Y174.725 E.07022
G1 X57.493 Y172.488 E.06932
G1 X57.788 Y170.222 E.07022
G1 X58.674 Y168.083 E.07112
G1 X60.068 Y166.273 E.07022
G1 X61.858 Y164.899 E.06932
G1 X63.968 Y164.021 E.07022
G1 X65.456 Y163.821 E.04615
G1 X65.516 Y163.843 E.00195
G1 X65.177 Y164.287 F10800
G1 F1200
G1 X65.207 Y164.365 E.00256
G1 X65.207 Y171.83 E.22941
G1 X65.253 Y172.339 E.0157
G1 X65.385 Y172.85 E.01622
G1 X65.604 Y173.332 E.01627
G1 X65.904 Y173.77 E.01629
G1 X66.211 Y174.093 E.0137
G1 X66.634 Y174.413 E.0163
G1 X67.106 Y174.654 E.01627
G1 X67.61 Y174.81 E.01623
G1 X68.262 Y174.883 E.02015
G1 X76.37 Y174.883 E.24913
G1 X76.462 Y174.93 E.00318
M73 P1 R45
G1 X76.482 Y175.011 E.00256
G1 X76.327 Y176.135 E.03486
G1 X75.513 Y178.101 E.06539
G1 X74.189 Y179.839 E.06715
G1 X72.434 Y181.19 E.06804
G1 X70.415 Y182.027 E.06716
G1 X68.277 Y182.312 E.06628
G1 X66.109 Y182.034 E.06715
G1 X64.036 Y181.176 E.06895
G1 X62.367 Y179.895 E.06465
G1 X62.058 Y179.726 E.01083
G1 X60.307 Y178.373 E.06797
G1 X58.983 Y176.635 E.06716
G1 X58.161 Y174.641 E.06627
G1 X57.876 Y172.503 E.06628
G1 X58.153 Y170.335 E.06715
G1 X59.012 Y168.262 E.06894
G1 X60.328 Y166.554 E.06626
G1 X62.037 Y165.237 E.06628
G1 X64.053 Y164.394 E.06717
G1 X65.079 Y164.252 E.03182
G1 X65.139 Y164.274 E.00195
G1 X64.799 Y164.719 F10800
G1 F1200
G1 X64.83 Y164.797 E.00257
G1 X64.83 Y171.826 E.21596
G1 X64.877 Y172.364 E.01662
G1 X65.018 Y172.936 E.01807
G1 X65.298 Y173.553 E.02085
G1 X65.636 Y174.036 E.0181
G1 X65.99 Y174.398 E.01555
G1 X66.47 Y174.752 E.01833
G1 X67.003 Y175.017 E.01828
G1 X67.578 Y175.186 E.01843
G1 X68.268 Y175.26 E.02132
G1 X75.937 Y175.26 E.23565
G1 X76.029 Y175.307 E.00318
M73 P1 R44
G1 X76.049 Y175.388 E.00257
G1 X75.955 Y176.049 E.0205
G1 X75.189 Y177.898 E.06149
G1 X73.928 Y179.559 E.06409
G1 X72.256 Y180.852 E.06495
G1 X70.33 Y181.654 E.0641
G1 X68.291 Y181.93 E.06323
G1 X66.222 Y181.669 E.06407
G1 X64.214 Y180.837 E.06677
G1 X62.603 Y179.601 E.06242
G1 X62.258 Y179.404 E.01221
G1 X60.568 Y178.093 E.0657
G1 X59.322 Y176.457 E.0632
G1 X58.534 Y174.556 E.06324
G1 X58.258 Y172.516 E.06324
G1 X58.519 Y170.448 E.06407
G1 X59.35 Y168.441 E.06675
G1 X60.608 Y166.813 E.06319
G1 X62.216 Y165.575 E.06235
G1 X64.14 Y164.766 E.06413
G1 X64.702 Y164.685 E.01744
G1 X64.761 Y164.706 E.00195
G1 X64.422 Y165.154 F10800
G1 F1200
G1 X64.453 Y165.233 E.0026
G1 X64.453 Y171.821 E.20243
G1 X64.5 Y172.389 E.01751
G1 X64.649 Y173.016 E.01982
G1 X64.995 Y173.778 E.0257
G1 X65.372 Y174.305 E.01992
G1 X65.773 Y174.706 E.0174
G1 X66.31 Y175.094 E.02036
G1 X66.905 Y175.381 E.02031
G1 X67.547 Y175.562 E.02049
G1 X68.274 Y175.637 E.02246
G1 X75.502 Y175.637 E.22211
G1 X75.594 Y175.684 E.00318
G1 X75.614 Y175.766 E.00259
G1 X75.583 Y175.962 E.00609
G1 X74.85 Y177.72 E.05854
G1 X73.646 Y179.3 E.06105
G1 X72.051 Y180.529 E.06186
G1 X70.244 Y181.281 E.06014
G1 X68.304 Y181.548 E.06019
G1 X66.305 Y181.295 E.06188
G1 X64.418 Y180.514 E.06276
G1 X62.838 Y179.306 E.06112
G1 X62.461 Y179.085 E.01342
G1 X60.85 Y177.835 E.06266
G1 X59.646 Y176.254 E.06106
G1 X58.899 Y174.442 E.06021
G1 X58.64 Y172.5 E.06021
G1 X58.893 Y170.531 E.06099
G1 X59.674 Y168.645 E.06272
G1 X60.868 Y167.094 E.06015
G1 X62.395 Y165.913 E.05933
G1 X64.228 Y165.138 E.06114
G1 X64.324 Y165.121 E.00298
G1 X64.384 Y165.141 E.00195
G1 X64.022 Y165.686 F10800
G1 F1200
G1 X64.076 Y165.783 E.0034
G1 X64.076 Y171.816 E.18538
G1 X64.135 Y172.484 E.0206
G1 X64.28 Y173.093 E.01925
G1 X64.648 Y173.924 E.02793
G1 X65.112 Y174.578 E.02463
G1 X65.558 Y175.016 E.01923
G1 X66.154 Y175.437 E.0224
G1 X66.812 Y175.747 E.02236
G1 X67.436 Y175.922 E.01992
G1 X68.23 Y176.011 E.02454
G1 X74.983 Y176.014 E.2075
G1 X75.075 Y176.061 E.00318
G1 X75.087 Y176.171 E.00338
G1 X74.527 Y177.517 E.04481
G1 X73.385 Y179.02 E.058
G1 X71.846 Y180.205 E.05969
G1 X70.13 Y180.916 E.05709
G1 X68.316 Y181.165 E.05624
G1 X66.389 Y180.922 E.05969
G1 X64.596 Y180.175 E.05966
G1 X63.072 Y179.01 E.05896
G1 X62.668 Y178.767 E.01449
G1 X61.132 Y177.576 E.05973
G1 X59.97 Y176.051 E.05891
G1 X59.272 Y174.357 E.05629
G1 X59.022 Y172.514 E.05717
G1 X59.266 Y170.615 E.05882
G1 X59.997 Y168.85 E.05872
G1 X61.128 Y167.374 E.05712
G1 X62.601 Y166.236 E.0572
G1 X63.919 Y165.678 E.04397
G1 X63.982 Y165.683 E.00195
G1 X63.645 Y166.255 F10800
G1 F1200
G1 X63.699 Y166.351 E.0034
G1 X63.699 Y171.811 E.16776
G1 X63.759 Y172.509 E.02154
G1 X63.911 Y173.17 E.02084
G1 X64.347 Y174.151 E.03299
G1 X64.854 Y174.853 E.02661
G1 X65.348 Y175.329 E.02106
G1 X66.002 Y175.782 E.02445
G1 X66.643 Y176.084 E.0218
G1 X67.326 Y176.283 E.02186
G1 X68.182 Y176.385 E.02647
G1 X74.418 Y176.391 E.19161
G1 X74.509 Y176.438 E.00318
G1 X74.522 Y176.547 E.00338
G1 X74.188 Y177.339 E.02639
G1 X73.125 Y178.74 E.05406
G1 X71.668 Y179.867 E.0566
G1 X70.044 Y180.544 E.05406
G1 X68.329 Y180.783 E.0532
G1 X66.473 Y180.548 E.05749
G1 X64.775 Y179.837 E.05656
G1 X63.306 Y178.714 E.05682
G1 X62.876 Y178.451 E.01549
G1 X61.413 Y177.317 E.05686
G1 X60.309 Y175.873 E.05586
G1 X59.645 Y174.272 E.05327
G1 X59.405 Y172.527 E.05412
G1 X59.639 Y170.699 E.05663
G1 X60.321 Y169.053 E.05473
G1 X61.389 Y167.654 E.05408
G1 X62.781 Y166.573 E.05418
G1 X63.542 Y166.247 E.02542
G1 X63.605 Y166.252 E.00195
G1 X63.267 Y166.826 F10800
G1 F1200
G1 X63.322 Y166.923 E.00341
G1 X63.322 Y171.806 E.15005
G1 X63.383 Y172.534 E.02245
G1 X63.541 Y173.244 E.02235
G1 X64.048 Y174.382 E.03826
G1 X64.599 Y175.131 E.02858
G1 X65.14 Y175.643 E.02289
G1 X65.849 Y176.127 E.02637
G1 X66.546 Y176.449 E.0236
G1 X67.213 Y176.642 E.02132
G1 X68.131 Y176.759 E.02844
G1 X73.85 Y176.767 E.17573
G1 X73.942 Y176.815 E.00318
G1 X73.954 Y176.924 E.00339
G1 X73.851 Y177.16 E.0079
G1 X72.863 Y178.461 E.05017
G1 X71.488 Y179.529 E.05351
G1 X69.957 Y180.172 E.05103
G1 X68.342 Y180.401 E.05013
G1 X66.557 Y180.174 E.05528
G1 X64.954 Y179.499 E.05345
G1 X63.539 Y178.418 E.05471
G1 X63.085 Y178.137 E.01641
G1 X61.695 Y177.058 E.05407
G1 X60.647 Y175.695 E.05283
G1 X60.017 Y174.186 E.05025
G1 X59.787 Y172.54 E.05106
G1 X60.013 Y170.783 E.05444
G1 X60.645 Y169.257 E.05076
G1 X61.65 Y167.934 E.05105
G1 X62.963 Y166.909 E.05117
G1 X63.164 Y166.819 E.00679
G1 X63.227 Y166.823 E.00195
G1 X62.864 Y167.525 F10800
G1 F1200
G1 X62.945 Y167.633 E.00416
G1 X62.945 Y171.802 E.12809
G1 X63.006 Y172.558 E.02333
G1 X63.17 Y173.315 E.0238
G1 X63.751 Y174.614 E.04372
G1 X64.346 Y175.411 E.03055
G1 X64.934 Y175.96 E.02471
G1 X65.699 Y176.473 E.0283
G1 X66.381 Y176.788 E.02308
G1 X67.099 Y177.002 E.02304
G1 X68.077 Y177.132 E.03029
G1 X73.162 Y177.143 E.15626
G1 X73.254 Y177.191 E.00318
G1 X73.252 Y177.325 E.00412
G1 X72.581 Y178.202 E.03393
G1 X71.308 Y179.191 E.04954
G1 X69.842 Y179.807 E.04888
G1 X68.324 Y180.018 E.04709
G1 X66.671 Y179.809 E.05119
G1 X65.133 Y179.161 E.05127
G1 X63.772 Y178.122 E.05262
G1 X63.296 Y177.823 E.01728
G1 X61.955 Y176.779 E.05222
G1 X60.97 Y175.491 E.04982
G1 X60.382 Y174.071 E.04722
G1 X60.169 Y172.523 E.04801
G1 X60.378 Y170.896 E.05042
G1 X60.969 Y169.459 E.04772
G1 X61.932 Y168.192 E.04891
G1 X62.762 Y167.544 E.03236
G1 X62.824 Y167.532 E.00195
G1 X62.487 Y168.297 F10800
G1 F1200
G1 X62.568 Y168.406 E.00416
G1 X62.568 Y171.797 E.10422
G1 X62.63 Y172.582 E.02418
G1 X62.8 Y173.384 E.02521
G1 X63.402 Y174.757 E.04607
G1 X64.096 Y175.693 E.0358
G1 X64.731 Y176.278 E.02652
G1 X65.482 Y176.781 E.02777
G1 X66.216 Y177.127 E.02495
G1 X66.984 Y177.361 E.02465
G1 X68.02 Y177.505 E.03215
G1 X72.401 Y177.519 E.13461
G1 X72.492 Y177.566 E.00318
G1 X72.49 Y177.701 E.00413
G1 X72.32 Y177.923 E.00859
G1 X71.128 Y178.854 E.04648
G1 X69.754 Y179.435 E.04582
G1 X68.306 Y179.636 E.04492
G1 X66.785 Y179.443 E.04712
G1 X65.312 Y178.824 E.04909
G1 X64.005 Y177.825 E.05054
G1 X63.508 Y177.51 E.01809
G1 X62.237 Y176.52 E.04951
G1 X61.294 Y175.287 E.04768
G1 X60.747 Y173.957 E.04419
G1 X60.552 Y172.507 E.04497
G1 X60.744 Y171.008 E.04643
G1 X61.294 Y169.662 E.04467
G1 X62.214 Y168.45 E.04677
G1 X62.385 Y168.316 E.00666
G1 X62.447 Y168.305 E.00195
G1 E-.56 F1800
;WIPE_START
G1 F1200
G1 X62.568 Y168.406 E-.03773
G1 X62.568 Y169.248 E-.20227
;WIPE_END
G1 X62.081 Y169.327 Z.6 F10800
G1 Z.2 F720
G1 E.8 F1800
G1 F1200
G1 X62.171 Y169.377 E.00318
G1 X62.191 Y169.44 E.00203
G1 X62.191 Y171.793 E.07229
G1 X62.253 Y172.605 E.02502
G1 X62.428 Y173.451 E.02656
G1 X63.107 Y174.992 E.05172
G1 X63.848 Y175.977 E.03789
G1 X64.528 Y176.595 E.02824
G1 X65.265 Y177.09 E.02726
G1 X66.049 Y177.465 E.02671
G1 X66.866 Y177.719 E.02628
G1 X67.961 Y177.877 E.03401
G1 X71.418 Y177.893 E.10623
G1 X71.51 Y177.94 E.00318
G1 X71.524 Y178.043 E.00318
G1 X71.487 Y178.095 E.00197
G1 X70.922 Y178.532 E.02196
G1 X69.639 Y179.07 E.04275
G1 X68.289 Y179.254 E.04185
G1 X66.899 Y179.078 E.04306
G1 X65.491 Y178.486 E.04691
G1 X64.238 Y177.528 E.04847
G1 X63.721 Y177.198 E.01886
G1 X62.518 Y176.261 E.04683
G1 X61.618 Y175.084 E.04554
G1 X61.112 Y173.844 E.04114
G1 X60.934 Y172.52 E.04105
G1 X61.118 Y171.091 E.04427
G1 X61.633 Y169.839 E.04162
G1 X61.987 Y169.372 E.01801
G1 X62.045 Y169.344 E.00195
G1 E-.56 F1800
;WIPE_START
G1 F1200
G1 X62.171 Y169.377 E-.03139
G1 X62.191 Y169.44 E-.01589
G1 X62.191 Y170.243 E-.19272
;WIPE_END
G1 X64.95 Y177.359 Z.6 F10800
G1 X64.978 Y177.431 Z.6
G1 Z.2 F720
G1 E.8 F1800
G1 F1200
G1 X65.105 Y177.431 E.00392
G1 X65.944 Y177.827 E.02849
G1 X66.82 Y178.094 E.02814
G1 X67.967 Y178.255 E.03559
G1 X70.024 Y178.264 E.06322
G1 X70.116 Y178.311 E.00318
G1 X70.131 Y178.414 E.00318
G1 X70.068 Y178.481 E.00284
G1 X69.524 Y178.705 E.01807
G1 X68.302 Y178.871 E.03788
G1 X67.013 Y178.712 E.03992
G1 X65.67 Y178.148 E.04473
G1 X64.972 Y177.615 E.027
G1 X64.928 Y177.521 E.00318
G1 X64.959 Y177.466 E.00195
G1 X64.138 Y176.903 F10800
G1 F1200
G1 X64.116 Y176.934 E.00116
G1 X63.993 Y176.924 E.00379
G1 X62.78 Y175.982 E.04721
G1 X61.957 Y174.907 E.04159
G1 X61.485 Y173.76 E.03812
G1 X61.316 Y172.504 E.03891
G1 X61.491 Y171.175 E.0412
G1 X61.596 Y170.92 E.00848
G1 X61.675 Y170.853 E.00318
G1 X61.775 Y170.878 E.00318
G1 X61.814 Y170.963 E.00288
G1 X61.814 Y171.789 E.02537
G1 X61.877 Y172.627 E.02583
G1 X62.057 Y173.516 E.02788
G1 X62.757 Y175.133 E.05411
G1 X63.541 Y176.196 E.04061
G1 X64.139 Y176.752 E.02508
G1 X64.175 Y176.849 E.00318
G1 X64.16 Y176.87 E.00078
G1 E-.56 F1800
;WIPE_START
G1 F1200
G1 X64.116 Y176.934 E-.01869
G1 X63.993 Y176.924 E-.02959
G1 X63.362 Y176.434 E-.19172
;WIPE_END
G1 X64.009 Y168.829 Z.6 F10800
G1 X65.962 Y145.862 Z.6
G1 Z.2 F720
G1 E.8 F1800
G1 F1200
G1 X63.787 Y145.576 E.06739
G1 X61.584 Y144.663 E.07329
G1 X59.691 Y143.211 E.07329
G1 X58.239 Y141.319 E.07329
G1 X57.326 Y139.115 E.07329
G1 X57.015 Y136.751 E.07329
G1 X57.326 Y134.386 E.07329
G1 X58.239 Y132.182 E.07329
G1 X59.689 Y130.289 E.07326
G1 X61.156 Y128.377 E.07405
G1 X63.048 Y126.925 E.07329
