; HEADER_BLOCK_START
; generated by OrcaSlicer 2.1.1 on 2024-10-18 at 18:47:10
; total layer number: 20
; filament_density: 1.24
; filament_diameter: 1.75
; max_z_height: 6.00
; HEADER_BLOCK_END

; THUMBNAIL_BLOCK_START

;
; THUMBNAIL_BLOCK_END

; external perimeters extrusion width = 0.40mm
; perimeters extrusion width = 0.44mm
; infill extrusion width = 0.44mm
; solid infill extrusion width = 0.48mm
; top infill extrusion width = 0.38mm
; first layer extrusion width = 0.48mm

; EXECUTABLE_BLOCK_START
M73 P0 R136
M201 X2000 Y2000 Z300 E5000
M203 X200 Y200 Z12 E120
M204 P2000 R2500 T2000
M205 X9.00 Y9.00 Z0.20 E2.50 ; sets the jerk limits, mm/sec
;TYPE:Custom
M862.3 P "MK3S" ; printer model check
M862.1 P0.4 ; nozzle diameter check
M115 U3.13.0 ; tell printer latest fw version
G90 ; use absolute coordinates
M83 ; extruder relative mode
M104 S220 ; set extruder temp
M140 S60 ; set bed temp
M190 S60 ; wait for bed temp
M109 S220 ; wait for extruder temp
G28 W ; home all without mesh bed level
G80 ; mesh bed leveling

G1 Z0.2 F720
G1 Y-3 F1000 ; go outside print area
G92 E0
G1 X60 E9 F1000 ; intro line
G1 X100 E12.5 F1000 ; intro line

G92 E0
M221 S95
G90
G21
M83 ; use relative distances for extrusion
; filament start gcode
M900 K0.05 ; Filament gcode LA 1.5
M900 K30 ; Filament gcode LA 1.0
M106 S0
;LAYER_CHANGE
;Z:0.3
;HEIGHT:0.3
;BEFORE_LAYER_CHANGE
;0.3
G92 E0

G1 E-.8 F1800
;AFTER_LAYER_CHANGE
;0.3
;_SET_FAN_SPEED_CHANGING_LAYER
M204 S500
; printing object robot - X_plate_23_front (1).step id:0 copy 0
G1 X49.332 Y169.237 F10800
G1 Z.4
G1 Z.3
G1 E.8 F1800
;TYPE:Brim
;WIDTH:0.48
G1 F1200
G1 X51.595 Y166.289 E.18881
G1 X54.543 Y164.026 E.18881
G1 X57.977 Y162.604 E.18881
G1 X59.692 Y162.378 E.08788
G1 X59.692 Y172.5 E.51421
G1 X59.748 Y173.268 E.0391
G1 X59.84 Y173.744 E.02466
G1 X59.98 Y174.224 E.02541
G1 X60.291 Y174.947 E.03997
G1 X60.687 Y175.593 E.03847
G1 X61.167 Y176.172 E.03822
G1 X61.519 Y176.506 E.02466
G1 X61.911 Y176.816 E.02541
G1 X62.579 Y177.223 E.03971
G1 X63.034 Y177.43 E.02541
G1 X63.493 Y177.589 E.02465
G1 X64.228 Y177.751 E.03822
G1 X64.998 Y177.808 E.03923
G1 X75.708 Y177.808 E.5441
G1 X75.414 Y180.041 E.11441
G1 X73.992 Y183.474 E.18881
G1 X71.729 Y186.423 E.18881
G1 X68.781 Y188.686 E.18881
G1 X65.347 Y190.108 E.18881
G1 X61.662 Y190.593 E.18881
G1 X57.977 Y190.108 E.18881
G1 X54.543 Y188.686 E.18881
G1 X51.595 Y186.423 E.18881
G1 X49.332 Y183.474 E.18881
G1 X47.91 Y180.041 E.18881
G1 X47.425 Y176.356 E.18881
G1 X47.91 Y172.671 E.18881
G1 X49.317 Y169.274 E.18678
G1 X49.705 Y169.435 F10800
G1 F1200
G1 X49.705 Y169.434 E.00006
G1 X51.881 Y166.598 E.18158
G1 X54.74 Y164.399 E.18322
G1 X58.071 Y163.015 E.18322
G1 X59.136 Y162.871 E.0546
G1 X59.239 Y162.905 E.00553
G1 X59.277 Y162.994 E.00492
G1 X59.277 Y172.495 E.48267
G1 X59.342 Y173.353 E.04371
M73 P0 R135
G1 X59.443 Y173.866 E.02654
G1 X59.579 Y174.334 E.02476
G1 X59.905 Y175.104 E.04247
G1 X60.328 Y175.803 E.04152
G1 X60.886 Y176.477 E.04445
G1 X61.266 Y176.836 E.02653
G1 X61.648 Y177.138 E.02476
G1 X62.356 Y177.574 E.04226
G1 X62.903 Y177.825 E.03056
G1 X63.41 Y177.996 E.02718
G1 X64.13 Y178.155 E.03744
G1 X65.003 Y178.223 E.04447
G1 X75.092 Y178.223 E.51255
G1 X75.19 Y178.271 E.00553
G1 X75.215 Y178.364 E.00492
G1 X75.003 Y179.947 E.08114
G1 X73.635 Y183.25 E.18158
G1 X71.443 Y186.114 E.18322
G1 X68.556 Y188.329 E.18486
G1 X65.222 Y189.705 E.18322
G1 X61.678 Y190.172 E.18158
G1 X58.102 Y189.705 E.18322
G1 X54.74 Y188.312 E.18486
G1 X51.904 Y186.137 E.18158
G1 X49.705 Y183.278 E.18322
G1 X48.313 Y179.916 E.18486
G1 X47.846 Y176.372 E.18158
G1 X48.313 Y172.796 E.18322
G1 X49.69 Y169.472 E.18277
G1 X50.078 Y169.633 F10800
G1 F1200
G1 X50.078 Y169.63 E.00012
G1 X52.191 Y166.884 E.176
G1 X54.937 Y164.772 E.17601
G1 X58.165 Y163.426 E.17767
G1 X58.72 Y163.346 E.02845
G1 X58.823 Y163.38 E.00553
G1 X58.861 Y163.47 E.00495
G1 X58.861 Y172.49 E.45825
G1 X58.935 Y173.441 E.04844
G1 X59.034 Y173.941 E.0259
G1 X59.178 Y174.443 E.02655
G1 X59.52 Y175.258 E.04486
G1 X59.968 Y176.011 E.04451
G1 X60.606 Y176.785 E.05097
G1 X60.976 Y177.135 E.02587
G1 X61.385 Y177.46 E.02656
G1 X62.132 Y177.924 E.04468
G1 X62.776 Y178.22 E.03598
G1 X63.327 Y178.404 E.02952
G1 X64.032 Y178.559 E.03668
G1 X65.008 Y178.639 E.04972
G1 X74.617 Y178.639 E.48815
G1 X74.715 Y178.687 E.00553
G1 X74.74 Y178.78 E.00494
G1 X74.592 Y179.853 E.05503
G1 X73.278 Y183.025 E.17441
G1 X71.156 Y185.804 E.17763
G1 X68.359 Y187.956 E.17925
G1 X65.098 Y189.302 E.17927
G1 X61.662 Y189.75 E.17602
G1 X58.227 Y189.302 E.176
G1 X54.937 Y187.939 E.1809
G1 X52.191 Y185.827 E.176
G1 X50.078 Y183.081 E.176
G1 X48.716 Y179.791 E.1809
G1 X48.268 Y176.356 E.176
G1 X48.716 Y172.92 E.176
G1 X50.062 Y169.67 E.17876
G1 X50.45 Y169.83 F10800
G1 F1200
G1 X50.451 Y169.827 E.00016
G1 X52.477 Y167.194 E.16879
G1 X55.134 Y165.145 E.17046
G1 X58.273 Y163.834 E.17277
G1 X58.381 Y163.841 E.00553
G1 X58.445 Y163.949 E.00641
G1 X58.445 Y172.485 E.43364
G1 X58.529 Y173.528 E.05316
G1 X58.636 Y174.061 E.02759
G1 X58.777 Y174.551 E.02593
G1 X59.133 Y175.411 E.04726
G1 X59.607 Y176.216 E.04743
G1 X60.326 Y177.092 E.05762
G1 X60.721 Y177.463 E.02751
G1 X61.121 Y177.781 E.02594
G1 X61.907 Y178.273 E.04711
G1 X62.596 Y178.595 E.03865
G1 X63.244 Y178.811 E.0347
G1 X63.935 Y178.963 E.03593
G1 X65.013 Y179.055 E.05496
G1 X74.14 Y179.055 E.46365
G1 X74.238 Y179.102 E.00553
G1 X74.263 Y179.196 E.00496
G1 X74.181 Y179.758 E.02885
G1 X72.921 Y182.801 E.16731
G1 X70.869 Y185.495 E.17204
G1 X68.135 Y187.599 E.17527
G1 X64.973 Y188.899 E.17365
G1 X61.678 Y189.329 E.16883
G1 X58.351 Y188.899 E.17041
G1 X55.133 Y187.566 E.17694
G1 X52.5 Y185.541 E.16879
G1 X50.451 Y182.884 E.17041
G1 X49.119 Y179.667 E.17694
G1 X48.689 Y176.372 E.16879
G1 X49.119 Y173.045 E.17041
G1 X50.435 Y169.867 E.17474
G1 X50.808 Y170.052 F10800
G1 F1200
G1 X52.787 Y167.48 E.16486
G1 X55.332 Y165.517 E.16329
G1 X57.857 Y164.458 E.1391
G1 X57.966 Y164.464 E.00553
G1 X58.03 Y164.573 E.00642
G1 X58.03 Y172.48 E.40169
G1 X58.123 Y173.618 E.05797
G1 X58.228 Y174.138 E.02697
G1 X58.376 Y174.66 E.02755
G1 X58.746 Y175.562 E.04956
G1 X59.244 Y176.419 E.05032
G1 X60 Y177.35 E.06096
G1 X60.467 Y177.791 E.0326
G1 X60.906 Y178.137 E.02839
G1 X61.68 Y178.622 E.0464
G1 X62.415 Y178.969 E.0413
G1 X63.107 Y179.203 E.03714
G1 X63.838 Y179.367 E.03805
G1 X64.973 Y179.468 E.05787
G1 X73.659 Y179.47 E.44129
G1 X73.757 Y179.518 E.00553
G1 X73.774 Y179.643 E.0064
G1 X72.564 Y182.577 E.16126
G1 X70.582 Y185.186 E.16646
G1 X67.938 Y187.225 E.16962
G1 X64.881 Y188.488 E.16805
G1 X61.694 Y188.908 E.1633
G1 X58.476 Y188.496 E.16482
G1 X55.33 Y187.193 E.17296
G1 X52.786 Y185.231 E.16322
G1 X50.824 Y182.687 E.1632
G1 X49.53 Y179.573 E.17131
G1 X49.11 Y176.388 E.16325
G1 X49.522 Y173.17 E.16482
G1 X50.793 Y170.089 E.16928
G1 X51.165 Y170.277 F10800
G1 F1200
G1 X53.096 Y167.766 E.16092
G1 X55.53 Y165.889 E.15614
G1 X57.441 Y165.083 E.10538
G1 X57.55 Y165.089 E.00553
G1 X57.614 Y165.198 E.00643
G1 X57.614 Y172.475 E.36967
G1 X57.717 Y173.707 E.06277
G1 X57.829 Y174.256 E.02849
G1 X57.974 Y174.767 E.02697
G1 X58.358 Y175.713 E.05187
G1 X58.88 Y176.62 E.05316
G1 X59.673 Y177.606 E.0643
G1 X60.177 Y178.089 E.03546
G1 X60.69 Y178.492 E.03315
G1 X61.508 Y179 E.04893
G1 X62.288 Y179.365 E.0437
G1 X63.022 Y179.61 E.03934
G1 X63.809 Y179.782 E.04092
G1 X64.93 Y179.882 E.05719
G1 X73.038 Y179.886 E.41189
G1 X73.136 Y179.933 E.00553
G1 X73.153 Y180.058 E.0064
G1 X72.191 Y182.381 E.12777
G1 X70.271 Y184.901 E.1609
G1 X67.742 Y186.852 E.1623
G1 X64.788 Y188.077 E.16245
G1 X61.709 Y188.487 E.15777
G1 X58.6 Y188.093 E.15921
G1 X55.527 Y186.82 E.16896
G1 X53.095 Y184.945 E.15602
G1 X51.197 Y182.49 E.15763
G1 X49.941 Y179.48 E.1657
G1 X49.531 Y176.403 E.1577
G1 X49.925 Y173.293 E.15922
G1 X51.15 Y170.314 E.16364
G1 X51.522 Y170.502 F10800
G1 F1200
G1 X53.383 Y168.075 E.15536
G1 X55.728 Y166.261 E.15063
G1 X57.025 Y165.71 E.07161
G1 X57.134 Y165.715 E.00553
G1 X57.198 Y165.825 E.00644
G1 X57.198 Y172.47 E.33759
G1 X57.311 Y173.797 E.06766
G1 X57.421 Y174.335 E.02789
G1 X57.572 Y174.874 E.02845
G1 X57.97 Y175.862 E.0541
G1 X58.516 Y176.819 E.05597
G1 X59.344 Y177.861 E.06763
G1 X59.885 Y178.385 E.03827
G1 X60.477 Y178.848 E.03815
G1 X61.339 Y179.38 E.05145
G1 X62.162 Y179.761 E.0461
G1 X62.94 Y180.018 E.04158
G1 X63.78 Y180.197 E.04364
G1 X64.888 Y180.295 E.05653
G1 X72.416 Y180.301 E.38245
G1 X72.514 Y180.349 E.00553
G1 X72.531 Y180.473 E.0064
G1 X71.817 Y182.185 E.09423
G1 X69.984 Y184.592 E.15371
G1 X67.516 Y186.496 E.15833
G1 X64.662 Y187.674 E.15684
G1 X61.692 Y188.065 E.15223
G1 X58.724 Y187.69 E.15196
G1 X55.724 Y186.448 E.16496
G1 X53.382 Y184.636 E.15045
G1 X51.553 Y182.264 E.15213
G1 X50.344 Y179.354 E.16009
G1 X49.952 Y176.385 E.15212
G1 X50.336 Y173.385 E.15367
G1 X51.507 Y170.539 E.15633
G1 X51.879 Y170.726 F10800
G1 F1200
G1 X53.67 Y168.384 E.1498
G1 X55.927 Y166.633 E.14515
G1 X56.609 Y166.338 E.03774
G1 X56.718 Y166.344 E.00553
G1 X56.783 Y166.453 E.00646
G1 X56.783 Y172.465 E.3054
G1 X56.905 Y173.887 E.07253
G1 X57.022 Y174.451 E.02928
G1 X57.171 Y174.98 E.02789
G1 X57.582 Y176.01 E.05632
G1 X58.15 Y177.017 E.05874
G1 X59.015 Y178.114 E.07096
G1 X59.591 Y178.679 E.04104
G1 X60.264 Y179.206 E.04341
G1 X61.114 Y179.73 E.05072
G1 X62.039 Y180.158 E.05174
G1 X62.859 Y180.425 E.04384
G1 X63.75 Y180.611 E.04623
G1 X64.893 Y180.711 E.05829
G1 X71.793 Y180.716 E.35052
G1 X71.891 Y180.764 E.00553
G1 X71.908 Y180.889 E.00641
G1 X71.445 Y181.989 E.06063
G1 X69.697 Y184.284 E.14655
G1 X67.291 Y186.139 E.15435
G1 X64.538 Y187.271 E.15122
G1 X61.675 Y187.644 E.14669
G1 X58.816 Y187.278 E.1464
G1 X55.921 Y186.075 E.15927
G1 X53.668 Y184.327 E.14485
G1 X51.91 Y182.039 E.14662
G1 X50.746 Y179.229 E.15448
G1 X50.374 Y176.369 E.14655
G1 X50.748 Y173.477 E.14812
G1 X51.864 Y170.763 E.14905
G1 X52.236 Y170.951 F10800
G1 F1200
G1 X53.957 Y168.692 E.14425
G1 X56.166 Y166.986 E.14179
G1 X56.273 Y166.964 E.00553
G1 X56.367 Y167.085 E.00779
G1 X56.367 Y172.459 E.27302
G1 X56.491 Y173.916 E.07426
G1 X56.614 Y174.532 E.03191
G1 X56.787 Y175.14 E.03213
G1 X57.224 Y176.221 E.05921
G1 X57.829 Y177.281 E.06206
G1 X58.683 Y178.365 E.07009
G1 X59.341 Y179.011 E.04682
G1 X60.052 Y179.563 E.04574
G1 X60.946 Y180.11 E.05325
G1 X61.857 Y180.532 E.05101
G1 X62.724 Y180.818 E.04638
G1 X63.658 Y181.017 E.0485
G1 X64.898 Y181.127 E.06325
G1 X71.167 Y181.131 E.31847
G1 X71.265 Y181.179 E.00553
G1 X71.282 Y181.304 E.00643
G1 X71.073 Y181.792 E.02694
G1 X69.409 Y183.975 E.13944
G1 X67.066 Y185.782 E.15035
G1 X64.414 Y186.868 E.14557
G1 X61.658 Y187.223 E.14116
G1 X58.909 Y186.867 E.14084
G1 X56.119 Y185.702 E.15358
G1 X53.956 Y184.018 E.13926
G1 X52.266 Y181.814 E.14111
G1 X51.149 Y179.105 E.14887
G1 X50.795 Y176.352 E.14097
G1 X51.159 Y173.569 E.14258
G1 X52.221 Y170.988 E.14182
G1 X52.609 Y171.147 F10800
G1 F1200
G1 X52.61 Y171.146 E.00006
G1 X54.268 Y168.977 E.13867
G1 X55.751 Y167.832 E.09518
G1 X55.857 Y167.81 E.00553
G1 X55.952 Y167.931 E.00779
G1 X55.952 Y172.454 E.22977
G1 X56.076 Y173.944 E.07596
G1 X56.206 Y174.609 E.0344
G1 X56.404 Y175.302 E.03661
G1 X56.867 Y176.433 E.06211
G1 X57.508 Y177.546 E.06524
G1 X58.352 Y178.616 E.06924
G1 X59.045 Y179.302 E.04952
G1 X59.841 Y179.921 E.05124
G1 X60.723 Y180.461 E.05254
G1 X61.677 Y180.906 E.05345
G1 X62.588 Y181.211 E.04879
G1 X63.565 Y181.422 E.05079
G1 X64.903 Y181.542 E.06828
G1 X70.485 Y181.546 E.28356
G1 X70.583 Y181.594 E.00553
G1 X70.584 Y181.747 E.00776
G1 X69.122 Y183.666 E.12259
G1 X66.87 Y185.409 E.14466
G1 X64.291 Y186.465 E.14158
G1 X61.674 Y186.802 E.13401
G1 X59.034 Y186.464 E.13523
G1 X56.317 Y185.33 E.14956
G1 X54.243 Y183.711 E.13366
G1 X52.64 Y181.618 E.13395
G1 X51.552 Y178.981 E.1449
G1 X51.216 Y176.337 E.13539
G1 X51.562 Y173.693 E.13543
G1 X52.594 Y171.184 E.13783
G1 X52.967 Y171.37 F10800
G1 F1200
G1 X54.555 Y169.286 E.1331
G1 X55.335 Y168.678 E.05024
G1 X55.442 Y168.656 E.00553
G1 X55.536 Y168.777 E.00779
G1 X55.536 Y172.449 E.18654
G1 X55.661 Y173.972 E.07765
G1 X55.797 Y174.683 E.03678
G1 X56.022 Y175.465 E.04132
G1 X56.511 Y176.648 E.06502
G1 X57.187 Y177.81 E.06832
G1 X58.021 Y178.868 E.06841
G1 X58.795 Y179.635 E.05538
G1 X59.63 Y180.279 E.05356
G1 X60.554 Y180.84 E.05491
G1 X61.495 Y181.28 E.05276
G1 X62.449 Y181.603 E.05122
G1 X63.47 Y181.826 E.05307
G1 X64.909 Y181.958 E.07339
G1 X69.647 Y181.961 E.24069
G1 X69.744 Y182.009 E.00553
G1 X69.746 Y182.162 E.00776
G1 X68.811 Y183.381 E.07803
G1 X66.644 Y185.052 E.13902
G1 X64.199 Y186.054 E.13426
G1 X61.69 Y186.381 E.12852
G1 X59.127 Y186.052 E.13128
G1 X56.544 Y184.974 E.14217
G1 X54.531 Y183.403 E.12973
G1 X52.997 Y181.393 E.12846
G1 X51.964 Y178.889 E.13762
G1 X51.637 Y176.322 E.13146
G1 X51.974 Y173.786 E.12993
G1 X52.952 Y171.407 E.13068
G1 X53.324 Y171.594 F10800
G1 F1200
G1 X54.843 Y169.594 E.12757
G1 X54.919 Y169.529 E.00506
G1 X55.026 Y169.507 E.00553
G1 X55.12 Y169.628 E.00781
G1 X55.12 Y172.444 E.14307
G1 X55.246 Y174 E.07931
G1 X55.388 Y174.756 E.03906
G1 X55.64 Y175.63 E.04622
G1 X56.156 Y176.864 E.06794
G1 X56.866 Y178.074 E.07129
G1 X57.69 Y179.119 E.0676
G1 X58.498 Y179.925 E.05796
G1 X59.371 Y180.604 E.0562
G1 X60.332 Y181.192 E.05726
G1 X61.313 Y181.654 E.05504
G1 X62.31 Y181.995 E.05354
G1 X63.374 Y182.231 E.05536
G1 X64.914 Y182.373 E.07858
G1 X68.805 Y182.376 E.19767
G1 X68.903 Y182.424 E.00553
G1 X68.904 Y182.577 E.00777
G1 X68.502 Y183.095 E.03332
G1 X66.419 Y184.695 E.13341
G1 X64.106 Y185.642 E.12698
G1 X61.706 Y185.96 E.12302
G1 X59.22 Y185.641 E.12732
G1 X56.771 Y184.618 E.13479
G1 X54.842 Y183.118 E.12418
G1 X53.354 Y181.169 E.12456
G1 X52.376 Y178.797 E.13037
G1 X52.058 Y176.307 E.12752
G1 X52.385 Y173.879 E.12442
G1 X53.309 Y171.631 E.12352
G1 X53.697 Y171.791 F10800
G1 F1200
G1 X53.698 Y171.789 E.00011
G1 X54.481 Y170.758 E.06575
G1 X54.578 Y170.709 E.00553
G1 X54.677 Y170.755 E.00553
G1 X54.705 Y170.834 E.00426
G1 X54.705 Y172.439 E.08156
G1 X54.832 Y174.027 E.08095
G1 X54.978 Y174.826 E.04127
G1 X55.259 Y175.797 E.05132
G1 X55.769 Y177.016 E.06715
G1 X56.545 Y178.338 E.07787
G1 X57.359 Y179.37 E.06679
G1 X58.248 Y180.258 E.06382
G1 X59.16 Y180.962 E.05853
G1 X60.11 Y181.543 E.05658
G1 X61.13 Y182.027 E.05732
G1 X62.227 Y182.402 E.05889
G1 X63.343 Y182.645 E.05806
G1 X64.87 Y182.787 E.0779
G1 X67.848 Y182.791 E.15129
G1 X67.946 Y182.839 E.00553
G1 X67.969 Y182.945 E.00553
G1 X67.924 Y183.015 E.00422
G1 X66.195 Y184.338 E.1106
G1 X64.013 Y185.231 E.11975
G1 X61.689 Y185.539 E.11912
G1 X59.313 Y185.229 E.12172
G1 X56.998 Y184.263 E.12743
G1 X55.152 Y182.833 E.11862
G1 X53.711 Y180.945 E.12065
G1 X52.787 Y178.705 E.12312
G1 X52.48 Y176.324 E.12193
G1 X52.796 Y173.973 E.12052
G1 X53.682 Y171.828 E.11791
G1 X54.049 Y172.027 F10800
G1 F1200
G1 X54.131 Y171.955 E.00553
G1 X54.238 Y171.974 E.00553
G1 X54.289 Y172.075 E.00576
G1 X54.289 Y172.434 E.01824
G1 X54.417 Y174.054 E.08258
G1 X54.568 Y174.895 E.0434
G1 X54.879 Y175.963 E.0565
G1 X55.382 Y177.169 E.06636
G1 X56.224 Y178.602 E.08444
G1 X57.071 Y179.67 E.06923
G1 X58 Y180.591 E.06649
G1 X58.949 Y181.32 E.06078
G1 X59.938 Y181.922 E.0588
G1 X61.002 Y182.422 E.05974
G1 X62.085 Y182.793 E.05818
G1 X63.312 Y183.06 E.0638
G1 X64.826 Y183.2 E.07723
G1 X66.623 Y183.205 E.0913
G1 X66.721 Y183.253 E.00553
G1 X66.744 Y183.359 E.00553
G1 X66.699 Y183.429 E.00422
G1 X65.971 Y183.98 E.04641
G1 X63.921 Y184.82 E.11255
G1 X61.672 Y185.117 E.11522
G1 X59.406 Y184.818 E.11611
G1 X57.224 Y183.907 E.12012
G1 X55.462 Y182.548 E.11305
G1 X54.068 Y180.721 E.11673
G1 X53.199 Y178.612 E.11589
G1 X52.901 Y176.342 E.11633
G1 X53.206 Y174.067 E.1166
G1 X54.034 Y172.064 E.11007
G1 E-.56 F1800
;WIPE_START
G1 F1200
G1 X54.131 Y171.955 E-.03501
G1 X54.238 Y171.974 E-.02612
G1 X54.289 Y172.075 E-.02719
G1 X54.289 Y172.434 E-.08617
G1 X54.311 Y172.706 E-.06551
;WIPE_END
G1 X53.828 Y173.774 Z.7 F10800
G1 Z.3
G1 E.8 F1800
G1 F1200
G1 X53.936 Y173.793 E.00553
G1 X53.987 Y173.885 E.00531
G1 X54.002 Y174.081 E.01001
G1 X54.171 Y175.018 E.04835
G1 X54.478 Y176.072 E.05581
G1 X55.028 Y177.386 E.07236
G1 X55.903 Y178.867 E.08738
