; generated by PrusaSlicer 2.7.4 on 2024-04-08 at 14:56:36 UTC


;
;
; 

; external perimeters extrusion width = 0.45mm
; perimeters extrusion width = 0.45mm
; infill extrusion width = 0.45mm
; solid infill extrusion width = 0.45mm
; top infill extrusion width = 0.40mm
; first layer extrusion width = 0.42mm

M73 P0 R63
M73 Q0 S64
M201 X1000 Y1000 Z200 E5000 ; sets maximum accelerations, mm/sec^2
M203 X200 Y200 Z12 E120 ; sets maximum feedrates, mm / sec
M204 S1250 T1250 ; sets acceleration (S) and retract acceleration (R), mm/sec^2
M205 X8.00 Y8.00 Z0.40 E4.50 ; sets the jerk limits, mm/sec
M205 S0 T0 ; sets the minimum extruding and travel feed rate, mm/sec

; printing object knee_connector.stl id:0 copy 0
; stop printing object knee_connector.stl id:0 copy 0

;TYPE:Custom
M862.3 P "MK3" ; printer model check
M862.1 P0.4 ; nozzle diameter check
M115 U3.13.3 ; tell printer latest fw version
G90 ; use absolute coordinates
M83 ; extruder relative mode
M104 S245 ; set extruder temp
M140 S85 ; set bed temp
M190 S85 ; wait for bed temp
M109 S245 ; wait for extruder temp
G28 W ; home all without mesh bed level
G80 X102.934 Y91.6844 W44.1312 H28.1312 ; mesh bed levelling

G1 Z0.2 F720
G1 Y-3 F1000 ; go outside print area
G92 E0
G1 X60 E9 F1000 ; intro line
G1 X100 E12.5 F1000 ; intro line
M73 Q0 S63

G92 E0
M221 S95

; Don't change E values below. Excessive value can damage the printer.

M907 E538 ; set extruder motor current
G21 ; set units to millimeters
G90 ; use absolute coordinates
M83 ; use relative distances for extrusion

M900 K0.08 ; Filament gcode LA 1.5
M900 K45 ; Filament gcode LA 1.0




M107
;LAYER_CHANGE
;Z:0.2
;HEIGHT:0.2
G1 E-1 F2100
G1 Z.4 F720
G1 X103.819 Y93.069 F10800
G1 Z.2 F720
G1 E1 F2100
M204 S800
;TYPE:Skirt/Brim
;WIDTH:0.42
G1 F1200
G1 X104.319 Y92.569 E.02217
G1 X106 Y91.873 E.05705
G1 X144 Y91.873 E1.19146
G1 X145.681 Y92.569 E.05705
G1 X146.181 Y93.069 E.02217
G1 X146.877 Y94.75 E.05705
G1 X146.877 Y117.25 E.70547
G1 X146.485 Y118.557 E.04278
G1 X145.44 Y119.433 E.04275
G1 X144.5 Y119.627 E.03009
G1 X105.5 Y119.627 E1.22282
G1 X104.193 Y119.235 E.04278
G1 X103.317 Y118.19 E.04275
G1 X103.123 Y117.25 E.03009
G1 X103.123 Y94.75 E.70547
G1 X103.796 Y93.125 E.05515
M204 S1000
;WIPE_START
G1 F8640
G1 X103.819 Y93.069 E-.01398
G1 X104.319 Y92.569 E-.16327
G1 X106 Y91.873 E-.4201
G1 X107.744 Y91.873 E-.40265
;WIPE_END
G1 Z.4 F720
; printing object knee_connector.stl id:0 copy 0
G1 X142.559 Y115.709 F10800
G1 Z.2 F720
G1 E1 F2100
M204 S800
;TYPE:Perimeter
;WIDTH:0.419999
G1 F1200
G1 X107.441 Y115.709 E1.1011
G1 X107.441 Y96.191 E.61197
G1 X142.559 Y96.191 E1.1011
G1 X142.559 Y102.331 E.19252
G1 X142.559 Y115.649 E.41758
M204 S1000
G1 X142.559 Y115.649 F10800
G1 X142.936 Y116.086
M204 S800
G1 F1200
G1 X107.064 Y116.086 E1.12474
G1 X107.064 Y95.814 E.63561
G1 X142.936 Y95.814 E1.12474
G1 X142.936 Y102.331 E.20434
G1 X142.936 Y116.026 E.4294
M204 S1000
G1 X142.936 Y116.026 F10800
G1 X143.313 Y116.463
M204 S800
G1 F1200
G1 X106.687 Y116.463 E1.14838
G1 X106.687 Y95.437 E.65925
G1 X143.313 Y95.437 E1.14838
G1 X143.313 Y102.331 E.21616
G1 X143.313 Y116.403 E.44122
M204 S1000
G1 X143.69 Y116.84 F10800
M204 S800
;TYPE:External perimeter
G1 F1200
G1 X106.31 Y116.84 E1.17202
G1 X106.31 Y95.06 E.6829
G1 X143.69 Y95.06 E1.17202
G1 X143.69 Y102.331 E.22798
G1 X143.69 Y116.78 E.45304
M204 S1000
;WIPE_START
G1 F8640
G1 X143.69 Y116.84 E-.01385
G1 X139.419 Y116.84 E-.98615
;WIPE_END
G1 Z.4 F720
G1 X136.688 Y113.579 F10800
G1 Z.2 F720
M73 Q1 S63
G1 E1 F2100
M204 S800
;TYPE:Perimeter
G1 F1200
G1 X136.562 Y113.68 E.00506
G1 X136.089 Y113.924 E.01669
G1 X135.57 Y114.084 E.01703
G1 X135.068 Y114.14 E.01584
G1 X134.386 Y114.073 E.02149
M73 P1 R63
G1 X133.878 Y113.91 E.01673
G1 X133.572 Y113.759 E.0107
G1 X133.264 Y113.549 E.01169
G1 X132.861 Y113.18 E.01713
G1 X132.625 Y112.891 E.0117
G1 X132.326 Y112.338 E.01971
G1 X132.167 Y111.823 E.0169
G1 X132.123 Y111.102 E.02265
G1 X132.16 Y110.731 E.01169
G1 X132.28 Y110.27 E.01494
G1 X132.504 Y109.795 E.01647
G1 X132.701 Y109.514 E.01076
G1 X133.07 Y109.111 E.01713
G1 X133.359 Y108.875 E.0117
G1 X133.884 Y108.586 E.01879
G1 X134.366 Y108.432 E.01587
G1 X134.874 Y108.361 E.01608
G1 X135.475 Y108.398 E.01888
G1 X135.998 Y108.536 E.01696
G1 X136.648 Y108.877 E.02301
G1 X137.054 Y109.221 E.01668
G1 X137.43 Y109.688 E.0188
G1 X137.674 Y110.162 E.01672
G1 X137.843 Y110.737 E.01879
G1 X137.887 Y111.268 E.01671
G1 X137.848 Y111.751 E.01519
G1 X137.662 Y112.321 E.0188
G1 X137.425 Y112.816 E.01721
G1 X137.029 Y113.304 E.0197
G1 X136.734 Y113.541 E.01186
M204 S1000
G1 X136.734 Y113.541 F10800
G1 X136.46 Y113.283
M204 S800
G1 F1200
G1 X136.373 Y113.354 E.00352
G1 X135.967 Y113.567 E.01438
G1 X135.466 Y113.718 E.01641
G1 X135.007 Y113.761 E.01445
G1 X134.483 Y113.708 E.01651
G1 X134.045 Y113.572 E.01438
G1 X133.519 Y113.271 E.019
G1 X133.116 Y112.902 E.01713
G1 X132.77 Y112.403 E.01904
G1 X132.573 Y111.893 E.01714
G1 X132.524 Y111.631 E.00836
G1 X132.5 Y111.086 E.0171
G1 X132.526 Y110.821 E.00835
G1 X132.635 Y110.396 E.01376
G1 X132.862 Y109.928 E.01631
G1 X133.348 Y109.366 E.0233
G1 X133.554 Y109.197 E.00835
G1 X134.013 Y108.94 E.01649
G1 X134.45 Y108.8 E.01439
G1 X134.993 Y108.739 E.01713
G1 X135.517 Y108.792 E.01651
G1 X135.955 Y108.928 E.01438
G1 X136.418 Y109.176 E.01647
G1 X136.771 Y109.47 E.0144
G1 X137.104 Y109.877 E.01649
G1 X137.317 Y110.283 E.01438
G1 X137.469 Y110.787 E.01651
G1 X137.511 Y111.243 E.01436
G1 X137.476 Y111.685 E.0139
G1 X137.307 Y112.192 E.01676
G1 X137.121 Y112.593 E.01386
G1 X136.78 Y113.021 E.01716
G1 X136.506 Y113.245 E.0111
M204 S1000
G1 X136.506 Y113.245 F10800
G1 X136.235 Y112.983
M204 S800
G1 F1200
G1 X136.184 Y113.027 E.00211
G1 X135.846 Y113.21 E.01205
G1 X135.416 Y113.345 E.01413
G1 X135.031 Y113.385 E.01214
G1 X134.581 Y113.344 E.01417
G1 X134.212 Y113.234 E.01207
G1 X133.774 Y112.993 E.01567
G1 X133.371 Y112.624 E.01713
G1 X133.092 Y112.208 E.01571
G1 X132.909 Y111.69 E.01723
G1 X132.877 Y111.069 E.0195
G1 X132.99 Y110.523 E.01748
G1 X133.222 Y110.066 E.01607
G1 X133.626 Y109.621 E.01884
G1 X134.042 Y109.342 E.01571
G1 X134.508 Y109.173 E.01554
G1 X134.968 Y109.115 E.01454
G1 X135.419 Y109.156 E.0142
G1 X135.788 Y109.266 E.01207
G1 X136.188 Y109.476 E.01417
G1 X136.487 Y109.718 E.01206
G1 X136.777 Y110.065 E.01418
G1 X136.96 Y110.404 E.01208
G1 X137.095 Y110.836 E.01419
G1 X137.135 Y111.219 E.01207
G1 X137.079 Y111.716 E.01568
G1 X136.892 Y112.229 E.01712
G1 X136.615 Y112.646 E.0157
G1 X136.28 Y112.943 E.01404
M204 S1000
G1 X136.28 Y112.943 F10800
G1 X135.938 Y112.733
M204 S800
;TYPE:External perimeter
G1 F1200
G1 X135.725 Y112.853 E.00767
G1 X135.367 Y112.971 E.01182
G1 X135.056 Y113.008 E.00982
G1 X134.679 Y112.98 E.01185
G1 X134.379 Y112.896 E.00977
G1 X134.028 Y112.715 E.01238
G1 X133.626 Y112.346 E.01711
G1 X133.397 Y111.975 E.01367
G1 X133.277 Y111.599 E.01238
G1 X133.254 Y111.053 E.01713
G1 X133.346 Y110.649 E.01299
G1 X133.535 Y110.278 E.01305
G1 X133.904 Y109.876 E.01711
G1 X134.271 Y109.649 E.01353
G1 X134.565 Y109.546 E.00977
G1 X134.944 Y109.492 E.012
G1 X135.321 Y109.52 E.01185
G1 X135.621 Y109.604 E.00977
G1 X135.959 Y109.775 E.01188
G1 X136.204 Y109.967 E.00976
G1 X136.45 Y110.254 E.01185
G1 X136.603 Y110.525 E.00976
G1 X136.721 Y110.885 E.01188
G1 X136.758 Y111.194 E.00976
G1 X136.725 Y111.587 E.01237
G1 X136.538 Y112.1 E.01712
G1 X136.283 Y112.454 E.01368
G1 X135.996 Y112.701 E.01187
G1 X135.99 Y112.704 E.00021
M204 S1000
;WIPE_START
G1 F8640
G1 X135.938 Y112.733 E-.01375
G1 X135.725 Y112.853 E-.05645
G1 X135.367 Y112.971 E-.08704
G1 X135.056 Y113.008 E-.07232
G1 X134.679 Y112.98 E-.08729
G1 X134.379 Y112.896 E-.07194
G1 X134.028 Y112.715 E-.09119
G1 X133.626 Y112.346 E-.126
G1 X133.397 Y111.975 E-.10067
G1 X133.277 Y111.599 E-.09113
G1 X133.254 Y111.053 E-.12618
G1 X133.327 Y110.732 E-.07604
;WIPE_END
G1 Z.4 F720
G1 X117.84 Y111.703 F10800
G1 Z.2 F720
G1 E1 F2100
M204 S800
;TYPE:Perimeter
G1 F1200
G1 X117.823 Y111.864 E.00508
G1 X117.661 Y112.371 E.01669
G1 X117.375 Y112.894 E.01869
G1 X117.029 Y113.304 E.01682
G1 X116.772 Y113.53 E.01073
G1 X116.458 Y113.734 E.01174
G1 X115.961 Y113.965 E.01718
G1 X115.604 Y114.073 E.01169
G1 X115.069 Y114.14 E.01691
G1 X114.386 Y114.073 E.02152
G1 X113.879 Y113.91 E.0167
G1 X113.352 Y113.623 E.01882
G1 X112.946 Y113.279 E.01668
G1 X112.57 Y112.812 E.0188
G1 X112.331 Y112.354 E.0162
G1 X112.166 Y111.818 E.01758
G1 X112.121 Y111.491 E.01035
G1 X112.135 Y110.893 E.01875
G1 X112.212 Y110.528 E.0117
G1 X112.399 Y110.013 E.01718
G1 X112.575 Y109.684 E.0117
G1 X112.971 Y109.196 E.0197
G1 X113.437 Y108.821 E.01875
G1 X113.912 Y108.576 E.01676
G1 X114.469 Y108.41 E.01822
G1 X115.021 Y108.363 E.01737
G1 X115.614 Y108.427 E.0187
G1 X116.121 Y108.589 E.01669
G1 X116.644 Y108.875 E.01869
G1 X117.054 Y109.221 E.01682
M73 P1 R62
G1 X117.414 Y109.662 E.01785
G1 X117.674 Y110.162 E.01767
G1 X117.843 Y110.737 E.01879
G1 X117.887 Y111.268 E.01671
G1 X117.846 Y111.644 E.01186
M204 S1000
G1 X117.846 Y111.644 F10800
G1 X117.47 Y111.655
M204 S800
G1 F1200
G1 X117.458 Y111.767 E.00353
G1 X117.323 Y112.204 E.01434
G1 X117.075 Y112.665 E.01641
G1 X116.78 Y113.021 E.0145
G1 X116.299 Y113.392 E.01905
G1 X115.802 Y113.623 E.01718
G1 X115.211 Y113.752 E.01897
G1 X114.666 Y113.738 E.01709
G1 X114.218 Y113.637 E.0144
G1 X113.739 Y113.421 E.01648
G1 X113.364 Y113.156 E.0144
G1 X113.004 Y112.773 E.01648
G1 X112.687 Y112.228 E.01977
G1 X112.531 Y111.713 E.01687
G1 X112.495 Y111.441 E.0086
G1 X112.511 Y110.918 E.01641
G1 X112.566 Y110.657 E.00836
G1 X112.753 Y110.142 E.01718
G1 X113.081 Y109.631 E.01904
G1 X113.475 Y109.255 E.01708
G1 X113.864 Y109.009 E.01443
G1 X114.357 Y108.823 E.01652
G1 X114.903 Y108.738 E.01733
G1 X115.427 Y108.772 E.01646
G1 X115.954 Y108.927 E.01722
G1 X116.415 Y109.175 E.01641
G1 X116.77 Y109.469 E.01445
G1 X117.092 Y109.857 E.01581
G1 X117.317 Y110.283 E.01511
G1 X117.469 Y110.787 E.01651
G1 X117.511 Y111.243 E.01436
G1 X117.476 Y111.595 E.01109
M204 S1000
G1 X117.476 Y111.595 F10800
G1 X117.099 Y111.611
M204 S800
G1 F1200
G1 X117.094 Y111.669 E.00183
G1 X116.984 Y112.038 E.01207
G1 X116.776 Y112.436 E.01408
G1 X116.532 Y112.737 E.01215
G1 X116.14 Y113.05 E.01573
G1 X115.643 Y113.281 E.01718
G1 X115.069 Y113.386 E.0183
G1 X114.581 Y113.344 E.01536
G1 X114.212 Y113.234 E.01207
G1 X113.812 Y113.024 E.01417
G1 X113.513 Y112.781 E.01208
G1 X113.223 Y112.434 E.01418
G1 X113.04 Y112.096 E.01205
G1 X112.905 Y111.664 E.01419
G1 X112.869 Y111.392 E.0086
G1 X112.888 Y110.942 E.01412
G1 X113.107 Y110.271 E.02213
G1 X113.385 Y109.854 E.01571
G1 X113.814 Y109.474 E.01797
G1 X114.154 Y109.29 E.01212
G1 X114.586 Y109.155 E.01419
G1 X114.971 Y109.115 E.01214
G1 X115.419 Y109.156 E.01411
G1 X115.788 Y109.266 E.01207
G1 X116.186 Y109.474 E.01408
G1 X116.487 Y109.718 E.01215
G1 X116.775 Y110.063 E.01409
G1 X116.96 Y110.404 E.01216
G1 X117.095 Y110.836 E.01419
G1 X117.135 Y111.219 E.01207
G1 X117.105 Y111.551 E.01045
M204 S1000
G1 X117.105 Y111.551 F10800
G1 X116.731 Y111.553
M204 S800
;TYPE:External perimeter
G1 F1200
G1 X116.73 Y111.571 E.00057
G1 X116.646 Y111.871 E.00977
G1 X116.477 Y112.207 E.01179
G1 X116.283 Y112.454 E.00985
G1 X115.981 Y112.708 E.01237
G1 X115.484 Y112.94 E.0172
G1 X115.056 Y113.008 E.01359
G1 X114.679 Y112.98 E.01185
G1 X114.379 Y112.896 E.00977
G1 X114.041 Y112.725 E.01188
G1 X113.796 Y112.533 E.00976
G1 X113.549 Y112.246 E.01187
G1 X113.397 Y111.975 E.00974
G1 X113.279 Y111.615 E.01188
G1 X113.243 Y111.343 E.0086
G1 X113.275 Y110.914 E.01349
G1 X113.462 Y110.4 E.01715
G1 X113.717 Y110.047 E.01365
G1 X114.003 Y109.8 E.01185
G1 X114.275 Y109.647 E.00978
G1 X114.635 Y109.529 E.01188
G1 X114.946 Y109.492 E.00982
G1 X115.322 Y109.52 E.01182
G1 X115.621 Y109.604 E.00974
G1 X115.957 Y109.773 E.01179
G1 X116.204 Y109.967 E.00985
G1 X116.449 Y110.252 E.01178
G1 X116.603 Y110.525 E.00983
G1 X116.721 Y110.885 E.01188
G1 X116.758 Y111.194 E.00976
G1 X116.736 Y111.493 E.0094
M204 S1000
;WIPE_START
G1 F8640
G1 X116.731 Y111.553 E-.0139
G1 X116.73 Y111.571 E-.00416
G1 X116.646 Y111.871 E-.07194
G1 X116.477 Y112.207 E-.08684
G1 X116.283 Y112.454 E-.07252
G1 X115.981 Y112.708 E-.09112
G1 X115.484 Y112.94 E-.12665
G1 X115.056 Y113.008 E-.10007
G1 X114.679 Y112.98 E-.08729
G1 X114.379 Y112.896 E-.07194
G1 X114.041 Y112.725 E-.08746
G1 X113.796 Y112.533 E-.07187
G1 X113.549 Y112.246 E-.08743
G1 X113.492 Y112.145 E-.02681
;WIPE_END
G1 Z.4 F720
G1 X142.389 Y97.126 F10800
G1 Z.2 F720
G1 E1 F2100
M204 S800
;TYPE:Solid infill
;WIDTH:0.421199
G1 F1200
G1 X141.794 Y96.531 E.02647
G1 X141.259 Y96.531 E.01683
G1 X142.219 Y97.491 E.0427
G1 X142.219 Y98.026 E.01683
G1 X140.724 Y96.531 E.0665
G1 X140.189 Y96.531 E.01683
G1 X142.219 Y98.561 E.0903
G1 X142.219 Y99.096 E.01683
G1 X139.654 Y96.531 E.1141
G1 X139.119 Y96.531 E.01683
G1 X142.219 Y99.631 E.1379
G1 X142.219 Y100.166 E.01683
G1 X138.584 Y96.531 E.16169
G1 X138.049 Y96.531 E.01683
G1 X142.219 Y100.701 E.18549
G1 X142.219 Y101.236 E.01683
G1 X137.514 Y96.531 E.20929
G1 X136.979 Y96.531 E.01683
G1 X142.219 Y101.771 E.23309
G1 X142.219 Y102.306 E.01683
G1 X136.444 Y96.531 E.25689
G1 X135.909 Y96.531 E.01683
G1 X142.219 Y102.841 E.28069
G1 X142.219 Y103.376 E.01683
G1 X135.374 Y96.531 E.30448
G1 X134.839 Y96.531 E.01683
G1 X142.219 Y103.911 E.32828
G1 X142.219 Y104.446 E.01683
G1 X134.304 Y96.531 E.35208
G1 X133.769 Y96.531 E.01683
G1 X142.219 Y104.981 E.37588
G1 X142.219 Y105.516 E.01683
G1 X133.234 Y96.531 E.39968
G1 X132.7 Y96.531 E.0168
G1 X142.219 Y106.05 E.42343
G1 X142.219 Y106.585 E.01683
G1 X132.165 Y96.531 E.44723
G1 X131.63 Y96.531 E.01683
G1 X142.219 Y107.12 E.47103
G1 X142.219 Y107.655 E.01683
G1 X131.095 Y96.531 E.49483
G1 X130.56 Y96.531 E.01683
G1 X142.219 Y108.19 E.51862
G1 X142.219 Y108.725 E.01683
G1 X130.025 Y96.531 E.54242
G1 X129.49 Y96.531 E.01683
G1 X142.219 Y109.26 E.56622
G1 X142.219 Y109.795 E.01683
G1 X128.955 Y96.531 E.59002
G1 X128.42 Y96.531 E.01683
G1 X142.219 Y110.33 E.61382
G1 X142.219 Y110.865 E.01683
G1 X127.885 Y96.531 E.63762
G1 X127.35 Y96.531 E.01683
G1 X142.219 Y111.4 E.66141
G1 X142.219 Y111.935 E.01683
G1 X126.815 Y96.531 E.68521
G1 X126.28 Y96.531 E.01683
M73 Q1 S62
G1 X142.219 Y112.47 E.70901
G1 X142.219 Y113.005 E.01683
G1 X125.745 Y96.531 E.73281
G1 X125.21 Y96.531 E.01683
G1 X142.219 Y113.54 E.75661
G1 X142.219 Y114.075 E.01683
G1 X124.675 Y96.531 E.7804
G1 X124.14 Y96.531 E.01683
G1 X135.723 Y108.114 E.51524
G1 X135.529 Y108.062 E.00632
G1 X135.111 Y108.037 E.01317
G1 X123.605 Y96.531 E.51182
G1 X123.07 Y96.531 E.01683
G1 X134.6 Y108.061 E.51289
G1 X134.142 Y108.138 E.01461
G1 X122.535 Y96.531 E.51631
G1 X122 Y96.531 E.01683
G1 X133.746 Y108.276 E.52247
G1 X133.392 Y108.458 E.01252
G1 X121.465 Y96.531 E.53055
G1 X120.93 Y96.531 E.01683
G1 X133.064 Y108.665 E.53975
G1 X132.785 Y108.921 E.01191
G1 X120.395 Y96.531 E.55114
G1 X119.86 Y96.531 E.01683
G1 X132.532 Y109.203 E.56368
G1 X132.291 Y109.496 E.01193
G1 X119.325 Y96.531 E.57674
G1 X118.79 Y96.531 E.01683
M73 Q2 S62
G1 X132.103 Y109.843 E.59218
M73 P2 R62
G1 X131.941 Y110.216 E.01279
G1 X118.255 Y96.531 E.60877
G1 X117.72 Y96.531 E.01683
G1 X131.832 Y110.642 E.62772
G1 X131.792 Y110.864 E.0071
G1 X131.785 Y111.13 E.00837
G1 X117.185 Y96.531 E.64943
G1 X116.65 Y96.531 E.01683
G1 X132.012 Y111.892 E.68332
M204 S1000
;WIPE_START
G1 F8640
G1 X128.95 Y108.83 E-1
;WIPE_END
G1 Z.4 F720
G1 X137.896 Y110.286 F10800
G1 Z.2 F720
G1 E1 F2100
M204 S800
G1 F1200
G1 X142.219 Y114.61 E.19232
G1 X142.219 Y115.145 E.01683
G1 X138.227 Y111.153 E.17757
G1 X138.194 Y111.655 E.01582
G1 X141.909 Y115.369 E.16523
G1 X141.374 Y115.369 E.01683
G1 X138.104 Y112.099 E.14546
G1 X137.961 Y112.491 E.01312
G1 X140.839 Y115.369 E.12802
G1 X140.304 Y115.369 E.01683
G1 X137.788 Y112.854 E.1119
G1 X137.705 Y113.008 E.0055
G1 X137.58 Y113.18 E.00669
G1 X139.769 Y115.369 E.09737
G1 X139.234 Y115.369 E.01683
G1 X137.335 Y113.471 E.08445
G1 X137.059 Y113.729 E.01188
G1 X138.699 Y115.369 E.07295
G1 X138.164 Y115.369 E.01683
G1 X136.754 Y113.959 E.06272
G1 X136.41 Y114.15 E.01238
