; HEADER_BLOCK_START
; generated by OrcaSlicer 2.1.1 on 2024-06-27 at 14:59:52
; total layer number: 235
; filament_density: 1.24
; filament_diameter: 1.75
; max_z_height: 47.00
; HEADER_BLOCK_END

; THUMBNAIL_BLOCK_START

;
; THUMBNAIL_BLOCK_END

; THUMBNAIL_BLOCK_START

;
; THUMBNAIL_BLOCK_END

; THUMBNAIL_BLOCK_START

;
; THUMBNAIL_BLOCK_END

; THUMBNAIL_BLOCK_START

;
; THUMBNAIL_BLOCK_END

; external perimeters extrusion width = 0.60mm
; perimeters extrusion width = 0.66mm
; infill extrusion width = 0.66mm
; solid infill extrusion width = 0.72mm
; top infill extrusion width = 0.56mm
; first layer extrusion width = 0.72mm

; EXECUTABLE_BLOCK_START
M73 P0 R188
M201 X2500 Y2500 Z400 E5000
M203 X180 Y180 Z12 E80
M204 P1250 R5000 T3000 ; sets acceleration (P, T) and retract acceleration (R), mm/sec^2
M205 X8.00 Y8.00 Z0.20 E10.00 ; sets the jerk limits, mm/sec
;TYPE:Custom
M862.3 P "MINI" ; printer model check
G90 ; use absolute coordinates
M83 ; extruder relative mode
M104 S170 ; set extruder temp for bed leveling
M140 S60 ; set bed temp
M109 R170 ; wait for bed leveling temp
M190 S60 ; wait for bed temp
M204 T1250 ; set travel acceleration
G28 ; home all without mesh bed level
G29 ; mesh bed leveling 
M204 T3000 ; restore travel acceleration
M104 S210 ; set extruder temp
G92 E0
G1 Y-2 X179 F2400
G1 Z3 F720
M109 S210 ; wait for extruder temp

; intro line
G1 X170 F1000
G1 Z0.2 F720
G1 X110 E8 F900
G1 X40 E10 F700
G92 E0

M221 S95 ; set flow
G90
G21
M83 ; use relative distances for extrusion
; filament start gcode
M900 K0.12 ; Filament gcode LA 1.5
; ; Filament gcode LA 1.0
M106 S0
;LAYER_CHANGE
;Z:0.2
;HEIGHT:0.2
;BEFORE_LAYER_CHANGE
;0.2
G92 E0

G1 E-3.2 F4200
;AFTER_LAYER_CHANGE
;0.2
;_SET_FAN_SPEED_CHANGING_LAYER
M204 P700
M205 X8 Y8
; printing object battery_cage2 - Battery Cage.stl id:7454142788983390322 copy 0
M204 T700
G1 X55.516 Y12.429 F9000
G1 Z.4
G1 Z.2
G1 E3.2 F1800
;TYPE:Brim
;WIDTH:0.72
G1 F1200
G1 X56.892 Y9.106 E.19844
G1 X59.081 Y6.253 E.19844
G1 X61.935 Y4.063 E.19843
G1 X65.258 Y2.687 E.19844
G1 X68.823 Y2.218 E.19844
G1 X72.389 Y2.687 E.19844
G1 X75.712 Y4.063 E.19844
G1 X78.565 Y6.253 E.19843
G1 X80.755 Y9.106 E.19843
G1 X82.131 Y12.429 E.19844
G1 X82.53 Y15.46 E.16866
G1 X69.024 Y15.456 E.74521
G1 X68.823 Y15.511 E.01146
G1 X68.713 Y15.585 E.00729
G1 X68.613 Y15.685 E.0078
G1 X68.54 Y15.794 E.00729
G1 X68.485 Y15.995 E.01146
G1 X68.481 Y29.727 E.75766
G1 X65.258 Y29.302 E.1794
G1 X61.935 Y27.926 E.19844
G1 X59.081 Y25.737 E.19844
G1 X56.892 Y22.883 E.19844
G1 X55.516 Y19.561 E.19844
G1 X55.046 Y15.995 E.19844
G1 X55.508 Y12.488 E.19512
G1 X56.172 Y12.632 F9000
G1 F1200
G1 X57.5 Y9.426 E.19145
G1 X59.548 Y6.757 E.18565
G1 X62.255 Y4.671 E.18855
G1 X65.461 Y3.343 E.19145
G1 X68.797 Y2.904 E.18565
G1 X72.186 Y3.343 E.18855
G1 X75.392 Y4.671 E.19145
G1 X78.099 Y6.757 E.18855
G1 X80.174 Y9.472 E.18855
G1 X81.461 Y12.581 E.18565
G1 X81.728 Y14.553 E.10978
G1 X81.697 Y14.69 E.00774
G1 X81.526 Y14.782 E.01071
G1 X69.037 Y14.779 E.68906
G1 X68.831 Y14.807 E.01149
G1 X68.66 Y14.854 E.00981
G1 X68.439 Y14.955 E.01339
G1 X68.225 Y15.116 E.01478
G1 X67.984 Y15.41 E.02096
G1 X67.883 Y15.63 E.01339
G1 X67.836 Y15.802 E.00981
G1 X67.808 Y16.008 E.01148
G1 X67.805 Y28.723 E.70154
G1 X67.756 Y28.855 E.00774
G1 X67.575 Y28.925 E.01071
G1 X65.461 Y28.646 E.11764
G1 X62.255 Y27.318 E.19145
G1 X59.586 Y25.27 E.18565
G1 X57.5 Y22.563 E.18855
G1 X56.172 Y19.357 E.19145
G1 X55.733 Y16.021 E.18565
G1 X56.164 Y12.692 E.18524
G1 X56.828 Y12.835 F9000
G1 F1200
G1 X58.107 Y9.747 E.18444
G1 X60.052 Y7.223 E.17579
G1 X62.576 Y5.279 E.17576
G1 X65.664 Y3.999 E.18444
G1 X68.824 Y3.59 E.17579
G1 X71.983 Y4 E.17576
G1 X75.025 Y5.252 E.18149
G1 X77.631 Y7.26 E.18153
G1 X79.592 Y9.838 E.17869
G1 X80.792 Y12.734 E.173
G1 X80.953 Y13.875 E.06354
G1 X80.923 Y14.012 E.00774
G1 X80.752 Y14.105 E.01075
G1 X69.051 Y14.102 E.64555
G1 X68.642 Y14.157 E.02277
G1 X68.371 Y14.242 E.01565
G1 X68.018 Y14.424 E.02191
G1 X67.828 Y14.567 E.01316
G1 X67.693 Y14.696 E.01027
G1 X67.468 Y14.97 E.01957
G1 X67.363 Y15.14 E.01103
G1 X67.272 Y15.337 E.01197
G1 X67.186 Y15.613 E.01592
G1 X67.131 Y16.022 E.02277
G1 X67.128 Y27.951 E.6582
G1 X67.079 Y28.083 E.00774
G1 X66.898 Y28.153 E.01071
G1 X65.664 Y27.99 E.06866
G1 X62.575 Y26.711 E.18446
G1 X60.052 Y24.766 E.17579
G1 X58.107 Y22.242 E.17576
G1 X56.828 Y19.154 E.18444
G1 X56.419 Y15.994 E.17579
G1 X56.821 Y12.895 E.17245
G1 X57.499 Y12.986 F9000
G1 F1200
G1 X58.688 Y10.114 E.17155
G1 X60.556 Y7.69 E.16883
G1 X62.943 Y5.859 E.16595
G1 X65.815 Y4.67 E.17155
G1 X68.85 Y4.276 E.16883
G1 X71.832 Y4.67 E.16598
G1 X74.658 Y5.833 E.1686
G1 X77.125 Y7.725 E.17154
G1 X79.01 Y10.202 E.17173
G1 X80.124 Y12.89 E.16054
G1 X80.173 Y13.196 E.0171
G1 X80.144 Y13.333 E.00774
G1 X79.972 Y13.428 E.0108
G1 X69.063 Y13.425 E.60187
G1 X68.564 Y13.485 E.02773
G1 X68.056 Y13.643 E.0294
G1 X67.6 Y13.891 E.02864
G1 X67.232 Y14.2 E.0265
G1 X66.889 Y14.621 E.02997
G1 X66.661 Y15.046 E.02658
G1 X66.544 Y15.397 E.02044
G1 X66.462 Y15.92 E.02918
G1 X66.451 Y27.179 E.62124
G1 X66.402 Y27.311 E.00774
G1 X66.221 Y27.381 E.0107
G1 X65.816 Y27.32 E.02259
G1 X62.942 Y26.13 E.17162
G1 X60.518 Y24.262 E.16883
G1 X58.688 Y21.875 E.16595
G1 X57.498 Y19.003 E.17155
G1 X57.105 Y15.968 E.16883
G1 X57.491 Y13.046 E.16264
G1 X58.155 Y13.19 F9000
G1 F1200
G1 X59.269 Y10.481 E.16161
G1 X61.059 Y8.157 E.16184
G1 X63.309 Y6.441 E.15611
G1 X65.967 Y5.34 E.15872
G1 X68.876 Y4.963 E.16184
G1 X71.681 Y5.34 E.15617
G1 X74.339 Y6.441 E.15875
G1 X76.658 Y8.229 E.16155
G1 X78.402 Y10.521 E.15894
G1 X79.217 Y12.47 E.11651
G1 X79.222 Y12.61 E.00774
G1 X79.136 Y12.72 E.00774
G1 X79.029 Y12.75 E.00611
G1 X68.973 Y12.754 E.5548
G1 X68.347 Y12.843 E.03488
G1 X67.723 Y13.053 E.03635
G1 X67.158 Y13.378 E.03595
G1 X66.699 Y13.783 E.03379
G1 X66.285 Y14.315 E.03718
G1 X66.015 Y14.844 E.03278
G1 X65.874 Y15.304 E.02654
G1 X65.784 Y15.933 E.03506
G1 X65.775 Y26.266 E.57011
G1 X65.726 Y26.398 E.00774
G1 X65.604 Y26.467 E.00774
G1 X65.494 Y26.454 E.00611
G1 X63.263 Y25.522 E.13337
G1 X61.023 Y23.796 E.15604
G1 X59.269 Y21.509 E.15899
G1 X58.155 Y18.8 E.16164
G1 X57.791 Y15.995 E.15604
G1 X58.147 Y13.249 E.15279
G1 X58.811 Y13.391 F9000
G1 F1200
G1 X59.877 Y10.801 E.15457
G1 X61.562 Y8.625 E.15184
G1 X63.674 Y7.022 E.14625
G1 X66.118 Y6.01 E.14595
G1 X68.9 Y5.649 E.15482
G1 X71.528 Y6.009 E.1463
G1 X74.018 Y7.049 E.14889
G1 X76.19 Y8.732 E.15159
G1 X77.795 Y10.842 E.14628
G1 X78.2 Y11.792 E.057
G1 X78.206 Y11.932 E.00774
G1 X78.119 Y12.043 E.00774
G1 X78.013 Y12.074 E.00614
G1 X68.866 Y12.086 E.50465
G1 X68.115 Y12.207 E.04194
G1 X67.377 Y12.472 E.04329
G1 X66.83 Y12.786 E.03483
G1 X66.264 Y13.264 E.04085
G1 X65.76 Y13.887 E.04418
G1 X65.418 Y14.525 E.03995
G1 X65.23 Y15.093 E.03303
G1 X65.116 Y15.826 E.04089
G1 X65.098 Y25.25 E.52
G1 X65.05 Y25.382 E.00774
G1 X64.927 Y25.451 E.00774
G1 X64.817 Y25.437 E.00613
G1 X63.585 Y24.915 E.07383
G1 X61.527 Y23.33 E.14331
G1 X59.851 Y21.144 E.152
G1 X58.811 Y18.598 E.15171
G1 X58.477 Y15.969 E.14622
G1 X58.804 Y13.451 E.14011
G1 X59.468 Y13.593 F9000
G1 F1200
G1 X60.458 Y11.168 E.14452
G1 X62.064 Y9.094 E.14474
G1 X63.993 Y7.63 E.13357
G1 X66.269 Y6.68 E.13609
G1 X68.925 Y6.336 E.14776
G1 X71.373 Y6.678 E.13637
G1 X73.695 Y7.656 E.13904
G1 X75.721 Y9.234 E.14167
G1 X77.12 Y11.072 E.12744
G1 X77.161 Y11.206 E.00774
G1 X77.105 Y11.335 E.00774
G1 X76.959 Y11.398 E.00881
G1 X68.744 Y11.42 E.45323
G1 X67.872 Y11.575 E.04885
G1 X67.026 Y11.892 E.04986
G1 X66.38 Y12.28 E.04158
G1 X65.834 Y12.741 E.03941
G1 X65.24 Y13.454 E.0512
G1 X64.829 Y14.191 E.04657
G1 X64.592 Y14.868 E.03959
G1 X64.449 Y15.707 E.04695
G1 X64.423 Y24.229 E.47019
G1 X64.374 Y24.361 E.00774
G1 X64.252 Y24.429 E.00774
G1 X64.141 Y24.416 E.00617
G1 X63.909 Y24.31 E.01409
G1 X62.032 Y22.864 E.13072
G1 X60.433 Y20.778 E.14498
G1 X59.468 Y18.398 E.14172
G1 X59.163 Y15.996 E.1336
G1 X59.46 Y13.653 E.13032
G1 X60.138 Y13.742 F9000
G1 F1200
G1 X61.067 Y11.488 E.13451
G1 X62.566 Y9.563 E.13462
G1 X64.357 Y8.212 E.12377
G1 X66.421 Y7.35 E.12338
G1 X68.949 Y7.023 E.14062
G1 X71.216 Y7.347 E.12636
G1 X73.325 Y8.234 E.12627
M73 P0 R187
G1 X75.215 Y9.698 E.13184
G1 X75.756 Y10.398 E.04888
G1 X75.798 Y10.533 E.00774
G1 X75.742 Y10.661 E.00774
G1 X75.595 Y10.725 E.00881
G1 X68.618 Y10.755 E.38495
G1 X67.618 Y10.947 E.05617
G1 X66.804 Y11.252 E.04798
G1 X66.043 Y11.693 E.04849
G1 X65.309 Y12.314 E.05311
G1 X64.726 Y13.013 E.05019
G1 X64.245 Y13.847 E.05313
G1 X63.958 Y14.631 E.04607
G1 X63.785 Y15.579 E.05315
G1 X63.75 Y22.921 E.40512
G1 X63.701 Y23.053 E.00774
G1 X63.579 Y23.121 E.00774
G1 X63.423 Y23.081 E.00885
G1 X62.499 Y22.361 E.06465
G1 X61.043 Y20.461 E.13205
G1 X60.139 Y18.25 E.13181
G1 X59.849 Y15.97 E.12679
G1 X60.131 Y13.801 E.12067
G1 X60.809 Y13.893 F9000
G1 F1200
G1 X61.647 Y11.857 E.1215
G1 X63.029 Y10.071 E.12458
G1 X64.72 Y8.794 E.11692
G1 X66.625 Y8.007 E.1137
G1 X68.972 Y7.71 E.1305
G1 X71.058 Y8.015 E.11633
G1 X72.956 Y8.814 E.11364
G1 X74.1 Y9.691 E.07952
G1 X74.174 Y9.81 E.00774
G1 X74.154 Y9.949 E.00774
G1 X74.048 Y10.041 E.00774
G1 X73.976 Y10.055 E.00404
G1 X68.625 Y10.078 E.29528
G1 X67.507 Y10.279 E.06264
G1 X66.452 Y10.674 E.06218
G1 X65.594 Y11.186 E.0551
G1 X64.779 Y11.892 E.05953
G1 X64.132 Y12.688 E.05658
G1 X63.605 Y13.628 E.05946
G1 X63.289 Y14.525 E.05247
G1 X63.108 Y15.585 E.05929
G1 X63.08 Y21.408 E.3213
G1 X63.031 Y21.539 E.00774
G1 X62.909 Y21.608 E.00774
G1 X62.771 Y21.58 E.00774
G1 X62.716 Y21.53 E.00409
G1 X61.625 Y20.096 E.09943
G1 X60.809 Y18.101 E.11892
G1 X60.535 Y15.997 E.11705
G1 X60.801 Y13.952 E.11377
G1 X61.479 Y14.044 F9000
G1 F1200
G1 X62.255 Y12.177 E.11154
G1 X63.493 Y10.578 E.11155
G1 X65.083 Y9.377 E.10998
G1 X66.827 Y8.664 E.10393
G1 X68.992 Y8.397 E.12038
G1 X70.898 Y8.682 E.10634
G1 X71.647 Y8.997 E.04482
G1 X71.75 Y9.093 E.00774
G1 X71.766 Y9.233 E.00774
G1 X71.688 Y9.349 E.00774
G1 X71.569 Y9.388 E.00687
G1 X68.638 Y9.4 E.16171
G1 X67.395 Y9.611 E.06957
G1 X67.261 Y9.648 E.00767
G1 X66.23 Y10.034 E.06074
G1 X65.254 Y10.6 E.06226
G1 X64.244 Y11.477 E.07381
G1 X63.533 Y12.371 E.063
G1 X63.019 Y13.289 E.05808
G1 X62.619 Y14.426 E.06646
G1 X62.43 Y15.597 E.06545
G1 X62.414 Y19.202 E.19891
G1 X62.364 Y19.334 E.00774
G1 X62.242 Y19.402 E.00774
G1 X62.104 Y19.374 E.00774
G1 X62.022 Y19.278 E.00697
G1 X61.466 Y17.9 E.08201
G1 X61.221 Y15.971 E.10729
G1 X61.471 Y14.103 E.10396
G1 E-2.24 F4200
;WIPE_START
G1 F1200
G1 X61.848 Y13.177 E-.96
;WIPE_END
G1 X69.464 Y13.679 Z.6 F9000
G1 X96.518 Y15.463 Z.6
G1 Z.2
G1 E3.2 F1800
G1 F1200
G1 X96.916 Y12.439 E.16827
G1 X98.292 Y9.117 E.19844
G1 X100.481 Y6.263 E.19844
G1 X103.335 Y4.074 E.19843
G1 X106.658 Y2.698 E.19844
G1 X110.223 Y2.228 E.19844
G1 X113.789 Y2.698 E.19844
G1 X117.112 Y4.074 E.19844
G1 X119.965 Y6.263 E.19843
G1 X122.155 Y9.117 E.19843
G1 X123.531 Y12.439 E.19844
G1 X124.001 Y16.005 E.19844
G1 X123.531 Y19.571 E.19844
G1 X122.155 Y22.894 E.19844
G1 X119.965 Y25.747 E.19844
G1 X117.112 Y27.937 E.19843
G1 X113.789 Y29.313 E.19844
G1 X110.562 Y29.738 E.1796
G1 X110.562 Y16.005 E.75768
G1 X110.507 Y15.805 E.01145
G1 X110.434 Y15.695 E.00729
G1 X110.334 Y15.595 E.0078
G1 X110.224 Y15.522 E.00729
G1 X110.024 Y15.467 E.01146
G1 X96.578 Y15.463 E.74186
G1 X97.389 Y14.738 F9000
G1 F1200
G1 X97.32 Y14.557 E.01071
G1 X97.586 Y12.592 E.10942
G1 X98.9 Y9.437 E.18855
G1 X100.948 Y6.767 E.18565
G1 X103.655 Y4.682 E.18855
G1 X106.861 Y3.354 E.19145
G1 X110.197 Y2.915 E.18565
G1 X113.586 Y3.354 E.18855
G1 X116.792 Y4.682 E.19145
G1 X119.461 Y6.73 E.18565
G1 X121.547 Y9.437 E.18855
G1 X122.861 Y12.592 E.18855
G1 X123.314 Y16.032 E.19145
G1 X122.861 Y19.419 E.18855
G1 X121.574 Y22.528 E.18565
G1 X119.499 Y25.243 E.18855
G1 X116.746 Y27.356 E.19145
G1 X113.637 Y28.643 E.18565
G1 X111.469 Y28.936 E.12073
G1 X111.332 Y28.905 E.00774
G1 X111.239 Y28.734 E.01071
G1 X111.239 Y16.019 E.70155
G1 X111.211 Y15.813 E.01148
G1 X111.164 Y15.641 E.0098
G1 X111.063 Y15.421 E.01339
G1 X110.902 Y15.206 E.01478
G1 X110.608 Y14.966 E.02096
G1 X110.388 Y14.865 E.01339
G1 X110.216 Y14.818 E.00981
G1 X110.01 Y14.79 E.01148
G1 X97.521 Y14.786 E.68906
G1 X97.446 Y14.759 E.00443
G1 X98.164 Y14.061 F9000
G1 F1200
G1 X98.095 Y13.879 E.01074
G1 X98.255 Y12.746 E.06317
G1 X99.507 Y9.758 E.17873
G1 X101.452 Y7.234 E.17584
G1 X103.976 Y5.289 E.17576
G1 X107.064 Y4.01 E.18444
G1 X110.224 Y3.601 E.17579
G1 X113.383 Y4.01 E.17576
G1 X116.472 Y5.289 E.18444
G1 X118.995 Y7.234 E.17579
G1 X120.94 Y9.758 E.17581
G1 X122.205 Y12.796 E.18154
G1 X122.628 Y16.058 E.18148
G1 X122.205 Y19.215 E.17576
G1 X120.992 Y22.162 E.17584
G1 X119.032 Y24.739 E.17864
G1 X116.38 Y26.774 E.18444
G1 X113.484 Y27.974 E.17294
G1 X112.146 Y28.161 E.07451
G1 X112.009 Y28.131 E.00774
G1 X111.916 Y27.96 E.01074
G1 X111.916 Y16.033 E.65806
G1 X111.861 Y15.624 E.02276
G1 X111.776 Y15.353 E.01564
G1 X111.594 Y15 E.02191
G1 X111.451 Y14.809 E.01317
G1 X111.322 Y14.675 E.01027
G1 X111.048 Y14.45 E.01957
G1 X110.878 Y14.344 E.01103
G1 X110.681 Y14.254 E.01197
G1 X110.406 Y14.168 E.01592
G1 X109.997 Y14.113 E.02277
G1 X98.296 Y14.11 E.64557
G1 X98.221 Y14.082 E.00443
G1 X98.944 Y13.384 F9000
G1 F1200
G1 X98.874 Y13.201 E.0108
G1 X98.923 Y12.903 E.01669
G1 X100.087 Y10.126 E.16612
G1 X101.956 Y7.7 E.16894
G1 X104.343 Y5.87 E.16595
G1 X107.215 Y4.68 E.17155
G1 X110.25 Y4.287 E.16883
G1 X113.232 Y4.68 E.16595
G1 X116.104 Y5.87 E.17155
G1 X118.528 Y7.738 E.16883
G1 X120.36 Y10.126 E.16603
G1 X121.535 Y12.947 E.16864
G1 X121.941 Y16.03 E.17154
G1 X121.536 Y19.063 E.16884
G1 X120.384 Y21.844 E.16608
G1 X118.564 Y24.236 E.1658
G1 X116.013 Y26.193 E.17739
G1 X113.328 Y27.305 E.16035
G1 X112.824 Y27.382 E.02813
G1 X112.687 Y27.353 E.00774
G1 X112.593 Y27.181 E.01079
G1 X112.593 Y16.045 E.61444
G1 X112.533 Y15.546 E.02771
G1 X112.375 Y15.037 E.02939
G1 X112.127 Y14.582 E.02863
G1 X111.818 Y14.214 E.0265
G1 X111.397 Y13.87 E.02997
G1 X110.975 Y13.644 E.02642
G1 X110.482 Y13.495 E.02843
G1 X109.985 Y13.435 E.02762
G1 X99.075 Y13.433 E.6019
G1 X99 Y13.405 E.00443
G1 X99.892 Y12.707 F9000
G1 F1200
G1 X99.824 Y12.585 E.00774
G1 X99.837 Y12.474 E.00615
G1 X100.693 Y10.448 E.12138
G1 X102.422 Y8.205 E.15625
G1 X104.663 Y6.478 E.1561
G1 X107.367 Y5.35 E.16161
G1 X110.275 Y4.973 E.16184
G1 X113.08 Y5.35 E.15611
G1 X115.737 Y6.451 E.15872
G1 X118.024 Y8.204 E.15896
G1 X119.779 Y10.492 E.1591
G1 X120.879 Y13.152 E.15879
G1 X121.255 Y16.056 E.16158
G1 X120.88 Y18.859 E.15604
G1 X119.802 Y21.479 E.15633
G1 X118.058 Y23.77 E.15882
G1 X115.693 Y25.585 E.1645
G1 X113.551 Y26.48 E.12808
G1 X113.411 Y26.486 E.00774
G1 X113.301 Y26.399 E.00774
G1 X113.27 Y26.293 E.00611
G1 X113.264 Y15.954 E.57039
G1 X113.175 Y15.329 E.03487
G1 X112.965 Y14.705 E.03633
G1 X112.726 Y14.267 E.02752
G1 X112.347 Y13.791 E.03356
G1 X111.837 Y13.356 E.03701
G1 X111.301 Y13.051 E.03397
G1 X110.693 Y12.852 E.03535
G1 X110.075 Y12.765 E.03439
G1 X100.024 Y12.756 E.55456
G1 X99.949 Y12.728 E.00443
G1 X100.913 Y12.031 F9000
G1 F1200
G1 X100.844 Y11.909 E.00774
G1 X100.858 Y11.797 E.00618
G1 X101.299 Y10.771 E.06163
G1 X102.889 Y8.708 E.14369
G1 X104.985 Y7.085 E.14628
G1 X107.57 Y6.007 E.15457
G1 X110.3 Y5.66 E.15184
G1 X112.927 Y6.02 E.14625
G1 X115.371 Y7.032 E.14601
G1 X117.52 Y8.671 E.14906
G1 X119.171 Y10.812 E.1492
G1 X120.222 Y13.354 E.15178
G1 X120.568 Y16.081 E.15166
G1 X120.211 Y18.707 E.14622
G1 X119.219 Y21.115 E.14369
G1 X117.553 Y23.305 E.1518
G1 X115.372 Y24.979 E.15169
G1 X114.228 Y25.464 E.06855
G1 X114.088 Y25.47 E.00774
G1 X113.977 Y25.383 E.00774
G1 X113.947 Y25.277 E.00613
G1 X113.932 Y15.847 E.52026
G1 X113.812 Y15.098 E.04183
G1 X113.552 Y14.369 E.04271
G1 X113.246 Y13.832 E.0341
G1 X112.779 Y13.27 E.04031
G1 X112.289 Y12.852 E.03553
G1 X111.643 Y12.467 E.0415
G1 X110.919 Y12.213 E.04234
G1 X110.182 Y12.096 E.04119
G1 X101.045 Y12.08 E.50412
G1 X100.969 Y12.052 E.00443
G1 X101.947 Y11.356 F9000
G1 F1200
G1 X101.878 Y11.233 E.00774
G1 X101.918 Y11.077 E.00887
G1 X103.356 Y9.211 E.12999
G1 X105.353 Y7.665 E.13935
G1 X107.774 Y6.663 E.14453
G1 X110.324 Y6.346 E.14177
