; HEADER_BLOCK_START
; generated by OrcaSlicer 2.0.0 on 2024-06-28 at 12:56:56
; total layer number: 235
; filament_density: 1.24
; filament_diameter: 1.75
; max_z_height: 47.00
; HEADER_BLOCK_END

; THUMBNAIL_BLOCK_START

;
; THUMBNAIL_BLOCK_END

; external perimeters extrusion width = 0.60mm
; perimeters extrusion width = 0.66mm
; infill extrusion width = 0.66mm
; solid infill extrusion width = 0.72mm
; top infill extrusion width = 0.56mm
; first layer extrusion width = 0.72mm

; EXECUTABLE_BLOCK_START
M73 P0 R188
M201 X2500 Y2500 Z400 E5000
M203 X180 Y180 Z12 E80
M204 P1250 R5000 T3000 ; sets acceleration (P, T) and retract acceleration (R), mm/sec^2
M205 X8.00 Y8.00 Z0.20 E10.00 ; sets the jerk limits, mm/sec
;TYPE:Custom
M862.3 P "MINI" ; printer model check
G90 ; use absolute coordinates
M83 ; extruder relative mode
M104 S170 ; set extruder temp for bed leveling
M140 S60 ; set bed temp
M109 R170 ; wait for bed leveling temp
M190 S60 ; wait for bed temp
M204 T1250 ; set travel acceleration
G28 ; home all without mesh bed level
G29 ; mesh bed leveling 
M204 T3000 ; restore travel acceleration
M104 S210 ; set extruder temp
G92 E0
G1 Y-2 X179 F2400
G1 Z3 F720
M109 S210 ; wait for extruder temp

; intro line
G1 X170 F1000
G1 Z0.2 F720
G1 X110 E8 F900
G1 X40 E10 F700
G92 E0

M221 S95 ; set flow
G90
G21
M83 ; use relative distances for extrusion
; filament start gcode
M900 K0.12 ; Filament gcode LA 1.5
; ; Filament gcode LA 1.0
M106 S0
;LAYER_CHANGE
;Z:0.2
;HEIGHT:0.2
;BEFORE_LAYER_CHANGE
;0.2
G92 E0

G1 E-3.2 F4200
;AFTER_LAYER_CHANGE
;0.2
;_SET_FAN_SPEED_CHANGING_LAYER
M204 P700
M205 X8 Y8
; printing object battery_cage2 - Battery Cage.stl id:2816 copy 0
M204 T700
G1 Z.4 F9000
G1 X110.134 Y152.274
G1 Z.4
G1 Z.2
G1 E3.2 F1800
;TYPE:Brim
;WIDTH:0.72
G1 F1200
G1 X113.457 Y150.897 E.19844
G1 X116.481 Y150.499 E.16827
G1 X116.482 Y154.222 E.20538
G1 X116.484 Y164.005 E.53979
G1 X116.539 Y164.206 E.01146
G1 X116.613 Y164.315 E.00729
G1 X116.713 Y164.415 E.0078
G1 X116.823 Y164.489 E.00729
G1 X117.023 Y164.544 E.01145
G1 X130.755 Y164.544 E.75768
G1 X130.331 Y167.771 E.1796
G1 X128.954 Y171.094 E.19844
G1 X126.765 Y173.947 E.19844
G1 X123.911 Y176.137 E.19843
G1 X120.589 Y177.513 E.19844
G1 X117.023 Y177.982 E.19844
G1 X113.457 Y177.513 E.19844
G1 X110.134 Y176.137 E.19844
G1 X107.281 Y173.947 E.19844
G1 X105.091 Y171.094 E.19844
G1 X103.715 Y167.771 E.19844
G1 X103.246 Y164.205 E.19844
G1 X103.715 Y160.639 E.19844
G1 X105.091 Y157.317 E.19844
G1 X107.281 Y154.463 E.19844
M73 P0 R187
G1 X110.087 Y152.31 E.19512
G1 X110.5 Y152.855 F9000
G1 F1200
G1 X113.609 Y151.567 E.18565
G1 X115.574 Y151.302 E.10942
G1 X115.711 Y151.332 E.00774
G1 X115.804 Y151.503 E.01071
G1 X115.807 Y163.992 E.68906
G1 X115.835 Y164.198 E.01148
G1 X115.882 Y164.37 E.00981
G1 X115.983 Y164.59 E.01339
G1 X116.141 Y164.8 E.01448
G1 X116.433 Y165.043 E.02096
G1 X116.659 Y165.146 E.0137
G1 X116.83 Y165.193 E.0098
G1 X117.036 Y165.221 E.01148
G1 X129.752 Y165.221 E.70155
G1 X129.883 Y165.269 E.00774
G1 X129.953 Y165.45 E.01071
G1 X129.661 Y167.619 E.12073
G1 X128.373 Y170.728 E.18565
G1 X126.261 Y173.481 E.19145
G1 X123.591 Y175.529 E.18565
G1 X120.437 Y176.843 E.18855
G1 X117.049 Y177.296 E.18855
G1 X113.609 Y176.843 E.19145
G1 X110.454 Y175.529 E.18855
G1 X107.785 Y173.481 E.18565
G1 X105.673 Y170.728 E.19145
G1 X104.385 Y167.619 E.18565
G1 X103.932 Y164.232 E.18855
G1 X104.385 Y160.791 E.19145
G1 X105.699 Y157.637 E.18855
G1 X107.747 Y154.967 E.18565
G1 X110.453 Y152.892 E.18814
G1 X110.821 Y153.463 F9000
G1 F1200
G1 X113.763 Y152.237 E.17585
G1 X114.897 Y152.076 E.0632
G1 X115.034 Y152.107 E.00774
G1 X115.127 Y152.278 E.01074
G1 X115.13 Y163.978 E.64557
G1 X115.185 Y164.387 E.02277
G1 X115.27 Y164.658 E.01565
G1 X115.452 Y165.011 E.02191
G1 X115.717 Y165.328 E.02281
G1 X115.99 Y165.555 E.01956
G1 X116.164 Y165.664 E.01134
G1 X116.366 Y165.757 E.01226
G1 X116.641 Y165.843 E.01591
G1 X117.05 Y165.898 E.02276
G1 X128.977 Y165.898 E.65806
G1 X129.109 Y165.946 E.00774
G1 X129.179 Y166.128 E.01074
G1 X128.991 Y167.466 E.07451
G1 X127.792 Y170.361 E.17294
G1 X125.794 Y172.976 E.18156
G1 X123.225 Y174.948 E.17869
G1 X120.232 Y176.187 E.17871
G1 X117.022 Y176.609 E.17863
G1 X113.813 Y176.187 E.17856
G1 X110.821 Y174.948 E.17868
G1 X108.252 Y172.976 E.17869
G1 X106.28 Y170.407 E.17866
G1 X105.041 Y167.415 E.17869
G1 X104.619 Y164.204 E.17868
G1 X105.041 Y160.996 E.17856
G1 X106.306 Y157.958 E.18156
G1 X108.252 Y155.434 E.17581
G1 X110.773 Y153.499 E.17535
G1 X111.142 Y154.07 F9000
G1 F1200
G1 X113.919 Y152.905 E.16617
G1 X114.219 Y152.856 E.01675
G1 X114.356 Y152.886 E.00774
G1 X114.45 Y153.057 E.0108
G1 X114.453 Y163.966 E.60191
G1 X114.513 Y164.465 E.02773
G1 X114.621 Y164.849 E.02199
G1 X114.847 Y165.314 E.0285
G1 X114.938 Y165.451 E.00912
G1 X115.296 Y165.858 E.02987
G1 X115.638 Y166.133 E.02422
G1 X115.893 Y166.285 E.01636
G1 X116.075 Y166.368 E.01105
G1 X116.425 Y166.484 E.02035
G1 X117.064 Y166.575 E.03564
G1 X128.199 Y166.575 E.61432
G1 X128.33 Y166.623 E.00774
G1 X128.4 Y166.806 E.01079
G1 X128.323 Y167.31 E.02813
G1 X127.21 Y169.996 E.16041
G1 X125.327 Y172.473 E.17166
G1 X122.904 Y174.34 E.16877
G1 X120.029 Y175.531 E.17172
G1 X117.048 Y175.923 E.16585
G1 X114.016 Y175.531 E.16868
G1 X111.141 Y174.34 E.1717
G1 X108.756 Y172.51 E.1659
G1 X106.888 Y170.087 E.16878
G1 X105.697 Y167.212 E.1717
G1 X105.305 Y164.231 E.1659
G1 X105.697 Y161.2 E.16863
G1 X106.913 Y158.279 E.17455
G1 X108.755 Y155.901 E.16595
G1 X111.094 Y154.106 E.16267
G1 X111.463 Y154.676 F9000
G1 F1200
G1 X113.492 Y153.818 E.1215
G1 X113.632 Y153.812 E.00774
G1 X113.743 Y153.898 E.00774
G1 X113.773 Y154.006 E.00616
G1 X113.776 Y163.956 E.54897
G1 X113.839 Y164.533 E.03208
G1 X113.966 Y165.019 E.02769
G1 X114.233 Y165.599 E.03523
G1 X114.438 Y165.907 E.02039
G1 X114.883 Y166.394 E.03642
G1 X115.302 Y166.721 E.02935
G1 X115.786 Y166.98 E.03028
G1 X116.338 Y167.156 E.03192
G1 X117.078 Y167.252 E.04118
G1 X127.31 Y167.252 E.56456
G1 X127.442 Y167.301 E.00774
G1 X127.511 Y167.423 E.00774
G1 X127.498 Y167.533 E.00612
G1 X126.602 Y169.677 E.1282
G1 X124.821 Y172.008 E.16185
G1 X122.537 Y173.76 E.1588
G1 X119.877 Y174.861 E.15888
G1 X117.074 Y175.237 E.15602
G1 X114.219 Y174.874 E.15878
G1 X111.461 Y173.733 E.16468
G1 X109.222 Y172.005 E.15604
G1 X107.496 Y169.766 E.15599
G1 X106.367 Y167.06 E.16178
G1 X105.991 Y164.256 E.15607
G1 X106.353 Y161.403 E.15867
G1 X107.493 Y158.648 E.16454
G1 X109.221 Y156.406 E.15614
G1 X111.416 Y154.713 E.15296
G1 X111.787 Y155.282 F9000
G1 F1200
G1 X112.814 Y154.84 E.0617
G1 X112.954 Y154.833 E.00774
G1 X113.065 Y154.919 E.00774
G1 X113.097 Y155.027 E.0062
G1 X113.099 Y163.945 E.49205
G1 X113.165 Y164.595 E.03601
G1 X113.307 Y165.176 E.033
G1 X113.613 Y165.87 E.04184
G1 X113.948 Y166.375 E.03346
G1 X114.372 Y166.84 E.03471
G1 X114.876 Y167.247 E.03573
G1 X115.454 Y167.57 E.03653
G1 X116.258 Y167.828 E.0466
G1 X117.09 Y167.929 E.04623
G1 X126.294 Y167.929 E.5078
G1 X126.425 Y167.978 E.00774
G1 X126.494 Y168.1 E.00774
G1 X126.481 Y168.211 E.00615
G1 X125.995 Y169.356 E.06866
G1 X124.354 Y171.504 E.14913
G1 X122.171 Y173.178 E.15179
G1 X119.724 Y174.192 E.14615
G1 X117.098 Y174.55 E.14623
G1 X114.369 Y174.204 E.15176
G1 X111.782 Y173.125 E.15465
G1 X109.689 Y171.502 E.14616
G1 X108.076 Y169.399 E.14622
G1 X107.023 Y166.855 E.1519
G1 X106.677 Y164.228 E.14621
G1 X107.024 Y161.553 E.14879
G1 X108.074 Y159.015 E.15159
G1 X109.687 Y156.909 E.14633
G1 X111.74 Y155.319 E.14326
G1 X112.092 Y155.902 F9000
G1 F1200
G1 X112.226 Y155.86 E.00774
G1 X112.355 Y155.914 E.00774
G1 X112.42 Y156.062 E.00893
G1 X112.422 Y163.935 E.43435
G1 X112.51 Y164.767 E.04619
G1 X112.694 Y165.463 E.0397
G1 X112.987 Y166.128 E.04009
G1 X113.377 Y166.739 E.04001
G1 X113.864 Y167.287 E.04041
G1 X114.439 Y167.764 E.04124
G1 X115.116 Y168.157 E.04319
G1 X115.257 Y168.218 E.00846
G1 X116.185 Y168.501 E.05356
G1 X117.102 Y168.606 E.05089
G1 X125.271 Y168.606 E.45075
G1 X125.403 Y168.655 E.00774
G1 X125.472 Y168.777 E.00774
G1 X125.458 Y168.889 E.00621
G1 X125.39 Y169.034 E.00884
G1 X123.887 Y171 E.13654
G1 X121.805 Y172.597 E.14478
G1 X119.52 Y173.536 E.13633
G1 X117.121 Y173.864 E.13355
G1 X114.52 Y173.533 E.14467
G1 X112.105 Y172.518 E.14456
G1 X110.157 Y171 E.13627
G1 X108.657 Y169.033 E.13646
G1 X107.679 Y166.652 E.14201
G1 X107.364 Y164.201 E.13635
G1 X107.694 Y161.705 E.13893
G1 X108.656 Y159.38 E.13877
G1 X110.155 Y157.412 E.13655
G1 X112.045 Y155.939 E.13217
G1 X111.549 Y157.246 F9000
G1 F1200
G1 X111.678 Y157.3 E.00774
G1 X111.743 Y157.448 E.00896
G1 X111.745 Y163.925 E.35732
G1 X111.836 Y164.825 E.04994
G1 X112.036 Y165.623 E.04536
G1 X112.362 Y166.389 E.04593
G1 X112.8 Y167.092 E.04574
G1 X113.349 Y167.726 E.04628
G1 X113.995 Y168.275 E.04675
G1 X114.856 Y168.781 E.0551
G1 X115.068 Y168.868 E.01266
G1 X116.117 Y169.175 E.06028
G1 X117.113 Y169.283 E.05528
G1 X123.936 Y169.283 E.37646
G1 X124.067 Y169.332 E.00774
G1 X124.136 Y169.454 E.00774
G1 X124.097 Y169.61 E.00886
G1 X123.382 Y170.534 E.06446
G1 X121.439 Y172.015 E.1348
G1 X119.317 Y172.881 E.12648
G1 X117.092 Y173.178 E.12385
G1 X114.672 Y172.862 E.13465
G1 X112.475 Y171.939 E.13147
G1 X110.626 Y170.499 E.12931
G1 X109.239 Y168.668 E.12669
G1 X108.349 Y166.502 E.12923
G1 X108.05 Y164.176 E.12939
G1 X108.35 Y161.908 E.12623
G1 X109.238 Y159.745 E.12898
G1 X110.662 Y157.876 E.12966
G1 X111.415 Y157.288 E.0527
G1 X111.492 Y157.264 E.00443
G1 E-2.24 F4200
;WIPE_START
G1 F1200
G1 X111.678 Y157.3 E-.18242
G1 X111.743 Y157.448 E-.15582
G1 X111.743 Y158.096 E-.62176
;WIPE_END
G1 Z.6 F9000
G1 X110.959 Y158.884 Z.6
G1 Z.2
G1 E3.2 F1800
G1 F1200
G1 X111.052 Y158.989 E.00774
G1 X111.066 Y159.063 E.00417
G1 X111.068 Y163.915 E.26769
G1 X111.161 Y164.88 E.05349
G1 X111.376 Y165.774 E.05074
G1 X111.734 Y166.641 E.05174
G1 X112.218 Y167.439 E.05148
G1 X112.829 Y168.16 E.05213
G1 X113.545 Y168.781 E.05231
G1 X114.502 Y169.359 E.06167
G1 X114.889 Y169.521 E.02318
G1 X115.911 Y169.82 E.05872
G1 X117.029 Y169.955 E.06218
G1 X122.416 Y169.96 E.29721
G1 X122.548 Y170.009 E.00774
G1 X122.617 Y170.131 E.00774
G1 X122.59 Y170.269 E.00774
G1 X122.539 Y170.325 E.00416
G1 X121.075 Y171.433 E.10128
G1 X119.165 Y172.211 E.11381
G1 X117.064 Y172.491 E.11696
G1 X114.824 Y172.192 E.12466
G1 X112.845 Y171.36 E.11847
G1 X111.133 Y170.035 E.11942
G1 X109.822 Y168.305 E.11977
G1 X109.006 Y166.301 E.11943
G1 X108.736 Y164.203 E.11665
G1 X109.007 Y162.11 E.11648
G1 X109.82 Y160.109 E.11916
G1 X110.702 Y158.94 E.08077
G1 X110.82 Y158.865 E.00774
G1 X110.9 Y158.876 E.00443
G1 E-2.24 F4200
;WIPE_START
G1 F1200
G1 X111.052 Y158.989 E-.18242
G1 X111.066 Y159.063 E-.0726
G1 X111.067 Y159.798 E-.70498
;WIPE_END
G1 Z.6 F9000
G1 X110.232 Y161.346 Z.6
G1 Z.2
G1 E3.2 F1800
G1 F1200
G1 X110.35 Y161.423 E.00774
G1 X110.39 Y161.544 E.00704
G1 X110.391 Y163.906 E.13032
G1 X110.486 Y164.932 E.05687
G1 X110.714 Y165.918 E.05584
G1 X111.163 Y167.005 E.06488
G1 X111.711 Y167.888 E.05732
G1 X112.303 Y168.586 E.0505
G1 X113.202 Y169.365 E.06562
G1 X114.252 Y169.988 E.06735
G1 X114.708 Y170.174 E.0272
G1 X115.844 Y170.494 E.06514
G1 X117.04 Y170.632 E.06643
G1 X120.201 Y170.635 E.17439
G1 X120.333 Y170.684 E.00774
G1 X120.402 Y170.806 E.00774
G1 X120.375 Y170.944 E.00774
G1 X120.278 Y171.027 E.00703
G1 X118.964 Y171.555 E.07812
G1 X117.091 Y171.805 E.10427
G1 X115.03 Y171.536 E.11465
G1 X113.214 Y170.781 E.10856
G1 X111.64 Y169.571 E.1095
G1 X110.432 Y167.989 E.10986
G1 X109.663 Y166.101 E.11248
G1 X109.422 Y164.23 E.10408
G1 X109.664 Y162.31 E.10677
G1 X109.999 Y161.468 E.05
G1 X110.093 Y161.364 E.00774
G1 X110.173 Y161.354 E.00443
G1 E-2.24 F4200
;WIPE_START
G1 F1200
G1 X110.35 Y161.423 E-.18242
G1 X110.39 Y161.544 E-.12254
G1 X110.39 Y162.226 E-.65504
;WIPE_END
G1 Z.6 F9000
G1 X144.517 Y164.537 Z.6
G1 Z.2
G1 E3.2 F1800
G1 F1200
G1 X158.023 Y164.533 E.74517
G1 X158.152 Y164.507 E.00729
G1 X158.333 Y164.405 E.01146
G1 X158.433 Y164.305 E.0078
G1 X158.506 Y164.195 E.00729
G1 X158.561 Y163.995 E.01146
G1 X158.558 Y150.262 E.75765
G1 X161.789 Y150.687 E.17979
G1 X165.111 Y152.063 E.19843
G1 X167.965 Y154.253 E.19843
G1 X170.154 Y157.106 E.19843
G1 X171.531 Y160.429 E.19844
G1 X172 Y163.995 E.19844
G1 X171.531 Y167.561 E.19844
G1 X170.154 Y170.883 E.19844
G1 X167.965 Y173.737 E.19844
G1 X165.111 Y175.926 E.19843
G1 X161.789 Y177.302 E.19844
G1 X158.223 Y177.772 E.19844
G1 X154.657 Y177.302 E.19844
G1 X151.334 Y175.926 E.19844
G1 X148.481 Y173.737 E.19844
G1 X146.291 Y170.883 E.19844
G1 X144.915 Y167.561 E.19844
G1 X144.525 Y164.596 E.16496
G1 X145.35 Y165.306 F9000
G1 F1200
G1 X145.521 Y165.214 E.01071
G1 X158.009 Y165.21 E.68902
G1 X158.274 Y165.173 E.01478
G1 X158.502 Y165.088 E.01339
G1 X158.656 Y165 E.00981
G1 X158.822 Y164.874 E.01149
G1 X159.063 Y164.579 E.021
G1 X159.164 Y164.358 E.01339
G1 X159.211 Y164.187 E.00981
G1 X159.238 Y163.981 E.01149
G1 X159.235 Y151.266 E.70152
G1 X159.284 Y151.134 E.00774
G1 X159.465 Y151.065 E.01071
G1 X161.585 Y151.343 E.11801
G1 X164.791 Y152.671 E.19144
G1 X167.461 Y154.719 E.18565
G1 X169.546 Y157.426 E.18855
G1 X170.874 Y160.632 E.19145
G1 X171.314 Y163.968 E.18565
G1 X170.874 Y167.357 E.18855
G1 X169.546 Y170.563 E.19145
G1 X167.498 Y173.233 E.18565
G1 X164.791 Y175.318 E.18855
G1 X161.585 Y176.646 E.19145
G1 X158.249 Y177.085 E.18565
G1 X154.86 Y176.646 E.18855
G1 X151.654 Y175.318 E.19145
G1 X148.947 Y173.233 E.18855
G1 X146.873 Y170.517 E.18855
G1 X145.585 Y167.408 E.18565
G1 X145.319 Y165.443 E.10942
G1 X145.337 Y165.365 E.00443
G1 X146.124 Y165.984 F9000
G1 F1200
G1 X146.295 Y165.89 E.01074
G1 X157.997 Y165.887 E.64562
G1 X158.354 Y165.845 E.01986
G1 X158.73 Y165.724 E.02179
G1 X158.984 Y165.592 E.01579
G1 X159.224 Y165.418 E.01638
G1 X159.353 Y165.294 E.00985
G1 X159.578 Y165.018 E.01962
G1 X159.684 Y164.849 E.01104
G1 X159.774 Y164.651 E.01197
G1 X159.86 Y164.376 E.01592
G1 X159.915 Y163.967 E.02277
G1 X159.912 Y152.038 E.65817
G1 X159.961 Y151.906 E.00774
G1 X160.142 Y151.836 E.01071
G1 X161.382 Y151.999 E.06901
G1 X164.471 Y153.279 E.18445
G1 X166.994 Y155.224 E.17579
G1 X168.939 Y157.747 E.17576
G1 X170.218 Y160.835 E.18444
G1 X170.627 Y163.995 E.17579
G1 X170.218 Y167.154 E.17576
G1 X168.939 Y170.243 E.18444
G1 X166.994 Y172.766 E.17579
G1 X164.47 Y174.711 E.17576
G1 X161.382 Y175.99 E.18444
G1 X158.222 Y176.399 E.17579
G1 X155.063 Y175.99 E.17576
G1 X152.021 Y174.738 E.18148
G1 X149.415 Y172.729 E.18154
G1 X147.454 Y170.152 E.17869
G1 X146.254 Y167.255 E.173
G1 X146.094 Y166.121 E.0632
G1 X146.111 Y166.042 E.00443
G1 X146.903 Y166.662 F9000
G1 F1200
G1 X147.075 Y166.567 E.01079
G1 X158.086 Y166.558 E.60754
G1 X158.574 Y166.485 E.02722
G1 X159.055 Y166.318 E.02813
G1 X159.392 Y166.133 E.02118
G1 X159.613 Y165.973 E.01506
G1 X159.816 Y165.787 E.01521
G1 X160.158 Y165.367 E.02984
G1 X160.385 Y164.943 E.02659
G1 X160.502 Y164.591 E.02044
G1 X160.585 Y164.069 E.02918
G1 X160.59 Y152.81 E.62119
G1 X160.638 Y152.678 E.00774
G1 X160.819 Y152.608 E.0107
G1 X161.179 Y152.656 E.02002
G1 X164.15 Y153.886 E.17743
G1 X166.491 Y155.69 E.16305
G1 X168.331 Y158.068 E.16588
G1 X169.562 Y161.038 E.17739
G1 X169.941 Y163.969 E.16305
G1 X169.561 Y166.952 E.16588
G1 X168.331 Y169.922 E.17739
G1 X166.527 Y172.263 E.16305
G1 X164.15 Y174.103 E.16588
G1 X161.179 Y175.334 E.17739
G1 X158.196 Y175.713 E.16591
G1 X155.265 Y175.333 E.16308
G1 X152.341 Y174.129 E.17444
G1 X149.883 Y172.226 E.17152
G1 X148.036 Y169.787 E.16881
G1 X146.922 Y167.099 E.16054
G1 X146.874 Y166.799 E.01678
G1 X146.891 Y166.72 E.00443
G1 X147.826 Y167.384 F9000
G1 F1200
G1 X147.913 Y167.274 E.00774
G1 X148.019 Y167.244 E.00611
G1 X158.073 Y167.235 E.55471
G1 X158.66 Y167.157 E.03265
G1 X159.265 Y166.962 E.03509
G1 X159.71 Y166.73 E.02768
G1 X160.075 Y166.466 E.02486
G1 X160.349 Y166.205 E.0209
G1 X160.672 Y165.808 E.02821
G1 X160.976 Y165.273 E.034
G1 X161.141 Y164.816 E.02677
G1 X161.251 Y164.188 E.0352
G1 X161.266 Y153.728 E.57708
G1 X161.315 Y153.597 E.00774
G1 X161.437 Y153.528 E.00774
G1 X161.547 Y153.541 E.0061
G1 X163.829 Y154.494 E.13645
G1 X165.988 Y156.158 E.15037
