; generated by PrusaSlicer 2.7.4 on 2024-05-06 at 12:49:17 UTC


;
;
; 

; external perimeters extrusion width = 0.45mm
; perimeters extrusion width = 0.45mm
; infill extrusion width = 0.45mm
; solid infill extrusion width = 0.45mm
; top infill extrusion width = 0.40mm
; first layer extrusion width = 0.42mm

M73 P0 R53
M73 Q0 S53
M201 X1000 Y1000 Z200 E5000 ; sets maximum accelerations, mm/sec^2
M203 X200 Y200 Z12 E120 ; sets maximum feedrates, mm / sec
M204 S1250 T1250 ; sets acceleration (S) and retract acceleration (R), mm/sec^2
M205 X8.00 Y8.00 Z0.40 E4.50 ; sets the jerk limits, mm/sec
M205 S0 T0 ; sets the minimum extruding and travel feed rate, mm/sec

; printing object Bohrfuehrung_Stange.stl id:0 copy 0
; stop printing object Bohrfuehrung_Stange.stl id:0 copy 0

;TYPE:Custom
M862.3 P "MK3S" ; printer model check
M862.1 P0.4 ; nozzle diameter check
M115 U3.13.3 ; tell printer latest fw version
G90 ; use absolute coordinates
M83 ; extruder relative mode
M104 S215 ; set extruder temp
M140 S60 ; set bed temp
M190 S60 ; wait for bed temp
M109 S215 ; wait for extruder temp
G28 W ; home all without mesh bed level
G80 X102.234 Y87.2344 W45.5312 H35.5312 ; mesh bed levelling

G1 Z0.2 F720
G1 Y-3 F1000 ; go outside print area
G92 E0
G1 X60 E9 F1000 ; intro line
G1 X100 E12.5 F1000 ; intro line
M73 P0 R52

G92 E0
M221 S95

; Don't change E values below. Excessive value can damage the printer.

M907 E538 ; set extruder motor current
G21 ; set units to millimeters
G90 ; use absolute coordinates
M83 ; use relative distances for extrusion

M900 K0.05 ; Filament gcode LA 1.5
M900 K30 ; Filament gcode LA 1.0




M107
;LAYER_CHANGE
;Z:0.2
;HEIGHT:0.2
G1 E-.8 F2100
G1 Z.6 F720
G1 X105.64 Y91.477 F10800
G1 Z.2 F720
G1 E.8 F2100
M204 S800
;TYPE:Skirt/Brim
;WIDTH:0.42
G1 F1200
G1 X107.225 Y90.013 E.06765
G1 X109.039 Y88.846 E.06763
G1 X111.029 Y88.012 E.06765
G1 X113.133 Y87.536 E.06764
G1 X114.8 Y87.423 E.05239
G1 X135.252 Y87.423 E.64126
G1 X137.298 Y87.603 E.0644
G1 X139.343 Y88.138 E.06628
G1 X140.961 Y88.846 E.05538
G1 X142.693 Y89.949 E.06438
G1 X143.988 Y91.085 E.05401
G1 X145.368 Y92.744 E.06766
G1 X146.395 Y94.523 E.06441
G1 X147.019 Y96.128 E.05399
G1 X147.397 Y97.702 E.05075
G1 X147.567 Y99.312 E.05076
G1 X147.577 Y110.2 E.34139
G1 X147.477 Y111.764 E.04914
G1 X147.141 Y113.453 E.054
G1 X146.439 Y115.384 E.06442
G1 X145.61 Y116.894 E.05401
G1 X144.36 Y118.523 E.06438
G1 X143.6 Y119.29 E.03386
G1 X142.693 Y120.051 E.03712
G1 X141.806 Y120.666 E.03384
G1 X140.478 Y121.395 E.0475
G1 X139.482 Y121.812 E.03386
G1 X138.353 Y122.168 E.03712
G1 X136.867 Y122.464 E.04751
G1 X135.688 Y122.567 E.03711
G1 X114.8 Y122.577 E.65493
G1 X113.236 Y122.477 E.04914
G1 X111.547 Y122.141 E.054
G1 X109.616 Y121.439 E.06442
G1 X108.106 Y120.61 E.05401
G1 X106.477 Y119.36 E.06438
G1 X105.71 Y118.6 E.03386
G1 X104.949 Y117.693 E.03712
G1 X104.13 Y116.47 E.04615
G1 X103.605 Y115.477 E.03522
G1 X103.152 Y114.384 E.0371
G1 X102.728 Y112.929 E.04752
G1 X102.523 Y111.764 E.03709
G1 X102.433 Y110.688 E.03386
G1 X102.423 Y99.748 E.34302
G1 X102.603 Y97.702 E.0644
G1 X102.981 Y96.128 E.05075
G1 X103.605 Y94.522 E.05402
G1 X104.608 Y92.78 E.06303
G1 X105.603 Y91.524 E.05024
M204 S1000
;WIPE_START
G1 F8640
G1 X105.64 Y91.477 E-.01381
G1 X107.225 Y90.013 E-.49821
G1 X108.274 Y89.338 E-.28798
;WIPE_END
G1 Z.6 F720
; printing object Bohrfuehrung_Stange.stl id:0 copy 0
G1 X108.038 Y115.886 F10800
G1 Z.2 F720
G1 E.8 F2100
M204 S800
;TYPE:Perimeter
;WIDTH:0.419999
G1 F1200
G1 X107.364 Y114.969 E.03568
G1 X106.963 Y114.278 E.02505
G1 X106.642 Y113.59 E.0238
G1 X106.264 Y112.477 E.03685
G1 X106.099 Y111.734 E.02386
G1 X105.999 Y110.97 E.02416
G1 X105.964 Y110.177 E.02489
G1 X105.964 Y99.823 E.32464
G1 X105.999 Y99.03 E.02489
G1 X106.099 Y98.266 E.02416
G1 X106.266 Y97.513 E.02418
G1 X106.483 Y96.823 E.02268
G1 X106.969 Y95.711 E.03805
G1 X107.349 Y95.053 E.02382
G1 X107.763 Y94.46 E.02268
G1 X108.561 Y93.545 E.03807
G1 X109.121 Y93.032 E.02381
G1 X109.733 Y92.563 E.02418
G1 X110.383 Y92.149 E.02416
G1 X111.066 Y91.793 E.02415
G1 X111.778 Y91.498 E.02416
G1 X112.513 Y91.266 E.02417
G1 X113.266 Y91.099 E.02418
G1 X114.03 Y90.999 E.02416
G1 X114.823 Y90.964 E.02489
G1 X135.537 Y90.973 E.64947
G1 X136.745 Y91.102 E.03809
G1 X137.487 Y91.266 E.02383
G1 X138.222 Y91.498 E.02417
G1 X138.934 Y91.793 E.02416
G1 X139.617 Y92.149 E.02415
G1 X140.267 Y92.563 E.02416
G1 X140.879 Y93.032 E.02418
G1 X141.447 Y93.553 E.02417
G1 X141.968 Y94.121 E.02417
G1 X142.437 Y94.733 E.02418
G1 X142.851 Y95.383 E.02416
G1 X143.207 Y96.066 E.02415
G1 X143.498 Y96.769 E.02386
G1 X143.824 Y97.888 E.03654
G1 X144.002 Y99.04 E.03655
G1 X144.036 Y100.017 E.03065
G1 X144.036 Y110.167 E.31825
G1 X143.957 Y111.363 E.03758
G1 X143.825 Y112.112 E.02385
G1 X143.626 Y112.857 E.02418
G1 X143.362 Y113.581 E.02416
G1 X143.037 Y114.28 E.02417
G1 X142.651 Y114.947 E.02416
G1 X142.215 Y115.57 E.02384
G1 X141.44 Y116.454 E.03686
G1 X140.879 Y116.968 E.02386
G1 X140.275 Y117.431 E.02386
G1 X139.27 Y118.041 E.03686
G1 X138.581 Y118.362 E.02383
G1 X137.866 Y118.623 E.02387
G1 X136.724 Y118.902 E.03686
G1 X135.97 Y119.001 E.02384
G1 X135.177 Y119.036 E.02489
G1 X114.823 Y119.036 E.63818
G1 X114.03 Y119.001 E.02489
G1 X113.266 Y118.901 E.02416
G1 X112.513 Y118.734 E.02418
G1 X111.778 Y118.502 E.02417
G1 X111.066 Y118.207 E.02416
G1 X110.383 Y117.851 E.02415
G1 X109.733 Y117.437 E.02416
G1 X109.121 Y116.968 E.02418
G1 X108.553 Y116.447 E.02417
G1 X108.079 Y115.93 E.02199
M204 S1000
G1 X108.079 Y115.93 F10800
G1 X107.747 Y116.126
M204 S800
G1 F1200
G1 X107.048 Y115.176 E.03698
G1 X106.628 Y114.453 E.02622
G1 X106.291 Y113.731 E.02498
G1 X105.9 Y112.578 E.03817
G1 X105.728 Y111.8 E.02498
G1 X105.623 Y111.003 E.02521
G1 X105.587 Y110.185 E.02567
G1 X105.587 Y99.815 E.32514
G1 X105.623 Y98.997 E.02567
M73 Q0 S52
G1 X105.728 Y98.2 E.02521
G1 X105.902 Y97.415 E.02521
G1 X106.129 Y96.691 E.02379
G1 X106.632 Y95.54 E.03938
G1 X107.031 Y94.85 E.02499
G1 X107.465 Y94.228 E.02378
G1 X108.291 Y93.281 E.0394
G1 X108.878 Y92.743 E.02497
G1 X109.516 Y92.254 E.0252
G1 X110.194 Y91.822 E.02521
G1 X110.907 Y91.451 E.0252
G1 X111.649 Y91.143 E.02519
G1 X112.416 Y90.902 E.02521
G1 X113.2 Y90.728 E.02518
G1 X113.997 Y90.623 E.02521
G1 X114.815 Y90.587 E.02567
G1 X135.557 Y90.596 E.65035
G1 X136.806 Y90.729 E.03938
G1 X137.584 Y90.902 E.02499
G1 X138.351 Y91.143 E.02521
G1 X139.093 Y91.451 E.02519
G1 X139.806 Y91.822 E.0252
G1 X140.484 Y92.254 E.02521
G1 X141.122 Y92.743 E.0252
G1 X141.714 Y93.286 E.02519
G1 X142.257 Y93.878 E.02519
G1 X142.746 Y94.516 E.0252
G1 X143.178 Y95.194 E.02521
G1 X143.549 Y95.907 E.0252
G1 X143.854 Y96.644 E.02501
G1 X144.193 Y97.806 E.03795
G1 X144.378 Y99.003 E.03798
G1 X144.413 Y100.017 E.03181
G1 X144.413 Y110.179 E.31862
G1 X144.332 Y111.409 E.03865
G1 X144.194 Y112.194 E.02499
G1 X143.986 Y112.97 E.02519
G1 X143.711 Y113.725 E.02519
G1 X143.371 Y114.454 E.02522
G1 X142.97 Y115.15 E.02519
G1 X142.512 Y115.803 E.02501
G1 X141.71 Y116.718 E.03815
G1 X141.122 Y117.257 E.02501
G1 X140.489 Y117.743 E.02502
G1 X139.448 Y118.374 E.03817
G1 X138.725 Y118.711 E.02501
G1 X137.976 Y118.984 E.025
G1 X136.794 Y119.273 E.03815
G1 X136.003 Y119.377 E.02501
G1 X135.185 Y119.413 E.02567
G1 X114.815 Y119.413 E.63869
G1 X113.997 Y119.377 E.02567
G1 X113.2 Y119.272 E.02521
G1 X112.416 Y119.098 E.02518
G1 X111.649 Y118.857 E.02521
G1 X110.907 Y118.549 E.02519
G1 X110.194 Y118.178 E.0252
G1 X109.516 Y117.746 E.02521
G1 X108.878 Y117.257 E.0252
G1 X108.286 Y116.714 E.02519
G1 X107.787 Y116.17 E.02315
M204 S1000
G1 X107.787 Y116.17 F10800
G1 X107.455 Y116.365
M204 S800
;TYPE:External perimeter
G1 F1200
G1 X106.733 Y115.383 E.03822
G1 X106.294 Y114.628 E.02738
G1 X105.941 Y113.871 E.02619
G1 X105.537 Y112.68 E.03943
G1 X105.356 Y111.865 E.02618
G1 X105.247 Y111.036 E.02622
G1 X105.21 Y110.193 E.02646
G1 X105.21 Y99.807 E.32565
G1 X105.247 Y98.964 E.02646
G1 X105.356 Y98.135 E.02622
G1 X105.537 Y97.318 E.02624
G1 X105.776 Y96.559 E.02495
G1 X106.295 Y95.37 E.04068
G1 X106.712 Y94.647 E.02617
G1 X107.168 Y93.995 E.02495
G1 X108.021 Y93.017 E.04069
G1 X108.636 Y92.454 E.02614
G1 X109.3 Y91.945 E.02623
G1 X110.005 Y91.495 E.02622
G1 X110.747 Y91.109 E.02622
G1 X111.52 Y90.789 E.02623
G1 X112.318 Y90.537 E.02624
G1 X113.135 Y90.356 E.02624
G1 X113.964 Y90.247 E.02622
G1 X114.807 Y90.21 E.02646
G1 X135.577 Y90.219 E.65123
G1 X136.867 Y90.356 E.04067
G1 X137.682 Y90.537 E.02618
G1 X138.48 Y90.789 E.02624
G1 X139.253 Y91.109 E.02623
G1 X139.995 Y91.495 E.02622
G1 X140.7 Y91.945 E.02622
G1 X141.364 Y92.454 E.02623
G1 X141.981 Y93.019 E.02623
G1 X142.546 Y93.636 E.02623
G1 X143.055 Y94.3 E.02623
G1 X143.505 Y95.005 E.02622
G1 X143.891 Y95.747 E.02622
G1 X144.211 Y96.518 E.02617
G1 X144.562 Y97.725 E.03941
G1 X144.753 Y98.966 E.03937
G1 X144.79 Y100.017 E.03297
G1 X144.79 Y110.191 E.319
G1 X144.707 Y111.454 E.03969
G1 X144.562 Y112.276 E.02617
G1 X144.346 Y113.084 E.02622
G1 X144.06 Y113.87 E.02623
G1 X143.706 Y114.628 E.02623
G1 X143.288 Y115.353 E.02624
G1 X142.809 Y116.036 E.02616
G1 X141.979 Y116.982 E.03946
G1 X141.364 Y117.546 E.02616
G1 X140.702 Y118.054 E.02616
G1 X139.626 Y118.707 E.03946
G1 X138.87 Y119.06 E.02616
G1 X138.085 Y119.345 E.02619
G1 X136.863 Y119.644 E.03945
G1 X136.036 Y119.753 E.02615
G1 X135.193 Y119.79 E.02646
G1 X114.807 Y119.79 E.63919
G1 X113.964 Y119.753 E.02646
M73 P1 R52
M73 Q1 S52
G1 X113.135 Y119.644 E.02622
G1 X112.318 Y119.463 E.02624
G1 X111.52 Y119.211 E.02624
G1 X110.747 Y118.891 E.02623
G1 X110.005 Y118.505 E.02622
G1 X109.3 Y118.055 E.02622
G1 X108.636 Y117.546 E.02623
G1 X108.019 Y116.981 E.02623
G1 X107.496 Y116.41 E.02428
M204 S1000
;WIPE_START
G1 F8640
G1 X107.455 Y116.365 E-.01406
G1 X106.733 Y115.383 E-.28144
G1 X106.294 Y114.628 E-.20166
G1 X105.941 Y113.871 E-.19286
G1 X105.788 Y113.42 E-.10998
;WIPE_END
G1 Z.6 F720
G1 X123.627 Y103.089 F10800
G1 Z.2 F720
G1 E.8 F2100
M204 S800
;TYPE:Perimeter
G1 F1200
G1 X123.713 Y103.019 E.00348
G1 X124.096 Y102.819 E.01355
G1 X124.53 Y102.684 E.01425
G1 X125 Y102.639 E.0148
G1 X125.491 Y102.689 E.01547
G1 X125.903 Y102.819 E.01355
G1 X126.338 Y103.053 E.01549
G1 X126.669 Y103.33 E.01353
G1 X126.981 Y103.713 E.01549
G1 X127.181 Y104.096 E.01355
G1 X127.322 Y104.569 E.01548
G1 X127.361 Y105 E.01357
G1 X127.311 Y105.491 E.01547
G1 X127.162 Y105.942 E.01489
G1 X126.947 Y106.338 E.01413
G1 X126.67 Y106.669 E.01353
G1 X126.287 Y106.981 E.01549
G1 X125.904 Y107.181 E.01355
G1 X125.431 Y107.322 E.01548
G1 X125 Y107.361 E.01357
G1 X124.509 Y107.311 E.01547
G1 X124.097 Y107.181 E.01355
G1 X123.662 Y106.947 E.01549
G1 X123.331 Y106.67 E.01353
G1 X123.019 Y106.287 E.01549
G1 X122.819 Y105.904 E.01355
G1 X122.678 Y105.431 E.01548
G1 X122.639 Y105 E.01357
G1 X122.689 Y104.509 E.01547
G1 X122.819 Y104.097 E.01355
G1 X123.053 Y103.662 E.01549
G1 X123.33 Y103.331 E.01353
G1 X123.581 Y103.127 E.01014
M204 S1000
G1 X123.581 Y103.127 F10800
G1 X123.852 Y103.389
M204 S800
G1 F1200
G1 X123.902 Y103.346 E.00207
G1 X124.218 Y103.176 E.01125
G1 X124.595 Y103.055 E.01241
G1 X124.975 Y103.015 E.01198
G1 X125.393 Y103.054 E.01316
G1 X125.737 Y103.157 E.01126
G1 X126.108 Y103.352 E.01314
G1 X126.386 Y103.579 E.01125
G1 X126.654 Y103.902 E.01316
G1 X126.824 Y104.218 E.01125
G1 X126.949 Y104.618 E.01314
G1 X126.985 Y104.975 E.01125
G1 X126.946 Y105.393 E.01316
G1 X126.824 Y105.775 E.01257
G1 X126.648 Y106.108 E.01181
G1 X126.421 Y106.386 E.01125
G1 X126.098 Y106.654 E.01316
G1 X125.782 Y106.824 E.01125
G1 X125.382 Y106.949 E.01314
G1 X125.025 Y106.985 E.01125
G1 X124.607 Y106.946 E.01316
G1 X124.263 Y106.843 E.01126
G1 X123.892 Y106.648 E.01314
G1 X123.614 Y106.421 E.01125
G1 X123.346 Y106.098 E.01316
G1 X123.176 Y105.782 E.01125
G1 X123.051 Y105.382 E.01314
G1 X123.015 Y105.025 E.01125
G1 X123.054 Y104.607 E.01316
G1 X123.223 Y104.13 E.01587
G1 X123.503 Y103.695 E.01622
G1 X123.807 Y103.428 E.01269
M204 S1000
G1 X123.807 Y103.428 F10800
G1 X124.242 Y103.587
M204 S800
;TYPE:External perimeter
G1 F1200
G1 X124.339 Y103.533 E.00348
G1 X124.66 Y103.426 E.01061
G1 X124.951 Y103.392 E.00919
G1 X125.295 Y103.418 E.01082
G1 X125.57 Y103.495 E.00895
G1 X125.878 Y103.651 E.01083
G1 X126.102 Y103.828 E.00895
G1 X126.328 Y104.09 E.01085
G1 X126.467 Y104.339 E.00894
G1 X126.575 Y104.667 E.01083
G1 X126.608 Y104.951 E.00896
G1 X126.582 Y105.295 E.01082
G1 X126.486 Y105.608 E.01027
G1 X126.349 Y105.878 E.00949
G1 X126.172 Y106.102 E.00895
G1 X125.91 Y106.328 E.01085
G1 X125.661 Y106.467 E.00894
G1 X125.333 Y106.575 E.01083
G1 X125.049 Y106.608 E.00896
G1 X124.705 Y106.582 E.01082
G1 X124.43 Y106.505 E.00895
G1 X124.122 Y106.349 E.01083
G1 X123.898 Y106.172 E.00895
G1 X123.672 Y105.91 E.01085
G1 X123.533 Y105.661 E.00894
G1 X123.425 Y105.333 E.01083
G1 X123.392 Y105.049 E.00896
G1 X123.418 Y104.705 E.01082
G1 X123.561 Y104.296 E.01359
G1 X123.814 Y103.911 E.01444
G1 X124.09 Y103.672 E.01145
G1 X124.19 Y103.616 E.00359
M204 S1000
;WIPE_START
G1 F8640
G1 X124.242 Y103.587 E-.01375
G1 X124.339 Y103.533 E-.02563
G1 X124.66 Y103.426 E-.07813
G1 X124.951 Y103.392 E-.06765
G1 X125.295 Y103.418 E-.07966
G1 X125.57 Y103.495 E-.06594
G1 X125.878 Y103.651 E-.07972
G1 X126.102 Y103.828 E-.06592
G1 X126.328 Y104.09 E-.07989
G1 X126.467 Y104.339 E-.06585
G1 X126.575 Y104.667 E-.07974
G1 X126.608 Y104.951 E-.06602
G1 X126.598 Y105.09 E-.0321
;WIPE_END
G1 Z.6 F720
G1 X140.016 Y92.604 F10800
G1 Z.2 F720
G1 E.8 F2100
M204 S800
;TYPE:Solid infill
;WIDTH:0.422984
G1 F1200
G1 X141.228 Y93.816 E.05417
G1 X141.708 Y94.339 E.02243
G1 X142.159 Y94.927 E.02342
G1 X142.557 Y95.552 E.02342
G1 X142.698 Y95.824 E.00968
G1 X139.176 Y92.302 E.15741
G1 X138.79 Y92.101 E.01375
G1 X138.189 Y91.852 E.02056
G1 X143.148 Y96.811 E.22163
G1 X143.382 Y97.582 E.02546
G1 X137.393 Y91.593 E.26766
G1 X136.702 Y91.44 E.02237
G1 X143.541 Y98.279 E.30565
G1 X143.639 Y98.914 E.02031
G1 X136.099 Y91.374 E.33698
G1 X135.499 Y91.312 E.01906
G1 X143.682 Y99.495 E.36572
G1 X143.696 Y100.047 E.01745
G1 X134.961 Y91.312 E.39039
G1 X134.424 Y91.312 E.01697
G1 X143.696 Y100.584 E.41439
G1 X143.696 Y101.122 E.017
G1 X133.886 Y91.311 E.43846
G1 X133.348 Y91.311 E.017
G1 X143.696 Y101.659 E.46248
G1 X143.696 Y102.197 E.017
G1 X132.811 Y91.311 E.4865
G1 X132.273 Y91.311 E.017
G1 X143.696 Y102.734 E.51052
G1 X143.696 Y103.272 E.017
G1 X131.735 Y91.31 E.53459
G1 X131.197 Y91.31 E.017
G1 X143.696 Y103.809 E.55861
G1 X143.696 Y104.347 E.017
G1 X130.66 Y91.31 E.58264
G1 X130.122 Y91.31 E.017
G1 X143.696 Y104.884 E.60666
G1 X143.696 Y105.422 E.017
G1 X129.584 Y91.31 E.6307
G1 X129.047 Y91.309 E.01697
G1 X143.696 Y105.959 E.65472
G1 X143.696 Y106.497 E.017
G1 X128.509 Y91.309 E.67877
G1 X127.971 Y91.309 E.017
G1 X143.696 Y107.034 E.70279
G1 X143.696 Y107.572 E.017
G1 X127.433 Y91.309 E.72684
G1 X126.896 Y91.308 E.01697
G1 X143.696 Y108.109 E.75086
G1 X143.696 Y108.647 E.017
G1 X126.358 Y91.308 E.7749
G1 X125.82 Y91.308 E.017
G1 X143.696 Y109.184 E.79893
G1 X143.696 Y109.722 E.017
G1 X125.283 Y91.308 E.82295
G1 X124.745 Y91.308 E.017
G1 X143.69 Y110.253 E.8467
G1 X143.657 Y110.757 E.01596
G1 X124.207 Y91.307 E.86927
G1 X123.669 Y91.307 E.017
G1 X143.624 Y111.262 E.89184
G1 X143.549 Y111.724 E.01479
G1 X123.132 Y91.307 E.91249
G1 X122.594 Y91.307 E.017
M73 P1 R51
G1 X143.458 Y112.171 E.93247
M73 Q2 S52
G1 X143.345 Y112.595 E.01387
M73 P2 R51
G1 X122.056 Y91.307 E.95144
G1 X121.519 Y91.306 E.01697
G1 X143.213 Y113 E.96956
G1 X143.069 Y113.394 E.01326
G1 X120.981 Y91.306 E.98717
G1 X120.443 Y91.306 E.017
G1 X142.902 Y113.765 E1.00375
G1 X142.731 Y114.131 E.01277
G1 X119.905 Y91.306 E1.02013
G1 X119.368 Y91.305 E.01697
G1 X142.534 Y114.472 E1.03537
G1 X142.334 Y114.809 E.01238
G1 X118.83 Y91.305 E1.05046
G1 X118.292 Y91.305 E.017
G1 X142.112 Y115.125 E1.06458
G1 X141.883 Y115.433 E.01213
G1 X117.755 Y91.305 E1.07834
G1 X117.217 Y91.305 E.017
G1 X141.632 Y115.72 E1.09117
G1 X141.381 Y116.006 E.01203
M73 Q2 S51
G1 X116.679 Y91.304 E1.104
G1 X116.142 Y91.304 E.01697
G1 X141.122 Y116.285 E1.11644
G1 X140.842 Y116.542 E.01201
