; generated by PrusaSlicer 2.7.4 on 2024-05-06 at 13:40:56 UTC


;
;
; 

; external perimeters extrusion width = 0.45mm
; perimeters extrusion width = 0.45mm
; infill extrusion width = 0.45mm
; solid infill extrusion width = 0.45mm
; top infill extrusion width = 0.40mm
; first layer extrusion width = 0.42mm

M73 P0 R53
M73 Q0 S54
M201 X1000 Y1000 Z200 E5000 ; sets maximum accelerations, mm/sec^2
M203 X200 Y200 Z12 E120 ; sets maximum feedrates, mm / sec
M204 S1250 T1250 ; sets acceleration (S) and retract acceleration (R), mm/sec^2
M205 X8.00 Y8.00 Z0.40 E4.50 ; sets the jerk limits, mm/sec
M205 S0 T0 ; sets the minimum extruding and travel feed rate, mm/sec

; printing object Bohrfuehrung_Stange.stl id:0 copy 0
; stop printing object Bohrfuehrung_Stange.stl id:0 copy 0

;TYPE:Custom
M862.3 P "MK3S" ; printer model check
M862.1 P0.4 ; nozzle diameter check
M115 U3.13.3 ; tell printer latest fw version
G90 ; use absolute coordinates
M83 ; extruder relative mode
M104 S215 ; set extruder temp
M140 S60 ; set bed temp
M190 S60 ; wait for bed temp
M109 S215 ; wait for extruder temp
G28 W ; home all without mesh bed level
G80 X102.259 Y87.2594 W45.4812 H35.4812 ; mesh bed levelling

G1 Z0.2 F720
G1 Y-3 F1000 ; go outside print area
G92 E0
G1 X60 E9 F1000 ; intro line
G1 X100 E12.5 F1000 ; intro line

G92 E0
M221 S95

; Don't change E values below. Excessive value can damage the printer.

M907 E538 ; set extruder motor current
G21 ; set units to millimeters
G90 ; use absolute coordinates
M83 ; use relative distances for extrusion

M900 K0.05 ; Filament gcode LA 1.5
M900 K30 ; Filament gcode LA 1.0




M107
;LAYER_CHANGE
;Z:0.2
;HEIGHT:0.2
G1 E-.8 F2100
G1 Z.6 F720
G1 X105.665 Y91.502 F10800
G1 Z.2 F720
G1 E.8 F2100
M204 S800
;TYPE:Skirt/Brim
;WIDTH:0.42
G1 F1200
G1 X107.249 Y90.038 E.06763
G1 X109.064 Y88.871 E.06766
G1 X111.054 Y88.037 E.06765
G1 X113.158 Y87.561 E.06764
G1 X114.825 Y87.448 E.05239
G1 X135.227 Y87.448 E.63969
G1 X137.273 Y87.628 E.0644
G1 X139.318 Y88.163 E.06628
G1 X140.936 Y88.871 E.05538
G1 X142.668 Y89.974 E.06438
G1 X143.963 Y91.11 E.05401
G1 X145.343 Y92.769 E.06766
G1 X146.37 Y94.547 E.06438
G1 X146.994 Y96.153 E.05402
G1 X147.372 Y97.727 E.05075
G1 X147.542 Y99.337 E.05076
G1 X147.552 Y110.175 E.33982
G1 X147.452 Y111.739 E.04914
G1 X147.116 Y113.428 E.054
G1 X146.414 Y115.359 E.06442
G1 X145.585 Y116.869 E.05401
G1 X144.335 Y118.498 E.06438
G1 X143.575 Y119.265 E.03386
G1 X142.668 Y120.026 E.03712
G1 X141.781 Y120.641 E.03384
G1 X140.453 Y121.37 E.0475
G1 X139.457 Y121.787 E.03386
G1 X138.328 Y122.143 E.03712
G1 X136.842 Y122.439 E.04751
G1 X135.663 Y122.542 E.03711
G1 X114.825 Y122.552 E.65336
G1 X113.261 Y122.452 E.04914
G1 X111.572 Y122.116 E.054
G1 X109.641 Y121.414 E.06442
G1 X108.131 Y120.585 E.05401
G1 X106.502 Y119.335 E.06438
G1 X105.735 Y118.575 E.03386
G1 X104.974 Y117.668 E.03712
G1 X104.359 Y116.781 E.03384
G1 X103.63 Y115.453 E.0475
G1 X103.177 Y114.359 E.03713
G1 X102.784 Y113.032 E.04339
G1 X102.561 Y111.842 E.03796
G1 X102.458 Y110.663 E.03711
G1 X102.448 Y99.773 E.34145
G1 X102.628 Y97.727 E.0644
G1 X103.006 Y96.153 E.05075
G1 X103.63 Y94.547 E.05402
G1 X104.633 Y92.805 E.06303
G1 X105.628 Y91.549 E.05024
M73 Q0 S53
M204 S1000
;WIPE_START
G1 F8640
G1 X105.665 Y91.502 E-.01381
G1 X107.249 Y90.038 E-.49804
G1 X108.299 Y89.363 E-.28815
;WIPE_END
G1 Z.6 F720
; printing object Bohrfuehrung_Stange.stl id:0 copy 0
G1 X108.065 Y94.138 F10800
G1 Z.2 F720
G1 E.8 F2100
M204 S800
;TYPE:Perimeter
;WIDTH:0.419999
G1 F1200
G1 X108.578 Y93.578 E.02381
G1 X109.146 Y93.057 E.02417
G1 X109.758 Y92.588 E.02418
G1 X110.408 Y92.174 E.02416
G1 X111.091 Y91.818 E.02415
G1 X111.803 Y91.523 E.02416
G1 X112.538 Y91.291 E.02417
G1 X113.291 Y91.124 E.02418
G1 X114.055 Y91.024 E.02416
G1 X114.848 Y90.989 E.02489
G1 X135.512 Y90.998 E.6479
G1 X136.72 Y91.127 E.03809
G1 X137.462 Y91.291 E.02383
G1 X138.197 Y91.523 E.02417
G1 X138.909 Y91.818 E.02416
G1 X139.592 Y92.174 E.02415
G1 X140.242 Y92.588 E.02416
G1 X140.854 Y93.057 E.02418
G1 X141.415 Y93.571 E.02386
G1 X142.19 Y94.455 E.03686
G1 X142.626 Y95.078 E.02384
G1 X143.012 Y95.746 E.02419
G1 X143.337 Y96.444 E.02414
G1 X143.601 Y97.168 E.02416
G1 X143.798 Y97.903 E.02386
G1 X143.977 Y99.065 E.03686
G1 X144.011 Y100.042 E.03065
G1 X144.011 Y110.142 E.31668
G1 X143.932 Y111.338 E.03758
G1 X143.8 Y112.087 E.02385
G1 X143.601 Y112.832 E.02418
G1 X143.337 Y113.556 E.02416
G1 X143.012 Y114.255 E.02417
G1 X142.631 Y114.913 E.02384
G1 X141.936 Y115.862 E.03688
G1 X141.429 Y116.415 E.02352
G1 X140.545 Y117.19 E.03686
G1 X139.922 Y117.626 E.02384
G1 X139.254 Y118.012 E.02419
G1 X138.556 Y118.337 E.02414
G1 X137.841 Y118.598 E.02387
G1 X136.699 Y118.877 E.03686
G1 X135.945 Y118.976 E.02384
G1 X135.152 Y119.011 E.02489
G1 X114.848 Y119.011 E.63662
G1 X114.055 Y118.976 E.02489
G1 X113.291 Y118.876 E.02416
G1 X112.538 Y118.709 E.02418
G1 X111.803 Y118.477 E.02417
G1 X111.091 Y118.182 E.02416
G1 X110.408 Y117.826 E.02415
G1 X109.758 Y117.412 E.02416
G1 X109.146 Y116.943 E.02418
G1 X108.578 Y116.422 E.02417
G1 X108.057 Y115.854 E.02417
G1 X107.594 Y115.25 E.02386
G1 X106.984 Y114.245 E.03686
G1 X106.663 Y113.556 E.02383
G1 X106.402 Y112.841 E.02387
G1 X106.123 Y111.699 E.03686
G1 X106.024 Y110.945 E.02384
G1 X105.989 Y110.152 E.02489
G1 X105.989 Y99.848 E.32307
G1 X106.024 Y99.055 E.02489
G1 X106.123 Y98.301 E.02384
G1 X106.403 Y97.159 E.03687
G1 X106.663 Y96.444 E.02385
G1 X106.989 Y95.745 E.02418
G1 X107.349 Y95.119 E.02264
G1 X108.03 Y94.186 E.03622
M204 S1000
G1 X108.03 Y94.186 F10800
G1 X107.773 Y93.898
M204 S800
G1 F1200
G1 X108.311 Y93.311 E.02497
G1 X108.903 Y92.768 E.02519
G1 X109.541 Y92.279 E.0252
G1 X110.219 Y91.847 E.02521
G1 X110.932 Y91.476 E.0252
G1 X111.674 Y91.168 E.02519
G1 X112.441 Y90.927 E.02521
G1 X113.225 Y90.753 E.02518
G1 X114.022 Y90.648 E.02521
G1 X114.84 Y90.612 E.02567
G1 X135.532 Y90.621 E.64878
G1 X136.781 Y90.754 E.03938
G1 X137.559 Y90.927 E.02499
G1 X138.326 Y91.168 E.02521
G1 X139.068 Y91.476 E.02519
G1 X139.781 Y91.847 E.0252
G1 X140.459 Y92.279 E.02521
G1 X141.097 Y92.768 E.0252
G1 X141.685 Y93.307 E.02501
G1 X142.487 Y94.222 E.03815
G1 X142.945 Y94.875 E.02501
G1 X143.346 Y95.571 E.02519
G1 X143.686 Y96.3 E.02522
G1 X143.961 Y97.055 E.02519
G1 X144.167 Y97.825 E.02499
G1 X144.353 Y99.028 E.03817
G1 X144.388 Y100.042 E.03181
G1 X144.388 Y110.154 E.31705
G1 X144.307 Y111.384 E.03865
G1 X144.169 Y112.169 E.02499
G1 X143.961 Y112.945 E.02519
G1 X143.686 Y113.7 E.02519
G1 X143.346 Y114.429 E.02522
G1 X142.948 Y115.12 E.025
G1 X142.228 Y116.101 E.03815
G1 X141.693 Y116.685 E.02483
G1 X140.778 Y117.487 E.03815
G1 X140.125 Y117.945 E.02501
G1 X139.429 Y118.346 E.02519
G1 X138.7 Y118.686 E.02522
G1 X137.951 Y118.959 E.025
G1 X136.769 Y119.248 E.03815
G1 X135.978 Y119.352 E.02501
G1 X135.16 Y119.388 E.02567
G1 X114.84 Y119.388 E.63712
G1 X114.022 Y119.352 E.02567
G1 X113.225 Y119.247 E.02521
G1 X112.441 Y119.073 E.02518
G1 X111.674 Y118.832 E.02521
G1 X110.932 Y118.524 E.02519
G1 X110.219 Y118.153 E.0252
G1 X109.541 Y117.721 E.02521
G1 X108.903 Y117.232 E.0252
G1 X108.311 Y116.689 E.02519
G1 X107.768 Y116.097 E.02519
G1 X107.282 Y115.464 E.02502
G1 X106.651 Y114.423 E.03817
G1 X106.314 Y113.7 E.02501
G1 X106.041 Y112.951 E.025
G1 X105.752 Y111.769 E.03815
G1 X105.648 Y110.978 E.02501
G1 X105.612 Y110.16 E.02567
G1 X105.612 Y99.84 E.32358
G1 X105.648 Y99.022 E.02567
G1 X105.752 Y98.231 E.02501
G1 X106.041 Y97.049 E.03815
G1 X106.314 Y96.3 E.025
G1 X106.654 Y95.571 E.02522
G1 X107.033 Y94.913 E.02381
G1 X107.737 Y93.947 E.03748
M204 S1000
G1 X107.737 Y93.947 F10800
G1 X107.48 Y93.659
M204 S800
;TYPE:External perimeter
G1 F1200
G1 X108.044 Y93.044 E.02616
G1 X108.661 Y92.479 E.02623
G1 X109.325 Y91.97 E.02623
G1 X110.03 Y91.52 E.02622
G1 X110.772 Y91.134 E.02622
G1 X111.545 Y90.814 E.02623
G1 X112.343 Y90.562 E.02624
G1 X113.16 Y90.381 E.02624
G1 X113.989 Y90.272 E.02622
G1 X114.832 Y90.235 E.02646
G1 X135.552 Y90.244 E.64966
G1 X136.842 Y90.381 E.04067
G1 X137.657 Y90.562 E.02618
G1 X138.455 Y90.814 E.02624
G1 X139.228 Y91.134 E.02623
G1 X139.97 Y91.52 E.02622
G1 X140.675 Y91.97 E.02622
G1 X141.339 Y92.479 E.02623
G1 X141.955 Y93.043 E.02619
G1 X142.784 Y93.989 E.03944
G1 X143.263 Y94.672 E.02616
G1 X143.681 Y95.397 E.02624
G1 X144.035 Y96.155 E.02623
G1 X144.321 Y96.941 E.02623
G1 X144.537 Y97.748 E.02619
G1 X144.728 Y98.991 E.03943
G1 X144.765 Y100.042 E.03297
G1 X144.765 Y110.166 E.31743
G1 X144.682 Y111.429 E.03969
G1 X144.537 Y112.251 E.02617
G1 X144.321 Y113.059 E.02622
G1 X144.035 Y113.845 E.02623
G1 X143.681 Y114.603 E.02623
G1 X143.264 Y115.326 E.02617
G1 X142.52 Y116.341 E.03946
G1 X141.957 Y116.955 E.02612
G1 X141.011 Y117.784 E.03944
G1 X140.328 Y118.263 E.02616
G1 X139.603 Y118.681 E.02624
G1 X138.845 Y119.035 E.02623
G1 X138.06 Y119.32 E.02619
G1 X136.838 Y119.619 E.03945
G1 X136.011 Y119.728 E.02615
G1 X135.168 Y119.765 E.02646
G1 X114.832 Y119.765 E.63762
G1 X113.989 Y119.728 E.02646
G1 X113.16 Y119.619 E.02622
G1 X112.343 Y119.438 E.02624
G1 X111.545 Y119.186 E.02624
G1 X110.772 Y118.866 E.02623
G1 X110.03 Y118.48 E.02622
G1 X109.325 Y118.03 E.02622
G1 X108.661 Y117.521 E.02623
G1 X108.044 Y116.956 E.02623
G1 X107.479 Y116.339 E.02623
G1 X106.971 Y115.677 E.02616
G1 X106.318 Y114.601 E.03946
G1 X105.965 Y113.845 E.02616
G1 X105.68 Y113.06 E.02619
G1 X105.381 Y111.838 E.03945
G1 X105.272 Y111.011 E.02615
G1 X105.235 Y110.168 E.02646
G1 X105.235 Y99.832 E.32408
G1 X105.272 Y98.989 E.02646
G1 X105.381 Y98.162 E.02615
G1 X105.68 Y96.939 E.03948
M73 Q1 S53
G1 X105.965 Y96.155 E.02616
G1 X106.319 Y95.397 E.02623
M73 P1 R53
G1 X106.716 Y94.707 E.02496
G1 X107.445 Y93.708 E.03878
M204 S1000
;WIPE_START
G1 F8640
G1 X107.48 Y93.659 E-.0139
G1 X108.044 Y93.044 E-.19268
G1 X108.661 Y92.479 E-.19318
G1 X109.325 Y91.97 E-.19318
G1 X110.03 Y91.52 E-.19312
G1 X110.084 Y91.492 E-.01394
;WIPE_END
G1 Z.6 F720
G1 X123.642 Y103.109 F10800
G1 Z.2 F720
G1 E.8 F2100
M204 S800
;TYPE:Perimeter
G1 F1200
G1 X123.727 Y103.04 E.00343
G1 X124.107 Y102.841 E.01345
G1 X124.574 Y102.702 E.01528
G1 X125.001 Y102.664 E.01344
G1 X125.565 Y102.739 E.01784
G1 X126.105 Y102.94 E.01807
G1 X126.582 Y103.277 E.01831
G1 X126.96 Y103.727 E.01843
G1 X127.159 Y104.107 E.01345
G1 X127.298 Y104.574 E.01528
G1 X127.336 Y105.001 E.01344
G1 X127.288 Y105.481 E.01513
G1 X127.095 Y106.021 E.01798
G1 X126.97 Y106.256 E.00835
G1 X126.651 Y106.652 E.01594
G1 X126.273 Y106.96 E.01529
G1 X125.893 Y107.159 E.01345
G1 X125.426 Y107.298 E.01528
G1 X124.999 Y107.336 E.01344
G1 X124.514 Y107.286 E.01529
G1 X124.105 Y107.158 E.01344
G1 X123.676 Y106.926 E.01529
G1 X123.348 Y106.651 E.01342
G1 X123.04 Y106.273 E.01529
G1 X122.841 Y105.893 E.01345
G1 X122.702 Y105.426 E.01528
G1 X122.664 Y104.999 E.01344
G1 X122.714 Y104.514 E.01529
G1 X122.901 Y103.986 E.01756
G1 X123.074 Y103.676 E.01113
G1 X123.349 Y103.348 E.01342
G1 X123.595 Y103.147 E.00996
M204 S1000
G1 X123.595 Y103.147 F10800
G1 X123.867 Y103.409
M204 S800
G1 F1200
G1 X123.916 Y103.366 E.00204
G1 X124.228 Y103.199 E.0111
G1 X124.624 Y103.076 E.013
G1 X124.976 Y103.04 E.01109
G1 X125.436 Y103.093 E.01452
G1 X125.942 Y103.28 E.01691
G1 X126.369 Y103.597 E.01667
G1 X126.634 Y103.916 E.013
G1 X126.801 Y104.228 E.0111
G1 X126.924 Y104.624 E.013
G1 X126.96 Y104.976 E.01109
G1 X126.907 Y105.436 E.01452
G1 X126.722 Y105.937 E.01675
G1 X126.403 Y106.369 E.01684
G1 X126.084 Y106.634 E.013
G1 X125.772 Y106.801 E.0111
G1 X125.376 Y106.924 E.013
G1 X125.024 Y106.96 E.01109
G1 X124.611 Y106.922 E.013
G1 X124.272 Y106.82 E.0111
G1 X123.905 Y106.627 E.013
G1 X123.631 Y106.402 E.01112
G1 X123.366 Y106.084 E.01298
G1 X123.199 Y105.772 E.0111
G1 X123.076 Y105.376 E.013
G1 X123.04 Y105.024 E.01109
G1 X123.078 Y104.611 E.013
G1 X123.239 Y104.153 E.01522
G1 X123.522 Y103.712 E.01643
G1 X123.822 Y103.449 E.01251
M204 S1000
G1 X123.822 Y103.449 F10800
G1 X124.311 Y103.577
M204 S800
;TYPE:External perimeter
G1 F1200
G1 X124.349 Y103.556 E.00136
G1 X124.673 Y103.45 E.01069
G1 X124.952 Y103.417 E.00881
G1 X125.307 Y103.447 E.01117
G1 X125.78 Y103.621 E.0158
G1 X126.085 Y103.846 E.01188
G1 X126.307 Y104.104 E.01067
G1 X126.444 Y104.349 E.0088
G1 X126.55 Y104.673 E.01069
G1 X126.583 Y104.952 E.00881
G1 X126.553 Y105.307 E.01117
G1 X126.38 Y105.778 E.01573
G1 X126.154 Y106.085 E.01195
G1 X125.896 Y106.307 E.01067
G1 X125.651 Y106.444 E.0088
G1 X125.327 Y106.55 E.01069
G1 X125.048 Y106.583 E.00881
G1 X124.709 Y106.558 E.01066
G1 X124.439 Y106.481 E.0088
G1 X124.135 Y106.328 E.01067
G1 X123.915 Y106.154 E.00879
G1 X123.693 Y105.896 E.01067
G1 X123.556 Y105.651 E.0088
G1 X123.45 Y105.327 E.01069
G1 X123.417 Y105.048 E.00881
G1 X123.442 Y104.709 E.01066
G1 X123.577 Y104.319 E.01294
G1 X123.833 Y103.928 E.01465
G1 X124.104 Y103.693 E.01125
G1 X124.259 Y103.606 E.00557
M204 S1000
;WIPE_START
G1 F8640
G1 X124.311 Y103.577 E-.01375
G1 X124.349 Y103.556 E-.01003
G1 X124.673 Y103.45 E-.07871
G1 X124.952 Y103.417 E-.06487
G1 X125.307 Y103.447 E-.08226
G1 X125.78 Y103.621 E-.11637
G1 X126.085 Y103.846 E-.08751
G1 X126.307 Y104.104 E-.07859
G1 X126.444 Y104.349 E-.06482
G1 X126.55 Y104.673 E-.07871
G1 X126.583 Y104.952 E-.06487
G1 X126.561 Y105.209 E-.05951
;WIPE_END
G1 Z.6 F720
G1 X139.99 Y92.628 F10800
G1 Z.2 F720
G1 E.8 F2100
M204 S800
;TYPE:Solid infill
;WIDTH:0.422293
G1 F1200
G1 X141.181 Y93.819 E.05313
G1 X141.923 Y94.665 E.0355
G1 X142.34 Y95.261 E.02295
G1 X142.687 Y95.861 E.02186
G1 X139.153 Y92.328 E.15763
G1 X138.765 Y92.126 E.0138
G1 X138.167 Y91.878 E.02042
G1 X143.115 Y96.827 E.22076
G1 X143.277 Y97.27 E.01488
G1 X143.37 Y97.618 E.01136
G1 X137.371 Y91.619 E.26762
G1 X136.682 Y91.466 E.02226
G1 X143.516 Y98.3 E.30487
G1 X143.613 Y98.934 E.02023
G1 X136.079 Y91.4 E.3361
G1 X135.48 Y91.337 E.019
G1 X143.657 Y99.514 E.36479
G1 X143.671 Y100.065 E.01739
G1 X134.943 Y91.337 E.38937
G1 X134.406 Y91.337 E.01694
G1 X143.671 Y100.602 E.41332
G1 X143.671 Y101.138 E.01691
G1 X133.87 Y91.336 E.43726
G1 X133.333 Y91.336 E.01694
G1 X143.671 Y101.675 E.46121
G1 X143.671 Y102.211 E.01691
G1 X132.796 Y91.336 E.48515
G1 X132.259 Y91.336 E.01694
G1 X143.671 Y102.748 E.5091
G1 X143.671 Y103.284 E.01691
G1 X131.723 Y91.335 E.53304
G1 X131.186 Y91.335 E.01694
G1 X143.671 Y103.821 E.557
G1 X143.671 Y104.357 E.01691
G1 X130.649 Y91.335 E.58093
G1 X130.112 Y91.335 E.01694
G1 X143.671 Y104.894 E.60489
G1 X143.671 Y105.43 E.01691
G1 X129.576 Y91.335 E.6288
G1 X129.039 Y91.334 E.01694
G1 X143.671 Y105.967 E.65278
G1 X143.671 Y106.503 E.01691
G1 X128.502 Y91.334 E.67671
G1 X127.965 Y91.334 E.01694
G1 X143.671 Y107.04 E.70067
G1 X143.671 Y107.576 E.01691
G1 X127.429 Y91.334 E.72458
G1 X126.892 Y91.333 E.01694
M73 P1 R52
G1 X143.671 Y108.113 E.74856
G1 X143.671 Y108.649 E.01691
G1 X126.355 Y91.333 E.77249
G1 X125.819 Y91.333 E.01691
G1 X143.671 Y109.186 E.79642
G1 X143.671 Y109.722 E.01691
G1 X125.282 Y91.333 E.82036
G1 X124.745 Y91.333 E.01694
G1 X143.664 Y110.251 E.84398
G1 X143.631 Y110.755 E.01593
G1 X124.208 Y91.332 E.86649
G1 X123.672 Y91.332 E.01691
G1 X143.598 Y111.258 E.88893
G1 X143.521 Y111.718 E.01471
G1 X123.135 Y91.332 E.90945
G1 X122.598 Y91.332 E.01694
G1 X143.429 Y112.163 E.9293
G1 X143.316 Y112.586 E.01381
M73 P2 R52
M73 Q2 S53
G1 X122.061 Y91.332 E.94819
G1 X121.525 Y91.331 E.01691
G1 X143.183 Y112.989 E.96619
G1 X143.039 Y113.382 E.0132
G1 X120.988 Y91.331 E.98373
G1 X120.451 Y91.331 E.01694
G1 X142.872 Y113.751 E1.00021
G1 X142.7 Y114.116 E.01273
G1 X119.914 Y91.331 E1.01649
G1 X119.378 Y91.33 E.01691
G1 X142.503 Y114.456 E1.03166
G1 X142.301 Y114.79 E.01231
M73 Q2 S52
G1 X118.841 Y91.33 E1.04658
G1 X118.304 Y91.33 E.01694
G1 X142.074 Y115.1 E1.06041
G1 X141.847 Y115.409 E.01209
G1 X117.768 Y91.33 E1.0742
G1 X117.231 Y91.33 E.01694
G1 X141.613 Y115.712 E1.08771
G1 X141.356 Y115.992 E.01199
G1 X116.694 Y91.329 E1.10023
G1 X116.157 Y91.329 E.01694
G1 X141.089 Y116.261 E1.11225
G1 X140.804 Y116.512 E.01198
G1 X115.621 Y91.329 E1.12345
G1 X115.084 Y91.329 E.01694
G1 X140.518 Y116.763 E1.13465
G1 X140.221 Y117.002 E.01203
G1 X127.607 Y104.388 E.56273
