; generated by PrusaSlicer 2.7.4 on 2024-06-06 at 08:50:11 UTC


;
;
; 

; external perimeters extrusion width = 0.45mm
; perimeters extrusion width = 0.45mm
; infill extrusion width = 0.45mm
; solid infill extrusion width = 0.45mm
; top infill extrusion width = 0.40mm
; support material extrusion width = 0.35mm
; first layer extrusion width = 0.42mm

M73 P0 R89
M73 Q0 S91
M201 X1000 Y1000 Z200 E5000 ; sets maximum accelerations, mm/sec^2
M203 X200 Y200 Z12 E120 ; sets maximum feedrates, mm / sec
M204 S1250 T1250 ; sets acceleration (S) and retract acceleration (R), mm/sec^2
M205 X8.00 Y8.00 Z0.40 E4.50 ; sets the jerk limits, mm/sec
M205 S0 T0 ; sets the minimum extruding and travel feed rate, mm/sec

; printing object camera_side - camera_side_right.stl id:0 copy 0
; stop printing object camera_side - camera_side_right.stl id:0 copy 0

;TYPE:Custom
M862.3 P "MK3S" ; printer model check
M862.1 P0.4 ; nozzle diameter check
M115 U3.13.3 ; tell printer latest fw version
G90 ; use absolute coordinates
M83 ; extruder relative mode
M104 S215 ; set extruder temp
M140 S60 ; set bed temp
M190 S60 ; wait for bed temp
M109 S215 ; wait for extruder temp
G28 W ; home all without mesh bed level
G80 X57.1998 Y74.1131 W135.6 H61.7739 ; mesh bed levelling

G1 Z0.2 F720
G1 Y-3 F1000 ; go outside print area
G92 E0
G1 X60 E9 F1000 ; intro line
G1 X100 E12.5 F1000 ; intro line

G92 E0
M221 S95

; Don't change E values below. Excessive value can damage the printer.

M907 E538 ; set extruder motor current
G21 ; set units to millimeters
G90 ; use absolute coordinates
M83 ; use relative distances for extrusion

M900 K0.05 ; Filament gcode LA 1.5
M900 K30 ; Filament gcode LA 1.0




M107
;LAYER_CHANGE
;Z:0.2
;HEIGHT:0.2
G1 E-.8 F2100
G1 Z.6 F720
G1 X60.392 Y84.226 F10800
G1 Z.2 F720
G1 E.8 F2100
M204 S800
;TYPE:Skirt/Brim
;WIDTH:0.42
G1 F1200
G1 X61.847 Y83.541 E.05042
G1 X158.744 Y74.312 E3.05189
G1 X190.235 Y74.302 E.98738
G1 X191.542 Y74.693 E.04277
G1 X192.418 Y75.739 E.04278
G1 X192.612 Y76.679 E.03009
G1 X192.612 Y131.014 E1.70364
G1 X192.22 Y132.321 E.04278
G1 X191.298 Y133.14 E.03867
G1 X186.684 Y135.447 E.16174
G1 X185.62 Y135.698 E.03428
G1 X59.765 Y135.698 E3.9461
G1 X58.458 Y135.307 E.04277
M73 P0 R88
G1 X57.582 Y134.261 E.04278
G1 X57.388 Y133.321 E.03009
G1 X57.388 Y88.214 E1.4143
G1 X58.085 Y86.533 E.05706
M73 Q0 S90
G1 X60.349 Y84.269 E.10039
M204 S1000
;WIPE_START
G1 F8640
G1 X60.392 Y84.226 E-.01404
G1 X61.847 Y83.541 E-.37133
G1 X63.635 Y83.371 E-.41463
;WIPE_END
G1 Z.6 F720
; printing object camera_side - camera_side_right.stl id:0 copy 0
G1 X190.235 Y131.014 F10800
G1 Z.2 F720
G1 E.8 F2100
M204 S800
;TYPE:Support material
G1 F1200
G1 X185.62 Y131.014 E.1447
G1 X185.62 Y133.321 E.07233
G1 X59.765 Y133.321 E3.9461
G1 X59.765 Y88.214 E1.4143
G1 X62.073 Y88.214 E.07237
G1 X62.073 Y85.907 E.07233
G1 X142.82 Y85.907 E2.53177
G1 X142.82 Y83.6 E.07233
G1 X149.742 Y83.6 E.21703
G1 X149.742 Y81.293 E.07233
G1 X154.356 Y81.293 E.14467
G1 X154.356 Y78.986 E.07233
G1 X158.97 Y78.986 E.14467
G1 X158.97 Y76.679 E.07233
G1 X190.235 Y76.679 E.98029
G1 X190.235 Y130.958 E1.70188
M204 S1000
;WIPE_START
G1 F8640
G1 X190.235 Y127.493 E-.8
;WIPE_END
G1 Z.6 F720
G1 X168.492 Y80.897 F10800
G1 Z.2 F720
G1 E.8 F2100
M204 S800
G1 F1200
G1 X183.041 Y80.932 E.45617
G1 X184.075 Y81.211 E.03358
G1 X185.002 Y81.748 E.03359
G1 X185.858 Y82.642 E.03881
G1 X186.354 Y83.592 E.0336
G1 X186.54 Y84.282 E.02241
G1 X186.603 Y84.997 E.02251
G1 X186.603 Y125.252 E1.26217
G1 X186.419 Y125.861 E.01995
G1 X185.956 Y126.255 E.01906
G1 X175.896 Y128.965 E.32667
G1 X174.844 Y129.103 E.03327
G1 X67.331 Y129.1 E3.37099
G1 X66.294 Y128.922 E.03299
M73 P1 R88
M73 Q1 S90
G1 X65.206 Y128.402 E.03781
G1 X64.416 Y127.707 E.03299
G1 X63.759 Y126.685 E.03809
G1 X63.49 Y125.869 E.02694
G1 X63.397 Y125.008 E.02715
G1 X63.401 Y94.815 E.94668
G1 X63.643 Y93.602 E.03878
G1 X64.142 Y92.642 E.03392
G1 X64.867 Y91.854 E.03357
G1 X65.925 Y91.211 E.03882
G1 X66.617 Y90.993 E.02275
G1 X67.497 Y90.896 E.02776
G1 X142.877 Y90.874 E2.36349
G1 X143.889 Y90.696 E.03222
G1 X144.625 Y90.446 E.02437
G1 X166.932 Y81.206 E.75705
G1 X167.612 Y80.993 E.02234
G1 X168.435 Y80.898 E.02598
M204 S1000
;WIPE_START
G1 F8640
G1 X167.612 Y80.993 E-.19129
G1 X166.932 Y81.206 E-.16454
G1 X165.155 Y81.942 E-.44417
;WIPE_END
G1 Z.6 F720
G1 X189.522 Y130.845 F10800
G1 Z.2 F720
G1 E.8 F2100
M204 S800
G1 F1200
G1 X189.522 Y77.018 E1.68771
G1 X189.103 Y77.018 E.01314
G1 X189.103 Y130.675 E1.68238
G1 X188.685 Y130.675 E.01311
G1 X188.685 Y77.018 E1.68238
G1 X188.266 Y77.018 E.01314
G1 X188.266 Y130.675 E1.68238
G1 X187.847 Y130.675 E.01314
G1 X187.847 Y77.018 E1.68238
G1 X187.428 Y77.018 E.01314
G1 X187.428 Y130.675 E1.68238
G1 X187.009 Y130.675 E.01314
G1 X187.009 Y77.018 E1.68238
G1 X186.59 Y77.018 E.01314
M73 P1 R87
G1 X186.59 Y83.266 E.1959
G1 X186.171 Y82.498 E.02743
G1 X186.171 Y77.018 E.17182
G1 X185.752 Y77.018 E.01314
G1 X185.752 Y81.973 E.15536
G1 X185.333 Y81.578 E.01805
M73 Q1 S89
G1 X185.333 Y77.018 E.14298
G1 X184.914 Y77.018 E.01314
G1 X184.914 Y81.271 E.13335
G1 X184.495 Y81.031 E.01514
G1 X184.495 Y77.018 E.12582
G1 X184.076 Y77.018 E.01314
G1 X184.076 Y80.847 E.12006
G1 X183.657 Y80.711 E.01381
G1 X183.657 Y77.018 E.11579
G1 X183.238 Y77.018 E.01314
G1 X183.238 Y80.619 E.11291
G1 X182.819 Y80.57 E.01323
G1 X182.819 Y77.018 E.11137
G1 X182.4 Y77.018 E.01314
G1 X182.4 Y80.557 E.11096
G1 X181.981 Y80.557 E.01314
G1 X181.981 Y77.018 E.11096
G1 X181.562 Y77.018 E.01314
G1 X181.562 Y80.557 E.11096
G1 X181.143 Y80.557 E.01314
G1 X181.143 Y77.018 E.11096
G1 X180.724 Y77.018 E.01314
G1 X180.724 Y80.557 E.11096
G1 X180.305 Y80.557 E.01314
G1 X180.305 Y77.018 E.11096
G1 X179.886 Y77.018 E.01314
G1 X179.886 Y80.557 E.11096
G1 X179.467 Y80.557 E.01314
G1 X179.467 Y77.018 E.11096
G1 X179.048 Y77.018 E.01314
G1 X179.048 Y80.557 E.11096
G1 X178.629 Y80.557 E.01314
G1 X178.629 Y77.018 E.11096
G1 X178.21 Y77.018 E.01314
G1 X178.21 Y80.557 E.11096
G1 X177.791 Y80.557 E.01314
G1 X177.791 Y77.018 E.11096
G1 X177.372 Y77.018 E.01314
G1 X177.372 Y80.557 E.11096
G1 X176.953 Y80.557 E.01314
G1 X176.953 Y77.018 E.11096
G1 X176.534 Y77.018 E.01314
G1 X176.534 Y80.557 E.11096
G1 X176.115 Y80.557 E.01314
G1 X176.115 Y77.018 E.11096
G1 X175.696 Y77.018 E.01314
G1 X175.696 Y80.557 E.11096
G1 X175.277 Y80.557 E.01314
G1 X175.277 Y77.018 E.11096
G1 X174.858 Y77.018 E.01314
G1 X174.858 Y80.557 E.11096
G1 X174.439 Y80.557 E.01314
G1 X174.439 Y77.018 E.11096
G1 X174.02 Y77.018 E.01314
G1 X174.02 Y80.557 E.11096
G1 X173.601 Y80.557 E.01314
G1 X173.601 Y77.018 E.11096
G1 X173.182 Y77.018 E.01314
G1 X173.182 Y80.557 E.11096
G1 X172.763 Y80.557 E.01314
G1 X172.763 Y77.018 E.11096
G1 X172.344 Y77.018 E.01314
G1 X172.344 Y80.557 E.11096
G1 X171.925 Y80.557 E.01314
G1 X171.925 Y77.018 E.11096
G1 X171.506 Y77.018 E.01314
G1 X171.506 Y80.557 E.11096
G1 X171.087 Y80.557 E.01314
G1 X171.087 Y77.018 E.11096
G1 X170.668 Y77.018 E.01314
G1 X170.668 Y80.557 E.11096
G1 X170.25 Y80.557 E.01311
G1 X170.25 Y77.018 E.11096
G1 X169.831 Y77.018 E.01314
G1 X169.831 Y80.557 E.11096
G1 X169.412 Y80.557 E.01314
G1 X169.412 Y77.018 E.11096
G1 X168.993 Y77.018 E.01314
G1 X168.993 Y80.557 E.11096
G1 X168.574 Y80.557 E.01314
G1 X168.574 Y77.018 E.11096
G1 X168.155 Y77.018 E.01314
G1 X168.155 Y80.571 E.1114
G1 X167.736 Y80.623 E.01324
G1 X167.736 Y77.018 E.11303
G1 X167.317 Y77.018 E.01314
G1 X167.317 Y80.717 E.11598
G1 X166.898 Y80.855 E.01383
G1 X166.898 Y77.018 E.12031
G1 X166.479 Y77.018 E.01314
G1 X166.479 Y81.026 E.12567
G1 X166.06 Y81.2 E.01423
G1 X166.06 Y77.018 E.13112
G1 X165.641 Y77.018 E.01314
G1 X165.641 Y81.373 E.13655
G1 X165.222 Y81.547 E.01423
G1 X165.222 Y77.018 E.142
G1 X164.803 Y77.018 E.01314
G1 X164.803 Y81.72 E.14743
G1 X164.384 Y81.894 E.01423
G1 X164.384 Y77.018 E.15288
G1 X163.965 Y77.018 E.01314
G1 X163.965 Y82.068 E.15834
G1 X163.546 Y82.241 E.01421
G1 X163.546 Y77.018 E.16376
G1 X163.127 Y77.018 E.01314
G1 X163.127 Y82.415 E.16922
G1 X162.708 Y82.588 E.01421
G1 X162.708 Y77.018 E.17464
G1 X162.289 Y77.018 E.01314
G1 X162.289 Y82.762 E.1801
G1 X161.87 Y82.935 E.01421
G1 X161.87 Y77.018 E.18552
G1 X161.451 Y77.018 E.01314
G1 X161.451 Y83.109 E.19098
G1 X161.032 Y83.282 E.01421
G1 X161.032 Y77.018 E.1964
G1 X160.613 Y77.018 E.01314
G1 X160.613 Y83.456 E.20186
G1 X160.194 Y83.629 E.01421
G1 X160.194 Y77.018 E.20728
G1 X159.775 Y77.018 E.01314
G1 X159.775 Y83.803 E.21274
G1 X159.356 Y83.977 E.01423
G1 X159.309 Y77.018 E.2182
G1 X159.309 Y79.325 E.07233
G1 X158.937 Y79.325 E.01166
G1 X158.937 Y84.15 E.15128
G1 X158.518 Y84.324 E.01423
G1 X158.518 Y79.325 E.15674
G1 X158.099 Y79.325 E.01314
G1 X158.099 Y84.497 E.16216
G1 X157.68 Y84.671 E.01423
G1 X157.68 Y79.325 E.16762
G1 X157.261 Y79.325 E.01314
G1 X157.261 Y84.844 E.17304
G1 X156.842 Y85.018 E.01423
G1 X156.842 Y79.325 E.1785
G1 X156.423 Y79.325 E.01314
G1 X156.423 Y85.191 E.18392
G1 X156.004 Y85.365 E.01423
G1 X156.004 Y79.325 E.18938
G1 X155.585 Y79.325 E.01314
G1 X155.585 Y85.538 E.1948
G1 X155.166 Y85.712 E.01423
G1 X155.166 Y79.325 E.20026
G1 X154.747 Y79.325 E.01314
G1 X154.747 Y85.886 E.20572
G1 X154.328 Y86.059 E.01421
G1 X154.328 Y81.632 E.13881
G1 X153.909 Y81.632 E.01314
G1 X153.909 Y86.233 E.14426
G1 X153.49 Y86.406 E.01421
G1 X153.49 Y81.632 E.14969
G1 X153.071 Y81.632 E.01314
G1 X153.071 Y86.58 E.15514
G1 X152.652 Y86.753 E.01421
G1 X152.652 Y81.632 E.16057
G1 X152.234 Y81.632 E.01311
G1 X152.234 Y86.927 E.16602
G1 X151.815 Y87.1 E.01421
G1 X151.815 Y81.632 E.17145
G1 X151.396 Y81.632 E.01314
G1 X151.396 Y87.274 E.1769
G1 X150.977 Y87.447 E.01421
G1 X150.977 Y81.632 E.18233
G1 X150.558 Y81.632 E.01314
G1 X150.558 Y87.621 E.18778
G1 X150.139 Y87.795 E.01423
G1 X150.139 Y81.632 E.19324
G1 X150.081 Y81.632 E.00182
G1 X150.081 Y83.939 E.07233
G1 X149.72 Y83.939 E.01132
G1 X149.72 Y87.968 E.12633
G1 X149.301 Y88.142 E.01423
G1 X149.301 Y83.939 E.13178
G1 X148.882 Y83.939 E.01314
G1 X148.882 Y88.315 E.13721
G1 X148.463 Y88.489 E.01423
M73 P2 R87
G1 X148.463 Y83.939 E.14266
G1 X148.044 Y83.939 E.01314
G1 X148.044 Y88.662 E.14809
G1 X147.625 Y88.836 E.01423
G1 X147.625 Y83.939 E.15354
G1 X147.206 Y83.939 E.01314
G1 X147.206 Y89.009 E.15897
G1 X146.787 Y89.183 E.01423
G1 X146.787 Y83.939 E.16442
G1 X146.368 Y83.939 E.01314
M73 Q2 S89
G1 X146.368 Y89.356 E.16985
G1 X145.949 Y89.53 E.01423
G1 X145.949 Y83.939 E.1753
G1 X145.53 Y83.939 E.01314
G1 X145.53 Y89.704 E.18076
G1 X145.111 Y89.877 E.01421
G1 X145.111 Y83.939 E.18618
G1 X144.692 Y83.939 E.01314
G1 X144.692 Y90.051 E.19164
G1 X144.273 Y90.218 E.01414
G1 X144.273 Y83.939 E.19687
G1 X143.854 Y83.939 E.01314
G1 X143.854 Y90.353 E.20111
G1 X143.435 Y90.451 E.01349
G1 X143.435 Y83.939 E.20418
G1 X143.16 Y83.939 E.00862
G1 X143.16 Y86.246 E.07233
G1 X143.016 Y86.246 E.00452
G1 X143.016 Y90.518 E.13395
G1 X142.848 Y90.536 E.0053
G1 X142.597 Y90.552 E.00789
G1 X142.597 Y86.246 E.13501
G1 X142.178 Y86.246 E.01314
G1 X142.178 Y90.557 E.13517
G1 X141.759 Y90.557 E.01314
G1 X141.759 Y86.246 E.13517
G1 X141.34 Y86.246 E.01314
G1 X141.34 Y90.557 E.13517
G1 X140.921 Y90.557 E.01314
G1 X140.921 Y86.246 E.13517
G1 X140.502 Y86.246 E.01314
G1 X140.502 Y90.557 E.13517
G1 X140.083 Y90.557 E.01314
G1 X140.083 Y86.246 E.13517
G1 X139.664 Y86.246 E.01314
G1 X139.664 Y90.557 E.13517
G1 X139.245 Y90.557 E.01314
G1 X139.245 Y86.246 E.13517
G1 X138.826 Y86.246 E.01314
G1 X138.826 Y90.557 E.13517
G1 X138.407 Y90.557 E.01314
G1 X138.407 Y86.246 E.13517
G1 X137.988 Y86.246 E.01314
G1 X137.988 Y90.557 E.13517
G1 X137.569 Y90.557 E.01314
G1 X137.569 Y86.246 E.13517
G1 X137.15 Y86.246 E.01314
G1 X137.15 Y90.557 E.13517
G1 X136.731 Y90.557 E.01314
G1 X136.731 Y86.246 E.13517
G1 X136.312 Y86.246 E.01314
G1 X136.312 Y90.557 E.13517
G1 X135.893 Y90.557 E.01314
G1 X135.893 Y86.246 E.13517
G1 X135.474 Y86.246 E.01314
G1 X135.474 Y90.557 E.13517
G1 X135.055 Y90.557 E.01314
G1 X135.055 Y86.246 E.13517
G1 X134.636 Y86.246 E.01314
G1 X134.636 Y90.557 E.13517
G1 X134.217 Y90.557 E.01314
G1 X134.217 Y86.246 E.13517
G1 X133.799 Y86.246 E.01311
G1 X133.799 Y90.557 E.13517
G1 X133.38 Y90.557 E.01314
G1 X133.38 Y86.246 E.13517
G1 X132.961 Y86.246 E.01314
G1 X132.961 Y90.557 E.13517
G1 X132.542 Y90.557 E.01314
G1 X132.542 Y86.246 E.13517
G1 X132.123 Y86.246 E.01314
G1 X132.123 Y90.557 E.13517
G1 X131.704 Y90.557 E.01314
G1 X131.704 Y86.246 E.13517
G1 X131.285 Y86.246 E.01314
G1 X131.285 Y90.557 E.13517
G1 X130.866 Y90.557 E.01314
G1 X130.866 Y86.246 E.13517
G1 X130.447 Y86.246 E.01314
G1 X130.447 Y90.557 E.13517
G1 X130.028 Y90.557 E.01314
G1 X130.028 Y86.246 E.13517
G1 X129.609 Y86.246 E.01314
G1 X129.609 Y90.557 E.13517
G1 X129.19 Y90.557 E.01314
G1 X129.19 Y86.246 E.13517
G1 X128.771 Y86.246 E.01314
G1 X128.771 Y90.557 E.13517
G1 X128.352 Y90.557 E.01314
G1 X128.352 Y86.246 E.13517
G1 X127.933 Y86.246 E.01314
G1 X127.933 Y90.557 E.13517
G1 X127.514 Y90.557 E.01314
G1 X127.514 Y86.246 E.13517
G1 X127.095 Y86.246 E.01314
G1 X127.095 Y90.557 E.13517
G1 X126.676 Y90.557 E.01314
G1 X126.676 Y86.246 E.13517
G1 X126.257 Y86.246 E.01314
G1 X126.257 Y90.557 E.13517
G1 X125.838 Y90.557 E.01314
G1 X125.838 Y86.246 E.13517
G1 X125.419 Y86.246 E.01314
G1 X125.419 Y90.557 E.13517
G1 X125 Y90.557 E.01314
G1 X125 Y86.246 E.13517
G1 X124.581 Y86.246 E.01314
G1 X124.581 Y90.557 E.13517
G1 X124.162 Y90.557 E.01314
G1 X124.162 Y86.246 E.13517
G1 X123.743 Y86.246 E.01314
G1 X123.743 Y90.557 E.13517
G1 X123.324 Y90.557 E.01314
G1 X123.324 Y86.246 E.13517
G1 X122.905 Y86.246 E.01314
G1 X122.905 Y90.557 E.13517
G1 X122.486 Y90.557 E.01314
G1 X122.486 Y86.246 E.13517
G1 X122.067 Y86.246 E.01314
G1 X122.067 Y90.557 E.13517
G1 X121.648 Y90.557 E.01314
G1 X121.648 Y86.246 E.13517
G1 X121.229 Y86.246 E.01314
G1 X121.229 Y90.557 E.13517
G1 X120.81 Y90.557 E.01314
G1 X120.81 Y86.246 E.13517
G1 X120.391 Y86.246 E.01314
G1 X120.391 Y90.557 E.13517
G1 X119.972 Y90.557 E.01314
G1 X119.972 Y86.246 E.13517
G1 X119.553 Y86.246 E.01314
G1 X119.553 Y90.557 E.13517
G1 X119.134 Y90.557 E.01314
G1 X119.134 Y86.246 E.13517
G1 X118.715 Y86.246 E.01314
G1 X118.715 Y90.557 E.13517
G1 X118.296 Y90.557 E.01314
G1 X118.296 Y86.246 E.13517
G1 X117.877 Y86.246 E.01314
G1 X117.877 Y90.557 E.13517
G1 X117.458 Y90.557 E.01314
G1 X117.458 Y86.246 E.13517
G1 X117.039 Y86.246 E.01314
G1 X117.039 Y90.557 E.13517
G1 X116.62 Y90.557 E.01314
G1 X116.62 Y86.246 E.13517
G1 X116.201 Y86.246 E.01314
G1 X116.201 Y90.557 E.13517
G1 X115.783 Y90.557 E.01311
G1 X115.783 Y86.246 E.13517
G1 X115.364 Y86.246 E.01314
G1 X115.364 Y90.557 E.13517
G1 X114.945 Y90.557 E.01314
G1 X114.945 Y86.246 E.13517
G1 X114.526 Y86.246 E.01314
G1 X114.526 Y90.557 E.13517
G1 X114.107 Y90.557 E.01314
G1 X114.107 Y86.246 E.13517
G1 X113.688 Y86.246 E.01314
G1 X113.688 Y90.557 E.13517
G1 X113.269 Y90.557 E.01314
G1 X113.269 Y86.246 E.13517
G1 X112.85 Y86.246 E.01314
G1 X112.85 Y90.557 E.13517
G1 X112.431 Y90.557 E.01314
G1 X112.431 Y86.246 E.13517
G1 X112.012 Y86.246 E.01314
G1 X112.012 Y90.557 E.13517
G1 X111.593 Y90.557 E.01314
G1 X111.593 Y86.246 E.13517
G1 X111.174 Y86.246 E.01314
G1 X111.174 Y90.557 E.13517
G1 X110.755 Y90.557 E.01314
G1 X110.755 Y86.246 E.13517
G1 X110.336 Y86.246 E.01314
G1 X110.336 Y90.557 E.13517
G1 X109.917 Y90.557 E.01314
G1 X109.917 Y86.246 E.13517
G1 X109.498 Y86.246 E.01314
G1 X109.498 Y90.557 E.13517
G1 X109.079 Y90.557 E.01314
G1 X109.079 Y86.246 E.13517
G1 X108.66 Y86.246 E.01314
G1 X108.66 Y90.557 E.13517
G1 X108.241 Y90.557 E.01314
G1 X108.241 Y86.246 E.13517
G1 X107.822 Y86.246 E.01314
G1 X107.822 Y90.557 E.13517
G1 X107.403 Y90.557 E.01314
G1 X107.403 Y86.246 E.13517
G1 X106.984 Y86.246 E.01314
G1 X106.984 Y90.557 E.13517
G1 X106.565 Y90.557 E.01314
G1 X106.565 Y86.246 E.13517
G1 X106.146 Y86.246 E.01314
G1 X106.146 Y90.557 E.13517
G1 X105.727 Y90.557 E.01314
G1 X105.727 Y86.246 E.13517
G1 X105.308 Y86.246 E.01314
G1 X105.308 Y90.557 E.13517
G1 X104.889 Y90.557 E.01314
G1 X104.889 Y86.246 E.13517
G1 X104.47 Y86.246 E.01314
G1 X104.47 Y90.557 E.13517
G1 X104.051 Y90.557 E.01314
G1 X104.051 Y86.246 E.13517
