; generated by PrusaSlicer 2.7.4 on 2024-06-19 at 10:32:30 UTC


;
;
; 

; external perimeters extrusion width = 0.45mm
; perimeters extrusion width = 0.45mm
; infill extrusion width = 0.45mm
; solid infill extrusion width = 0.45mm
; top infill extrusion width = 0.40mm
; support material extrusion width = 0.35mm
; first layer extrusion width = 0.42mm

M73 P0 R89
M73 Q0 S91
M201 X1000 Y1000 Z200 E5000 ; sets maximum accelerations, mm/sec^2
M203 X200 Y200 Z12 E120 ; sets maximum feedrates, mm / sec
M204 S1250 T1250 ; sets acceleration (S) and retract acceleration (R), mm/sec^2
M205 X8.00 Y8.00 Z0.40 E4.50 ; sets the jerk limits, mm/sec
M205 S0 T0 ; sets the minimum extruding and travel feed rate, mm/sec

; printing object camera_side - camera_side_left.stl id:0 copy 0
; stop printing object camera_side - camera_side_left.stl id:0 copy 0

;TYPE:Custom
M862.3 P "MK3S" ; printer model check
M862.1 P0.4 ; nozzle diameter check
M115 U3.13.3 ; tell printer latest fw version
G90 ; use absolute coordinates
M83 ; extruder relative mode
M104 S215 ; set extruder temp
M140 S60 ; set bed temp
M190 S60 ; wait for bed temp
M109 S215 ; wait for extruder temp
G28 W ; home all without mesh bed level
G80 X56.4111 Y73.9111 W137.178 H62.1779 ; mesh bed levelling

G1 Z0.2 F720
G1 Y-3 F1000 ; go outside print area
G92 E0
G1 X60 E9 F1000 ; intro line
G1 X100 E12.5 F1000 ; intro line

G92 E0
M221 S95

; Don't change E values below. Excessive value can damage the printer.

M907 E538 ; set extruder motor current
G21 ; set units to millimeters
G90 ; use absolute coordinates
M83 ; use relative distances for extrusion

M900 K0.05 ; Filament gcode LA 1.5
M900 K30 ; Filament gcode LA 1.0




M107
;LAYER_CHANGE
;Z:0.2
;HEIGHT:0.2
G1 E-.8 F2100
G1 Z.6 F720
G1 X58.006 Y74.809 F10800
G1 Z.2 F720
G1 E.8 F2100
M204 S800
;TYPE:Skirt/Brim
;WIDTH:0.42
G1 F1200
G1 X59.683 Y74.113 E.05693
G1 X185.702 Y74.113 E3.95124
G1 X186.762 Y74.364 E.03415
G1 X191.376 Y76.671 E.16174
G1 X192.104 Y77.227 E.02872
G1 X192.786 Y78.651 E.04951
G1 X193.4 Y84.624 E.18827
G1 X193.394 Y125.368 E1.2775
G1 X192.794 Y133.444 E.25392
G1 X192.307 Y134.714 E.04265
G1 X192.119 Y134.959 E.00968
G1 X191.011 Y135.757 E.04281
G1 X190.239 Y135.887 E.02455
G1 X158.666 Y135.876 E.98995
G1 X61.769 Y126.648 E3.05188
G1 X60.314 Y125.963 E.05042
G1 X57.896 Y123.545 E.10722
G1 X57.21 Y122.084 E.05061
G1 X56.6 Y115.107 E.21959
G1 X56.612 Y84.483 E.96019
G1 X57.206 Y76.425 E.25334
G1 X57.98 Y74.863 E.05466
M204 S1000
;WIPE_START
G1 F8640
G1 X58.006 Y74.809 E-.01384
G1 X59.683 Y74.113 E-.41925
G1 X61.272 Y74.113 E-.36691
;WIPE_END
G1 Z.6 F720
G1 X61.87 Y78.986 F10800
G1 Z.2 F720
G1 E.8 F2100
M204 S800
G1 F1200
G1 X62.807 Y78.229 E.03777
G1 X63.877 Y77.602 E.03888
G1 X64.965 Y77.163 E.03679
G1 X66.334 Y76.845 E.04407
G1 X67.423 Y76.763 E.03424
G1 X175.107 Y76.767 E3.37636
G1 X176.919 Y77.029 E.0574
G1 X187.353 Y79.858 E.33896
G1 X188.524 Y80.474 E.04149
G1 X189.514 Y81.387 E.04223
G1 X190.239 Y82.521 E.0422
G1 X190.648 Y83.768 E.04115
G1 X190.737 Y84.616 E.02673
G1 X190.727 Y125.397 E1.27866
G1 X190.668 Y126.06 E.02087
G1 X190.341 Y127.522 E.04697
G1 X190.04 Y128.315 E.02659
G1 X189.664 Y129.064 E.02628
G1 X188.757 Y130.356 E.0495
G1 X188.108 Y131.032 E.02938
G1 X187.401 Y131.62 E.02883
G1 X186.129 Y132.394 E.04669
G1 X185.204 Y132.78 E.03143
G1 X183.75 Y133.142 E.04698
G1 X182.582 Y133.237 E.03674
G1 X168.426 Y133.237 E.44385
G1 X166.644 Y133.026 E.05626
M73 P0 R88
G1 X165.387 Y132.628 E.04134
G1 X143.17 Y123.426 E.75399
G1 X142.496 Y123.249 E.02185
G1 X66.683 Y123.196 E2.37706
G1 X65.263 Y122.927 E.04531
M73 Q0 S90
G1 X64.508 Y122.674 E.02497
G1 X63.591 Y122.251 E.03166
G1 X62.472 Y121.524 E.04184
G1 X61.608 Y120.757 E.03622
G1 X60.822 Y119.822 E.0383
G1 X60.273 Y118.952 E.03226
G1 X59.69 Y117.619 E.04562
G1 X59.429 Y116.644 E.03165
G1 X59.267 Y115.242 E.04425
G1 X59.304 Y84.188 E.97368
G1 X59.469 Y83.165 E.03249
G1 X59.821 Y82.017 E.03765
G1 X60.356 Y80.897 E.03892
G1 X61.03 Y79.9 E.03773
G1 X61.83 Y79.03 E.03706
M204 S1000
G1 X61.83 Y79.03 F10800
G1 X62.107 Y79.284
M204 S800
G1 F1200
G1 X62.126 Y79.264 E.00086
G1 X63.025 Y78.537 E.03625
G1 X64.554 Y77.713 E.05446
G1 X65.731 Y77.342 E.03869
G1 X67.43 Y77.14 E.05365
G1 X175.099 Y77.144 E3.37589
G1 X176.826 Y77.395 E.05472
G1 X187.197 Y80.202 E.33688
G1 X188.288 Y80.77 E.03857
G1 X189.211 Y81.612 E.03917
G1 X189.888 Y82.663 E.0392
G1 X190.275 Y83.829 E.03852
G1 X190.36 Y84.626 E.02513
G1 X190.35 Y125.388 E1.27806
G1 X190.177 Y126.685 E.04103
G1 X189.698 Y128.154 E.04845
G1 X188.911 Y129.547 E.05017
G1 X187.859 Y130.749 E.05008
G1 X187.182 Y131.313 E.02763
G1 X185.957 Y132.058 E.04495
G1 X184.388 Y132.629 E.05235
G1 X183.686 Y132.77 E.02245
G1 X182.574 Y132.86 E.03498
G1 X168.432 Y132.86 E.44341
G1 X166.718 Y132.656 E.05412
M73 P1 R88
G1 X165.527 Y132.278 E.03918
G1 X143.303 Y123.073 E.75422
G1 X142.528 Y122.872 E.0251
M73 Q1 S90
G1 X67.371 Y122.858 E2.35649
G1 X66.043 Y122.723 E.04185
G1 X64.656 Y122.327 E.04523
G1 X63.774 Y121.921 E.03044
G1 X62.714 Y121.234 E.03961
G1 X61.88 Y120.496 E.03492
G1 X61.124 Y119.597 E.03683
G1 X60.297 Y118.145 E.05239
G1 X60.046 Y117.493 E.02191
G1 X59.693 Y115.907 E.05094
G1 X59.678 Y84.238 E.99296
G1 X59.985 Y82.697 E.04927
G1 X60.681 Y81.089 E.05494
G1 X61.329 Y80.131 E.03626
G1 X62.066 Y79.328 E.03417
M204 S1000
G1 X62.066 Y79.328 F10800
G1 X62.343 Y79.583
M204 S800
G1 F1200
G1 X62.381 Y79.541 E.00178
G1 X63.243 Y78.845 E.03474
G1 X64.202 Y78.282 E.03487
G1 X65.208 Y77.877 E.034
G1 X66.452 Y77.59 E.04003
G1 X67.437 Y77.517 E.03097
G1 X175.09 Y77.521 E3.37538
G1 X176.734 Y77.76 E.05209
G1 X187.043 Y80.547 E.33484
G1 X188.054 Y81.066 E.03563
G1 X188.909 Y81.839 E.03614
G1 X189.539 Y82.807 E.03621
G1 X189.902 Y83.89 E.03581
G1 X189.983 Y84.636 E.02353
G1 X189.973 Y125.379 E1.27747
G1 X189.919 Y125.976 E.01879
G1 X189.618 Y127.307 E.04279
G1 X189.356 Y127.995 E.02308
G1 X189.017 Y128.676 E.02385
G1 X188.175 Y129.876 E.04596
G1 X186.964 Y131.006 E.05193
G1 X185.784 Y131.723 E.04329
G1 X184.952 Y132.07 E.02826
G1 X183.623 Y132.398 E.04292
G1 X182.567 Y132.483 E.03322
G1 X168.438 Y132.483 E.443
G1 X166.792 Y132.287 E.05197
G1 X165.668 Y131.928 E.037
G1 X143.436 Y122.72 E.75449
G1 X142.561 Y122.494 E.02834
G1 X66.773 Y122.447 E2.37628
G1 X65.453 Y122.197 E.04212
G1 X64.786 Y121.973 E.02206
G1 X63.957 Y121.591 E.02862
G1 X62.956 Y120.945 E.03735
G1 X62.153 Y120.236 E.03359
G1 X61.428 Y119.373 E.03534
G1 X60.941 Y118.601 E.02862
G1 X60.401 Y117.366 E.04226
G1 X60.17 Y116.505 E.02795
G1 X60.021 Y115.228 E.04031
G1 X60.052 Y84.287 E.97013
G1 X60.203 Y83.342 E.03001
G1 X60.527 Y82.284 E.03469
G1 X61.007 Y81.28 E.03489
G1 X61.627 Y80.362 E.03473
G1 X62.302 Y79.627 E.03129
M204 S1000
G1 X62.302 Y79.627 F10800
G1 X62.579 Y79.881
M204 S800
G1 F1200
G1 X62.636 Y79.819 E.00264
G1 X63.461 Y79.153 E.03324
G1 X64.836 Y78.413 E.04896
G1 X65.915 Y78.074 E.03546
G1 X67.444 Y77.894 E.04827
G1 X175.081 Y77.898 E3.37488
G1 X176.641 Y78.126 E.04943
G1 X186.891 Y80.892 E.33288
G1 X187.822 Y81.364 E.03273
G1 X188.608 Y82.068 E.03308
G1 X189.19 Y82.951 E.03316
G1 X189.53 Y83.952 E.03315
G1 X189.606 Y84.646 E.02189
G1 X189.596 Y125.37 E1.27687
G1 X189.444 Y126.505 E.0359
G1 X189.015 Y127.835 E.04382
G1 X188.284 Y129.127 E.04654
G1 X187.359 Y130.184 E.04404
G1 X186.744 Y130.699 E.02515
G1 X185.612 Y131.388 E.04155
G1 X184.222 Y131.893 E.04637
G1 X182.56 Y132.106 E.05254
G1 X168.444 Y132.106 E.4426
G1 X166.867 Y131.917 E.0498
G1 X165.808 Y131.578 E.03486
G1 X143.569 Y122.367 E.75473
G1 X142.605 Y122.119 E.03121
G1 X67.381 Y122.104 E2.3586
G1 X66.183 Y121.982 E.03776
G1 X64.916 Y121.619 E.04132
G1 X64.14 Y121.261 E.0268
G1 X63.197 Y120.654 E.03516
G1 X62.425 Y119.974 E.03226
G1 X61.731 Y119.148 E.03383
G1 X60.988 Y117.842 E.04711
G1 X60.757 Y117.24 E.02022
G1 X60.442 Y115.819 E.04564
G1 X60.426 Y84.336 E.98713
G1 X60.706 Y82.919 E.04529
G1 X61.332 Y81.47 E.04949
G1 X61.926 Y80.592 E.03324
M73 P1 R87
G1 X62.539 Y79.925 E.0284
M204 S1000
G1 X62.539 Y79.925 F10800
G1 X62.815 Y80.179
M204 S800
G1 F1200
G1 X62.891 Y80.097 E.00351
G1 X63.678 Y79.461 E.03173
G1 X64.528 Y78.963 E.03089
G1 X65.45 Y78.591 E.03117
G1 X66.569 Y78.336 E.03598
G1 X67.451 Y78.272 E.02773
G1 X175.072 Y78.275 E3.37438
G1 X176.548 Y78.491 E.04677
M73 Q1 S89
G1 X186.74 Y81.238 E.33097
G1 X187.591 Y81.663 E.02982
G1 X188.308 Y82.298 E.03003
G1 X188.842 Y83.098 E.03016
G1 X189.157 Y84.015 E.0304
G1 X189.228 Y84.657 E.02025
G1 X189.169 Y125.891 E1.29286
G1 X188.895 Y127.092 E.03862
G1 X188.673 Y127.676 E.01959
G1 X188.369 Y128.289 E.02145
G1 X187.594 Y129.395 E.04234
G1 X186.525 Y130.392 E.04583
G1 X185.439 Y131.052 E.03985
G1 X184.718 Y131.353 E.0245
G1 X183.496 Y131.654 E.03946
G1 X182.552 Y131.728 E.02969
G1 X168.45 Y131.728 E.44216
G1 X166.959 Y131.551 E.04708
G1 X165.949 Y131.228 E.03325
G1 X143.702 Y122.014 E.755
G1 X142.646 Y121.744 E.03418
G1 X66.832 Y121.695 E2.3771
G1 X65.645 Y121.467 E.0379
M73 P2 R87
M73 Q2 S89
G1 X65.046 Y121.265 E.01982
G1 X64.323 Y120.931 E.02497
G1 X63.437 Y120.364 E.03298
G1 X62.697 Y119.713 E.0309
G1 X62.034 Y118.924 E.03231
G1 X61.609 Y118.25 E.02498
G1 X61.112 Y117.114 E.03888
G1 X60.912 Y116.366 E.02428
G1 X60.775 Y115.214 E.03637
G1 X60.8 Y84.384 E.96665
G1 X60.936 Y83.517 E.02752
G1 X61.232 Y82.551 E.03168
G1 X61.658 Y81.661 E.03094
G1 X62.224 Y80.823 E.03171
G1 X62.775 Y80.224 E.02552
M204 S1000
G1 X62.775 Y80.224 F10800
G1 X63.052 Y80.478
M204 S800
G1 F1200
G1 X63.147 Y80.374 E.00442
G1 X63.896 Y79.77 E.03017
G1 X65.118 Y79.112 E.04352
G1 X66.083 Y78.809 E.03171
G1 X67.457 Y78.649 E.04337
G1 X175.063 Y78.652 E3.37391
G1 X176.456 Y78.857 E.04415
G1 X186.59 Y81.585 E.32906
G1 X187.363 Y81.964 E.02699
G1 X188.01 Y82.53 E.02695
G1 X188.494 Y83.246 E.0271
G1 X188.785 Y84.079 E.02767
G1 X188.851 Y84.667 E.01855
G1 X188.842 Y125.352 E1.27565
G1 X188.712 Y126.325 E.03078
G1 X188.33 Y127.518 E.03928
G1 X187.658 Y128.706 E.0428
G1 X186.858 Y129.62 E.03808
G1 X186.305 Y130.086 E.02267
G1 X185.267 Y130.717 E.03809
G1 X184.6 Y130.994 E.02265
G1 X183.433 Y131.283 E.0377
G1 X182.545 Y131.351 E.02792
G1 X168.456 Y131.351 E.44175
G1 X167.05 Y131.185 E.04439
G1 X166.089 Y130.878 E.03163
G1 X143.835 Y121.661 E.75524
G1 X142.686 Y121.368 E.03718
G1 X67.392 Y121.349 E2.36079
G1 X66.309 Y121.239 E.03413
G1 X65.177 Y120.911 E.03695
G1 X64.506 Y120.601 E.02318
G1 X63.678 Y120.073 E.03079
G1 X62.969 Y119.452 E.02955
G1 X62.337 Y118.7 E.0308
G1 X61.679 Y117.54 E.04181
G1 X61.468 Y116.989 E.0185
G1 X61.193 Y115.746 E.03992
G1 X61.175 Y84.432 E.98183
G1 X61.427 Y83.14 E.04127
G1 X61.983 Y81.852 E.04399
G1 X62.522 Y81.054 E.03019
G1 X63.011 Y80.522 E.02266
M204 S1000
G1 X63.011 Y80.522 F10800
G1 X63.288 Y80.776
M204 S800
G1 F1200
G1 X63.402 Y80.652 E.00528
G1 X64.113 Y80.078 E.02865
G1 X64.855 Y79.643 E.02697
G1 X65.691 Y79.306 E.02826
G1 X66.685 Y79.081 E.03195
G1 X67.464 Y79.026 E.02449
G1 X175.053 Y79.029 E3.37338
G1 X176.363 Y79.223 E.04152
G1 X186.443 Y81.932 E.32727
G1 X187.137 Y82.267 E.02416
G1 X187.714 Y82.764 E.02388
G1 X188.148 Y83.397 E.02406
G1 X188.413 Y84.143 E.02482
G1 X188.474 Y84.678 E.01688
G1 X188.465 Y125.326 E1.27449
G1 X188.177 Y126.86 E.04894
G1 X187.712 Y127.92 E.03629
G1 X187.356 Y128.48 E.02081
G1 X186.592 Y129.352 E.03635
G1 X186.084 Y129.779 E.02081
G1 X185.094 Y130.381 E.03633
G1 X184.482 Y130.636 E.02079
G1 X183.37 Y130.911 E.03592
G1 X182.538 Y130.974 E.02616
G1 X168.462 Y130.974 E.44134
G1 X167.141 Y130.819 E.0417
G1 X166.23 Y130.528 E.02999
G1 X143.968 Y121.308 E.75551
G1 X142.715 Y120.992 E.04052
G1 X67.408 Y120.973 E2.3612
G1 X66.388 Y120.87 E.03214
G1 X65.308 Y120.557 E.03526
G1 X64.688 Y120.271 E.02141
G1 X63.901 Y119.769 E.02927
G1 X63.241 Y119.19 E.02753
G1 X62.641 Y118.476 E.02924
G1 X62.277 Y117.899 E.02139
G1 X61.824 Y116.863 E.03545
G1 X61.653 Y116.225 E.02071
G1 X61.529 Y115.2 E.03237
G1 X61.549 Y84.479 E.96324
G1 X61.67 Y83.692 E.02497
G1 X61.938 Y82.818 E.02866
G1 X62.309 Y82.042 E.02697
G1 X62.821 Y81.285 E.02865
G1 X63.247 Y80.821 E.01975
M204 S1000
G1 X63.247 Y80.821 F10800
G1 X63.524 Y81.075
M204 S800
G1 F1200
G1 X63.658 Y80.929 E.00621
G1 X64.33 Y80.386 E.02709
G1 X65.412 Y79.807 E.03848
G1 X66.265 Y79.541 E.02802
G1 X67.471 Y79.403 E.03806
G1 X175.044 Y79.406 E3.37288
G1 X176.27 Y79.588 E.03886
G1 X186.298 Y82.28 E.32555
G1 X186.913 Y82.571 E.02133
G1 X187.42 Y83.001 E.02084
G1 X187.802 Y83.549 E.02094
G1 X188.041 Y84.21 E.02204
G1 X188.097 Y84.689 E.01512
G1 X188.089 Y125.3 E1.27333
G1 X187.972 Y126.179 E.0278
G1 X187.646 Y127.201 E.03363
G1 X187.053 Y128.255 E.03792
G1 X186.327 Y129.084 E.03455
G1 X185.864 Y129.473 E.01896
G1 X184.922 Y130.046 E.03457
G1 X184.363 Y130.278 E.01898
M73 P2 R86
G1 X183.307 Y130.539 E.03411
G1 X182.531 Y130.597 E.0244
G1 X168.468 Y130.597 E.44094
G1 X167.232 Y130.453 E.03902
G1 X166.37 Y130.178 E.02837
G1 X144.101 Y120.955 E.75574
G1 X143.484 Y120.745 E.02044
G1 X142.748 Y120.616 E.02343
G1 X67.423 Y120.596 E2.36176
G1 X66.466 Y120.501 E.03015
M73 P3 R86
M73 Q2 S88
G1 X65.438 Y120.203 E.03356
G1 X64.125 Y119.466 E.04721
G1 X63.513 Y118.929 E.02553
G1 X62.944 Y118.252 E.02773
G1 X62.364 Y117.223 E.03704
G1 X62.18 Y116.738 E.01626
G1 X61.943 Y115.672 E.03424
G1 X61.923 Y84.526 E.97656
G1 X62.148 Y83.361 E.0372
G1 X62.634 Y82.232 E.03854
G1 X63.119 Y81.516 E.02712
G1 X63.483 Y81.119 E.01689
M204 S1000
G1 X63.483 Y81.119 F10800
G1 X63.76 Y81.373
M204 S800
G1 F1200
G1 X63.913 Y81.207 E.00708
G1 X64.547 Y80.695 E.02555
G1 X65.182 Y80.323 E.02307
G1 X65.931 Y80.021 E.02532
G1 X66.799 Y79.827 E.02789
G1 X67.477 Y79.78 E.02131
G1 X175.034 Y79.783 E3.37237
G1 X176.177 Y79.954 E.03624
M73 Q3 S88
G1 X186.155 Y82.63 E.32391
G1 X186.692 Y82.877 E.01853
G1 X187.128 Y83.241 E.01781
G1 X187.458 Y83.705 E.01785
G1 X187.67 Y84.277 E.01913
G1 X187.72 Y84.701 E.01339
G1 X187.713 Y125.273 E1.27211
G1 X187.465 Y126.612 E.0427
G1 X187.044 Y127.568 E.03275
G1 X186.751 Y128.03 E.01715
G1 X186.062 Y128.816 E.03277
G1 X185.643 Y129.168 E.01716
G1 X184.749 Y129.71 E.03278
G1 X184.244 Y129.92 E.01715
G1 X183.245 Y130.167 E.03227
G1 X182.524 Y130.22 E.02267
G1 X168.473 Y130.22 E.44056
G1 X167.323 Y130.087 E.0363
G1 X166.51 Y129.828 E.02675
G1 X144.234 Y120.602 E.75598
G1 X143.586 Y120.381 E.02147
G1 X142.781 Y120.24 E.02562
G1 X67.438 Y120.219 E2.36233
G1 X66.544 Y120.132 E.02816
G1 X65.569 Y119.849 E.03183
G1 X64.349 Y119.162 E.0439
G1 X63.785 Y118.667 E.02353
G1 X63.248 Y118.028 E.02617
G1 X62.944 Y117.548 E.01781
G1 X62.536 Y116.614 E.03196
G1 X62.283 Y115.185 E.0455
G1 X62.297 Y84.572 E.95985
G1 X62.404 Y83.865 E.02242
G1 X62.643 Y83.086 E.02555
G1 X62.96 Y82.423 E.02304
G1 X63.416 Y81.748 E.02554
G1 X63.72 Y81.418 E.01407
M204 S1000
G1 X63.72 Y81.418 F10800
G1 X64.014 Y81.667
M204 S800
G1 F1200
G1 X64.169 Y81.484 E.00752
G1 X64.764 Y81.003 E.02399
G1 X65.694 Y80.507 E.03305
G1 X66.444 Y80.274 E.02462
G1 X67.483 Y80.157 E.03278
G1 X175.025 Y80.16 E3.3719
G1 X176.084 Y80.319 E.03358
G1 X186.015 Y82.98 E.32236
G1 X186.474 Y83.186 E.01577
G1 X186.838 Y83.484 E.01475
G1 X187.115 Y83.864 E.01474
G1 X187.298 Y84.347 E.01619
G1 X187.343 Y84.713 E.01156
G1 X187.337 Y125.248 E1.27095
G1 X187.232 Y126.032 E.0248
G1 X186.961 Y126.884 E.02803
G1 X186.448 Y127.805 E.03305
G1 X185.421 Y128.862 E.04621
G1 X184.577 Y129.375 E.03097
G1 X183.722 Y129.686 E.02853
G1 X183.182 Y129.795 E.01727
G1 X167.945 Y129.811 E.47775
G1 X166.651 Y129.479 E.04189
G1 X144.367 Y120.249 E.75626
G1 X143.687 Y120.017 E.02253
G1 X142.813 Y119.864 E.02782
G1 X67.452 Y119.842 E2.36289
G1 X66.621 Y119.762 E.02618
G1 X65.7 Y119.495 E.03007
G1 X64.573 Y118.859 E.04057
G1 X64.056 Y118.406 E.02155
G1 X63.552 Y117.805 E.02459
G1 X63.048 Y116.906 E.03231
G1 X62.694 Y115.595 E.04258
G1 X62.672 Y84.617 E.97129
G1 X62.772 Y83.951 E.02112
G1 X62.996 Y83.22 E.02397
G1 X63.488 Y82.288 E.03304
G1 X63.975 Y81.713 E.02363
M204 S1000
G1 X63.975 Y81.713 F10800
G1 X64.241 Y81.999
M204 S800
G1 F1200
G1 X64.981 Y81.312 E.03166
G1 X66.17 Y80.737 E.04141
G1 X67.49 Y80.534 E.04187
G1 X175.015 Y80.537 E3.37137
G1 X175.991 Y80.684 E.03095
