; generated by PrusaSlicer 2.7.4 on 2024-06-19 at 10:31:01 UTC


;
;
; 

; external perimeters extrusion width = 0.45mm
; perimeters extrusion width = 0.45mm
; infill extrusion width = 0.45mm
; solid infill extrusion width = 0.45mm
; top infill extrusion width = 0.40mm
; support material extrusion width = 0.35mm
; first layer extrusion width = 0.42mm

; external perimeters extrusion width = 0.45mm
; perimeters extrusion width = 0.45mm
; infill extrusion width = 0.45mm
; solid infill extrusion width = 0.45mm
; top infill extrusion width = 0.40mm
; support material extrusion width = 0.35mm
; first layer extrusion width = 0.42mm

M73 P0 R178
M73 Q0 S183
M201 X1000 Y1000 Z200 E5000 ; sets maximum accelerations, mm/sec^2
M203 X200 Y200 Z12 E120 ; sets maximum feedrates, mm / sec
M204 S1250 T1250 ; sets acceleration (S) and retract acceleration (R), mm/sec^2
M205 X8.00 Y8.00 Z0.40 E4.50 ; sets the jerk limits, mm/sec
M205 S0 T0 ; sets the minimum extruding and travel feed rate, mm/sec

; printing object camera_side - camera_side_left.stl id:0 copy 0
; stop printing object camera_side - camera_side_left.stl id:0 copy 0
; printing object camera_side - camera_side_right.stl id:1 copy 0
; stop printing object camera_side - camera_side_right.stl id:1 copy 0

;TYPE:Custom
M862.3 P "MK3S" ; printer model check
M862.1 P0.4 ; nozzle diameter check
M115 U3.13.3 ; tell printer latest fw version
G90 ; use absolute coordinates
M83 ; extruder relative mode
M104 S215 ; set extruder temp
M140 S60 ; set bed temp
M190 S60 ; wait for bed temp
M109 S215 ; wait for extruder temp
G28 W ; home all without mesh bed level
G80 X55.4284 Y26.4111 W139.143 H157.178 ; mesh bed levelling

G1 Z0.2 F720
G1 Y-3 F1000 ; go outside print area
G92 E0
G1 X60 E9 F1000 ; intro line
G1 X100 E12.5 F1000 ; intro line
M73 Q0 S182

G92 E0
M221 S95

; Don't change E values below. Excessive value can damage the printer.

M907 E538 ; set extruder motor current
G21 ; set units to millimeters
G90 ; use absolute coordinates
M83 ; use relative distances for extrusion

M900 K0.05 ; Filament gcode LA 1.5
M900 K30 ; Filament gcode LA 1.0




M107
;LAYER_CHANGE
;Z:0.2
;HEIGHT:0.2
G1 E-.8 F2100
G1 Z.6 F720
G1 X58.879 Y38.955 F10800
G1 Z.2 F720
G1 E.8 F2100
M204 S800
;TYPE:Skirt/Brim
;WIDTH:0.42
G1 F1200
G1 X61.296 Y36.538 E.10717
G1 X62.752 Y35.852 E.05047
G1 X159.649 Y26.624 E3.05188
G1 X191.299 Y26.613 E.99236
G1 X192.976 Y27.309 E.05693
G1 X193.776 Y28.925 E.05654
G1 X194.37 Y36.969 E.2529
G1 X194.383 Y77.849 E1.28176
G1 X192.411 Y172.868 E2.9799
G1 X191.811 Y180.944 E.25392
G1 X191.325 Y182.214 E.04264
G1 X191.136 Y182.459 E.0097
G1 X190.029 Y183.257 E.04279
G1 X189.256 Y183.387 E.02458
G1 X157.684 Y183.376 E.98992
G1 X60.786 Y174.148 E3.05192
G1 X59.331 Y173.463 E.05042
G1 X56.913 Y171.045 E.10722
G1 X56.227 Y169.584 E.05061
G1 X55.617 Y162.526 E.22212
G1 X55.618 Y132.371 E.94549
G1 X57.586 Y47.252 E2.66956
G1 X58.193 Y40.416 E.21518
G1 X58.853 Y39.009 E.04873
M204 S1000
;WIPE_START
G1 F8640
G1 X58.879 Y38.955 E-.01384
G1 X61.287 Y36.547 E-.78616
;WIPE_END
G1 Z.6 F720
G1 X65.352 Y124.345 F10800
G1 Z.2 F720
G1 E.8 F2100
M204 S800
G1 F1200
G1 X66.44 Y124.263 E.03421
G1 X174.125 Y124.267 E3.37639
G1 X175.936 Y124.529 E.05737
G1 X186.37 Y127.358 E.33896
G1 X187.541 Y127.974 E.04149
G1 X188.531 Y128.887 E.04223
G1 X189.256 Y130.021 E.0422
G1 X189.665 Y131.268 E.04115
G1 X189.754 Y132.116 E.02673
G1 X189.744 Y172.897 E1.27866
G1 X189.686 Y173.56 E.02087
G1 X189.358 Y175.022 E.04698
G1 X189.057 Y175.815 E.02659
G1 X188.681 Y176.564 E.02628
G1 X187.774 Y177.856 E.0495
G1 X187.126 Y178.532 E.02936
G1 X186.418 Y179.12 E.02886
G1 X185.146 Y179.894 E.04669
G1 X184.221 Y180.28 E.03143
G1 X182.767 Y180.642 E.04698
G1 X181.599 Y180.737 E.03674
G1 X167.443 Y180.737 E.44385
G1 X165.662 Y180.526 E.05623
G1 X164.404 Y180.128 E.04137
G1 X142.188 Y170.926 E.75396
G1 X141.513 Y170.749 E.02188
G1 X65.7 Y170.696 E2.37706
G1 X64.28 Y170.427 E.04531
G1 X63.525 Y170.174 E.02497
G1 X62.608 Y169.751 E.03166
G1 X61.49 Y169.024 E.04181
G1 X60.625 Y168.257 E.03625
G1 X59.839 Y167.322 E.0383
G1 X59.291 Y166.452 E.03224
G1 X58.708 Y165.119 E.04562
G1 X58.446 Y164.144 E.03165
G1 X58.284 Y162.742 E.04425
G1 X58.322 Y131.688 E.97368
G1 X58.486 Y130.665 E.03249
G1 X58.838 Y129.517 E.03765
M73 P0 R177
G1 X59.374 Y128.397 E.03893
G1 X60.048 Y127.4 E.03773
G1 X60.888 Y126.486 E.03892
G1 X61.824 Y125.729 E.03774
G1 X62.894 Y125.102 E.03888
G1 X63.982 Y124.663 E.03679
G1 X65.293 Y124.359 E.0422
M204 S1000
G1 X65.293 Y124.359 F10800
G1 X65.342 Y124.772
M204 S800
G1 F1200
G1 X66.447 Y124.64 E.03489
G1 X174.116 Y124.644 E3.37589
G1 X175.844 Y124.895 E.05475
G1 X186.215 Y127.702 E.33688
G1 X187.306 Y128.27 E.03857
G1 X188.228 Y129.112 E.03915
G1 X188.906 Y130.163 E.03922
G1 X189.292 Y131.329 E.03851
G1 X189.377 Y132.126 E.02513
G1 X189.367 Y172.888 E1.27806
G1 X189.194 Y174.185 E.04103
M73 Q0 S181
G1 X188.715 Y175.654 E.04845
G1 X187.928 Y177.047 E.05017
G1 X186.876 Y178.249 E.05008
G1 X186.2 Y178.813 E.0276
G1 X184.974 Y179.558 E.04498
G1 X183.405 Y180.129 E.05235
G1 X182.704 Y180.27 E.02242
G1 X181.592 Y180.36 E.03498
G1 X167.449 Y180.36 E.44344
G1 X165.735 Y180.156 E.05412
G1 X164.545 Y179.778 E.03915
G1 X142.321 Y170.573 E.75422
G1 X141.546 Y170.372 E.0251
G1 X66.388 Y170.358 E2.35653
G1 X65.06 Y170.223 E.04185
G1 X63.674 Y169.827 E.0452
G1 X62.791 Y169.421 E.03047
G1 X61.731 Y168.734 E.03961
G1 X60.898 Y167.996 E.03489
G1 X60.142 Y167.097 E.03683
G1 X59.315 Y165.645 E.05239
G1 X59.063 Y164.993 E.02192
G1 X58.71 Y163.407 E.05094
G1 X58.696 Y131.738 E.99296
G1 X59.003 Y130.197 E.04927
G1 X59.699 Y128.589 E.05494
G1 X60.346 Y127.631 E.03625
G1 X61.143 Y126.764 E.03692
G1 X62.042 Y126.037 E.03625
G1 X63.572 Y125.213 E.05449
G1 X64.748 Y124.842 E.03866
G1 X65.283 Y124.779 E.01689
M204 S1000
G1 X65.283 Y124.779 F10800
G1 X65.36 Y125.116
M204 S800
G1 F1200
G1 X65.47 Y125.09 E.00354
G1 X66.454 Y125.017 E.03094
G1 X174.107 Y125.021 E3.37538
G1 X175.751 Y125.26 E.05209
G1 X186.061 Y128.047 E.33487
G1 X187.072 Y128.566 E.03563
G1 X187.926 Y129.339 E.03612
G1 X188.556 Y130.307 E.03621
G1 X188.92 Y131.39 E.03582
G1 X189 Y132.136 E.02352
G1 X188.99 Y172.879 E1.27747
G1 X188.936 Y173.476 E.01879
G1 X188.635 Y174.807 E.04279
G1 X188.374 Y175.495 E.02307
G1 X188.034 Y176.176 E.02387
G1 X187.192 Y177.376 E.04596
G1 X185.981 Y178.506 E.05193
G1 X184.802 Y179.223 E.04327
G1 X183.969 Y179.57 E.02829
G1 X182.64 Y179.898 E.04292
G1 X181.584 Y179.983 E.03322
G1 X167.455 Y179.983 E.443
G1 X165.809 Y179.787 E.05197
G1 X164.685 Y179.428 E.037
G1 X142.454 Y170.22 E.75446
G1 X141.578 Y169.994 E.02837
G1 X65.79 Y169.947 E2.37628
G1 X64.47 Y169.697 E.04212
G1 X63.803 Y169.473 E.02206
G1 X62.975 Y169.091 E.02859
G1 X61.973 Y168.445 E.03738
G1 X61.17 Y167.736 E.03359
G1 X60.445 Y166.873 E.03534
G1 X59.959 Y166.101 E.0286
G1 X59.419 Y164.866 E.04226
G1 X59.187 Y164.005 E.02796
G1 X59.038 Y162.728 E.04031
G1 X59.07 Y131.787 E.97013
G1 X59.22 Y130.842 E.03
G1 X59.544 Y129.784 E.03469
G1 X60.024 Y128.78 E.03489
G1 X60.645 Y127.862 E.03475
G1 X61.398 Y127.041 E.03493
G1 X62.26 Y126.345 E.03474
G1 X63.219 Y125.782 E.03487
G1 X64.225 Y125.377 E.034
G1 X65.302 Y125.129 E.03465
M204 S1000
G1 X65.348 Y125.525 F10800
M204 S800
G1 F1200
G1 X66.461 Y125.394 E.03514
G1 X174.098 Y125.398 E3.37488
G1 X175.658 Y125.626 E.04943
G1 X185.908 Y128.392 E.33288
G1 X186.839 Y128.864 E.03273
G1 X187.625 Y129.568 E.03308
G1 X188.207 Y130.451 E.03316
G1 X188.547 Y131.452 E.03315
G1 X188.623 Y132.146 E.02189
G1 X188.613 Y172.87 E1.27687
G1 X188.462 Y174.005 E.0359
G1 X188.032 Y175.335 E.04383
G1 X187.301 Y176.627 E.04654
G1 X186.376 Y177.684 E.04404
G1 X185.762 Y178.199 E.02513
G1 X184.629 Y178.888 E.04158
G1 X183.24 Y179.393 E.04634
G1 X181.577 Y179.606 E.05257
G1 X167.461 Y179.606 E.4426
G1 X165.884 Y179.417 E.0498
G1 X164.826 Y179.078 E.03483
G1 X142.587 Y169.867 E.75473
G1 X141.623 Y169.619 E.03121
G1 X66.399 Y169.604 E2.3586
G1 X65.201 Y169.482 E.03776
G1 X63.933 Y169.119 E.04135
G1 X63.158 Y168.761 E.02677
G1 X62.214 Y168.154 E.03519
G1 X61.442 Y167.474 E.03226
G1 X60.748 Y166.648 E.03383
G1 X60.006 Y165.342 E.0471
G1 X59.774 Y164.74 E.02023
G1 X59.459 Y163.319 E.04564
G1 X59.444 Y131.836 E.98713
G1 X59.724 Y130.419 E.04529
G1 X60.349 Y128.97 E.04948
G1 X60.943 Y128.092 E.03324
G1 X61.653 Y127.319 E.03291
G1 X62.478 Y126.653 E.03324
G1 X63.853 Y125.913 E.04896
G1 X64.932 Y125.574 E.03546
G1 X65.289 Y125.532 E.01127
M204 S1000
G1 X65.289 Y125.532 F10800
G1 X65.37 Y125.885
M204 S800
G1 F1200
G1 X65.587 Y125.836 E.00698
G1 X66.468 Y125.772 E.0277
G1 X174.089 Y125.775 E3.37438
G1 X175.566 Y125.991 E.0468
M73 P1 R177
M73 Q1 S181
G1 X185.757 Y128.738 E.33094
G1 X186.609 Y129.163 E.02985
G1 X187.326 Y129.798 E.03003
G1 X187.859 Y130.598 E.03014
G1 X188.175 Y131.515 E.03041
G1 X188.246 Y132.157 E.02025
G1 X188.186 Y173.391 E1.29286
G1 X187.912 Y174.592 E.03862
M73 P1 R176
G1 X187.69 Y175.176 E.01959
G1 X187.386 Y175.789 E.02145
G1 X186.611 Y176.895 E.04234
G1 X185.542 Y177.892 E.04583
G1 X184.457 Y178.552 E.03982
G1 X183.735 Y178.853 E.02453
G1 X182.514 Y179.154 E.03943
G1 X181.57 Y179.228 E.02969
G1 X167.467 Y179.228 E.44219
G1 X165.976 Y179.051 E.04708
G1 X164.966 Y178.728 E.03325
G1 X142.72 Y169.514 E.75497
G1 X141.663 Y169.244 E.03421
G1 X65.849 Y169.195 E2.3771
G1 X64.662 Y168.967 E.0379
M73 Q1 S180
G1 X64.064 Y168.765 E.01979
G1 X63.34 Y168.431 E.025
G1 X62.455 Y167.864 E.03296
G1 X61.714 Y167.213 E.03093
G1 X61.051 Y166.424 E.03231
G1 X60.626 Y165.75 E.02498
G1 X60.13 Y164.614 E.03887
G1 X59.929 Y163.866 E.02429
G1 X59.792 Y162.714 E.03637
G1 X59.818 Y131.884 E.96665
G1 X59.954 Y131.017 E.02752
G1 X60.25 Y130.051 E.03168
G1 X60.675 Y129.161 E.03092
G1 X61.242 Y128.323 E.03172
G1 X61.909 Y127.597 E.03091
G1 X62.696 Y126.961 E.03173
G1 X63.545 Y126.463 E.03086
G1 X64.467 Y126.091 E.03117
G1 X65.311 Y125.899 E.02714
M204 S1000
G1 X65.311 Y125.899 F10800
G1 X65.355 Y126.279
M204 S800
G1 F1200
G1 X66.475 Y126.149 E.03535
G1 X174.08 Y126.152 E3.37388
G1 X175.473 Y126.357 E.04415
G1 X185.608 Y129.085 E.32909
G1 X186.38 Y129.464 E.02697
G1 X187.028 Y130.03 E.02698
G1 X187.512 Y130.746 E.0271
G1 X187.802 Y131.579 E.02766
G1 X187.869 Y132.167 E.01856
G1 X187.859 Y172.852 E1.27565
G1 X187.729 Y173.825 E.03078
G1 X187.348 Y175.018 E.03927
G1 X186.675 Y176.206 E.04281
G1 X185.875 Y177.12 E.03808
G1 X185.322 Y177.586 E.02267
G1 X184.284 Y178.217 E.03809
G1 X183.617 Y178.494 E.02265
G1 X182.451 Y178.783 E.03767
G1 X181.562 Y178.851 E.02796
G1 X167.473 Y178.851 E.44175
G1 X166.067 Y178.685 E.04439
G1 X165.107 Y178.378 E.0316
G1 X142.853 Y169.161 E.75524
G1 X141.704 Y168.868 E.03718
G1 X66.41 Y168.849 E2.36079
G1 X65.326 Y168.739 E.03416
G1 X64.194 Y168.411 E.03695
G1 X63.523 Y168.101 E.02318
G1 X62.695 Y167.573 E.03079
G1 X61.987 Y166.952 E.02953
G1 X61.355 Y166.2 E.0308
G1 X60.697 Y165.04 E.04181
G1 X60.485 Y164.489 E.01851
G1 X60.21 Y163.246 E.03992
G1 X60.192 Y131.932 E.98183
G1 X60.445 Y130.64 E.04128
G1 X61.001 Y129.352 E.04399
G1 X61.54 Y128.554 E.03019
G1 X62.164 Y127.874 E.02894
G1 X62.913 Y127.27 E.03017
G1 X64.135 Y126.612 E.04352
G1 X65.1 Y126.309 E.03171
G1 X65.296 Y126.286 E.00619
M204 S1000
G1 X65.296 Y126.286 F10800
G1 X65.379 Y126.654
M204 S800
G1 F1200
G1 X65.702 Y126.581 E.01038
G1 X66.481 Y126.526 E.02449
G1 X174.071 Y126.529 E3.37341
G1 X175.38 Y126.723 E.04149
G1 X185.46 Y129.432 E.32727
G1 X186.154 Y129.767 E.02416
G1 X186.731 Y130.264 E.02388
G1 X187.165 Y130.897 E.02406
G1 X187.43 Y131.643 E.02482
G1 X187.492 Y132.178 E.01689
G1 X187.483 Y172.826 E1.27449
G1 X187.195 Y174.36 E.04894
G1 X186.729 Y175.42 E.03631
G1 X186.373 Y175.98 E.02081
G1 X185.61 Y176.852 E.03633
G1 X185.102 Y177.279 E.02081
G1 X184.112 Y177.881 E.03633
G1 X183.499 Y178.136 E.02082
G1 X182.388 Y178.411 E.03589
G1 X181.555 Y178.474 E.02619
G1 X167.479 Y178.474 E.44134
G1 X166.159 Y178.319 E.04167
G1 X165.247 Y178.028 E.03002
G1 X142.986 Y168.808 E.75548
G1 X141.733 Y168.492 E.04052
G1 X66.425 Y168.473 E2.36123
G1 X65.405 Y168.37 E.03214
G1 X64.325 Y168.057 E.03526
G1 X63.706 Y167.771 E.02138
G1 X62.919 Y167.269 E.02927
G1 X62.258 Y166.69 E.02755
G1 X61.658 Y165.976 E.02924
G1 X61.294 Y165.399 E.02139
G1 X60.841 Y164.363 E.03545
G1 X60.67 Y163.725 E.02071
G1 X60.546 Y162.7 E.03237
G1 X60.566 Y131.979 E.96324
G1 X60.688 Y131.192 E.02497
G1 X60.955 Y130.318 E.02865
G1 X61.326 Y129.542 E.02697
G1 X61.838 Y128.785 E.02865
G1 X62.419 Y128.152 E.02694
G1 X63.13 Y127.578 E.02865
G1 X63.872 Y127.143 E.02697
G1 X64.709 Y126.806 E.02829
G1 X65.321 Y126.668 E.01967
M204 S1000
G1 X65.321 Y126.668 F10800
G1 X65.362 Y127.032
M204 S800
G1 F1200
G1 X66.488 Y126.903 E.03554
G1 X174.061 Y126.906 E3.37288
G1 X175.287 Y127.088 E.03886
G1 X185.315 Y129.78 E.32555
G1 X185.93 Y130.071 E.02133
G1 X186.437 Y130.501 E.02084
G1 X186.819 Y131.049 E.02094
G1 X187.059 Y131.71 E.02205
G1 X187.115 Y132.189 E.01512
G1 X187.106 Y172.8 E1.27333
G1 X186.989 Y173.679 E.0278
G1 X186.663 Y174.701 E.03363
G1 X186.071 Y175.755 E.0379
G1 X185.344 Y176.584 E.03457
G1 X184.881 Y176.973 E.01896
G1 X183.939 Y177.546 E.03457
G1 X183.381 Y177.778 E.01895
G1 X182.325 Y178.039 E.03411
G1 X181.548 Y178.097 E.02443
G1 X167.485 Y178.097 E.44094
G1 X166.25 Y177.953 E.03898
G1 X165.387 Y177.678 E.0284
G1 X143.119 Y168.455 E.75572
G1 X142.501 Y168.245 E.02047
G1 X141.765 Y168.116 E.02343
G1 X66.44 Y168.096 E2.36176
G1 X65.484 Y168.001 E.03012
G1 X64.456 Y167.703 E.03356
G1 X63.142 Y166.966 E.04724
G1 X62.53 Y166.429 E.02553
G1 X61.962 Y165.752 E.02771
G1 X61.381 Y164.723 E.03705
G1 X61.197 Y164.238 E.01626
G1 X60.961 Y163.172 E.03423
G1 X60.94 Y132.026 E.97656
G1 X61.166 Y130.861 E.03721
M73 P1 R175
G1 X61.652 Y129.732 E.03854
G1 X62.136 Y129.016 E.0271
G1 X62.675 Y128.429 E.02499
G1 X63.348 Y127.886 E.02711
G1 X64.429 Y127.307 E.03845
G1 X65.282 Y127.041 E.02802
G1 X65.303 Y127.039 E.00066
M204 S1000
G1 X65.303 Y127.039 F10800
G1 X65.389 Y127.423
M204 S800
G1 F1200
G1 X65.816 Y127.327 E.01372
G1 X66.494 Y127.28 E.02131
G1 X174.052 Y127.283 E3.37241
G1 X175.195 Y127.454 E.03624
G1 X185.172 Y130.13 E.32388
G1 X185.709 Y130.377 E.01853
G1 X186.145 Y130.741 E.01781
G1 X186.475 Y131.205 E.01785
G1 X186.687 Y131.777 E.01913
G1 X186.738 Y132.201 E.01339
G1 X186.73 Y172.773 E1.27211
G1 X186.482 Y174.112 E.0427
M73 Q1 S179
G1 X186.061 Y175.068 E.03275
G1 X185.768 Y175.53 E.01715
G1 X185.079 Y176.316 E.03277
G1 X184.66 Y176.668 E.01716
G1 X183.767 Y177.21 E.03275
G1 X183.262 Y177.42 E.01715
G1 X182.262 Y177.667 E.0323
G1 X181.541 Y177.72 E.02267
G1 X167.491 Y177.72 E.44053
G1 X166.34 Y177.587 E.03633
G1 X165.528 Y177.328 E.02672
G1 X143.252 Y168.102 E.75598
G1 X142.603 Y167.881 E.0215
G1 X141.798 Y167.74 E.02562
G1 X66.455 Y167.719 E2.36233
G1 X65.561 Y167.632 E.02816
G1 X64.586 Y167.349 E.03183
G1 X63.366 Y166.662 E.0439
G1 X62.802 Y166.167 E.02353
G1 X62.265 Y165.528 E.02617
G1 X61.962 Y165.048 E.0178
G1 X61.553 Y164.114 E.03197
G1 X61.301 Y162.685 E.0455
G1 X61.315 Y132.072 E.95985
G1 X61.422 Y131.365 E.02242
G1 X61.66 Y130.586 E.02554
G1 X61.977 Y129.923 E.02304
G1 X62.434 Y129.248 E.02556
G1 X62.931 Y128.707 E.02303
G1 X63.565 Y128.195 E.02555
G1 X64.199 Y127.823 E.02305
G1 X64.949 Y127.521 E.02535
G1 X65.33 Y127.436 E.01224
M204 S1000
G1 X65.33 Y127.436 F10800
G1 X65.437 Y127.781
M204 S800
G1 F1200
G1 X65.462 Y127.774 E.00081
G1 X66.501 Y127.657 E.03278
G1 X174.042 Y127.66 E3.37187
G1 X175.102 Y127.819 E.03361
G1 X185.033 Y130.48 E.32236
G1 X185.491 Y130.686 E.01575
G1 X185.856 Y130.984 E.01477
G1 X186.132 Y131.364 E.01473
G1 X186.316 Y131.847 E.01621
G1 X186.36 Y132.213 E.01156
G1 X186.354 Y172.748 E1.27095
G1 X186.249 Y173.532 E.0248
G1 X185.978 Y174.384 E.02803
G1 X185.465 Y175.305 E.03305
G1 X184.439 Y176.362 E.04619
G1 X183.594 Y176.875 E.03099
G1 X182.74 Y177.186 E.0285
G1 X182.199 Y177.295 E.0173
G1 X166.962 Y177.311 E.47775
G1 X165.668 Y176.979 E.04189
G1 X143.385 Y167.749 E.75623
G1 X142.705 Y167.517 E.02253
G1 X141.831 Y167.364 E.02782
G1 X66.47 Y167.342 E2.36289
G1 X65.638 Y167.262 E.02621
