; generated by PrusaSlicer 2.7.4 on 2024-06-20 at 18:20:48 UTC


;
;
; 

; external perimeters extrusion width = 0.45mm
; perimeters extrusion width = 0.45mm
; infill extrusion width = 0.45mm
; solid infill extrusion width = 0.45mm
; top infill extrusion width = 0.40mm
; support material extrusion width = 0.35mm
; first layer extrusion width = 0.42mm

; external perimeters extrusion width = 0.45mm
; perimeters extrusion width = 0.45mm
; infill extrusion width = 0.45mm
; solid infill extrusion width = 0.45mm
; top infill extrusion width = 0.40mm
; support material extrusion width = 0.35mm
; first layer extrusion width = 0.42mm

M73 P0 R169
M73 Q0 S173
M201 X1000 Y1000 Z200 E5000 ; sets maximum accelerations, mm/sec^2
M203 X200 Y200 Z12 E120 ; sets maximum feedrates, mm / sec
M204 S1250 T1250 ; sets acceleration (S) and retract acceleration (R), mm/sec^2
M205 X8.00 Y8.00 Z0.40 E4.50 ; sets the jerk limits, mm/sec
M205 S0 T0 ; sets the minimum extruding and travel feed rate, mm/sec

; printing object camera_side - camera_side_left.stl id:0 copy 0
; stop printing object camera_side - camera_side_left.stl id:0 copy 0
; printing object camera_side - camera_side_right.stl id:1 copy 0
; stop printing object camera_side - camera_side_right.stl id:1 copy 0

;TYPE:Custom
M862.3 P "MK3S" ; printer model check
M862.1 P0.4 ; nozzle diameter check
M115 U3.13.3 ; tell printer latest fw version
G90 ; use absolute coordinates
M83 ; extruder relative mode
M104 S215 ; set extruder temp
M140 S60 ; set bed temp
M190 S60 ; wait for bed temp
M109 S215 ; wait for extruder temp
G28 W ; home all without mesh bed level
G80 X59.7139 Y7.72723 W130.572 H194.546 ; mesh bed levelling

G1 Z0.2 F720
G1 Y-3 F1000 ; go outside print area
G92 E0
G1 X60 E9 F1000 ; intro line
G1 X100 E12.5 F1000 ; intro line

G92 E0
M221 S95

; Don't change E values below. Excessive value can damage the printer.

M907 E538 ; set extruder motor current
G21 ; set units to millimeters
G90 ; use absolute coordinates
M83 ; use relative distances for extrusion

M900 K0.05 ; Filament gcode LA 1.5
M900 K30 ; Filament gcode LA 1.0




M107
;LAYER_CHANGE
;Z:0.2
;HEIGHT:0.2
G1 E-.8 F2100
G1 Z.6 F720
G1 X60.198 Y22.65 F10800
G1 Z.2 F720
G1 E.8 F2100
M204 S800
;TYPE:Skirt/Brim
;WIDTH:0.42
G1 F1200
G1 X60.55 Y21.743 E.0305
G1 X60.976 Y20.978 E.02745
G1 X61.897 Y19.846 E.04576
G1 X63.047 Y18.937 E.04596
G1 X63.812 Y18.524 E.02726
G1 X64.536 Y18.242 E.02436
G1 X65.964 Y17.946 E.04573
G1 X166.986 Y7.944 E3.18296
G1 X181.654 Y7.916 E.45991
M73 P0 R168
G1 X182.817 Y8.027 E.03663
G1 X184.118 Y8.406 E.04249
G1 X185.245 Y8.993 E.03984
G1 X186.302 Y9.842 E.04251
G1 X187.119 Y10.815 E.03984
G1 X187.771 Y12.004 E.04252
G1 X188.131 Y13.115 E.03662
G1 X188.297 Y14.375 E.03985
G1 X190.097 Y155.135 E4.41379
G1 X190.092 Y195.625 E1.26954
M73 Q0 S172
G1 X190.004 Y196.497 E.02748
G1 X189.802 Y197.35 E.02748
G1 X189.491 Y198.169 E.02747
G1 X189.019 Y199.028 E.03073
G1 X188.098 Y200.158 E.04571
G1 X186.953 Y201.062 E.04574
G1 X185.738 Y201.662 E.04249
G1 X184.323 Y202.02 E.04576
G1 X183.398 Y202.084 E.02907
G1 X169.048 Y202.075 E.44993
G1 X67.762 Y192.054 E3.19126
G1 X66.999 Y191.936 E.02421
G1 X66.155 Y191.697 E.0275
G1 X64.755 Y191.007 E.04894
G1 X64.052 Y190.483 E.02749
G1 X63.494 Y189.949 E.02422
G1 X62.571 Y188.689 E.04897
G1 X62.189 Y187.901 E.02746
G1 X61.941 Y187.169 E.02423
G1 X61.703 Y185.625 E.04898
G1 X59.903 Y54.615 E4.10811
G1 X59.907 Y24.384 E.94787
G1 X59.995 Y23.507 E.02764
G1 X60.184 Y22.708 E.02574
M204 S1000
;WIPE_START
G1 F8640
G1 X60.198 Y22.65 E-.01378
G1 X60.55 Y21.743 E-.22465
G1 X60.976 Y20.978 E-.20218
G1 X61.897 Y19.846 E-.33697
G1 X61.973 Y19.786 E-.02242
;WIPE_END
G1 Z.6 F720
; printing object camera_side - camera_side_left.stl id:0 copy 0
G1 X185.851 Y155.548 F10800
G1 Z.2 F720
G1 E.8 F2100
M204 S800
;TYPE:Perimeter
;WIDTH:0.419999
G1 F1200
G1 X185.854 Y195.318 E1.24696
G1 X185.796 Y195.906 E.01853
G1 X185.621 Y196.422 E.01708
G1 X185.344 Y196.879 E.01676
G1 X184.98 Y197.259 E.0165
G1 X184.454 Y197.598 E.01962
G1 X183.926 Y197.781 E.01752
G1 X183.344 Y197.844 E.01835
G1 X179.653 Y197.844 E.11573
G1 X179.914 Y197.693 E.00945
G1 X180.362 Y197.324 E.0182
G1 X180.735 Y196.853 E.01884
G1 X180.964 Y196.406 E.01575
G1 X181.103 Y195.943 E.01516
G1 X181.16 Y195.305 E.02008
G1 X181.089 Y194.77 E.01692
G1 X180.934 Y194.293 E.01573
G1 X180.706 Y193.869 E.01509
G1 X180.337 Y193.42 E.01822
G1 X179.866 Y193.047 E.01884
G1 X179.419 Y192.819 E.01573
G1 X178.864 Y192.66 E.0181
G1 X178.283 Y192.623 E.01825
G1 X177.754 Y192.697 E.01675
G1 X177.27 Y192.862 E.01603
G1 X176.8 Y193.134 E.01703
G1 X176.418 Y193.459 E.01573
G1 X176.064 Y193.904 E.01783
G1 X175.803 Y194.432 E.01847
G1 X175.676 Y194.923 E.0159
G1 X175.643 Y195.587 E.02084
G1 X175.727 Y196.082 E.01574
G1 X175.93 Y196.626 E.01821
G1 X176.197 Y197.052 E.01576
G1 X176.61 Y197.488 E.01883
G1 X177.147 Y197.844 E.0202
G1 X169.446 Y197.844 E.24146
G1 X168.851 Y197.779 E.01877
G1 X168.411 Y197.64 E.01447
G1 X146.757 Y188.671 E.73488
G1 X145.884 Y188.327 E.02942
G1 X145.173 Y188.091 E.02349
G1 X144.53 Y187.952 E.02063
G1 X143.819 Y187.867 E.02245
G1 X143.264 Y187.844 E.01742
G1 X139.434 Y187.844 E.12009
G1 X139.644 Y187.493 E.01282
G1 X139.831 Y186.98 E.01712
G1 X139.909 Y186.378 E.01903
G1 X139.867 Y185.921 E.01439
G1 X139.715 Y185.418 E.01648
G1 X139.501 Y185.012 E.01439
G1 X139.168 Y184.605 E.01649
G1 X138.816 Y184.312 E.01436
G1 X138.352 Y184.063 E.01651
G1 X137.914 Y183.927 E.01438
G1 X137.391 Y183.874 E.01648
G1 X136.934 Y183.916 E.01439
G1 X136.431 Y184.068 E.01648
G1 X136.025 Y184.281 E.01438
G1 X135.618 Y184.614 E.01649
G1 X135.324 Y184.967 E.0144
G1 X135.075 Y185.431 E.01651
G1 X134.924 Y185.956 E.01713
G1 X134.886 Y186.413 E.01438
G1 X134.948 Y186.935 E.01648
G1 X135.088 Y187.372 E.01439
G1 X135.355 Y187.844 E.017
G1 X117.44 Y187.843 E.56171
G1 X117.72 Y187.34 E.01805
G1 X117.856 Y186.902 E.01438
G1 X117.909 Y186.378 E.01651
G1 X117.867 Y185.921 E.01439
G1 X117.715 Y185.418 E.01648
G1 X117.475 Y184.969 E.01596
G1 X117.141 Y184.575 E.0162
G1 X116.741 Y184.264 E.01589
G1 X116.506 Y184.138 E.00836
G1 X115.874 Y183.917 E.02099
G1 X115.391 Y183.874 E.0152
G1 X114.934 Y183.916 E.01439
G1 X114.431 Y184.068 E.01648
G1 X113.943 Y184.334 E.01743
G1 X113.522 Y184.712 E.01774
G1 X113.209 Y185.147 E.0168
G1 X113.005 Y185.624 E.01627
G1 X112.898 Y186.139 E.01649
G1 X112.896 Y186.597 E.01436
G1 X113.025 Y187.19 E.01903
G1 X113.359 Y187.843 E.023
G1 X95.441 Y187.842 E.56181
G1 X95.72 Y187.339 E.01803
G1 X95.872 Y186.814 E.01714
G1 X95.91 Y186.357 E.01438
G1 X95.848 Y185.835 E.01648
G1 X95.708 Y185.398 E.01439
G1 X95.451 Y184.939 E.01649
G1 X95.282 Y184.733 E.00835
G1 X94.814 Y184.31 E.01978
G1 X94.352 Y184.063 E.01643
G1 X93.914 Y183.927 E.01438
G1 X93.391 Y183.874 E.01648
G1 X92.897 Y183.922 E.01556
G1 X92.389 Y184.083 E.01671
G1 X91.944 Y184.337 E.01607
G1 X91.499 Y184.74 E.01882
G1 X91.209 Y185.147 E.01567
G1 X91.005 Y185.624 E.01627
G1 X90.898 Y186.221 E.01902
G1 X90.922 Y186.767 E.01714
G1 X91.081 Y187.352 E.01901
G1 X91.354 Y187.842 E.01759
G1 X68.322 Y187.841 E.72215
G1 X67.752 Y187.753 E.01808
G1 X67.37 Y187.614 E.01275
G1 X66.904 Y187.331 E.01709
G1 X66.524 Y186.968 E.01648
G1 X66.185 Y186.441 E.01965
G1 X66.002 Y185.913 E.01752
G1 X65.939 Y185.331 E.01835
G1 X65.951 Y155.167 E.94577
G1 X66.058 Y154.668 E.016
G1 X66.311 Y154.088 E.01984
G1 X66.643 Y153.678 E.01654
G1 X67.025 Y153.348 E.01583
G1 X67.429 Y153.137 E.01429
G1 X67.914 Y152.986 E.01593
G1 X68.43 Y152.926 E.01629
G1 X175.78 Y152.928 E3.36588
G1 X176.431 Y153.024 E.02063
G1 X185.793 Y155.533 E.3039
M204 S1000
G1 X185.793 Y155.533 F10800
G1 X186.228 Y155.259
M204 S800
G1 F1200
G1 X186.231 Y195.318 E1.25602
G1 X186.165 Y195.992 E.02123
G1 X185.965 Y196.582 E.01953
G1 X185.645 Y197.109 E.01933
G1 X185.222 Y197.551 E.01918
G1 X184.62 Y197.939 E.02246
G1 X184.009 Y198.151 E.02028
G1 X183.364 Y198.221 E.02034
G1 X179.456 Y198.221 E.12253
;WIDTH:0.460223
G1 X178.581 Y198.201 E.03037
;WIDTH:0.470627
G1 X177.715 Y198.209 E.0308
;WIDTH:0.445313
G1 X177.4 Y198.221 E.01055
;WIDTH:0.419999
G1 X169.426 Y198.221 E.25002
G1 X168.773 Y198.15 E.02059
G1 X168.282 Y197.995 E.01614
G1 X146.613 Y189.02 E.73539
G1 X145.763 Y188.684 E.02866
G1 X145.091 Y188.459 E.02222
G1 X144.481 Y188.326 E.01958
G1 X143.803 Y188.244 E.02141
G1 X143.264 Y188.222 E.01691
G1 X138.48 Y188.221 E.15
G1 X138.582 Y188.162 E.00369
G1 X139.013 Y187.781 E.01804
G1 X139.29 Y187.364 E.0157
G1 X139.477 Y186.851 E.01712
G1 X139.532 Y186.354 E.01568
G1 X139.493 Y185.971 E.01207
G1 X139.358 Y185.539 E.01419
G1 X139.175 Y185.201 E.01205
G1 X138.885 Y184.854 E.01418
G1 X138.586 Y184.611 E.01208
G1 X138.186 Y184.401 E.01417
G1 X137.817 Y184.291 E.01207
G1 X137.366 Y184.25 E.0142
G1 X136.983 Y184.29 E.01207
G1 X136.552 Y184.425 E.01416
G1 X136.213 Y184.608 E.01208
G1 X135.866 Y184.898 E.01418
G1 X135.623 Y185.196 E.01206
G1 X135.413 Y185.597 E.01419
G1 X135.29 Y186.045 E.01457
G1 X135.263 Y186.429 E.01207
G1 X135.321 Y186.878 E.0142
G1 X135.442 Y187.243 E.01206
G1 X135.667 Y187.635 E.01417
G1 X135.919 Y187.926 E.01207
G1 X136.31 Y188.221 E.01536
G1 X116.481 Y188.22 E.62172
G1 X116.929 Y187.872 E.01779
G1 X117.172 Y187.574 E.01206
G1 X117.382 Y187.173 E.01419
G1 X117.492 Y186.804 E.01207
G1 X117.532 Y186.354 E.01417
G1 X117.493 Y185.971 E.01207
G1 X117.358 Y185.539 E.01419
G1 X117.139 Y185.146 E.01411
G1 X116.794 Y184.77 E.016
G1 X116.377 Y184.493 E.0157
G1 X115.864 Y184.306 E.01712
G1 X115.366 Y184.25 E.01571
G1 X114.983 Y184.29 E.01207
G1 X114.552 Y184.425 E.01416
G1 X114.213 Y184.608 E.01208
G1 X113.866 Y184.898 E.01418
G1 X113.581 Y185.265 E.01457
G1 X113.408 Y185.609 E.01207
G1 X113.29 Y186.045 E.01416
G1 X113.269 Y186.54 E.01553
G1 X113.367 Y187.031 E.0157
G1 X113.598 Y187.526 E.01713
G1 X113.911 Y187.916 E.01568
G1 X114.303 Y188.219 E.01553
G1 X94.483 Y188.219 E.62144
G1 X94.929 Y187.872 E.01772
G1 X95.172 Y187.574 E.01206
G1 X95.382 Y187.173 E.01419
G1 X95.505 Y186.725 E.01457
G1 X95.533 Y186.341 E.01207
G1 X95.475 Y185.892 E.0142
G1 X95.306 Y185.427 E.01551
G1 X95.027 Y185.011 E.01571
G1 X94.624 Y184.642 E.01713
G1 X94.186 Y184.401 E.01567
G1 X93.817 Y184.291 E.01207
G1 X93.366 Y184.25 E.0142
G1 X92.983 Y184.29 E.01207
G1 X92.552 Y184.425 E.01416
G1 X92.148 Y184.654 E.01456
G1 X91.857 Y184.906 E.01207
G1 X91.581 Y185.265 E.0142
G1 X91.371 Y185.713 E.01551
G1 X91.274 Y186.204 E.01569
G1 X91.298 Y186.75 E.01714
G1 X91.438 Y187.231 E.01571
G1 X91.621 Y187.569 E.01205
G1 X91.911 Y187.917 E.0142
G1 X92.306 Y188.219 E.01559
G1 X68.293 Y188.218 E.75291
G1 X67.658 Y188.12 E.02015
G1 X67.206 Y187.956 E.01508
G1 X66.673 Y187.632 E.01956
G1 X66.231 Y187.209 E.01918
G1 X65.844 Y186.607 E.02244
G1 X65.632 Y185.996 E.02028
G1 X65.561 Y185.351 E.02035
G1 X65.574 Y155.486 E.93639
G1 X65.6 Y154.966 E.01632
G1 X65.768 Y154.328 E.02069
G1 X65.987 Y153.893 E.01527
G1 X66.369 Y153.418 E.01911
G1 X66.812 Y153.035 E.01836
G1 X67.345 Y152.765 E.01873
G1 X67.835 Y152.618 E.01604
G1 X68.418 Y152.549 E.01841
G1 X175.808 Y152.551 E3.36713
G1 X176.508 Y152.655 E.02219
M73 P0 R167
G1 X186.17 Y155.244 E.31363
M204 S1000
G1 X186.17 Y155.244 F10800
M73 Q0 S171
G1 X186.545 Y154.993
M204 S800
;TYPE:External perimeter
G1 F1200
G1 X186.605 Y155.171 E.00589
G1 X186.608 Y195.521 E1.26514
G1 X186.534 Y196.078 E.01762
G1 X186.309 Y196.742 E.02198
G1 X185.946 Y197.34 E.02193
G1 X185.464 Y197.844 E.02187
G1 X184.786 Y198.281 E.02529
G1 X184.092 Y198.521 E.02302
G1 X183.385 Y198.598 E.0223
G1 X169.405 Y198.598 E.43833
G1 X168.695 Y198.521 E.02239
G1 X168.153 Y198.35 E.01782
G1 X146.469 Y189.368 E.73591
G1 X145.641 Y189.041 E.02791
G1 X145.01 Y188.827 E.02089
G1 X144.431 Y188.7 E.01859
G1 X143.787 Y188.621 E.02034
G1 X143.264 Y188.599 E.01641
G1 X138.324 Y188.598 E.15489
;WIDTH:0.448469
G1 X138.04 Y188.584 E.00959
;WIDTH:0.476939
G1 X137.192 Y188.576 E.0306
;WIDTH:0.464803
G1 X136.655 Y188.598 E.01885
;WIDTH:0.419999
G1 X116.223 Y188.597 E.64063
;WIDTH:0.460065
G1 X115.52 Y188.577 E.02439
;WIDTH:0.476835
G1 X114.658 Y188.583 E.0311
;WIDTH:0.448417
G1 X114.303 Y188.597 E.01198
;WIDTH:0.419999
G1 X94.323 Y188.596 E.62646
;WIDTH:0.447934
G1 X94.04 Y188.582 E.00954
;WIDTH:0.475868
G1 X93.192 Y188.574 E.03053
;WIDTH:0.463733
G1 X92.656 Y188.596 E.01877
;WIDTH:0.419999
G1 X68.264 Y188.595 E.76479
G1 X67.564 Y188.487 E.02221
G1 X67.042 Y188.297 E.01742
G1 X66.442 Y187.933 E.022
G1 X65.938 Y187.451 E.02187
G1 X65.502 Y186.774 E.02525
G1 X65.262 Y186.08 E.02302
G1 X65.184 Y185.372 E.02233
G1 X65.197 Y155.312 E.94251
G1 X65.257 Y154.71 E.01897
G1 X65.417 Y154.187 E.01715
G1 X65.663 Y153.699 E.01714
G1 X66.096 Y153.159 E.0217
G1 X66.599 Y152.723 E.02087
G1 X67.204 Y152.415 E.02129
G1 X67.756 Y152.249 E.01807
G1 X68.407 Y152.172 E.02055
G1 X175.836 Y152.174 E3.36836
G1 X176.584 Y152.285 E.02371
G1 X186.386 Y154.911 E.31817
G1 X186.492 Y154.965 E.00373
M204 S1000
;WIPE_START
G1 F8640
G1 X186.545 Y154.993 E-.01384
G1 X186.605 Y155.171 E-.04337
G1 X186.605 Y158.388 E-.74279
;WIPE_END
G1 Z.6 F720
G1 X176.64 Y193.779 F10800
G1 Z.2 F720
G1 E.8 F2100
M204 S800
;TYPE:Perimeter
G1 F1200
G1 X176.673 Y193.737 E.00167
G1 X176.996 Y193.456 E.01342
G1 X177.446 Y193.198 E.01626
G1 X177.929 Y193.046 E.01588
G1 X178.356 Y193.001 E.01346
G1 X178.751 Y193.027 E.01241
G1 X179.26 Y193.161 E.0165
G1 X179.643 Y193.351 E.01341
G1 X180.054 Y193.669 E.01629
G1 X180.38 Y194.057 E.01589
G1 X180.58 Y194.422 E.01305
G1 X180.716 Y194.828 E.01343
G1 X180.783 Y195.327 E.01579
G1 X180.738 Y195.846 E.01633
G1 X180.622 Y196.247 E.01309
G1 X180.431 Y196.63 E.01342
G1 X180.114 Y197.041 E.01627
G1 X179.726 Y197.367 E.01589
G1 X179.349 Y197.572 E.01346
;WIDTH:0.450536
G1 X179.11 Y197.663 E.00867
;WIDTH:0.481072
G1 X178.87 Y197.754 E.00935
G1 X178.439 Y197.788 E.01575
;WIDTH:0.483697
G1 X177.927 Y197.756 E.0188
G1 X177.587 Y197.616 E.01348
;WIDTH:0.451848
G1 X177.248 Y197.475 E.01248
;WIDTH:0.419999
G1 X176.833 Y197.184 E.01589
G1 X176.48 Y196.803 E.01629
G1 X176.211 Y196.336 E.0169
G1 X176.059 Y195.853 E.01588
G1 X176.013 Y195.44 E.01303
G1 X176.042 Y195.013 E.01342
G1 X176.179 Y194.512 E.01629
G1 X176.412 Y194.062 E.01589
G1 X176.602 Y193.825 E.00952
M204 S1000
G1 X176.602 Y193.825 F10800
G1 X176.999 Y193.951
M204 S800
;TYPE:External perimeter
G1 F1200
G1 X177.191 Y193.778 E.0081
G1 X177.567 Y193.555 E.01371
G1 X177.979 Y193.42 E.01359
G1 X178.331 Y193.377 E.01112
G1 X178.726 Y193.403 E.01241
G1 X179.1 Y193.502 E.01213
G1 X179.42 Y193.655 E.01112
G1 X179.77 Y193.918 E.01373
G1 X180.053 Y194.246 E.01358
G1 X180.226 Y194.551 E.01099
G1 X180.344 Y194.885 E.01111
G1 X180.404 Y195.352 E.01476
G1 X180.374 Y195.748 E.01245
G1 X180.28 Y196.088 E.01106
G1 X180.127 Y196.408 E.01112
G1 X179.865 Y196.757 E.01368
G1 X179.537 Y197.04 E.01358
G1 X179.228 Y197.215 E.01113
G1 X178.817 Y197.35 E.01356
G1 X178.465 Y197.393 E.01112
G1 X178.033 Y197.361 E.01358
G1 X177.695 Y197.268 E.01099
G1 X177.375 Y197.114 E.01113
G1 X177.025 Y196.852 E.01371
G1 X176.742 Y196.524 E.01358
G1 X176.568 Y196.215 E.01112
G1 X176.432 Y195.804 E.01357
G1 X176.389 Y195.456 E.01099
G1 X176.409 Y195.102 E.01112
G1 X176.538 Y194.636 E.01516
G1 X176.712 Y194.292 E.01209
G1 X176.927 Y194.015 E.01099
G1 X176.955 Y193.991 E.00116
M204 S1000
;WIPE_START
G1 F8640
G1 X176.999 Y193.951 E-.01373
G1 X177.191 Y193.778 E-.05968
G1 X177.567 Y193.555 E-.10094
G1 X177.979 Y193.42 E-.10011
G1 X178.331 Y193.377 E-.08188
G1 X178.726 Y193.403 E-.0914
G1 X179.1 Y193.502 E-.08933
G1 X179.42 Y193.655 E-.0819
G1 X179.77 Y193.918 E-.10109
G1 X179.996 Y194.18 E-.07994
;WIPE_END
G1 Z.6 F720
G1 X138.061 Y187.997 F10800
G1 Z.2 F720
G1 E.8 F2100
M204 S800
;WIDTH:0.469774
G1 F1200
G1 X137.807 Y188.121 E.01003
G1 X137.202 Y188.154 E.02151
;WIDTH:0.465004
G1 X136.781 Y188.033 E.01537
;WIDTH:0.419999
G1 X136.532 Y187.917 E.00861
G1 X136.197 Y187.671 E.01303
G1 X135.99 Y187.439 E.00975
G1 X135.796 Y187.114 E.01187
G1 X135.693 Y186.82 E.00977
G1 X135.639 Y186.446 E.01185
G1 X135.656 Y186.135 E.00977
G1 X135.752 Y185.764 E.01202
G1 X135.923 Y185.426 E.01188
