; HEADER_BLOCK_START
; generated by OrcaSlicer 2.0.0 on 2024-05-27 at 11:11:44
; total layer number: 10
; filament_density: 1.22
; filament_diameter: 1.75
; max_z_height: 2.00
; HEADER_BLOCK_END

; THUMBNAIL_BLOCK_START

;
; THUMBNAIL_BLOCK_END

; external perimeters extrusion width = 0.40mm
; perimeters extrusion width = 0.44mm
; infill extrusion width = 0.44mm
; solid infill extrusion width = 0.48mm
; top infill extrusion width = 0.38mm
; first layer extrusion width = 0.48mm

; EXECUTABLE_BLOCK_START
M73 P0 R65
M201 X2000 Y2000 Z300 E5000
M203 X200 Y200 Z12 E120
M204 P2000 R2500 T2000
M205 X9.00 Y9.00 Z0.20 E2.50 ; sets the jerk limits, mm/sec
;TYPE:Custom
M862.3 P "MK3S" ; printer model check
M862.1 P0.4 ; nozzle diameter check
M115 U3.13.0 ; tell printer latest fw version
G90 ; use absolute coordinates
M83 ; extruder relative mode
M104 S250 ; set extruder temp
M140 S75 ; set bed temp
M190 S75 ; wait for bed temp
M109 S250 ; wait for extruder temp
G28 W ; home all without mesh bed level
G80 ; mesh bed leveling

G1 Z0.2 F720
G1 Y-3 F1000 ; go outside print area
G92 E0
G1 X60 E9 F1000 ; intro line
G1 X100 E12.5 F1000 ; intro line

G92 E0
M221 S95
G90
G21
M83 ; use relative distances for extrusion
; filament start gcode
M900 K0.05 ; Filament gcode LA 1.5
M900 K30 ; Filament gcode LA 1.0
M106 S0
;LAYER_CHANGE
;Z:0.2
;HEIGHT:0.2
;BEFORE_LAYER_CHANGE
;0.2
G92 E0

G1 E-5 F1800
;AFTER_LAYER_CHANGE
;0.2
;_SET_FAN_SPEED_CHANGING_LAYER
M204 S500
; printing object goalie_marker - goalie_marker.stl id:113148542617512192 copy 0
G1 Z.4 F10800
G1 X81.2 Y114.486
G1 Z.4
G1 Z.2
G1 E5 F1800
;TYPE:Brim
;WIDTH:0.48
G1 F1200
G1 X83.336 Y113.601 E.08404
G1 X84.931 Y113.391 E.05848
G1 X84.931 Y120 E.24019
G1 X84.975 Y120.678 E.02468
G1 X85.109 Y121.36 E.02528
G1 X85.33 Y122.02 E.02528
G1 X85.638 Y122.649 E.02544
G1 X86.021 Y123.224 E.02512
G1 X86.481 Y123.752 E.02544
G1 X87.003 Y124.212 E.02529
G1 X87.581 Y124.6 E.02528
G1 X88.2 Y124.907 E.02512
G1 X88.64 Y125.069 E.01703
G1 X89.115 Y125.196 E.01789
G1 X89.77 Y125.296 E.02409
G1 X90.25 Y125.319 E.01746
G1 X93.826 Y125.319 E.12995
G1 X93.3 Y126.587 E.04988
G1 X91.893 Y128.421 E.08404
G1 X90.058 Y129.829 E.08404
G1 X87.922 Y130.714 E.08404
G1 X85.629 Y131.016 E.08404
G1 X83.336 Y130.714 E.08404
G1 X81.2 Y129.829 E.08404
G1 X79.365 Y128.421 E.08404
G1 X77.957 Y126.587 E.08404
G1 X77.072 Y124.45 E.08404
G1 X76.771 Y122.158 E.08404
G1 X77.072 Y119.865 E.08404
G1 X77.957 Y117.728 E.08404
G1 X79.365 Y115.894 E.08404
G1 X81.168 Y114.51 E.08259
G1 X81.406 Y114.878 F10800
G1 F1200
G1 X83.434 Y114.034 E.07984
G1 X84.346 Y113.909 E.03345
G1 X84.453 Y113.943 E.00406
G1 X84.494 Y114.039 E.0038
G1 X84.494 Y119.996 E.21649
G1 X84.539 Y120.698 E.02557
G1 X84.678 Y121.437 E.02732
G1 X84.914 Y122.152 E.02735
G1 X85.242 Y122.834 E.02752
G1 X85.653 Y123.46 E.02719
G1 X86.146 Y124.033 E.0275
G1 X86.767 Y124.579 E.03004
G1 X87.33 Y124.958 E.02467
G1 X87.999 Y125.295 E.02724
G1 X88.532 Y125.492 E.02065
G1 X89.055 Y125.629 E.01964
G1 X89.697 Y125.727 E.0236
G1 X90.227 Y125.755 E.01929
G1 X92.975 Y125.756 E.09987
G1 X93.076 Y125.803 E.00406
G1 X93.096 Y125.937 E.00491
G1 X92.908 Y126.38 E.01749
G1 X91.567 Y128.12 E.07984
G1 X89.822 Y129.454 E.07984
G1 X87.79 Y130.29 E.07984
G1 X85.646 Y130.573 E.07861
G1 X83.467 Y130.29 E.07984
G1 X81.406 Y129.437 E.08107
G1 X79.691 Y128.12 E.07861
G1 X78.35 Y126.38 E.07984
G1 X77.496 Y124.319 E.08107
G1 X77.214 Y122.175 E.07861
G1 X77.496 Y119.996 E.07984
G1 X78.35 Y117.935 E.08107
G1 X79.666 Y116.219 E.07861
G1 X81.375 Y114.903 E.07839
G1 X81.614 Y115.27 F10800
G1 F1200
G1 X83.534 Y114.465 E.07566
G1 X83.908 Y114.41 E.01375
G1 X84.015 Y114.443 E.00406
G1 X84.057 Y114.54 E.00383
G1 X84.057 Y119.992 E.19813
G1 X84.111 Y120.787 E.02897
G1 X84.266 Y121.581 E.0294
G1 X84.524 Y122.349 E.02945
G1 X84.845 Y123.016 E.02693
G1 X85.283 Y123.693 E.02928
G1 X85.81 Y124.312 E.02954
G1 X86.53 Y124.947 E.0349
G1 X87.14 Y125.352 E.02662
G1 X87.796 Y125.683 E.0267
G1 X88.375 Y125.9 E.02249
G1 X88.939 Y126.05 E.0212
G1 X89.625 Y126.158 E.02523
G1 X90.201 Y126.191 E.02099
G1 X92.234 Y126.193 E.07388
G1 X92.335 Y126.24 E.00406
G1 X92.363 Y126.348 E.00406
G1 X92.338 Y126.404 E.0022
G1 X91.242 Y127.818 E.06502
G1 X89.616 Y129.061 E.0744
G1 X87.66 Y129.867 E.07688
G1 X85.629 Y130.13 E.07444
G1 X83.598 Y129.867 E.0744
G1 X81.613 Y129.044 E.07809
G1 X79.991 Y127.794 E.07441
G1 X78.742 Y126.173 E.0744
G1 X77.92 Y124.188 E.07809
G1 X77.657 Y122.157 E.07441
G1 X77.92 Y120.127 E.0744
G1 X78.742 Y118.142 E.07809
G1 X79.992 Y116.52 E.07441
G1 X81.582 Y115.295 E.07297
G1 X81.822 Y115.662 F10800
G1 F1200
G1 X83.438 Y114.979 E.06376
G1 X83.55 Y114.984 E.00406
G1 X83.62 Y115.1 E.00493
G1 X83.62 Y119.987 E.1776
G1 X83.674 Y120.808 E.0299
G1 X83.835 Y121.656 E.03138
G1 X84.133 Y122.546 E.03408
G1 X84.482 Y123.26 E.0289
G1 X84.911 Y123.923 E.02868
G1 X85.527 Y124.646 E.03453
G1 X86.234 Y125.269 E.03425
G1 X86.893 Y125.712 E.02885
G1 X87.594 Y126.07 E.0286
G1 X88.216 Y126.307 E.02419
G1 X88.877 Y126.483 E.02487
G1 X89.606 Y126.595 E.0268
G1 X90.205 Y126.628 E.0218
G1 X91.343 Y126.629 E.04137
G1 X91.444 Y126.677 E.00406
G1 X91.472 Y126.785 E.00406
G1 X91.447 Y126.841 E.00221
G1 X90.918 Y127.516 E.03117
G1 X89.41 Y128.668 E.06899
G1 X87.562 Y129.434 E.07268
G1 X85.645 Y129.687 E.07027
G1 X83.729 Y129.443 E.0702
G1 X81.82 Y128.652 E.07509
G1 X80.317 Y127.493 E.069
G1 X79.134 Y125.966 E.0702
G1 X78.352 Y124.09 E.07385
G1 X78.1 Y122.174 E.07024
G1 X78.344 Y120.258 E.0702
G1 X79.117 Y118.379 E.07385
G1 X80.293 Y116.845 E.07024
G1 X81.79 Y115.686 E.06881
G1 X82.031 Y116.053 F10800
G1 F1200
G1 X83.001 Y115.639 E.03833
G1 X83.113 Y115.643 E.00406
G1 X83.183 Y115.759 E.00494
G1 X83.183 Y119.983 E.1535
G1 X83.237 Y120.829 E.03081
G1 X83.404 Y121.73 E.03329
G1 X83.744 Y122.745 E.03893
G1 X84.086 Y123.445 E.02831
G1 X84.539 Y124.153 E.03054
G1 X85.245 Y124.979 E.03949
G1 X85.997 Y125.636 E.03628
G1 X86.701 Y126.105 E.03073
G1 X87.444 Y126.481 E.03027
G1 X88.11 Y126.731 E.02585
G1 X88.817 Y126.916 E.02656
G1 X89.587 Y127.032 E.0283
G1 X90.405 Y127.066 E.02977
G1 X90.504 Y127.117 E.00406
G1 X90.527 Y127.227 E.00406
G1 X90.479 Y127.301 E.00321
G1 X89.203 Y128.276 E.05837
G1 X87.464 Y129.002 E.06848
G1 X85.661 Y129.244 E.06611
G1 X83.86 Y129.019 E.06598
G1 X82.057 Y128.277 E.07084
G1 X80.641 Y127.192 E.06485
G1 X79.526 Y125.758 E.06601
G1 X78.785 Y123.992 E.06961
G1 X78.543 Y122.19 E.06607
G1 X78.768 Y120.388 E.066
G1 X79.492 Y118.615 E.06961
G1 X80.619 Y117.146 E.06728
G1 X81.999 Y116.077 E.06344
G1 X82.241 Y116.443 F10800
G1 F1200
G1 X82.563 Y116.301 E.01281
G1 X82.675 Y116.305 E.00406
G1 X82.746 Y116.421 E.00496
G1 X82.746 Y119.979 E.12929
G1 X82.809 Y120.916 E.03415
G1 X82.973 Y121.801 E.03269
G1 X83.327 Y122.877 E.04117
G1 X83.691 Y123.631 E.03043
G1 X84.167 Y124.382 E.0323
G1 X84.907 Y125.256 E.04163
G1 X85.762 Y126.005 E.04131
G1 X86.452 Y126.464 E.03014
G1 X87.241 Y126.867 E.03219
G1 X88.006 Y127.156 E.02973
G1 X88.7 Y127.337 E.02607
G1 X89.237 Y127.421 E.01975
G1 X89.33 Y127.484 E.00406
G1 X89.34 Y127.595 E.00406
G1 X89.296 Y127.655 E.00269
G1 X88.967 Y127.901 E.01494
G1 X87.332 Y128.578 E.06433
G1 X85.676 Y128.801 E.06072
G1 X83.99 Y128.595 E.06175
G1 X82.263 Y127.884 E.06784
G1 X80.941 Y126.866 E.06066
G1 X79.9 Y125.519 E.06186
G1 X79.208 Y123.859 E.06538
G1 X78.985 Y122.171 E.06187
G1 X79.201 Y120.483 E.06183
G1 X79.868 Y118.851 E.06411
G1 X80.921 Y117.47 E.06309
G1 X82.209 Y116.468 E.05933
G1 X82.206 Y117.084 F10800
G1 F1200
G1 X82.295 Y117.152 E.00406
G1 X82.309 Y117.212 E.00223
G1 X82.309 Y119.974 E.10038
G1 X82.381 Y121.003 E.03748
G1 X82.56 Y121.945 E.03486
G1 X82.937 Y123.073 E.04323
G1 X83.325 Y123.871 E.03224
G1 X83.839 Y124.67 E.03451
G1 X84.626 Y125.591 E.04403
G1 X85.526 Y126.373 E.04335
G1 X86.26 Y126.857 E.03192
G1 X87.035 Y127.253 E.03164
G1 X87.964 Y127.597 E.03602
G1 X88.042 Y127.677 E.00406
G1 X88.031 Y127.788 E.00406
G1 X87.969 Y127.841 E.00297
G1 X87.2 Y128.155 E.03017
G1 X85.69 Y128.358 E.05538
G1 X84.085 Y128.161 E.05878
G1 X82.47 Y127.492 E.06353
G1 X81.242 Y126.54 E.05644
G1 X80.274 Y125.282 E.05771
G1 X79.631 Y123.727 E.06114
G1 X79.428 Y122.187 E.05645
G1 X79.625 Y120.613 E.05765
G1 X80.244 Y119.086 E.05989
G1 X81.224 Y117.794 E.05892
G1 X82.097 Y117.109 E.04035
G1 X82.167 Y117.093 E.00261
G1 X81.769 Y117.982 F10800
G1 F1200
G1 X81.857 Y118.05 E.00406
G1 X81.872 Y118.11 E.00224
G1 X81.872 Y119.969 E.06756
G1 X81.953 Y121.092 E.04091
G1 X82.149 Y122.092 E.03702
G1 X82.52 Y123.204 E.04261
G1 X82.962 Y124.113 E.03675
G1 X83.512 Y124.96 E.03671
G1 X84.346 Y125.927 E.04641
G1 X85.293 Y126.742 E.04541
G1 X86.013 Y127.218 E.03137
G1 X86.65 Y127.547 E.02606
G1 X86.718 Y127.636 E.00406
G1 X86.693 Y127.745 E.00406
G1 X86.607 Y127.794 E.00358
G1 X85.671 Y127.915 E.03432
G1 X84.215 Y127.737 E.05331
G1 X82.708 Y127.117 E.05923
G1 X81.544 Y126.216 E.05348
G1 X80.649 Y125.045 E.05356
G1 X80.055 Y123.596 E.05693
G1 X79.871 Y122.169 E.05229
G1 X80.049 Y120.741 E.05229
G1 X80.638 Y119.29 E.05692
G1 X81.551 Y118.092 E.05473
G1 X81.66 Y118.007 E.00501
G1 X81.73 Y117.991 E.00261
G1 E-3.5 F1800
;WIPE_START
G1 F1200
G1 X81.857 Y118.05 E-.21097
G1 X81.872 Y118.11 E-.09261
G1 X81.872 Y118.908 E-1.19642
;WIPE_END
G1 Z.6 F10800
G1 X81.299 Y119.223 Z.6
G1 Z.2
G1 E5 F1800
G1 F1200
G1 X81.401 Y119.267 E.00406
G1 X81.435 Y119.354 E.0034
G1 X81.435 Y119.965 E.02219
G1 X81.516 Y121.116 E.04194
G1 X81.718 Y122.168 E.03893
G1 X82.103 Y123.335 E.04465
G1 X82.565 Y124.297 E.03881
G1 X83.187 Y125.253 E.04143
G1 X84.009 Y126.206 E.04574
G1 X85.003 Y127.07 E.04785
G1 X85.132 Y127.16 E.00573
G1 X85.187 Y127.257 E.00406
G1 X85.148 Y127.362 E.00406
G1 X85.041 Y127.398 E.00411
G1 X84.31 Y127.303 E.02677
G1 X82.914 Y126.725 E.05491
G1 X81.847 Y125.892 E.04922
G1 X81.025 Y124.809 E.04938
G1 X80.488 Y123.499 E.05148
G1 X80.314 Y122.151 E.04938
G1 X80.482 Y120.836 E.04819
G1 X81.032 Y119.494 E.05269
G1 X81.199 Y119.275 E.01005
G1 X81.263 Y119.241 E.00261
G1 E-3.5 F1800
;WIPE_START
G1 F1200
G1 X81.401 Y119.267 E-.21097
G1 X81.435 Y119.354 E-.14027
G1 X81.435 Y119.965 E-.91604
G1 X81.446 Y120.12 E-.23272
;WIPE_END
G1 Z.6 F10800
G1 X81.028 Y121.247 Z.6
G1 Z.2
G1 E5 F1800
G1 F1200
G1 X81.115 Y121.347 E.00483
G1 X81.287 Y122.242 E.03314
G1 X81.685 Y123.464 E.0467
G1 X82.168 Y124.479 E.04086
G1 X82.816 Y125.484 E.04345
G1 X83.421 Y126.193 E.03387
G1 X83.45 Y126.301 E.00406
G1 X83.386 Y126.392 E.00406
G1 X83.271 Y126.399 E.00419
G1 X83.123 Y126.333 E.00591
G1 X82.174 Y125.593 E.04373
G1 X81.401 Y124.575 E.04643
G1 X80.92 Y123.402 E.04607
G1 X80.757 Y122.168 E.04525
G1 X80.857 Y121.355 E.02978
G1 X80.917 Y121.26 E.00406
G1 X80.988 Y121.252 E.00261
G1 E-3.5 F1800
;WIPE_START
G1 F1200
G1 X81.115 Y121.347 E-.23851
G1 X81.274 Y122.172 E-1.26149
;WIPE_END
G1 Z.6 F10800
G1 X84.612 Y93.727 Z.6
G1 Z.2
G1 E5 F1800
G1 F1200
G1 X84.066 Y93.655 E.02
G1 X81.929 Y92.77 E.08404
G1 X80.095 Y91.362 E.08404
G1 X78.687 Y89.528 E.08404
G1 X77.802 Y87.391 E.08404
G1 X77.5 Y85.099 E.08404
G1 X77.802 Y82.806 E.08404
G1 X78.687 Y80.67 E.08404
G1 X80.095 Y78.835 E.08404
G1 X81.929 Y77.427 E.08404
G1 X84.066 Y76.542 E.08404
G1 X86.359 Y76.24 E.08404
G1 X88.651 Y76.542 E.08404
G1 X90.788 Y77.427 E.08404
G1 X92.622 Y78.835 E.08404
G1 X94.03 Y80.67 E.08404
G1 X94.915 Y82.806 E.08404
G1 X95.162 Y84.682 E.06876
G1 X87.071 Y84.689 E.29405
G1 X86.726 Y84.742 E.01271
G1 X86.385 Y84.85 E.01299
G1 X86.1 Y84.988 E.01151
G1 X85.824 Y85.172 E.01206
G1 X85.602 Y85.37 E.01079
G1 X85.399 Y85.604 E.01128
G1 X85.229 Y85.866 E.01135
G1 X85.077 Y86.194 E.01314
G1 X84.972 Y86.574 E.01434
G1 X84.941 Y86.791 E.00794
G1 X84.932 Y87.602 E.02947
G1 X84.975 Y88.12 E.01892
G1 X85.094 Y88.593 E.01771
G1 X85.27 Y89.03 E.01713
G1 X85.646 Y89.813 E.03157
G1 X85.844 Y90.359 E.02111
G1 X85.889 Y90.559 E.00746
G1 X85.931 Y90.958 E.01457
G1 X85.887 Y91.456 E.01817
G1 X85.804 Y91.779 E.01212
G1 X85.708 Y92.04 E.0101
G1 X85.271 Y92.967 E.03724
G1 X85.095 Y93.405 E.01717
G1 X84.998 Y93.778 E.01399
G1 X84.651 Y93.732 E.01271
G1 X84.568 Y93.28 F10800
G1 F1200
G1 X84.197 Y93.232 E.01358
G1 X82.136 Y92.378 E.08107
G1 X80.42 Y91.061 E.07861
G1 X79.079 Y89.321 E.07984
G1 X78.226 Y87.26 E.08107
G1 X77.943 Y85.116 E.07861
G1 X78.226 Y82.937 E.07984
G1 X79.079 Y80.876 E.08107
G1 X80.396 Y79.16 E.07861
G1 X82.136 Y77.82 E.07984
G1 X84.197 Y76.966 E.08107
G1 X86.341 Y76.684 E.07861
G1 X88.52 Y76.966 E.07984
G1 X90.551 Y77.802 E.07984
G1 X92.321 Y79.16 E.08107
G1 X93.655 Y80.906 E.07984
G1 X94.483 Y82.904 E.07861
G1 X94.644 Y84.097 E.04375
G1 X94.61 Y84.204 E.00406
G1 X94.514 Y84.245 E.0038
G1 X87.08 Y84.252 E.27019
G1 X86.667 Y84.309 E.01514
M73 P0 R64
G1 X86.261 Y84.431 E.01538
G1 X85.849 Y84.629 E.01663
G1 X85.528 Y84.851 E.01416
G1 X85.267 Y85.09 E.01289
G1 X85.075 Y85.312 E.01067
G1 X84.829 Y85.69 E.01639
G1 X84.653 Y86.087 E.01578
G1 X84.553 Y86.45 E.01368
G1 X84.504 Y86.794 E.01263
G1 X84.495 Y87.59 E.02892
G1 X84.553 Y88.236 E.02361
G1 X84.691 Y88.763 E.0198
G1 X84.878 Y89.223 E.01802
G1 X85.24 Y89.977 E.03039
G1 X85.421 Y90.475 E.01927
G1 X85.49 Y90.944 E.01722
G1 X85.455 Y91.371 E.01558
G1 X85.302 Y91.877 E.01922
G1 X84.877 Y92.777 E.03616
G1 X84.706 Y93.2 E.01657
G1 X84.602 Y93.26 E.00438
G1 X84.344 Y92.79 F10800
G1 F1200
G1 X84.26 Y92.785 E.00304
G1 X82.373 Y92.003 E.07426
G1 X80.745 Y90.76 E.07442
G1 X79.454 Y89.084 E.07687
G1 X78.658 Y87.162 E.07561
G1 X78.386 Y85.132 E.07442
G1 X78.658 Y83.035 E.07687
G1 X79.472 Y81.083 E.07685
G1 X80.722 Y79.461 E.07441
G1 X82.343 Y78.212 E.0744
G1 X84.328 Y77.389 E.07809
G1 X86.359 Y77.127 E.07441
G1 X88.39 Y77.39 E.07442
G1 X90.345 Y78.195 E.07686
G1 X92.02 Y79.486 E.07684
G1 X93.279 Y81.142 E.07563
G1 X94.051 Y83.003 E.07323
G1 X94.144 Y83.66 E.02411
G1 X94.11 Y83.767 E.00406
G1 X94.014 Y83.809 E.00381
G1 X87.012 Y83.82 E.25449
G1 X86.534 Y83.893 E.01756
G1 X86.064 Y84.041 E.01791
G1 X85.593 Y84.275 E.01909
G1 X85.287 Y84.486 E.01353
G1 X84.977 Y84.762 E.01508
G1 X84.704 Y85.08 E.01525
G1 X84.426 Y85.521 E.01894
G1 X84.23 Y85.978 E.01807
G1 X84.119 Y86.396 E.0157
G1 X84.067 Y86.796 E.01468
G1 X84.06 Y87.635 E.03048
G1 X84.133 Y88.357 E.02636
G1 X84.289 Y88.935 E.02176
G1 X84.485 Y89.416 E.01888
G1 X84.833 Y90.141 E.02922
G1 X84.99 Y90.57 E.01661
G1 X85.049 Y90.973 E.0148
G1 X85.019 Y91.303 E.01203
G1 X84.889 Y91.728 E.01616
G1 X84.429 Y92.719 E.0397
G1 X84.374 Y92.765 E.00261
G1 X84.124 Y92.226 F10800
G1 F1200
G1 X84.04 Y92.22 E.00304
G1 X82.579 Y91.61 E.05755
G1 X81.07 Y90.458 E.06901
G1 X79.829 Y88.847 E.07388
G1 X79.09 Y87.063 E.07018
G1 X78.83 Y85.149 E.07023
G1 X79.082 Y83.166 E.07262
G1 X79.864 Y81.291 E.07385
G1 X81.023 Y79.786 E.06902
G1 X82.55 Y78.604 E.0702
G1 X84.426 Y77.822 E.07385
G1 X86.376 Y77.569 E.07145
G1 X88.292 Y77.822 E.07026
G1 X90.108 Y78.57 E.07138
G1 X91.693 Y79.786 E.07259
G1 X92.904 Y81.377 E.07267
G1 X93.619 Y83.104 E.06794
G1 X93.64 Y83.223 E.00438
G1 X93.607 Y83.33 E.00406
G1 X93.511 Y83.373 E.00384
G1 X86.937 Y83.39 E.23891
G1 X86.395 Y83.479 E.01998
M73 P1 R64
G1 X85.861 Y83.654 E.02041
G1 X85.339 Y83.92 E.0213
G1 X84.991 Y84.165 E.01547
G1 X84.693 Y84.43 E.01448
G1 X84.329 Y84.855 E.02033
G1 X84.021 Y85.357 E.02144
G1 X83.805 Y85.874 E.02035
G1 X83.685 Y86.347 E.01773
G1 X83.63 Y86.8 E.01658
G1 X83.626 Y87.685 E.03219
G1 X83.714 Y88.48 E.02906
G1 X83.887 Y89.107 E.02363
G1 X84.093 Y89.609 E.01971
G1 X84.427 Y90.305 E.02808
G1 X84.56 Y90.665 E.01393
G1 X84.607 Y90.97 E.01122
G1 X84.584 Y91.231 E.00954
G1 X84.476 Y91.579 E.01324
G1 X84.209 Y92.154 E.02304
G1 X84.154 Y92.2 E.00261
G1 X83.904 Y91.661 F10800
G1 F1200
G1 X83.82 Y91.655 E.00305
G1 X82.786 Y91.218 E.0408
G1 X81.395 Y90.156 E.06362
G1 X80.204 Y88.61 E.0709
G1 X79.514 Y86.931 E.06598
G1 X79.273 Y85.164 E.06484
G1 X79.506 Y83.298 E.06835
G1 X80.255 Y81.498 E.07084
G1 X81.348 Y80.087 E.06485
G1 X82.758 Y78.996 E.06481
G1 X84.524 Y78.255 E.06959
G1 X86.392 Y78.012 E.06847
G1 X88.195 Y78.255 E.06609
G1 X89.902 Y78.963 E.06718
G1 X91.391 Y80.111 E.06834
G1 X92.511 Y81.583 E.06723
G1 X93.002 Y82.756 E.0462
G1 X92.997 Y82.867 E.00406
G1 X92.881 Y82.937 E.0049
