; generated by PrusaSlicer 2.7.4 on 2024-05-19 at 14:10:11 UTC


;
;
; 

; external perimeters extrusion width = 0.45mm
; perimeters extrusion width = 0.45mm
; infill extrusion width = 0.45mm
; solid infill extrusion width = 0.45mm
; top infill extrusion width = 0.40mm
; first layer extrusion width = 0.42mm

M73 P0 R87
M73 Q0 S87
M201 X1000 Y1000 Z200 E5000 ; sets maximum accelerations, mm/sec^2
M203 X200 Y200 Z12 E120 ; sets maximum feedrates, mm / sec
M204 S1250 T1250 ; sets acceleration (S) and retract acceleration (R), mm/sec^2
M205 X8.00 Y8.00 Z0.40 E4.50 ; sets the jerk limits, mm/sec
M205 S0 T0 ; sets the minimum extruding and travel feed rate, mm/sec

; printing object goalie_marker - goalie_marker.stl id:0 copy 0
; stop printing object goalie_marker - goalie_marker.stl id:0 copy 0

;TYPE:Custom
M862.3 P "MK3S" ; printer model check
M862.1 P0.4 ; nozzle diameter check
M115 U3.13.3 ; tell printer latest fw version
G90 ; use absolute coordinates
M83 ; extruder relative mode
M104 S230 ; set extruder temp
M140 S50 ; set bed temp
M190 S50 ; wait for bed temp
M109 S230 ; wait for extruder temp
G28 W ; home all without mesh bed level
G80 X82.6844 Y82.4344 W84.6312 H45.1312 ; mesh bed levelling

G1 Z0.2 F720
G1 Y-3 F1000 ; go outside print area
G92 E0
G1 X60 E9 F1000 ; intro line
G1 X100 E12.5 F1000 ; intro line

G92 E0
M221 S95

; Don't change E values below. Excessive value can damage the printer.
M907 E430 ; set extruder motor current
G21 ; set units to millimeters
G90 ; use absolute coordinates
M83 ; use relative distances for extrusion
M900 K0 ; Filament gcode
M107
;LAYER_CHANGE
;Z:0.2
;HEIGHT:0.2
G1 E-1 F2100
G1 Z.2 F720
G1 X84.252 Y83.811 F10800
G1 Z.2 F720
G1 E1 F900
M204 S800
;TYPE:Skirt/Brim
;WIDTH:0.42
G1 F1200
G1 X85.267 Y83.098 E.04278
G1 X86.247 Y82.74 E.03598
G1 X87.25 Y82.623 E.03483
G1 X162.802 Y82.623 E2.60577
G1 X163.642 Y82.715 E.02914
M73 P0 R86
M73 Q0 S86
G1 X164.463 Y82.973 E.02968
G1 X165.214 Y83.383 E.02951
G1 X165.881 Y83.942 E.03002
G1 X166.413 Y84.605 E.02932
G1 X166.813 Y85.373 E.02987
G1 X167.051 Y86.189 E.02932
G1 X167.127 Y87 E.02809
G1 X167.094 Y120.695 E1.16213
G1 X166.944 Y121.632 E.03273
G1 X166.669 Y122.557 E.03328
G1 X166.317 Y123.36 E.03024
G1 X165.822 Y124.188 E.03327
G1 X165.224 Y124.945 E.03327
G1 X164.531 Y125.617 E.03329
G1 X163.11 Y126.567 E.05895
G1 X161.609 Y127.139 E.0554
G1 X160.764 Y127.307 E.02971
G1 X159.802 Y127.377 E.03327
G1 X89.98 Y127.372 E2.40814
G1 X89.02 Y127.273 E.03329
G1 X88.081 Y127.051 E.03328
G1 X87.194 Y126.714 E.03273
G1 X86.33 Y126.249 E.03384
G1 X85.548 Y125.684 E.03327
G1 X84.776 Y124.945 E.03686
G1 X84.178 Y124.189 E.03325
G1 X83.683 Y123.36 E.0333
G1 X83.111 Y121.859 E.0554
G1 X82.878 Y120.27 E.05539
G1 X82.875 Y86.865 E1.15213
G1 X83.061 Y85.733 E.03957
G1 X83.531 Y84.692 E.03939
G1 X84.214 Y83.858 E.03718
M204 S1000
G1 E-1 F2100
G1 X84.214 Y83.858 F10800
; printing object goalie_marker - goalie_marker.stl id:0 copy 0
G1 X86.919 Y86.241
G1 E1 F900
M204 S800
;TYPE:Perimeter
;WIDTH:0.419999
G1 F1200
G1 X87.305 Y86.164 E.01358
G1 X162.708 Y86.166 E2.60062
G1 X163.068 Y86.231 E.01262
G1 X163.345 Y86.42 E.01157
G1 X163.499 Y86.639 E.00923
G1 X163.584 Y86.982 E.01219
G1 X163.579 Y87.726 E.02566
G1 X163.433 Y88.293 E.02019
G1 X163.007 Y89.194 E.03437
G1 X162.81 Y89.698 E.01866
G1 X162.641 Y90.368 E.02383
G1 X162.588 Y91.003 E.02198
G1 X162.643 Y91.646 E.02226
G1 X162.802 Y92.282 E.02261
G1 X163.015 Y92.825 E.02012
G1 X163.411 Y93.678 E.03244
G1 X163.55 Y94.072 E.01441
G1 X163.584 Y94.459 E.0134
G1 X163.581 Y120.157 E.88632
G1 X163.527 Y120.656 E.01731
G1 X163.35 Y121.315 E.02353
G1 X163.15 Y121.771 E.01717
G1 X162.89 Y122.199 E.01727
G1 X162.577 Y122.59 E.01727
G1 X162.214 Y122.937 E.01732
G1 X161.81 Y123.233 E.01727
G1 X161.37 Y123.475 E.01732
G1 X160.893 Y123.66 E.01765
G1 X160.284 Y123.788 E.02146
G1 X159.727 Y123.836 E.01928
G1 X90.354 Y123.831 E2.39265
G1 X89.831 Y123.802 E.01807
G1 X89.336 Y123.715 E.01733
G1 X88.855 Y123.562 E.01741
G1 X88.389 Y123.342 E.01777
G1 X87.794 Y122.943 E.02471
G1 X87.307 Y122.456 E.02375
G1 X87.017 Y122.06 E.01693
G1 X86.77 Y121.611 E.01767
G1 X86.576 Y121.067 E.01992
G1 X86.462 Y120.534 E.0188
G1 X86.414 Y119.977 E.01928
G1 X86.414 Y94.528 E.87773
G1 X86.472 Y93.995 E.01849
G1 X86.658 Y93.503 E.01814
G1 X87.1 Y92.552 E.03617
G1 X87.281 Y92.005 E.01987
G1 X87.38 Y91.49 E.01809
G1 X87.409 Y90.846 E.02223
G1 X87.331 Y90.218 E.02183
G1 X87.19 Y89.698 E.01858
G1 X86.993 Y89.194 E.01866
G1 X86.567 Y88.293 E.03437
G1 X86.421 Y87.725 E.02023
G1 X86.415 Y87.127 E.02063
G1 X86.449 Y86.796 E.01148
G1 X86.621 Y86.473 E.01262
G1 X86.871 Y86.278 E.01094
M204 S1000
G1 X86.871 Y86.278 F10800
G1 X86.709 Y85.948
M204 S800
G1 F1200
G1 X86.88 Y85.856 E.0067
G1 X87.284 Y85.787 E.01414
G1 X162.79 Y85.789 E2.60418
G1 X163.213 Y85.882 E.01494
G1 X163.61 Y86.149 E.0165
G1 X163.844 Y86.483 E.01407
G1 X163.961 Y86.958 E.01687
G1 X163.957 Y87.619 E.0228
G1 X163.905 Y88.074 E.01579
G1 X163.735 Y88.536 E.01698
G1 X163.174 Y89.796 E.04757
G1 X163.016 Y90.407 E.02177
G1 X162.965 Y90.979 E.01981
G1 X163.01 Y91.559 E.02006
G1 X163.154 Y92.146 E.02085
G1 X163.357 Y92.666 E.01925
G1 X163.753 Y93.519 E.03244
G1 X163.921 Y93.996 E.01744
G1 X163.961 Y94.459 E.01603
G1 X163.958 Y120.177 E.88701
G1 X163.898 Y120.726 E.01905
G1 X163.707 Y121.44 E.02549
G1 X163.486 Y121.945 E.01901
G1 X163.2 Y122.416 E.019
G1 X162.855 Y122.845 E.01899
G1 X162.457 Y123.226 E.019
G1 X162.013 Y123.552 E.019
G1 X161.53 Y123.817 E.019
G1 X160.839 Y124.065 E.02532
G1 X160.341 Y124.161 E.01749
G1 X159.735 Y124.213 E.02098
G1 X90.073 Y124.208 E2.40262
G1 X89.519 Y124.148 E.01922
G1 X88.984 Y124.017 E.019
G1 X88.47 Y123.817 E.01902
G1 X87.987 Y123.552 E.019
G1 X87.548 Y123.23 E.01878
G1 X87.02 Y122.702 E.02575
G1 X86.698 Y122.263 E.01878
G1 X86.43 Y121.774 E.01923
G1 X86.214 Y121.173 E.02203
G1 X86.089 Y120.591 E.02053
G1 X86.037 Y119.985 E.02098
G1 X86.037 Y94.425 E.88156
G1 X86.106 Y93.904 E.01813
G1 X86.28 Y93.419 E.01777
G1 X86.72 Y92.486 E.03558
G1 X86.894 Y91.992 E.01806
G1 X87.004 Y91.466 E.01853
G1 X87.034 Y90.884 E.0201
G1 X86.968 Y90.316 E.01972
G1 X86.826 Y89.796 E.01859
G1 X86.653 Y89.356 E.01631
G1 X86.18 Y88.327 E.03906
G1 X86.044 Y87.756 E.02024
G1 X86.038 Y87.13 E.02159
G1 X86.082 Y86.694 E.01511
G1 X86.154 Y86.532 E.00611
G1 X86.333 Y86.23 E.01211
G1 X86.555 Y86.03 E.01031
G1 X86.656 Y85.976 E.00395
M204 S1000
G1 X86.656 Y85.976 F10800
G1 X86.525 Y85.614
M204 S800
;TYPE:External perimeter
G1 F1200
G1 X86.759 Y85.499 E.00899
G1 X87.264 Y85.41 E.01769
G1 X162.815 Y85.412 E2.60573
G1 X163.358 Y85.532 E.01918
G1 X163.715 Y85.75 E.01443
G1 X164.052 Y86.089 E.01649
G1 X164.236 Y86.464 E.01441
G1 X164.338 Y86.935 E.01662
G1 X164.334 Y87.622 E.02369
G1 X164.272 Y88.165 E.01885
G1 X164.076 Y88.698 E.01959
G1 X163.538 Y89.895 E.04526
G1 X163.391 Y90.445 E.01964
G1 X163.341 Y90.955 E.01767
G1 X163.377 Y91.473 E.01791
G1 X163.505 Y92.009 E.01901
G1 X163.699 Y92.507 E.01843
G1 X164.107 Y93.385 E.03339
G1 X164.292 Y93.92 E.01952
G1 X164.338 Y94.459 E.01866
G1 X164.335 Y120.198 E.88773
G1 X164.27 Y120.795 E.02071
G1 X164.148 Y121.252 E.01631
G1 X163.934 Y121.862 E.0223
G1 X163.661 Y122.383 E.02029
G1 X163.319 Y122.87 E.02052
G1 X162.915 Y123.31 E.0206
G1 X162.456 Y123.694 E.02064
G1 X161.951 Y124.016 E.02066
G1 X161.411 Y124.268 E.02055
G1 X160.937 Y124.429 E.01727
G1 X160.398 Y124.534 E.01894
G1 X159.743 Y124.59 E.02267
G1 X90.052 Y124.585 E2.40362
G1 X89.453 Y124.52 E.02078
G1 X88.87 Y124.377 E.0207
G1 X88.31 Y124.16 E.02071
G1 X87.784 Y123.871 E.0207
M73 Q1 S86
G1 X87.301 Y123.517 E.02065
G1 X86.961 Y123.177 E.01658
G1 X86.543 Y122.689 E.02216
G1 X86.246 Y122.224 E.01903
G1 X86.014 Y121.755 E.01805
G1 X85.852 Y121.278 E.01737
G1 X85.716 Y120.649 E.0222
G1 X85.66 Y119.993 E.02271
G1 X85.66 Y94.41 E.88235
G1 X85.74 Y93.813 E.02077
M73 P1 R86
G1 X85.935 Y93.268 E.01996
G1 X86.379 Y92.326 E.03592
G1 X86.537 Y91.869 E.01668
G1 X86.628 Y91.441 E.01509
G1 X86.659 Y90.923 E.0179
G1 X86.604 Y90.415 E.01762
G1 X86.462 Y89.895 E.01859
G1 X86.312 Y89.517 E.01403
G1 X85.787 Y88.341 E.04442
G1 X85.667 Y87.788 E.01952
G1 X85.661 Y87.134 E.02256
G1 X85.716 Y86.591 E.01882
G1 X85.912 Y86.145 E.0168
G1 X86.175 Y85.831 E.01413
G1 X86.427 Y85.663 E.01045
G1 X86.472 Y85.641 E.00173
M204 S1000
G1 X86.844 Y85.495 F10800
G1 E-1 F2100
G1 X162.246 Y86.336 F10800
G1 E1 F900
M204 S800
;TYPE:Solid infill
;WIDTH:0.420653
G1 F1200
G1 X163.242 Y87.332 E.04866
G1 X163.24 Y87.698 E.01265
G1 X163.217 Y87.841 E.005
G1 X161.881 Y86.505 E.06528
G1 X161.347 Y86.505 E.01845
G1 X163.083 Y88.241 E.08482
G1 X162.911 Y88.603 E.01385
G1 X160.813 Y86.505 E.10251
G1 X160.278 Y86.505 E.01848
G1 X162.739 Y88.966 E.12025
G1 X162.584 Y89.345 E.01415
G1 X159.744 Y86.505 E.13876
G1 X159.21 Y86.505 E.01845
G1 X162.449 Y89.744 E.15826
G1 X162.342 Y90.171 E.01521
G1 X158.676 Y86.505 E.17912
G1 X158.142 Y86.505 E.01845
G1 X162.278 Y90.642 E.20211
G1 X162.249 Y91.015 E.01293
G1 X162.259 Y91.157 E.00492
G1 X157.607 Y86.505 E.2273
G1 X157.073 Y86.505 E.01845
G1 X162.324 Y91.756 E.25657
G1 X162.457 Y92.325 E.02019
G1 X162.52 Y92.486 E.00597
G1 X156.539 Y86.505 E.29223
G1 X156.005 Y86.505 E.01845
G1 X162.915 Y93.415 E.33763
G1 X163.158 Y93.938 E.01992
G1 X163.217 Y94.14 E.00727
G1 X163.232 Y94.267 E.00442
G1 X155.471 Y86.505 E.37923
G1 X154.936 Y86.505 E.01848
G1 X163.244 Y94.813 E.40593
G1 X163.244 Y95.347 E.01845
G1 X154.402 Y86.505 E.43202
G1 X153.868 Y86.505 E.01845
G1 X163.244 Y95.881 E.45811
G1 X163.244 Y96.415 E.01845
G1 X153.334 Y86.505 E.48421
G1 X152.8 Y86.505 E.01845
G1 X163.244 Y96.95 E.51032
G1 X163.244 Y97.484 E.01845
G1 X152.265 Y86.505 E.53644
G1 X151.731 Y86.505 E.01845
G1 X163.244 Y98.018 E.56253
G1 X163.244 Y98.552 E.01845
G1 X151.197 Y86.505 E.58862
G1 X150.663 Y86.505 E.01845
G1 X163.244 Y99.086 E.61471
G1 X163.244 Y99.62 E.01845
G1 X150.128 Y86.505 E.64083
G1 X149.594 Y86.505 E.01845
G1 X163.244 Y100.154 E.66692
G1 X163.244 Y100.689 E.01848
M73 P1 R85
G1 X149.06 Y86.505 E.69304
G1 X148.526 Y86.505 E.01845
G1 X163.244 Y101.223 E.71913
G1 X163.244 Y101.757 E.01845
G1 X147.992 Y86.505 E.74522
G1 X147.457 Y86.505 E.01848
M73 Q1 S85
G1 X163.244 Y102.291 E.77133
G1 X163.243 Y102.825 E.01845
G1 X146.923 Y86.505 E.7974
G1 X146.389 Y86.505 E.01845
G1 X163.243 Y103.359 E.82349
G1 X163.243 Y103.893 E.01845
G1 X145.855 Y86.505 E.84958
G1 X145.321 Y86.505 E.01845
G1 X163.243 Y104.428 E.8757
G1 X163.243 Y104.962 E.01845
G1 X144.786 Y86.505 E.90182
G1 X144.252 Y86.505 E.01845
G1 X163.243 Y105.496 E.92791
G1 X163.243 Y106.03 E.01845
G1 X143.718 Y86.505 E.954
G1 X143.184 Y86.505 E.01845
G1 X163.243 Y106.564 E.98009
G1 X163.243 Y107.098 E.01845
G1 X142.65 Y86.505 E1.00618
G1 X142.115 Y86.505 E.01848
G1 X163.243 Y107.632 E1.0323
G1 X163.243 Y108.167 E.01848
G1 X141.581 Y86.505 E1.05841
G1 X141.047 Y86.505 E.01845
G1 X163.243 Y108.701 E1.0845
G1 X163.243 Y109.235 E.01845
G1 X140.513 Y86.505 E1.1106
G1 X139.979 Y86.505 E.01845
G1 X163.243 Y109.769 E1.13669
G1 X163.243 Y110.303 E.01845
G1 X139.444 Y86.505 E1.1628
G1 X138.91 Y86.505 E.01845
G1 X163.243 Y110.837 E1.18889
G1 X163.243 Y111.372 E.01848
G1 X138.376 Y86.505 E1.21501
G1 X137.842 Y86.505 E.01845
G1 X163.243 Y111.906 E1.2411
G1 X163.243 Y112.44 E.01845
G1 X137.307 Y86.505 E1.26722
G1 X136.773 Y86.505 E.01845
G1 X163.243 Y112.974 E1.29331
G1 X163.242 Y113.508 E.01845
G1 X136.239 Y86.505 E1.31938
G1 X135.705 Y86.505 E.01845
M73 P2 R85
M73 Q2 S85
G1 X163.242 Y114.042 E1.34547
G1 X163.242 Y114.576 E.01845
G1 X135.171 Y86.505 E1.37156
G1 X134.636 Y86.505 E.01848
G1 X163.242 Y115.111 E1.3977
G1 X163.242 Y115.645 E.01845
G1 X134.102 Y86.505 E1.42379
G1 X133.568 Y86.505 E.01845
G1 X163.242 Y116.179 E1.44988
G1 X163.242 Y116.713 E.01845
G1 X133.034 Y86.505 E1.47597
G1 X132.5 Y86.505 E.01845
G1 X163.242 Y117.247 E1.50207
G1 X163.242 Y117.781 E.01845
G1 X131.965 Y86.505 E1.52818
G1 X131.431 Y86.505 E.01845
G1 X163.242 Y118.315 E1.55427
G1 X163.242 Y118.85 E.01848
G1 X130.897 Y86.505 E1.58039
G1 X130.363 Y86.505 E.01845
G1 X163.242 Y119.384 E1.60648
G1 X163.242 Y119.918 E.01845
M73 P2 R84
G1 X129.829 Y86.505 E1.63257
G1 X129.294 Y86.505 E.01848
M73 Q2 S84
G1 X163.211 Y120.421 E1.65717
G1 X163.192 Y120.593 E.00598
G1 X163.12 Y120.864 E.00969
G1 X128.76 Y86.504 E1.67884
G1 X128.226 Y86.504 E.01845
G1 X162.997 Y121.276 E1.69895
G1 X162.831 Y121.643 E.01392
G1 X127.692 Y86.504 E1.7169
G1 X127.158 Y86.504 E.01845
G1 X162.629 Y121.976 E1.73315
G1 X162.394 Y122.275 E.01314
G1 X126.623 Y86.504 E1.74778
G1 X126.089 Y86.504 E.01845
G1 X162.131 Y122.547 E1.76105
G1 X161.841 Y122.79 E.01307
G1 X125.555 Y86.504 E1.77295
G1 X125.021 Y86.504 E.01845
G1 X161.521 Y123.005 E1.78343
G1 X161.226 Y123.166 E.01161
G1 X161.17 Y123.188 E.00208
G1 X124.487 Y86.504 E1.79237
G1 X123.952 Y86.504 E.01848
M73 P3 R84
M73 Q3 S84
G1 X160.785 Y123.338 E1.7997
G1 X160.349 Y123.435 E.01543
G1 X123.418 Y86.504 E1.80446
G1 X122.884 Y86.504 E.01845
G1 X159.869 Y123.49 E1.80712
G1 X159.342 Y123.496 E.01821
G1 X122.35 Y86.504 E1.80744
G1 X121.815 Y86.504 E.01848
G1 X158.808 Y123.496 E1.80747
G1 X158.273 Y123.496 E.01848
G1 X121.281 Y86.504 E1.80744
G1 X120.747 Y86.504 E.01845
G1 X157.739 Y123.496 E1.80744
G1 X157.205 Y123.496 E.01845
G1 X120.213 Y86.504 E1.80744
G1 X119.679 Y86.504 E.01845
G1 X156.671 Y123.496 E1.80744
G1 X156.136 Y123.496 E.01848
G1 X119.144 Y86.504 E1.80744
G1 X118.61 Y86.504 E.01845
G1 X155.602 Y123.496 E1.80744
G1 X155.068 Y123.496 E.01845
G1 X118.076 Y86.504 E1.80744
G1 X117.542 Y86.504 E.01845
M73 P3 R83
G1 X154.534 Y123.496 E1.80744
G1 X153.999 Y123.496 E.01848
M73 Q3 S83
G1 X117.008 Y86.504 E1.80742
G1 X116.473 Y86.504 E.01848
G1 X153.465 Y123.496 E1.80744
G1 X152.931 Y123.496 E.01845
G1 X115.939 Y86.504 E1.80744
G1 X115.405 Y86.504 E.01845
G1 X152.397 Y123.496 E1.80744
G1 X151.863 Y123.496 E.01845
G1 X114.871 Y86.504 E1.80744
G1 X114.337 Y86.504 E.01845
G1 X151.328 Y123.496 E1.80742
G1 X150.794 Y123.496 E.01845
G1 X113.802 Y86.504 E1.80744
G1 X113.268 Y86.504 E.01845
M73 P4 R83
M73 Q4 S83
G1 X150.26 Y123.496 E1.80744
G1 X149.726 Y123.496 E.01845
G1 X112.734 Y86.504 E1.80744
G1 X112.2 Y86.504 E.01845
G1 X149.191 Y123.496 E1.80742
G1 X148.657 Y123.496 E.01845
G1 X111.666 Y86.504 E1.80742
G1 X111.131 Y86.504 E.01848
G1 X148.123 Y123.496 E1.80744
G1 X147.589 Y123.496 E.01845
G1 X110.597 Y86.504 E1.80744
G1 X110.063 Y86.504 E.01845
G1 X147.054 Y123.496 E1.80742
G1 X146.52 Y123.496 E.01845
G1 X109.529 Y86.504 E1.80742
G1 X108.994 Y86.504 E.01848
G1 X145.986 Y123.496 E1.80744
G1 X145.452 Y123.496 E.01845
G1 X108.46 Y86.504 E1.80744
G1 X107.926 Y86.504 E.01845
G1 X144.918 Y123.495 E1.80742
G1 X144.383 Y123.495 E.01848
G1 X107.392 Y86.504 E1.80739
G1 X106.858 Y86.504 E.01845
G1 X143.849 Y123.495 E1.80739
G1 X143.315 Y123.495 E.01845
G1 X106.323 Y86.504 E1.80742
G1 X105.789 Y86.504 E.01845
G1 X142.781 Y123.495 E1.80742
G1 X142.246 Y123.495 E.01848
M73 P4 R82
G1 X105.255 Y86.504 E1.80739
G1 X104.721 Y86.504 E.01845
M73 Q4 S82
G1 X141.712 Y123.495 E1.80739
G1 X141.178 Y123.495 E.01845
G1 X104.187 Y86.504 E1.80739
G1 X103.652 Y86.504 E.01848
G1 X140.644 Y123.495 E1.80742
G1 X140.109 Y123.495 E.01848
G1 X103.118 Y86.504 E1.80739
G1 X102.584 Y86.504 E.01845
M73 P5 R82
M73 Q5 S82
G1 X139.575 Y123.495 E1.80739
G1 X139.041 Y123.495 E.01845
G1 X102.05 Y86.504 E1.80739
G1 X101.516 Y86.504 E.01845
G1 X138.507 Y123.495 E1.80739
G1 X137.973 Y123.495 E.01845
G1 X100.981 Y86.504 E1.80742
G1 X100.447 Y86.504 E.01845
G1 X137.438 Y123.495 E1.80739
G1 X136.904 Y123.495 E.01845
G1 X99.913 Y86.504 E1.80739
G1 X99.379 Y86.504 E.01845
G1 X136.37 Y123.495 E1.80739
G1 X135.836 Y123.495 E.01845
G1 X98.845 Y86.504 E1.80739
G1 X98.31 Y86.504 E.01848
G1 X135.301 Y123.495 E1.80739
G1 X134.767 Y123.495 E.01845
G1 X97.776 Y86.504 E1.80739
G1 X97.242 Y86.504 E.01845
G1 X134.233 Y123.495 E1.80739
G1 X133.699 Y123.495 E.01845
G1 X96.708 Y86.504 E1.80739
G1 X96.173 Y86.504 E.01848
G1 X133.164 Y123.495 E1.80739
G1 X132.63 Y123.495 E.01845
G1 X95.639 Y86.504 E1.80739
G1 X95.105 Y86.504 E.01845
G1 X132.096 Y123.495 E1.80739
