; generated by PrusaSlicer 2.7.4 on 2024-06-06 at 08:59:39 UTC


;
;
; 

; external perimeters extrusion width = 0.45mm
; perimeters extrusion width = 0.45mm
; infill extrusion width = 0.45mm
; solid infill extrusion width = 0.45mm
; top infill extrusion width = 0.40mm
; first layer extrusion width = 0.42mm

M73 P0 R50
M73 Q0 S50
M201 X1000 Y1000 Z200 E5000 ; sets maximum accelerations, mm/sec^2
M203 X200 Y200 Z12 E120 ; sets maximum feedrates, mm / sec
M204 S1250 T1250 ; sets acceleration (S) and retract acceleration (R), mm/sec^2
M205 X8.00 Y8.00 Z0.40 E4.50 ; sets the jerk limits, mm/sec
M205 S0 T0 ; sets the minimum extruding and travel feed rate, mm/sec

; printing object marker - marker_goalie.stl id:0 copy 0
; stop printing object marker - marker_goalie.stl id:0 copy 0

;TYPE:Custom
M862.3 P "MK3S" ; printer model check
M862.1 P0.4 ; nozzle diameter check
M115 U3.13.3 ; tell printer latest fw version
G90 ; use absolute coordinates
M83 ; extruder relative mode
M104 S230 ; set extruder temp
M140 S50 ; set bed temp
M190 S50 ; wait for bed temp
M109 S230 ; wait for extruder temp
G28 W ; home all without mesh bed level
G80 X82.7166 Y82.4666 W84.5669 H45.0669 ; mesh bed levelling

G1 Z0.2 F720
G1 Y-3 F1000 ; go outside print area
G92 E0
G1 X60 E9 F1000 ; intro line
G1 X100 E12.5 F1000 ; intro line

G92 E0
M221 S95

; Don't change E values below. Excessive value can damage the printer.
M907 E430 ; set extruder motor current
G21 ; set units to millimeters
G90 ; use absolute coordinates
M83 ; use relative distances for extrusion
M900 K0 ; Filament gcode
M107
;LAYER_CHANGE
;Z:0.3
;HEIGHT:0.3
G1 X84.265 Y83.829 F10800
G1 Z.3 F720
M204 S800
;TYPE:Skirt/Brim
;WIDTH:0.42
G1 F1200
G1 X85.27 Y83.121 E.05998
G1 X86.257 Y82.759 E.05129
G1 X87.25 Y82.644 E.04877
G1 X162.801 Y82.645 E3.68616
G1 X163.636 Y82.736 E.04098
G1 X164.464 Y82.996 E.04234
G1 X165.206 Y83.403 E.04129
G1 X165.866 Y83.957 E.04204
G1 X166.395 Y84.617 E.04127
G1 X166.793 Y85.381 E.04203
G1 X167.03 Y86.193 E.04127
G1 X167.106 Y87 E.03955
G1 X167.073 Y120.692 E1.64384
G1 X166.942 Y121.542 E.04196
G1 X166.679 Y122.467 E.04692
G1 X166.298 Y123.351 E.04697
G1 X165.804 Y124.177 E.04696
G1 X165.207 Y124.931 E.04692
G1 X164.517 Y125.601 E.04693
G1 X163.101 Y126.548 E.08311
G1 X161.604 Y127.118 E.07815
G1 X160.761 Y127.285 E.04193
G1 X159.801 Y127.355 E.04696
G1 X89.981 Y127.35 E3.40654
G1 X89.023 Y127.252 E.04699
G1 X88.087 Y127.03 E.04693
G1 X87.188 Y126.688 E.04693
G1 X86.341 Y126.231 E.04696
G1 X85.562 Y125.667 E.04692
G1 X84.862 Y125.007 E.04694
G1 X84.196 Y124.177 E.05192
G1 X83.702 Y123.351 E.04696
G1 X83.132 Y121.854 E.07815
G1 X82.9 Y120.269 E.07816
G1 X82.897 Y86.868 E1.62964
G1 X83.079 Y85.745 E.05551
G1 X83.546 Y84.709 E.05544
G1 X84.227 Y83.875 E.05253
M204 S1000
; printing object marker - marker_goalie.stl id:0 copy 0
G1 X86.899 Y86.202 F10800
M204 S800
;TYPE:Perimeter
;WIDTH:0.42
G1 F1200
G1 X87.302 Y86.121 E.02006
G1 X162.707 Y86.123 E3.67903
G1 X163.085 Y86.191 E.01874
G1 X163.375 Y86.389 E.01713
G1 X163.538 Y86.621 E.01383
G1 X163.627 Y86.979 E.018
G1 X163.622 Y87.729 E.03659
G1 X163.473 Y88.309 E.02922
G1 X163.045 Y89.213 E.0488
G1 X162.851 Y89.708 E.02594
G1 X162.683 Y90.371 E.03337
G1 X162.631 Y91 E.03079
G1 X162.685 Y91.635 E.03109
G1 X162.842 Y92.266 E.03173
G1 X163.054 Y92.807 E.02835
G1 X163.45 Y93.659 E.04584
G1 X163.593 Y94.063 E.02091
G1 X163.627 Y94.459 E.01939
G1 X163.624 Y120.159 E1.25391
G1 X163.569 Y120.664 E.02478
G1 X163.392 Y121.325 E.03339
G1 X163.188 Y121.791 E.02482
G1 X162.926 Y122.224 E.02469
G1 X162.608 Y122.619 E.02474
G1 X162.242 Y122.97 E.02474
G1 X161.833 Y123.27 E.02475
G1 X161.388 Y123.514 E.02476
G1 X160.906 Y123.701 E.02522
G1 X160.29 Y123.831 E.03072
G1 X159.728 Y123.879 E.02752
G1 X90.354 Y123.874 E3.38477
G1 X89.826 Y123.845 E.0258
G1 X89.326 Y123.756 E.02478
G1 X88.84 Y123.602 E.02487
G1 X88.368 Y123.38 E.02545
G1 X87.766 Y122.975 E.0354
G1 X87.275 Y122.484 E.03388
G1 X86.98 Y122.083 E.02429
G1 X86.736 Y121.638 E.02476
G1 X86.552 Y121.166 E.02472
G1 X86.419 Y120.54 E.03122
G1 X86.371 Y119.978 E.02752
G1 X86.371 Y94.528 E1.24171
G1 X86.431 Y93.985 E.02665
M73 Q1 S50
G1 X86.619 Y93.485 E.02606
M73 P1 R50
G1 X87.059 Y92.538 E.05095
G1 X87.238 Y91.996 E.02785
G1 X87.337 Y91.488 E.02525
G1 X87.366 Y90.851 E.03111
G1 X87.29 Y90.23 E.03052
G1 X87.149 Y89.708 E.02638
G1 X86.955 Y89.213 E.02594
G1 X86.497 Y88.22 E.05335
G1 X86.378 Y87.728 E.0247
G1 X86.372 Y87.127 E.02932
G1 X86.407 Y86.784 E.01682
G1 X86.588 Y86.445 E.01875
G1 X86.852 Y86.239 E.01634
M204 S1000
G1 X86.852 Y86.239 F10800
G1 X86.68 Y85.939
M204 S800
G1 F1200
G1 X86.873 Y85.836 E.01067
G1 X87.283 Y85.766 E.02029
G1 X162.79 Y85.767 E3.684
G1 X163.222 Y85.862 E.02158
M73 P1 R49
G1 X163.625 Y86.133 E.02369
G1 X163.864 Y86.474 E.02032
G1 X163.982 Y86.957 E.02426
G1 X163.978 Y87.619 E.0323
G1 X163.926 Y88.079 E.02259
G1 X163.755 Y88.546 E.02426
G1 X163.195 Y89.801 E.06705
G1 X163.037 Y90.408 E.0306
G1 X162.986 Y90.977 E.02787
G1 X163.031 Y91.553 E.02819
G1 X163.174 Y92.137 E.02934
G1 X163.376 Y92.657 E.02722
G1 X163.772 Y93.51 E.04588
G1 X163.942 Y93.992 E.02494
G1 X163.982 Y94.459 E.02287
G1 X163.98 Y120.178 E1.25484
G1 X163.919 Y120.73 E.0271
M73 Q1 S49
G1 X163.729 Y121.443 E.036
G1 X163.505 Y121.955 E.02727
G1 X163.218 Y122.428 E.02699
G1 X162.871 Y122.86 E.02703
G1 X162.471 Y123.243 E.02702
G1 X162.024 Y123.57 E.02702
G1 X161.539 Y123.837 E.02701
G1 X160.845 Y124.086 E.03597
G1 X160.344 Y124.182 E.02489
G1 X159.736 Y124.234 E.02977
G1 X90.072 Y124.23 E3.39892
G1 X89.515 Y124.169 E.02734
G1 X88.977 Y124.037 E.02703
G1 X88.461 Y123.837 E.027
G1 X87.976 Y123.57 E.02701
G1 X87.533 Y123.246 E.02678
G1 X87.004 Y122.717 E.0365
G1 X86.68 Y122.274 E.02678
G1 X86.413 Y121.789 E.02701
G1 X86.167 Y121.102 E.0356
G1 X86.068 Y120.594 E.02525
G1 X86.016 Y119.986 E.02977
G1 X86.016 Y94.424 E1.24718
G1 X86.086 Y93.899 E.02584
G1 X86.261 Y93.411 E.02529
G1 X86.701 Y92.477 E.05037
G1 X86.873 Y91.984 E.02548
G1 X86.982 Y91.465 E.02587
G1 X87.012 Y90.887 E.02824
G1 X86.947 Y90.323 E.0277
G1 X86.805 Y89.801 E.02639
G1 X86.633 Y89.365 E.02287
G1 X86.16 Y88.334 E.05534
G1 X86.023 Y87.758 E.02889
G1 X86.017 Y87.13 E.03064
G1 X86.061 Y86.688 E.02167
G1 X86.134 Y86.523 E.0088
G1 X86.316 Y86.216 E.01741
G1 X86.544 Y86.012 E.01493
G1 X86.627 Y85.968 E.00458
M204 S1000
G1 X86.627 Y85.968 F10800
G1 X86.507 Y85.623
M204 S800
;TYPE:External perimeter
G1 F1200
G1 X86.759 Y85.499 E.0137
G1 X87.264 Y85.41 E.02502
G1 X162.813 Y85.412 E3.68605
G1 X163.358 Y85.532 E.02723
G1 X163.715 Y85.75 E.02041
G1 X164.052 Y86.088 E.02329
G1 X164.236 Y86.464 E.02042
G1 X164.338 Y86.935 E.02351
G1 X164.334 Y87.622 E.03352
G1 X164.272 Y88.165 E.02667
G1 X164.076 Y88.698 E.02771
G1 X163.538 Y89.895 E.06403
G1 X163.391 Y90.444 E.02773
G1 X163.341 Y90.954 E.025
G1 X163.377 Y91.472 E.02533
G1 X163.505 Y92.009 E.02693
G1 X163.699 Y92.507 E.02608
G1 X164.107 Y93.385 E.04724
G1 X164.292 Y93.92 E.02762
G1 X164.338 Y94.459 E.02639
G1 X164.335 Y120.198 E1.25581
G1 X164.27 Y120.795 E.0293
G1 X164.15 Y121.246 E.02277
G1 X163.935 Y121.859 E.03169
G1 X163.661 Y122.383 E.02885
G1 X163.319 Y122.87 E.02903
G1 X162.915 Y123.31 E.02914
G1 X162.456 Y123.694 E.0292
G1 X161.952 Y124.016 E.02918
G1 X161.411 Y124.268 E.02912
G1 X160.937 Y124.429 E.02442
G1 X160.398 Y124.534 E.02679
G1 X159.743 Y124.59 E.03207
G1 X90.052 Y124.585 E3.40024
G1 X89.453 Y124.52 E.0294
G1 X88.87 Y124.377 E.02929
G1 X88.31 Y124.16 E.0293
G1 X87.784 Y123.871 E.02928
G1 X87.301 Y123.517 E.02922
G1 X86.961 Y123.177 E.02346
G1 X86.543 Y122.689 E.03135
G1 X86.23 Y122.194 E.02857
G1 X85.985 Y121.669 E.02827
G1 X85.823 Y121.194 E.02449
G1 X85.716 Y120.649 E.0271
G1 X85.66 Y119.993 E.03212
G1 X85.66 Y94.41 E1.2482
G1 X85.74 Y93.813 E.02939
G1 X85.935 Y93.268 E.02824
G1 X86.379 Y92.325 E.05085
G1 X86.537 Y91.868 E.02359
G1 X86.628 Y91.442 E.02125
G1 X86.659 Y90.924 E.02532
G1 X86.604 Y90.416 E.02493
G1 X86.462 Y89.895 E.02635
G1 X86.312 Y89.517 E.01984
G1 X85.787 Y88.341 E.06284
G1 X85.667 Y87.788 E.02761
G1 X85.661 Y87.133 E.03196
G1 X85.715 Y86.591 E.02658
G1 X85.912 Y86.145 E.02379
G1 X86.175 Y85.831 E.01998
G1 X86.426 Y85.663 E.01474
G1 X86.453 Y85.65 E.00146
M204 S1000
G1 X86.823 Y85.5 F10800
G1 X163.464 Y87.435
M204 S800
;TYPE:Solid infill
;WIDTH:0.420459
G1 F1200
G1 X162.472 Y86.443 E.06854
G1 X161.968 Y86.443 E.02462
G1 X163.292 Y87.766 E.09144
G1 X163.268 Y87.917 E.00747
G1 X163.185 Y88.163 E.01268
G1 X161.465 Y86.443 E.11883
G1 X160.961 Y86.443 E.02462
G1 X163.025 Y88.507 E.1426
G1 X162.863 Y88.849 E.01849
G1 X160.458 Y86.443 E.16619
G1 X159.954 Y86.443 E.02462
G1 X162.708 Y89.197 E.19027
G1 X162.567 Y89.559 E.01898
G1 X159.45 Y86.443 E.21532
G1 X158.947 Y86.443 E.02457
G1 X162.459 Y89.956 E.24267
G1 X162.363 Y90.363 E.02043
G1 X158.443 Y86.443 E.27083
G1 X157.94 Y86.443 E.02457
G1 X162.326 Y90.829 E.30302
G1 X162.311 Y91.011 E.00892
G1 X162.335 Y91.342 E.01621
G1 X157.436 Y86.443 E.33847
G1 X156.933 Y86.443 E.02457
G1 X162.431 Y91.941 E.37985
G1 X162.517 Y92.306 E.01832
G1 X162.659 Y92.673 E.01922
G1 X156.429 Y86.443 E.43042
G1 X155.925 Y86.443 E.02462
G1 X163.058 Y93.576 E.49281
G1 X163.216 Y93.916 E.01832
G1 X163.278 Y94.128 E.01079
G1 X163.302 Y94.323 E.0096
G1 X155.422 Y86.443 E.54442
G1 X154.918 Y86.443 E.02462
G1 X163.306 Y94.831 E.57952
G1 X163.306 Y95.335 E.02462
G1 X154.415 Y86.443 E.6143
G1 X153.911 Y86.443 E.02462
M73 Q2 S49
G1 X163.306 Y95.838 E.64909
G1 X163.306 Y96.342 E.02462
M73 P2 R49
G1 X153.407 Y86.443 E.68391
G1 X152.904 Y86.443 E.02457
G1 X163.306 Y96.845 E.71866
G1 X163.306 Y97.349 E.02462
G1 X152.4 Y86.443 E.75348
G1 X151.897 Y86.443 E.02457
G1 X163.306 Y97.852 E.78823
G1 X163.306 Y98.356 E.02462
G1 X151.393 Y86.443 E.82306
G1 X150.89 Y86.443 E.02457
G1 X163.306 Y98.859 E.85781
G1 X163.306 Y99.363 E.02462
G1 X150.386 Y86.443 E.89263
G1 X149.882 Y86.443 E.02462
G1 X163.306 Y99.866 E.92741
G1 X163.306 Y100.37 E.02462
G1 X149.379 Y86.443 E.9622
G1 X148.875 Y86.443 E.02462
G1 X163.306 Y100.873 E.99699
G1 X163.306 Y101.377 E.02462
G1 X148.372 Y86.443 E1.03177
G1 X147.868 Y86.443 E.02462
G1 X163.306 Y101.88 E1.06656
G1 X163.306 Y102.384 E.02462
G1 X147.364 Y86.443 E1.10138
G1 X146.861 Y86.443 E.02457
G1 X163.306 Y102.887 E1.13613
G1 X163.306 Y103.391 E.02462
G1 X146.357 Y86.443 E1.17095
G1 X145.854 Y86.443 E.02457
G1 X163.306 Y103.895 E1.20574
G1 X163.306 Y104.398 E.02457
G1 X145.35 Y86.443 E1.24053
G1 X144.847 Y86.443 E.02457
G1 X163.306 Y104.902 E1.27531
G1 X163.305 Y105.405 E.02457
G1 X144.343 Y86.443 E1.31006
G1 X143.839 Y86.443 E.02462
G1 X163.305 Y105.909 E1.34488
G1 X163.305 Y106.412 E.02457
G1 X143.336 Y86.443 E1.37964
G1 X142.832 Y86.443 E.02462
G1 X163.305 Y106.916 E1.41446
G1 X163.305 Y107.419 E.02457
G1 X142.329 Y86.443 E1.44921
G1 X141.825 Y86.443 E.02462
G1 X163.305 Y107.923 E1.48403
G1 X163.305 Y108.426 E.02457
G1 X141.321 Y86.443 E1.51882
G1 X140.818 Y86.443 E.02457
G1 X163.305 Y108.93 E1.5536
G1 X163.305 Y109.433 E.02457
M73 P3 R49
M73 Q3 S49
G1 X140.314 Y86.443 E1.58839
G1 X139.811 Y86.442 E.02457
M73 P3 R48
G1 X163.305 Y109.937 E1.62321
G1 X163.305 Y110.44 E.02457
M73 Q3 S48
G1 X139.307 Y86.442 E1.65799
G1 X138.804 Y86.442 E.02457
G1 X163.305 Y110.944 E1.69278
G1 X163.305 Y111.447 E.02457
G1 X138.3 Y86.442 E1.72757
G1 X137.796 Y86.442 E.02462
G1 X163.305 Y111.951 E1.76239
G1 X163.305 Y112.454 E.02457
G1 X137.293 Y86.442 E1.79714
G1 X136.789 Y86.442 E.02462
G1 X163.305 Y112.958 E1.83196
G1 X163.305 Y113.461 E.02457
G1 X136.286 Y86.442 E1.86671
G1 X135.782 Y86.442 E.02462
G1 X163.305 Y113.965 E1.90153
G1 X163.305 Y114.469 E.02462
G1 X135.278 Y86.442 E1.93635
G1 X134.775 Y86.442 E.02457
G1 X163.305 Y114.972 E1.97111
G1 X163.305 Y115.476 E.02462
G1 X134.271 Y86.442 E2.00593
G1 X133.768 Y86.442 E.02457
G1 X163.304 Y115.979 E2.04064
G1 X163.304 Y116.483 E.02462
G1 X133.264 Y86.442 E2.07546
G1 X132.761 Y86.442 E.02457
G1 X163.304 Y116.986 E2.11022
G1 X163.304 Y117.49 E.02462
M73 P4 R48
M73 Q4 S48
G1 X132.257 Y86.442 E2.14504
G1 X131.753 Y86.442 E.02462
G1 X163.304 Y117.993 E2.17982
G1 X163.304 Y118.497 E.02462
G1 X131.25 Y86.442 E2.21461
G1 X130.746 Y86.442 E.02462
G1 X163.304 Y119 E2.2494
G1 X163.304 Y119.504 E.02462
G1 X130.243 Y86.442 E2.28418
G1 X129.739 Y86.442 E.02462
G1 X163.304 Y120.007 E2.31897
G1 X163.268 Y120.474 E.02288
G1 X129.236 Y86.442 E2.35123
G1 X128.732 Y86.442 E.02462
G1 X163.178 Y120.888 E2.37984
G1 X163.064 Y121.278 E.01985
G1 X128.228 Y86.442 E2.40678
G1 X127.725 Y86.442 E.02457
G1 X162.91 Y121.628 E2.43093
G1 X162.722 Y121.943 E.01792
G1 X127.221 Y86.442 E2.45272
G1 X126.718 Y86.442 E.02457
G1 X162.508 Y122.233 E2.47273
G1 X162.271 Y122.499 E.0174
M73 P5 R48
M73 Q5 S48
G1 X126.214 Y86.442 E2.49114
G1 X125.71 Y86.442 E.02462
M73 P5 R47
G1 X162.011 Y122.742 E2.50796
G1 X161.72 Y122.955 E.01762
M73 Q5 S47
G1 X125.207 Y86.442 E2.52264
G1 X124.703 Y86.442 E.02462
G1 X161.402 Y123.141 E2.53549
G1 X161.057 Y123.299 E.01854
G1 X124.2 Y86.442 E2.54641
G1 X123.696 Y86.442 E.02462
G1 X160.683 Y123.429 E2.55539
G1 X160.262 Y123.511 E.02095
G1 X123.193 Y86.442 E2.56106
G1 X122.689 Y86.442 E.02462
G1 X159.802 Y123.555 E2.5641
G1 X159.302 Y123.559 E.02443
G1 X122.185 Y86.442 E2.56437
G1 X121.682 Y86.442 E.02457
G1 X158.798 Y123.559 E2.56434
G1 X158.295 Y123.559 E.02457
G1 X121.178 Y86.442 E2.56437
G1 X120.675 Y86.442 E.02457
G1 X157.791 Y123.559 E2.56434
G1 X157.288 Y123.559 E.02457
M73 P6 R47
M73 Q6 S47
G1 X120.171 Y86.442 E2.56437
G1 X119.667 Y86.442 E.02462
G1 X156.784 Y123.559 E2.56437
G1 X156.28 Y123.558 E.02462
G1 X119.164 Y86.442 E2.5643
G1 X118.66 Y86.442 E.02462
G1 X155.777 Y123.558 E2.56434
G1 X155.273 Y123.558 E.02462
G1 X118.157 Y86.442 E2.5643
G1 X117.653 Y86.442 E.02462
G1 X154.77 Y123.558 E2.56434
G1 X154.266 Y123.558 E.02462
G1 X117.15 Y86.442 E2.5643
G1 X116.646 Y86.442 E.02462
G1 X153.762 Y123.558 E2.5643
G1 X153.259 Y123.558 E.02457
G1 X116.142 Y86.442 E2.56434
G1 X115.639 Y86.442 E.02457
G1 X152.755 Y123.558 E2.5643
G1 X152.252 Y123.558 E.02457
G1 X115.135 Y86.442 E2.56434
G1 X114.632 Y86.442 E.02457
M73 P7 R47
M73 Q7 S47
G1 X151.748 Y123.558 E2.5643
G1 X151.244 Y123.558 E.02462
M73 P7 R46
M73 Q7 S46
G1 X114.128 Y86.442 E2.5643
G1 X113.624 Y86.442 E.02462
G1 X150.741 Y123.558 E2.56434
G1 X150.237 Y123.558 E.02462
G1 X113.121 Y86.442 E2.5643
G1 X112.617 Y86.442 E.02462
G1 X149.733 Y123.558 E2.5643
G1 X149.23 Y123.558 E.02457
G1 X112.114 Y86.442 E2.5643
G1 X111.61 Y86.442 E.02462
G1 X148.726 Y123.558 E2.5643
G1 X148.223 Y123.558 E.02457
G1 X111.107 Y86.442 E2.5643
G1 X110.603 Y86.442 E.02462
G1 X147.719 Y123.558 E2.5643
G1 X147.215 Y123.558 E.02462
G1 X110.099 Y86.442 E2.5643
G1 X109.596 Y86.442 E.02457
G1 X146.712 Y123.558 E2.5643
G1 X146.208 Y123.558 E.02462
G1 X109.092 Y86.442 E2.5643
G1 X108.589 Y86.442 E.02457
M73 P8 R46
M73 Q8 S46
G1 X145.705 Y123.558 E2.5643
G1 X145.201 Y123.558 E.02462
G1 X108.085 Y86.442 E2.5643
G1 X107.581 Y86.442 E.02462
G1 X144.697 Y123.558 E2.5643
G1 X144.194 Y123.558 E.02457
G1 X107.078 Y86.442 E2.5643
G1 X106.574 Y86.442 E.02462
G1 X143.69 Y123.558 E2.5643
G1 X143.187 Y123.558 E.02457
G1 X106.071 Y86.442 E2.5643
G1 X105.567 Y86.442 E.02462
G1 X142.683 Y123.558 E2.5643
G1 X142.179 Y123.558 E.02462
G1 X105.064 Y86.442 E2.56427
G1 X104.56 Y86.442 E.02462
G1 X141.676 Y123.558 E2.5643
G1 X141.172 Y123.557 E.02462
G1 X104.056 Y86.442 E2.56427
G1 X103.553 Y86.442 E.02457
G1 X140.669 Y123.557 E2.56427
G1 X140.165 Y123.557 E.02462
M73 P9 R45
M73 Q9 S46
G1 X103.049 Y86.442 E2.56427
G1 X102.546 Y86.442 E.02457
M73 Q9 S45
G1 X139.661 Y123.557 E2.56423
G1 X139.158 Y123.557 E.02457
G1 X102.042 Y86.442 E2.56427
G1 X101.539 Y86.442 E.02457
G1 X138.654 Y123.557 E2.56423
G1 X138.151 Y123.557 E.02457
G1 X101.035 Y86.442 E2.56427
G1 X100.531 Y86.442 E.02462
G1 X137.647 Y123.557 E2.56427
G1 X137.143 Y123.557 E.02462
G1 X100.028 Y86.442 E2.56423
G1 X99.524 Y86.442 E.02462
G1 X136.64 Y123.557 E2.56427
G1 X136.136 Y123.557 E.02462
G1 X99.021 Y86.442 E2.56423
G1 X98.517 Y86.442 E.02462
G1 X135.633 Y123.557 E2.56427
G1 X135.129 Y123.557 E.02462
G1 X98.013 Y86.442 E2.56427
