; generated by PrusaSlicer 2.7.4 on 2024-06-10 at 12:04:34 UTC


;
;
; 

; external perimeters extrusion width = 0.45mm
; perimeters extrusion width = 0.45mm
; infill extrusion width = 0.45mm
; solid infill extrusion width = 0.45mm
; top infill extrusion width = 0.40mm
; first layer extrusion width = 0.42mm

M73 P0 R67
M73 Q0 S67
M201 X1000 Y1000 Z200 E5000 ; sets maximum accelerations, mm/sec^2
M203 X200 Y200 Z12 E120 ; sets maximum feedrates, mm / sec
M204 S1250 T1250 ; sets acceleration (S) and retract acceleration (R), mm/sec^2
M205 X8.00 Y8.00 Z0.40 E4.50 ; sets the jerk limits, mm/sec
M205 S0 T0 ; sets the minimum extruding and travel feed rate, mm/sec

; printing object marker - marker_goalie.stl id:0 copy 0
; stop printing object marker - marker_goalie.stl id:0 copy 0

;TYPE:Custom
M862.3 P "MK3S" ; printer model check
M862.1 P0.4 ; nozzle diameter check
M115 U3.13.3 ; tell printer latest fw version
G90 ; use absolute coordinates
M83 ; extruder relative mode
M104 S230 ; set extruder temp
M140 S60 ; set bed temp
M190 S60 ; wait for bed temp
M109 S230 ; wait for extruder temp
G28 W ; home all without mesh bed level
G80 X82.5916 Y82.4666 W84.8169 H45.0669 ; mesh bed levelling

G1 Z0.2 F720
G1 Y-3 F1000 ; go outside print area
G92 E0
G1 X60 E9 F1000 ; intro line
G1 X100 E12.5 F1000 ; intro line

G92 E0
M221 S95

; Don't change E values below. Excessive value can damage the printer.
M907 E430 ; set extruder motor current
G21 ; set units to millimeters
G90 ; use absolute coordinates
M83 ; use relative distances for extrusion
M900 K0 ; Filament gcode
M107
;LAYER_CHANGE
;Z:0.3
;HEIGHT:0.3
G1 X84.211 Y83.764 F10800
G1 Z.3 F720
M204 S800
;TYPE:Skirt/Brim
;WIDTH:0.42
G1 F900
G1 X85.148 Y83.12 E.05547
G1 X86.132 Y82.759 E.05114
G1 X87.125 Y82.644 E.04877
G1 X162.926 Y82.645 E3.69835
G1 X163.761 Y82.736 E.04098
M73 P0 R66
M73 Q0 S66
G1 X164.589 Y82.996 E.04234
G1 X165.331 Y83.403 E.04129
G1 X165.991 Y83.957 E.04204
G1 X166.517 Y84.612 E.04099
G1 X166.918 Y85.381 E.04231
G1 X167.155 Y86.193 E.04127
G1 X167.231 Y87 E.03955
G1 X167.199 Y120.674 E1.64297
G1 X167.054 Y121.598 E.04563
G1 X166.793 Y122.497 E.04567
G1 X166.465 Y123.267 E.04084
G1 X165.997 Y124.077 E.04564
G1 X165.429 Y124.822 E.04571
G1 X164.772 Y125.488 E.04564
G1 X164.035 Y126.066 E.0457
G1 X163.231 Y126.545 E.04566
G1 X161.68 Y127.13 E.08088
G1 X160.859 Y127.289 E.0408
G1 X159.925 Y127.355 E.04568
G1 X89.856 Y127.35 E3.41869
G1 X88.898 Y127.252 E.04699
G1 X87.962 Y127.03 E.04693
G1 X87.063 Y126.688 E.04693
G1 X86.216 Y126.231 E.04696
G1 X85.437 Y125.667 E.04692
G1 X84.668 Y124.931 E.05193
G1 X84.071 Y124.177 E.04692
G1 X83.577 Y123.351 E.04696
G1 X83.007 Y121.854 E.07815
G1 X82.775 Y120.269 E.07816
G1 X82.772 Y86.868 E1.62964
G1 X82.952 Y85.753 E.05511
G1 X83.421 Y84.709 E.05584
G1 X84.172 Y83.81 E.05715
M204 S1000
; printing object marker - marker_goalie.stl id:0 copy 0
G1 X84.172 Y83.81 F10800
G1 X86.765 Y86.206
M204 S800
;TYPE:Perimeter
;WIDTH:0.42
G1 F900
G1 X87.177 Y86.121 E.02052
G1 X162.832 Y86.123 E3.69123
G1 X163.2 Y86.188 E.01823
G1 X163.486 Y86.375 E.01667
G1 X163.684 Y86.665 E.01713
G1 X163.752 Y86.979 E.01568
G1 X163.747 Y87.729 E.03659
G1 X163.598 Y88.309 E.02922
G1 X163.17 Y89.213 E.0488
G1 X162.976 Y89.708 E.02594
G1 X162.808 Y90.371 E.03337
G1 X162.756 Y91 E.03079
G1 X162.81 Y91.635 E.03109
G1 X162.967 Y92.266 E.03173
G1 X163.179 Y92.807 E.02835
G1 X163.575 Y93.659 E.04584
G1 X163.718 Y94.063 E.02091
G1 X163.752 Y94.459 E.01939
G1 X163.749 Y119.899 E1.24122
G1 X163.721 Y120.418 E.02536
G1 X163.634 Y120.918 E.02476
G1 X163.411 Y121.588 E.03445
G1 X163.086 Y122.171 E.03257
G1 X162.84 Y122.476 E.01912
G1 X162.479 Y122.861 E.02575
G1 X161.908 Y123.301 E.03517
G1 X161.463 Y123.537 E.02458
G1 X160.927 Y123.723 E.02768
G1 X160.401 Y123.833 E.02622
G1 X159.853 Y123.879 E.02683
G1 X90.229 Y123.874 E3.39697
G1 X89.701 Y123.845 E.0258
G1 X89.201 Y123.756 E.02478
G1 X88.715 Y123.602 E.02487
G1 X88.243 Y123.38 E.02545
G1 X87.641 Y122.975 E.0354
G1 X87.15 Y122.484 E.03388
G1 X86.855 Y122.083 E.02429
G1 X86.611 Y121.638 E.02476
G1 X86.427 Y121.166 E.02472
G1 X86.294 Y120.54 E.03122
G1 X86.246 Y119.978 E.02752
G1 X86.246 Y94.528 E1.24171
G1 X86.306 Y93.985 E.02665
G1 X86.494 Y93.485 E.02606
G1 X86.934 Y92.538 E.05095
G1 X87.113 Y91.996 E.02785
G1 X87.212 Y91.488 E.02525
G1 X87.241 Y90.851 E.03111
G1 X87.165 Y90.23 E.03052
G1 X87.024 Y89.708 E.02638
G1 X86.83 Y89.213 E.02594
G1 X86.372 Y88.22 E.05335
G1 X86.253 Y87.728 E.0247
G1 X86.247 Y87.057 E.03274
G1 X86.334 Y86.666 E.01954
G1 X86.483 Y86.431 E.01358
G1 X86.718 Y86.243 E.01468
M204 S1000
G1 X86.549 Y85.942 F10800
M204 S800
G1 F900
G1 X86.74 Y85.838 E.01061
G1 X87.158 Y85.766 E.02069
G1 X162.915 Y85.767 E3.6962
G1 X163.341 Y85.86 E.02127
M73 P1 R66
M73 Q1 S66
G1 X163.742 Y86.125 E.02345
G1 X164.013 Y86.529 E.02374
G1 X164.107 Y86.957 E.02138
G1 X164.103 Y87.619 E.0323
G1 X164.051 Y88.079 E.02259
G1 X163.88 Y88.546 E.02426
G1 X163.32 Y89.801 E.06705
G1 X163.162 Y90.408 E.0306
G1 X163.111 Y90.977 E.02787
G1 X163.156 Y91.553 E.02819
G1 X163.299 Y92.137 E.02934
G1 X163.501 Y92.657 E.02722
G1 X163.897 Y93.51 E.04588
G1 X164.067 Y93.992 E.02494
G1 X164.107 Y94.459 E.02287
G1 X164.105 Y120.174 E1.25464
G1 X164.047 Y120.715 E.02655
G1 X163.923 Y121.24 E.02632
G1 X163.734 Y121.739 E.02603
G1 X163.381 Y122.37 E.03528
G1 X162.934 Y122.925 E.03477
G1 X162.534 Y123.294 E.02655
G1 X162.095 Y123.605 E.02625
G1 X161.613 Y123.86 E.02661
G1 X161.024 Y124.065 E.03043
G1 X160.453 Y124.185 E.02847
G1 X159.861 Y124.234 E.02898
G1 X89.947 Y124.23 E3.41112
G1 X89.39 Y124.169 E.02734
G1 X88.852 Y124.037 E.02703
G1 X88.336 Y123.837 E.027
G1 X87.851 Y123.57 E.02701
G1 X87.408 Y123.246 E.02678
G1 X86.879 Y122.717 E.0365
G1 X86.555 Y122.274 E.02678
G1 X86.288 Y121.789 E.02701
G1 X86.042 Y121.102 E.0356
G1 X85.943 Y120.594 E.02525
G1 X85.891 Y119.986 E.02977
G1 X85.891 Y94.424 E1.24718
G1 X85.961 Y93.899 E.02584
G1 X86.136 Y93.411 E.02529
G1 X86.576 Y92.477 E.05037
G1 X86.748 Y91.984 E.02548
G1 X86.857 Y91.465 E.02587
G1 X86.887 Y90.887 E.02824
G1 X86.822 Y90.323 E.0277
G1 X86.68 Y89.801 E.02639
G1 X86.508 Y89.365 E.02287
G1 X86.035 Y88.334 E.05534
G1 X85.898 Y87.758 E.02889
G1 X85.892 Y87.13 E.03064
G1 X85.937 Y86.688 E.02168
G1 X86.09 Y86.34 E.01855
G1 X86.339 Y86.056 E.01843
G1 X86.496 Y85.97 E.00873
M204 S1000
G1 X86.496 Y85.97 F10800
G1 X86.373 Y85.625
M204 S800
;TYPE:External perimeter
G1 F900
G1 X86.626 Y85.502 E.01373
G1 X87.139 Y85.41 E.02543
G1 X162.938 Y85.412 E3.69825
G1 X163.343 Y85.488 E.0201
G1 X163.787 Y85.699 E.02398
G1 X164.083 Y85.982 E.01998
G1 X164.343 Y86.392 E.02369
G1 X164.463 Y86.935 E.02713
G1 X164.459 Y87.622 E.03352
G1 X164.397 Y88.165 E.02667
G1 X164.201 Y88.698 E.02771
G1 X163.663 Y89.895 E.06403
G1 X163.516 Y90.444 E.02773
G1 X163.466 Y90.954 E.025
G1 X163.502 Y91.472 E.02533
G1 X163.63 Y92.009 E.02693
G1 X163.824 Y92.507 E.02608
G1 X164.232 Y93.385 E.04724
G1 X164.417 Y93.92 E.02762
G1 X164.463 Y94.459 E.02639
G1 X164.461 Y120.193 E1.25557
G1 X164.399 Y120.776 E.02861
G1 X164.263 Y121.344 E.0285
G1 X164.058 Y121.889 E.02841
G1 X163.677 Y122.57 E.03807
G1 X163.195 Y123.169 E.03751
G1 X162.758 Y123.571 E.02897
G1 X162.281 Y123.908 E.0285
G1 X161.763 Y124.183 E.02861
G1 X161.121 Y124.407 E.03318
G1 X160.506 Y124.537 E.03067
G1 X159.868 Y124.59 E.03124
G1 X89.927 Y124.585 E3.41244
G1 X89.328 Y124.52 E.0294
G1 X88.745 Y124.377 E.02929
G1 X88.185 Y124.16 E.0293
G1 X87.659 Y123.871 E.02928
G1 X87.176 Y123.517 E.02922
G1 X86.836 Y123.177 E.02346
G1 X86.418 Y122.689 E.03135
G1 X86.105 Y122.194 E.02857
G1 X85.86 Y121.669 E.02827
G1 X85.698 Y121.194 E.02449
G1 X85.591 Y120.649 E.0271
G1 X85.535 Y119.993 E.03212
G1 X85.535 Y94.41 E1.2482
G1 X85.615 Y93.813 E.02939
G1 X85.81 Y93.268 E.02824
G1 X86.254 Y92.325 E.05085
G1 X86.412 Y91.868 E.02359
G1 X86.503 Y91.442 E.02125
G1 X86.534 Y90.924 E.02532
G1 X86.479 Y90.416 E.02493
G1 X86.337 Y89.895 E.02635
G1 X86.187 Y89.517 E.01984
G1 X85.662 Y88.341 E.06284
G1 X85.542 Y87.788 E.02761
G1 X85.536 Y87.133 E.03196
G1 X85.591 Y86.591 E.02658
G1 X85.786 Y86.147 E.02366
G1 X86.105 Y85.783 E.02361
G1 X86.291 Y85.664 E.01077
G1 X86.319 Y85.651 E.00151
M204 S1000
G1 X86.69 Y85.502 F10800
G1 X162.436 Y86.283
M204 S800
;TYPE:Solid infill
;WIDTH:0.421256
G1 F900
M73 P1 R65
G1 X163.43 Y87.277 E.06883
G1 X163.416 Y87.768 E.02405
G1 X162.091 Y86.443 E.09175
G1 X161.586 Y86.443 E.02473
G1 X163.309 Y88.166 E.11931
G1 X163.149 Y88.51 E.01858
G1 X161.081 Y86.443 E.14316
G1 X160.577 Y86.443 E.02468
G1 X162.987 Y88.853 E.16688
G1 X162.831 Y89.202 E.01872
G1 X160.072 Y86.443 E.19104
G1 X159.567 Y86.443 E.02473
G1 X162.69 Y89.565 E.21621
G1 X162.583 Y89.963 E.02018
M73 Q1 S65
G1 X159.063 Y86.443 E.24374
G1 X158.558 Y86.443 E.02473
G1 X162.487 Y90.372 E.27206
G1 X162.45 Y90.839 E.02294
G1 X158.053 Y86.443 E.30443
G1 X157.548 Y86.443 E.02473
G1 X162.461 Y91.355 E.34016
G1 X162.479 Y91.614 E.01271
G1 X162.56 Y91.959 E.01735
G1 X157.044 Y86.443 E.38195
G1 X156.539 Y86.443 E.02473
G1 X162.793 Y92.697 E.43305
G1 X163.197 Y93.606 E.0487
G1 X156.034 Y86.443 E.49599
G1 X155.53 Y86.443 E.02468
G1 X163.429 Y94.342 E.54695
G1 X163.431 Y94.849 E.02482
G1 X155.025 Y86.443 E.58206
G1 X154.52 Y86.443 E.02473
G1 X163.431 Y95.354 E.61703
G1 X163.431 Y95.859 E.02473
G1 X154.015 Y86.443 E.652
G1 X153.511 Y86.443 E.02468
G1 X163.431 Y96.363 E.6869
G1 X163.431 Y96.868 E.02473
G1 X153.006 Y86.443 E.72186
G1 X152.501 Y86.443 E.02473
M73 P2 R65
M73 Q2 S65
G1 X163.431 Y97.373 E.75683
G1 X163.431 Y97.877 E.02468
G1 X151.997 Y86.443 E.79173
G1 X151.492 Y86.443 E.02473
G1 X163.431 Y98.382 E.8267
G1 X163.431 Y98.887 E.02473
G1 X150.987 Y86.443 E.86167
G1 X150.483 Y86.443 E.02468
G1 X163.431 Y99.391 E.89657
G1 X163.431 Y99.896 E.02473
G1 X149.978 Y86.443 E.93153
G1 X149.473 Y86.443 E.02473
G1 X163.431 Y100.401 E.9665
G1 X163.431 Y100.905 E.02468
G1 X148.968 Y86.443 E1.00143
G1 X148.464 Y86.443 E.02468
G1 X163.431 Y101.41 E1.03637
G1 X163.431 Y101.915 E.02473
G1 X147.959 Y86.443 E1.07134
G1 X147.454 Y86.443 E.02473
G1 X163.431 Y102.419 E1.10627
G1 X163.431 Y102.924 E.02473
G1 X146.95 Y86.443 E1.1412
G1 X146.445 Y86.443 E.02473
G1 X163.431 Y103.429 E1.17617
G1 X163.431 Y103.933 E.02468
G1 X145.94 Y86.443 E1.2111
G1 X145.435 Y86.443 E.02473
G1 X163.431 Y104.438 E1.24607
G1 X163.431 Y104.942 E.02468
G1 X144.931 Y86.443 E1.28097
G1 X144.426 Y86.443 E.02473
G1 X163.431 Y105.447 E1.31594
G1 X163.431 Y105.952 E.02473
G1 X143.921 Y86.443 E1.35091
G1 X143.417 Y86.443 E.02468
G1 X163.43 Y106.456 E1.38577
G1 X163.43 Y106.961 E.02473
G1 X142.912 Y86.443 E1.42074
G1 X142.407 Y86.443 E.02473
G1 X163.43 Y107.466 E1.45571
G1 X163.43 Y107.97 E.02468
G1 X141.902 Y86.443 E1.49064
G1 X141.398 Y86.443 E.02468
G1 X163.43 Y108.475 E1.52557
G1 X163.43 Y108.98 E.02473
G1 X140.893 Y86.443 E1.56054
G1 X140.388 Y86.443 E.02473
G1 X163.43 Y109.484 E1.59547
G1 X163.43 Y109.989 E.02473
M73 P3 R65
M73 Q3 S65
G1 X139.884 Y86.442 E1.63044
G1 X139.379 Y86.442 E.02473
G1 X163.43 Y110.494 E1.66541
G1 X163.43 Y110.998 E.02468
G1 X138.874 Y86.442 E1.70034
G1 X138.37 Y86.442 E.02468
G1 X163.43 Y111.503 E1.73528
G1 X163.43 Y112.008 E.02473
M73 P3 R64
G1 X137.865 Y86.442 E1.77025
G1 X137.36 Y86.442 E.02473
M73 Q3 S64
G1 X163.43 Y112.512 E1.80518
G1 X163.43 Y113.017 E.02473
G1 X136.855 Y86.442 E1.84015
G1 X136.351 Y86.442 E.02468
G1 X163.43 Y113.522 E1.87508
G1 X163.43 Y114.026 E.02468
G1 X135.846 Y86.442 E1.91001
G1 X135.341 Y86.442 E.02473
G1 X163.43 Y114.531 E1.94498
G1 X163.43 Y115.036 E.02473
G1 X134.837 Y86.442 E1.97991
G1 X134.332 Y86.442 E.02473
G1 X163.43 Y115.54 E2.01485
G1 X163.43 Y116.045 E.02473
G1 X133.827 Y86.442 E2.04982
G1 X133.322 Y86.442 E.02473
G1 X163.43 Y116.55 E2.08478
G1 X163.43 Y117.054 E.02468
G1 X132.818 Y86.442 E2.11968
G1 X132.313 Y86.442 E.02473
G1 X163.43 Y117.559 E2.15465
G1 X163.43 Y118.064 E.02473
M73 P4 R64
M73 Q4 S64
G1 X131.808 Y86.442 E2.18962
G1 X131.304 Y86.442 E.02468
G1 X163.429 Y118.568 E2.22448
G1 X163.429 Y119.073 E.02473
G1 X130.799 Y86.442 E2.25945
G1 X130.294 Y86.442 E.02473
G1 X163.429 Y119.577 E2.29438
G1 X163.429 Y120.082 E.02473
G1 X129.789 Y86.442 E2.32935
G1 X129.285 Y86.442 E.02468
G1 X163.386 Y120.544 E2.36131
G1 X163.295 Y120.957 E.02071
G1 X128.78 Y86.442 E2.38994
G1 X128.275 Y86.442 E.02473
G1 X163.165 Y121.332 E2.41591
G1 X163.12 Y121.453 E.00632
G1 X162.999 Y121.67 E.01217
G1 X127.771 Y86.442 E2.43931
G1 X127.266 Y86.442 E.02473
M73 P4 R63
M73 Q4 S63
G1 X162.817 Y121.994 E2.46171
G1 X162.592 Y122.273 E.01755
G1 X126.761 Y86.442 E2.48106
G1 X126.257 Y86.442 E.02468
G1 X162.355 Y122.54 E2.49955
G1 X162.09 Y122.78 E.01751
M73 P5 R63
M73 Q5 S63
G1 X125.752 Y86.442 E2.51617
G1 X125.247 Y86.442 E.02473
G1 X161.794 Y122.989 E2.53064
G1 X161.471 Y123.171 E.01815
G1 X124.742 Y86.442 E2.54325
G1 X124.238 Y86.442 E.02468
G1 X161.124 Y123.329 E2.55415
G1 X160.736 Y123.445 E.01983
G1 X123.733 Y86.442 E2.56222
G1 X123.228 Y86.442 E.02473
G1 X160.31 Y123.523 E2.56765
G1 X159.847 Y123.559 E.02274
G1 X122.724 Y86.442 E2.57032
G1 X122.219 Y86.442 E.02473
G1 X159.335 Y123.559 E2.57008
G1 X158.831 Y123.559 E.02468
G1 X121.714 Y86.442 E2.57011
G1 X121.209 Y86.442 E.02473
G1 X158.326 Y123.559 E2.57011
G1 X157.821 Y123.559 E.02473
G1 X120.705 Y86.442 E2.57008
G1 X120.2 Y86.442 E.02473
G1 X157.316 Y123.559 E2.57008
M73 Q6 S63
G1 X156.812 Y123.559 E.02468
M73 P6 R63
G1 X119.695 Y86.442 E2.57011
G1 X119.191 Y86.442 E.02468
G1 X156.307 Y123.558 E2.57004
G1 X155.802 Y123.558 E.02473
M73 P6 R62
M73 Q6 S62
G1 X118.686 Y86.442 E2.57004
G1 X118.181 Y86.442 E.02473
G1 X155.298 Y123.558 E2.57008
G1 X154.793 Y123.558 E.02473
G1 X117.676 Y86.442 E2.57008
G1 X117.172 Y86.442 E.02468
G1 X154.288 Y123.558 E2.57004
G1 X153.783 Y123.558 E.02473
G1 X116.667 Y86.442 E2.57004
G1 X116.162 Y86.442 E.02473
G1 X153.279 Y123.558 E2.57008
G1 X152.774 Y123.558 E.02473
G1 X115.658 Y86.442 E2.57004
G1 X115.153 Y86.442 E.02473
G1 X152.269 Y123.558 E2.57004
G1 X151.764 Y123.558 E.02473
G1 X114.648 Y86.442 E2.57004
G1 X114.143 Y86.442 E.02473
M73 P7 R62
M73 Q7 S62
G1 X151.26 Y123.558 E2.57008
G1 X150.755 Y123.558 E.02473
G1 X113.639 Y86.442 E2.57004
G1 X113.134 Y86.442 E.02473
G1 X150.25 Y123.558 E2.57004
G1 X149.746 Y123.558 E.02468
G1 X112.629 Y86.442 E2.57008
G1 X112.125 Y86.442 E.02468
G1 X149.241 Y123.558 E2.57004
G1 X148.736 Y123.558 E.02473
G1 X111.62 Y86.442 E2.57004
G1 X111.115 Y86.442 E.02473
G1 X148.231 Y123.558 E2.57004
G1 X147.727 Y123.558 E.02468
G1 X110.611 Y86.442 E2.57004
G1 X110.106 Y86.442 E.02473
M73 P7 R61
M73 Q7 S61
G1 X147.222 Y123.558 E2.57004
G1 X146.717 Y123.558 E.02473
G1 X109.601 Y86.442 E2.57004
G1 X109.096 Y86.442 E.02473
G1 X146.212 Y123.558 E2.57004
G1 X145.708 Y123.558 E.02468
M73 P8 R61
M73 Q8 S61
G1 X108.592 Y86.442 E2.57004
G1 X108.087 Y86.442 E.02473
G1 X145.203 Y123.558 E2.57004
G1 X144.698 Y123.558 E.02473
G1 X107.582 Y86.442 E2.57004
G1 X107.078 Y86.442 E.02468
G1 X144.193 Y123.558 E2.57001
G1 X143.689 Y123.558 E.02468
G1 X106.573 Y86.442 E2.57004
G1 X106.068 Y86.442 E.02473
G1 X143.184 Y123.558 E2.57004
G1 X142.679 Y123.558 E.02473
G1 X105.563 Y86.442 E2.57004
G1 X105.059 Y86.442 E.02468
G1 X142.175 Y123.558 E2.57004
G1 X141.67 Y123.558 E.02473
G1 X104.554 Y86.442 E2.57004
G1 X104.049 Y86.442 E.02473
G1 X141.165 Y123.557 E2.57001
G1 X140.66 Y123.557 E.02473
G1 X103.545 Y86.442 E2.56997
G1 X103.04 Y86.442 E.02473
G1 X140.156 Y123.557 E2.57001
G1 X139.651 Y123.557 E.02473
M73 P9 R61
M73 Q9 S61
G1 X102.535 Y86.442 E2.57001
G1 X102.03 Y86.442 E.02473
G1 X139.146 Y123.557 E2.57001
G1 X138.641 Y123.557 E.02473
M73 P9 R60
M73 Q9 S60
G1 X101.526 Y86.442 E2.56997
G1 X101.021 Y86.442 E.02473
G1 X138.137 Y123.557 E2.57001
G1 X137.632 Y123.557 E.02473
G1 X100.516 Y86.442 E2.57001
G1 X100.012 Y86.442 E.02468
G1 X137.127 Y123.557 E2.56997
G1 X136.623 Y123.557 E.02468
G1 X99.507 Y86.442 E2.57001
G1 X99.002 Y86.442 E.02473
G1 X136.118 Y123.557 E2.57001
G1 X135.613 Y123.557 E.02473
G1 X98.498 Y86.442 E2.56997
G1 X97.993 Y86.442 E.02473
G1 X135.108 Y123.557 E2.56997
G1 X134.604 Y123.557 E.02468
