; HEADER_BLOCK_START
; generated by OrcaSlicer 2.0.0 on 2024-06-19 at 13:03:51
; total layer number: 7
; filament_density: 1.22
; filament_diameter: 1.75
; max_z_height: 2.10
; HEADER_BLOCK_END

; THUMBNAIL_BLOCK_START

;
; THUMBNAIL_BLOCK_END

; external perimeters extrusion width = 0.40mm
; perimeters extrusion width = 0.44mm
; infill extrusion width = 0.44mm
; solid infill extrusion width = 0.48mm
; top infill extrusion width = 0.38mm
; first layer extrusion width = 0.48mm

; EXECUTABLE_BLOCK_START
M73 P0 R49
M201 X2000 Y2000 Z300 E5000
M203 X200 Y200 Z12 E120
M204 P2000 R2500 T2000
M205 X9.00 Y9.00 Z0.20 E2.50 ; sets the jerk limits, mm/sec
;TYPE:Custom
M862.3 P "MK3S" ; printer model check
M862.1 P0.4 ; nozzle diameter check
M115 U3.13.0 ; tell printer latest fw version
G90 ; use absolute coordinates
M83 ; extruder relative mode
M104 S250 ; set extruder temp
M140 S75 ; set bed temp
M190 S75 ; wait for bed temp
M109 S250 ; wait for extruder temp
G28 W ; home all without mesh bed level
G80 ; mesh bed leveling

G1 Z0.2 F720
G1 Y-3 F1000 ; go outside print area
G92 E0
G1 X60 E9 F1000 ; intro line
G1 X100 E12.5 F1000 ; intro line

G92 E0
M221 S95
G90
G21
M83 ; use relative distances for extrusion
; filament start gcode
M900 K0.05 ; Filament gcode LA 1.5
M900 K30 ; Filament gcode LA 1.0
M106 S0
;LAYER_CHANGE
;Z:0.3
;HEIGHT:0.3
;BEFORE_LAYER_CHANGE
;0.3
G92 E0

G1 E-5 F1800
;AFTER_LAYER_CHANGE
;0.3
;_SET_FAN_SPEED_CHANGING_LAYER
M204 S500
; printing object marker - marker_goalie.stl id:2816 copy 0
G1 Z.4 F10800
G1 X80.879 Y114.147
G1 Z.4
G1 Z.3
G1 E5 F1800
;TYPE:Brim
;WIDTH:0.48
G1 F1200
G1 X83.11 Y113.223 E.12517
G1 X84.817 Y112.998 E.08927
G1 X84.817 Y120 E.36295
G1 X84.865 Y120.708 E.03681
G1 X85.003 Y121.389 E.03599
G1 X85.228 Y122.046 E.03599
G1 X85.537 Y122.667 E.03599
G1 X85.924 Y123.243 E.03599
G1 X86.384 Y123.764 E.03601
G1 X86.916 Y124.227 E.03654
G1 X87.279 Y124.48 E.02296
G1 X87.664 Y124.703 E.02306
G1 X88.104 Y124.908 E.02518
G1 X88.544 Y125.067 E.02425
G1 X89.188 Y125.224 E.03434
G1 X89.656 Y125.287 E.02446
G1 X90.125 Y125.308 E.02436
G1 X94.125 Y125.308 E.20736
G1 X93.514 Y126.782 E.08274
G1 X92.044 Y128.698 E.12517
G1 X90.129 Y130.168 E.12517
G1 X87.898 Y131.092 E.12517
G1 X85.504 Y131.407 E.12517
G1 X83.11 Y131.092 E.12517
G1 X80.879 Y130.168 E.12517
G1 X78.963 Y128.698 E.12517
G1 X77.493 Y126.782 E.12517
G1 X76.569 Y124.552 E.12517
G1 X76.254 Y122.158 E.12517
G1 X76.569 Y119.764 E.12517
G1 X77.493 Y117.533 E.12517
G1 X78.963 Y115.617 E.12517
G1 X80.847 Y114.172 E.1231
G1 X81.076 Y114.52 F10800
G1 F1200
G1 X83.203 Y113.634 E.11947
G1 X84.261 Y113.491 E.05531
G1 X84.364 Y113.525 E.00564
G1 X84.402 Y113.614 E.00502
G1 X84.402 Y119.996 E.3308
G1 X84.45 Y120.729 E.03808
G1 X84.594 Y121.464 E.03883
G1 X84.832 Y122.173 E.0388
G1 X85.161 Y122.846 E.0388
G1 X85.575 Y123.469 E.0388
G1 X86.067 Y124.034 E.03882
G1 X86.638 Y124.537 E.03945
G1 X87.037 Y124.818 E.02532
G1 X87.493 Y125.082 E.02729
G1 X87.968 Y125.301 E.02711
G1 X88.451 Y125.472 E.02658
G1 X89.139 Y125.637 E.03663
G1 X89.642 Y125.702 E.02633
G1 X90.128 Y125.723 E.02519
G1 X93.316 Y125.723 E.1653
G1 X93.414 Y125.771 E.00564
G1 X93.432 Y125.896 E.00654
G1 X93.141 Y126.586 E.03881
G1 X91.735 Y128.412 E.11947
G1 X89.904 Y129.811 E.11947
G1 X87.773 Y130.689 E.11947
G1 X85.52 Y130.986 E.1178
G1 X83.235 Y130.689 E.11947
G1 X81.076 Y129.795 E.12114
G1 X79.273 Y128.412 E.1178
G1 X77.867 Y126.586 E.11947
G1 X76.972 Y124.427 E.12114
G1 X76.676 Y122.174 E.1178
G1 X76.972 Y119.888 E.11947
G1 X77.867 Y117.729 E.12114
G1 X79.25 Y115.927 E.1178
G1 X81.044 Y114.545 E.1174
G1 X81.273 Y114.893 F10800
G1 F1200
G1 X83.298 Y114.045 E.1138
G1 X83.845 Y113.967 E.02863
G1 X83.948 Y114.001 E.00564
G1 X83.986 Y114.09 E.00505
G1 X83.986 Y119.992 E.30593
G1 X84.035 Y120.749 E.03931
G1 X84.185 Y121.536 E.04157
G1 X84.436 Y122.299 E.04161
G1 X84.784 Y123.021 E.04159
G1 X85.267 Y123.748 E.04523
G1 X85.798 Y124.351 E.04164
G1 X86.404 Y124.88 E.04169
G1 X86.834 Y125.181 E.02723
G1 X87.281 Y125.439 E.02672
G1 X87.789 Y125.676 E.02907
G1 X88.361 Y125.877 E.03142
G1 X89.035 Y126.039 E.03597
G1 X89.584 Y126.114 E.02869
G1 X90.107 Y126.139 E.02716
G1 X92.691 Y126.139 E.13393
G1 X92.789 Y126.187 E.00564
G1 X92.806 Y126.312 E.00657
G1 X92.769 Y126.388 E.00435
G1 X91.426 Y128.125 E.11382
G1 X89.68 Y129.454 E.11377
G1 X87.649 Y130.286 E.11378
G1 X85.504 Y130.565 E.11214
G1 X83.359 Y130.286 E.11209
G1 X81.272 Y129.422 E.1171
G1 X79.559 Y128.102 E.11211
G1 X78.239 Y126.389 E.11209
G1 X77.375 Y124.302 E.1171
G1 X77.097 Y122.157 E.11211
G1 X77.375 Y120.013 E.11209
G1 X78.24 Y117.926 E.1171
G1 X79.559 Y116.213 E.11211
G1 X81.241 Y114.917 E.11005
G1 X81.471 Y115.265 F10800
G1 F1200
G1 X83.398 Y114.455 E.10836
G1 X83.506 Y114.461 E.00564
G1 X83.57 Y114.57 E.00656
G1 X83.57 Y119.988 E.28087
G1 X83.62 Y120.768 E.04052
G1 X83.775 Y121.606 E.04419
G1 X84.065 Y122.486 E.04803
G1 X84.443 Y123.258 E.04454
G1 X84.916 Y123.971 E.04438
G1 X85.482 Y124.62 E.04461
G1 X86.126 Y125.189 E.04454
G1 X86.631 Y125.543 E.03201
G1 X87.11 Y125.818 E.0286
G1 X87.608 Y126.05 E.0285
G1 X88.217 Y126.267 E.0335
G1 X88.933 Y126.442 E.0382
G1 X89.57 Y126.529 E.03333
G1 X90.11 Y126.554 E.02804
G1 X91.861 Y126.555 E.09077
G1 X91.959 Y126.602 E.00564
G1 X91.959 Y126.755 E.00795
G1 X91.141 Y127.814 E.06937
G1 X89.485 Y129.08 E.10807
G1 X87.525 Y129.883 E.10977
G1 X85.52 Y130.143 E.10484
G1 X83.484 Y129.883 E.1064
G1 X81.469 Y129.049 E.11304
G1 X79.868 Y127.816 E.10476
G1 X78.612 Y126.192 E.1064
G1 X77.778 Y124.177 E.11304
G1 X77.518 Y122.141 E.10641
G1 X77.778 Y120.137 E.10475
G1 X78.613 Y118.123 E.11304
G1 X79.869 Y116.499 E.10641
G1 X81.439 Y115.29 E.10275
G1 X81.669 Y115.637 F10800
G1 F1200
G1 X82.982 Y115.081 E.07393
G1 X83.09 Y115.086 E.00564
G1 X83.155 Y115.195 E.00657
G1 X83.155 Y119.984 E.24822
G1 X83.212 Y120.851 E.04505
G1 X83.365 Y121.674 E.04337
G1 X83.695 Y122.677 E.05475
G1 X84.066 Y123.434 E.04369
G1 X84.566 Y124.195 E.04718
G1 X85.213 Y124.937 E.05105
G1 X85.846 Y125.496 E.04377
G1 X86.388 Y125.881 E.03447
G1 X86.899 Y126.176 E.0306
G1 X87.427 Y126.424 E.03026
G1 X88.124 Y126.672 E.03834
G1 X88.882 Y126.855 E.04042
G1 X89.556 Y126.945 E.03522
G1 X90.113 Y126.97 E.0289
G1 X91.014 Y126.97 E.04673
G1 X91.112 Y127.017 E.00564
G1 X91.113 Y127.171 E.00795
G1 X90.832 Y127.527 E.02349
G1 X89.289 Y128.707 E.10069
G1 X87.433 Y129.472 E.10408
G1 X85.535 Y129.722 E.09924
G1 X83.608 Y129.48 E.10069
G1 X81.666 Y128.676 E.10896
G1 X80.154 Y127.506 E.09908
G1 X78.985 Y125.995 E.09905
G1 X78.19 Y124.085 E.10725
G1 X77.939 Y122.158 E.10076
G1 X78.181 Y120.262 E.09907
G1 X78.969 Y118.349 E.10727
G1 X80.177 Y116.786 E.1024
G1 X81.637 Y115.662 E.09551
G1 X81.867 Y116.009 F10800
G1 F1200
G1 X82.566 Y115.708 E.03941
G1 X82.674 Y115.714 E.00564
G1 X82.739 Y115.823 E.00658
G1 X82.739 Y119.98 E.21548
G1 X82.797 Y120.872 E.04632
G1 X82.954 Y121.741 E.04582
G1 X83.326 Y122.867 E.06144
G1 X83.723 Y123.668 E.04635
G1 X84.214 Y124.416 E.04637
G1 X84.894 Y125.204 E.054
G1 X85.566 Y125.803 E.04665
G1 X86.143 Y126.216 E.03679
G1 X86.687 Y126.533 E.03263
G1 X87.246 Y126.798 E.03204
G1 X87.979 Y127.062 E.0404
G1 X88.779 Y127.257 E.04271
G1 X89.496 Y127.356 E.03749
G1 X89.978 Y127.38 E.02505
G1 X90.074 Y127.432 E.00564
G1 X90.092 Y127.539 E.00564
G1 X90.048 Y127.603 E.00402
G1 X89.065 Y128.349 E.06397
G1 X87.309 Y129.069 E.09839
G1 X85.518 Y129.301 E.09361
G1 X83.7 Y129.068 E.09502
G1 X81.863 Y128.303 E.10314
G1 X80.441 Y127.197 E.09338
G1 X79.341 Y125.769 E.09345
G1 X78.592 Y123.96 E.10149
G1 X78.36 Y122.141 E.09505
G1 X78.593 Y120.354 E.09343
G1 X79.325 Y118.574 E.09978
G1 X80.463 Y117.095 E.09673
G1 X81.836 Y116.033 E.08995
G1 X82.068 Y116.379 F10800
G1 F1200
G1 X82.15 Y116.34 E.00472
G1 X82.258 Y116.345 E.00564
G1 X82.323 Y116.454 E.00661
G1 X82.323 Y119.976 E.18254
G1 X82.382 Y120.892 E.04757
G1 X82.544 Y121.807 E.0482
G1 X82.929 Y122.989 E.06443
G1 X83.347 Y123.846 E.04943
G1 X83.904 Y124.693 E.05257
G1 X84.624 Y125.52 E.05679
G1 X85.284 Y126.109 E.0459
G1 X85.939 Y126.578 E.04175
G1 X86.514 Y126.911 E.03442
G1 X87.11 Y127.191 E.03416
G1 X87.886 Y127.467 E.04272
G1 X88.675 Y127.66 E.04209
G1 X88.893 Y127.692 E.01141
G1 X88.983 Y127.754 E.00564
G1 X88.99 Y127.863 E.00564
G1 X88.95 Y127.915 E.00343
G1 X88.842 Y127.992 E.00686
G1 X87.185 Y128.666 E.09272
G1 X85.502 Y128.88 E.08797
G1 X83.793 Y128.657 E.08935
G1 X82.061 Y127.931 E.09733
G1 X80.728 Y126.889 E.08768
G1 X79.698 Y125.544 E.08784
G1 X78.996 Y123.836 E.09574
G1 X78.781 Y122.126 E.08934
G1 X79.004 Y120.447 E.08781
G1 X79.682 Y118.799 E.09236
G1 X80.75 Y117.404 E.09108
G1 X82.036 Y116.404 E.08443
G1 X81.813 Y117.164 F10800
G1 F1200
G1 X81.908 Y117.285 E.00797
G1 X81.908 Y119.972 E.13928
G1 X81.967 Y120.911 E.0488
G1 X82.133 Y121.872 E.05052
G1 X82.531 Y123.11 E.06742
G1 X82.97 Y124.022 E.05247
G1 X83.553 Y124.915 E.05526
G1 X84.353 Y125.835 E.06322
G1 X85.003 Y126.415 E.04516
G1 X85.692 Y126.913 E.04407
G1 X86.301 Y127.268 E.03655
G1 X86.928 Y127.565 E.03597
G1 X87.61 Y127.81 E.03753
G1 X87.686 Y127.888 E.00564
G1 X87.672 Y127.996 E.00564
G1 X87.615 Y128.043 E.00384
G1 X87.063 Y128.263 E.0308
G1 X85.518 Y128.459 E.0807
G1 X83.886 Y128.245 E.08532
G1 X82.26 Y127.559 E.09152
G1 X81.016 Y126.582 E.08198
G1 X80.055 Y125.32 E.08224
G1 X79.399 Y123.712 E.08999
G1 X79.202 Y122.143 E.08198
G1 X79.407 Y120.571 E.08219
G1 X80.056 Y118.995 E.08835
G1 X81.061 Y117.689 E.0854
G1 X81.707 Y117.187 E.04243
G1 X81.774 Y117.172 E.00357
G1 X81.366 Y118.052 F10800
G1 F1200
G1 X81.465 Y118.098 E.00564
G1 X81.492 Y118.176 E.00431
G1 X81.492 Y119.968 E.09288
G1 X81.558 Y120.989 E.05303
G1 X81.74 Y122.007 E.05359
G1 X82.132 Y123.229 E.06654
G1 X82.627 Y124.255 E.05905
G1 X83.244 Y125.194 E.05825
G1 X84.082 Y126.15 E.06591
G1 X84.722 Y126.721 E.04444
G1 X85.444 Y127.246 E.0463
G1 X86.088 Y127.625 E.0387
G1 X86.271 Y127.713 E.01054
G1 X86.338 Y127.799 E.00564
G1 X86.313 Y127.905 E.00564
G1 X86.232 Y127.949 E.00478
G1 X85.503 Y128.038 E.03805
G1 X84.013 Y127.843 E.07791
G1 X82.488 Y127.204 E.08569
G1 X81.305 Y126.275 E.07798
G1 X80.413 Y125.096 E.07663
G1 X79.802 Y123.59 E.08426
G1 X79.623 Y122.128 E.07633
G1 X79.81 Y120.695 E.07494
G1 X80.429 Y119.191 E.0843
G1 X81.269 Y118.1 E.07137
G1 X81.33 Y118.069 E.00357
G1 E-3.5 F1800
;WIPE_START
G1 F1200
G1 X81.465 Y118.098 E-.20586
G1 X81.492 Y118.176 E-.12462
G1 X81.492 Y118.956 E-1.16953
;WIPE_END
G1 Z.7 F10800
G1 X80.95 Y119.273 Z.7
G1 Z.3
G1 E5 F1800
G1 F1200
G1 X81.049 Y119.32 E.00564
G1 X81.077 Y119.398 E.00431
G1 X81.077 Y119.964 E.02934
G1 X81.15 Y121.068 E.05739
G1 X81.347 Y122.141 E.05654
G1 X81.734 Y123.348 E.06569
G1 X82.249 Y124.428 E.06202
G1 X82.937 Y125.474 E.06491
G1 X83.764 Y126.419 E.06509
G1 X84.441 Y127.027 E.04718
G1 X84.798 Y127.291 E.02301
G1 X84.849 Y127.387 E.00564
G1 X84.805 Y127.486 E.00564
G1 X84.708 Y127.515 E.00522
G1 X84.107 Y127.432 E.03148
G1 X82.688 Y126.832 E.07987
G1 X81.594 Y125.968 E.07221
G1 X80.771 Y124.874 E.07099
G1 X80.215 Y123.5 E.07685
G1 X80.044 Y122.114 E.07237
G1 X80.221 Y120.787 E.06939
G1 X80.786 Y119.416 E.07688
G1 X80.853 Y119.322 E.00601
G1 X80.915 Y119.291 E.00357
G1 E-3.5 F1800
;WIPE_START
G1 F1200
G1 X81.049 Y119.32 E-.20585
G1 X81.077 Y119.398 E-.12462
G1 X81.077 Y119.964 E-.84889
G1 X81.091 Y120.177 E-.32065
;WIPE_END
G1 Z.7 F10800
M73 P1 R49
G1 X80.72 Y121.356 Z.7
G1 Z.3
G1 E5 F1800
G1 F1200
G1 X80.798 Y121.45 E.00632
G1 X80.937 Y122.208 E.03999
G1 X81.336 Y123.467 E.06847
G1 X81.87 Y124.599 E.06488
G1 X82.586 Y125.696 E.06788
G1 X83.11 Y126.302 E.04156
G1 X83.138 Y126.407 E.00564
G1 X83.073 Y126.495 E.00564
G1 X82.967 Y126.499 E.00549
G1 X82.888 Y126.46 E.00457
G1 X81.907 Y125.686 E.0648
G1 X81.13 Y124.652 E.06701
G1 X80.627 Y123.41 E.06949
G1 X80.465 Y122.132 E.06676
G1 X80.551 Y121.456 E.03537
G1 X80.611 Y121.365 E.00564
G1 X80.68 Y121.359 E.00357
G1 E-3.5 F1800
;WIPE_START
G1 F1200
G1 X80.798 Y121.45 E-.22266
G1 X80.937 Y122.208 E-1.15727
G1 X80.961 Y122.285 E-.12007
;WIPE_END
G1 Z.7 F10800
G1 X84.27 Y94.089 Z.7
G1 Z.3
G1 E5 F1800
G1 F1200
G1 X83.841 Y94.032 E.02243
G1 X81.61 Y93.108 E.12517
G1 X79.695 Y91.638 E.12517
G1 X78.225 Y89.723 E.12517
G1 X77.301 Y87.492 E.12517
G1 X76.986 Y85.098 E.12517
G1 X77.301 Y82.704 E.12517
G1 X78.225 Y80.473 E.12517
G1 X79.695 Y78.557 E.12517
G1 X81.61 Y77.087 E.12517
G1 X83.841 Y76.163 E.12517
G1 X86.235 Y75.848 E.12517
G1 X88.629 Y76.163 E.12517
G1 X90.86 Y77.087 E.12517
G1 X92.776 Y78.557 E.12517
G1 X94.246 Y80.473 E.12517
G1 X95.17 Y82.704 E.12517
G1 X95.432 Y84.693 E.10398
G1 X86.946 Y84.7 E.43987
G1 X86.603 Y84.753 E.01797
G1 X86.257 Y84.863 E.01886
G1 X85.904 Y85.042 E.02049
G1 X85.656 Y85.221 E.01586
G1 X85.482 Y85.38 E.01224
G1 X85.283 Y85.61 E.01575
G1 X85.116 Y85.866 E.01587
G1 X84.962 Y86.197 E.01888
G1 X84.835 Y86.726 E.02824
G1 X84.817 Y87.6 E.04529
G1 X84.86 Y88.118 E.02695
G1 X84.979 Y88.589 E.02518
G1 X85.154 Y89.025 E.02439
G1 X85.531 Y89.809 E.04506
G1 X85.729 Y90.356 E.03017
G1 X85.775 Y90.557 E.0107
G1 X85.816 Y90.957 E.02085
G1 X85.812 Y91.146 E.00976
G1 X85.772 Y91.458 E.01633
G1 X85.689 Y91.782 E.01735
G1 X85.593 Y92.044 E.01447
G1 X85.156 Y92.971 E.05315
G1 X84.977 Y93.417 E.02486
G1 X84.86 Y93.88 E.02478
G1 X84.835 Y94.163 E.01473
G1 X84.31 Y94.094 E.02747
G1 X84.364 Y93.682 F10800
G1 F1200
G1 X83.966 Y93.63 E.02081
G1 X81.807 Y92.735 E.12114
G1 X80.004 Y91.352 E.1178
G1 X78.598 Y89.526 E.11947
G1 X77.704 Y87.367 E.12114
G1 X77.407 Y85.114 E.1178
G1 X77.704 Y82.829 E.11947
G1 X78.598 Y80.67 E.12114
G1 X79.981 Y78.867 E.1178
G1 X81.807 Y77.46 E.11947
G1 X83.966 Y76.566 E.12114
G1 X86.219 Y76.27 E.1178
G1 X88.504 Y76.566 E.11947
G1 X90.635 Y77.444 E.11947
G1 X92.489 Y78.867 E.12114
G1 X93.889 Y80.698 E.11947
G1 X94.759 Y82.797 E.1178
G1 X94.939 Y84.137 E.07006
G1 X94.905 Y84.24 E.00564
G1 X94.816 Y84.278 E.00502
G1 X86.954 Y84.284 E.40751
G1 X86.548 Y84.341 E.02127
G1 X86.139 Y84.464 E.02213
G1 X85.723 Y84.668 E.02405
G1 X85.37 Y84.919 E.02241
G1 X85.164 Y85.113 E.0147
G1 X84.932 Y85.388 E.01865
G1 X84.735 Y85.699 E.01904
G1 X84.591 Y86.01 E.01781
G1 X84.419 Y86.731 E.03843
G1 X84.402 Y87.585 E.04428
G1 X84.445 Y88.143 E.02899
G1 X84.574 Y88.683 E.02881
G1 X84.782 Y89.209 E.02932
G1 X85.144 Y89.964 E.04342
G1 X85.327 Y90.466 E.02768
G1 X85.399 Y90.962 E.02598
G1 X85.365 Y91.367 E.02108
G1 X85.207 Y91.889 E.02827
G1 X84.782 Y92.791 E.05168
G1 X84.594 Y93.255 E.02593
G1 X84.505 Y93.591 E.01804
G1 X84.434 Y93.673 E.00564
G1 X84.404 Y93.677 E.00156
G1 X84.115 Y93.211 F10800
G1 F1200
G1 X84.032 Y93.207 E.00431
G1 X82.032 Y92.378 E.11225
G1 X80.313 Y91.065 E.11212
G1 X78.954 Y89.301 E.11544
G1 X78.115 Y87.274 E.11374
G1 X77.828 Y85.13 E.11212
G1 X78.115 Y82.921 E.11544
G1 X78.971 Y80.866 E.11541
G1 X80.291 Y79.153 E.11211
G1 X82.004 Y77.833 E.11209
G1 X84.091 Y76.969 E.1171
G1 X86.236 Y76.691 E.11211
G1 X88.38 Y76.969 E.11212
G1 X90.439 Y77.818 E.11543
G1 X92.203 Y79.176 E.1154
G1 X93.532 Y80.922 E.11376
G1 X94.348 Y82.891 E.11049
G1 X94.464 Y83.721 E.04343
G1 X94.43 Y83.824 E.00564
G1 X94.34 Y83.862 E.00503
G1 X86.889 Y83.874 E.38625
G1 X86.42 Y83.945 E.02459
G1 X85.948 Y84.095 E.02568
G1 X85.475 Y84.335 E.0275
G1 X85.081 Y84.621 E.02526
G1 X84.841 Y84.85 E.01721
G1 X84.619 Y85.114 E.01786
G1 X84.356 Y85.53 E.0255
G1 X84.184 Y85.924 E.02228
G1 X84.003 Y86.735 E.04311
G1 X83.986 Y87.57 E.0433
G1 X84.043 Y88.248 E.03523
G1 X84.191 Y88.843 E.03181
G1 X84.409 Y89.393 E.03067
G1 X84.758 Y90.12 E.04181
G1 X84.917 Y90.556 E.02405
G1 X84.98 Y90.989 E.02267
G1 X84.95 Y91.301 E.01627
G1 X84.814 Y91.748 E.02422
G1 X84.407 Y92.61 E.04941
G1 X84.196 Y93.138 E.02949
G1 X84.145 Y93.185 E.00357
G1 X83.88 Y92.668 F10800
G1 F1200
G1 X83.803 Y92.662 E.004
G1 X82.228 Y92.005 E.08845
G1 X80.622 Y90.778 E.10477
G1 X79.311 Y89.076 E.1114
G1 X78.526 Y87.18 E.10637
G1 X78.25 Y85.145 E.10643
G1 X78.518 Y83.047 E.10968
G1 X79.344 Y81.063 E.11135
G1 X80.577 Y79.462 E.10479
G1 X82.201 Y78.206 E.1064
G1 X84.184 Y77.38 E.11135
G1 X86.252 Y77.112 E.10809
G1 X88.288 Y77.381 E.10647
M73 P1 R48
G1 X90.214 Y78.174 E.108
G1 X91.892 Y79.462 E.10964
