; generated by PrusaSlicer 2.7.4 on 2024-04-15 at 09:30:10 UTC


;
;
; 

; external perimeters extrusion width = 0.45mm
; perimeters extrusion width = 0.45mm
; infill extrusion width = 0.45mm
; solid infill extrusion width = 0.45mm
; top infill extrusion width = 0.40mm
; first layer extrusion width = 0.42mm

M73 P0 R18
M73 Q0 S18
M201 X1000 Y1000 Z200 E5000 ; sets maximum accelerations, mm/sec^2
M203 X200 Y200 Z12 E120 ; sets maximum feedrates, mm / sec
M204 S1250 T1250 ; sets acceleration (S) and retract acceleration (R), mm/sec^2
M205 X8.00 Y8.00 Z0.40 E4.50 ; sets the jerk limits, mm/sec
M205 S0 T0 ; sets the minimum extruding and travel feed rate, mm/sec

; printing object spring_holder_lower.stl id:0 copy 0
; stop printing object spring_holder_lower.stl id:0 copy 0

;TYPE:Custom
M862.3 P "MK3" ; printer model check
M862.1 P0.4 ; nozzle diameter check
M115 U3.13.3 ; tell printer latest fw version
G90 ; use absolute coordinates
M83 ; extruder relative mode
M104 S215 ; set extruder temp
M140 S60 ; set bed temp
M190 S60 ; wait for bed temp
M109 S215 ; wait for extruder temp
G28 W ; home all without mesh bed level
G80 X107.561 Y97.6425 W34.1995 H14.8514 ; mesh bed levelling

G1 Z0.2 F720
G1 Y-3 F1000 ; go outside print area
G92 E0
G1 X60 E9 F1000 ; intro line
G1 X100 E12.5 F1000 ; intro line

G92 E0
M221 S95

; Don't change E values below. Excessive value can damage the printer.

M907 E538 ; set extruder motor current
G21 ; set units to millimeters
G90 ; use absolute coordinates
M83 ; use relative distances for extrusion

M900 K0.05 ; Filament gcode LA 1.5
M900 K30 ; Filament gcode LA 1.0




M107
;LAYER_CHANGE
;Z:0.2
;HEIGHT:0.2
G1 E-.8 F2100
G1 Z.6 F720
G1 X108.447 Y99.41 F10800
G1 Z.2 F720
G1 E.8 F2100
M204 S800
;TYPE:Skirt/Brim
;WIDTH:0.42
G1 F1200
G1 X109.103 Y98.75 E.02918
G1 X109.904 Y98.27 E.02928
G1 X110.867 Y97.959 E.03173
G1 X112.016 Y97.833 E.03624
G1 X137.193 Y97.831 E.78941
G1 X138.061 Y97.891 E.02728
G1 X138.758 Y98.033 E.0223
G1 X139.417 Y98.27 E.02196
G1 X140.011 Y98.6 E.02131
G1 X140.594 Y99.086 E.0238
G1 X141.006 Y99.595 E.02053
G1 X141.293 Y100.119 E.01873
G1 X141.503 Y100.785 E.0219
G1 X141.572 Y101.451 E.02099
G1 X141.572 Y109.551 E.25397
G1 X141.179 Y110.969 E.04614
G1 X140.113 Y111.982 E.04611
G1 X138.817 Y112.305 E.04188
G1 X110.503 Y112.305 E.88777
G1 X109.086 Y111.913 E.0461
M73 Q1 S18
G1 X108.073 Y110.846 E.04613
G1 X107.749 Y109.551 E.04186
G1 X107.775 Y101.039 E.26689
G1 X108.028 Y100.12 E.02989
M73 P1 R18
G1 X108.416 Y99.462 E.02395
M204 S1000
G1 X108.416 Y99.462 F10800
G1 X108.739 Y99.652
M204 S800
G1 F1200
G1 X108.748 Y99.637 E.00055
G1 X109.336 Y99.047 E.02612
G1 X110.13 Y98.583 E.02883
G1 X111.021 Y98.313 E.02919
G1 X112.021 Y98.21 E.03152
G1 X137.189 Y98.208 E.78912
G1 X138.606 Y98.383 E.04477
G1 X139.191 Y98.583 E.01938
G1 X139.762 Y98.887 E.02028
G1 X140.232 Y99.257 E.01876
G1 X140.692 Y99.802 E.02236
G1 X140.948 Y100.272 E.01678
G1 X141.142 Y100.902 E.02067
G1 X141.195 Y109.551 E.27119
G1 X140.803 Y110.858 E.04278
G1 X139.757 Y111.735 E.0428
G1 X138.817 Y111.928 E.03009
G1 X110.503 Y111.928 E.88777
G1 X109.196 Y111.537 E.04277
G1 X108.32 Y110.491 E.04278
G1 X108.126 Y109.551 E.03009
G1 X108.15 Y101.084 E.26548
G1 X108.373 Y100.272 E.0264
G1 X108.708 Y99.704 E.02068
M204 S1000
;WIPE_START
G1 F8640
G1 X108.739 Y99.652 E-.01398
G1 X108.748 Y99.637 E-.00404
G1 X109.336 Y99.047 E-.19234
G1 X110.13 Y98.583 E-.21235
G1 X111.021 Y98.313 E-.21497
G1 X111.72 Y98.241 E-.16232
;WIPE_END
G1 Z.6 F720
; printing object spring_holder_lower.stl id:0 copy 0
G1 X112.934 Y102.557 F10800
G1 Z.2 F720
G1 E.8 F2100
M204 S800
;TYPE:Perimeter
;WIDTH:0.419999
G1 F1200
G1 X136.387 Y102.56 E.73535
G1 X136.387 Y108.01 E.17088
G1 X112.934 Y108.01 E.73535
G1 X112.934 Y102.617 E.16909
M204 S1000
G1 X112.934 Y102.617 F10800
G1 X112.557 Y102.18
M204 S800
G1 F1200
G1 X136.764 Y102.183 E.75899
G1 X136.764 Y108.387 E.19452
G1 X112.557 Y108.387 E.75899
G1 X112.557 Y102.24 E.19273
M73 Q2 S18
M204 S1000
G1 X112.557 Y102.24 F10800
G1 X112.18 Y101.831
M204 S800
G1 F1200
M73 P2 R18
G1 X112.206 Y101.803 E.0012
G1 X137.141 Y101.806 E.78182
G1 X137.141 Y108.764 E.21816
G1 X112.18 Y108.764 E.78263
G1 X112.18 Y101.891 E.2155
M204 S1000
G1 X112.18 Y101.891 F10800
G1 X111.805 Y101.519
M204 S800
;TYPE:External perimeter
G1 F1200
G1 X111.885 Y101.475 E.00286
G1 X112.18 Y101.426 E.00938
G1 X137.17 Y101.429 E.78354
G1 X137.47 Y101.491 E.00961
G1 X137.518 Y101.581 E.0032
G1 X137.518 Y109.141 E.23704
G1 X111.803 Y109.141 E.80627
G1 X111.805 Y101.579 E.2371
M204 S1000
;WIPE_START
G1 F8640
G1 X111.805 Y101.519 E-.01385
G1 X111.885 Y101.475 E-.02108
G1 X112.18 Y101.426 E-.06905
G1 X115.194 Y101.426 E-.69602
;WIPE_END
G1 Z.6 F720
G1 X135.454 Y102.73 F10800
G1 Z.2 F720
G1 E.8 F2100
M204 S800
;TYPE:Solid infill
;WIDTH:0.420483
G1 F1200
G1 X136.048 Y103.324 E.02637
G1 X136.048 Y103.857 E.01673
G1 X135.09 Y102.899 E.04253
G1 X134.556 Y102.899 E.01676
G1 X136.048 Y104.391 E.06624
G1 X136.048 Y104.925 E.01676
G1 X134.022 Y102.899 E.08995
G1 X133.488 Y102.899 E.01676
G1 X136.048 Y105.459 E.11366
G1 X136.048 Y105.993 E.01676
G1 X132.954 Y102.899 E.13737
G1 X132.419 Y102.899 E.0168
G1 X136.048 Y106.527 E.1611
G1 X136.048 Y107.061 E.01676
G1 X131.885 Y102.899 E.18481
G1 X131.351 Y102.899 E.01676
G1 X136.048 Y107.595 E.20852
G1 X136.048 Y107.671 E.00239
G1 X135.589 Y107.671 E.01441
G1 X130.817 Y102.899 E.21187
G1 X130.283 Y102.899 E.01676
G1 X135.055 Y107.671 E.21187
G1 X134.521 Y107.671 E.01676
G1 X129.749 Y102.899 E.21187
G1 X129.215 Y102.899 E.01676
G1 X133.987 Y107.671 E.21187
G1 X133.453 Y107.671 E.01676
G1 X128.681 Y102.899 E.21187
G1 X128.147 Y102.898 E.01676
M73 Q3 S18
G1 X132.919 Y107.671 E.21189
G1 X132.385 Y107.671 E.01676
M73 P3 R18
G1 X127.613 Y102.898 E.21189
G1 X127.079 Y102.898 E.01676
G1 X131.852 Y107.671 E.21191
G1 X131.318 Y107.671 E.01676
G1 X126.545 Y102.898 E.21191
G1 X126.011 Y102.898 E.01676
G1 X130.784 Y107.671 E.21191
G1 X130.25 Y107.671 E.01676
G1 X125.477 Y102.898 E.21191
G1 X124.943 Y102.898 E.01676
G1 X129.716 Y107.671 E.21191
G1 X129.182 Y107.671 E.01676
G1 X124.409 Y102.898 E.21191
G1 X123.875 Y102.898 E.01676
G1 X128.648 Y107.671 E.21191
G1 X128.114 Y107.671 E.01676
G1 X123.341 Y102.898 E.21191
G1 X122.807 Y102.898 E.01676
G1 X127.58 Y107.671 E.21191
G1 X127.046 Y107.671 E.01676
G1 X122.273 Y102.898 E.21191
G1 X121.739 Y102.898 E.01676
G1 X126.512 Y107.671 E.21191
G1 X125.978 Y107.671 E.01676
G1 X121.205 Y102.897 E.21194
G1 X120.671 Y102.897 E.01676
G1 X125.444 Y107.671 E.21194
G1 X124.91 Y107.671 E.01676
G1 X120.137 Y102.897 E.21194
G1 X119.603 Y102.897 E.01676
G1 X124.376 Y107.671 E.21194
G1 X123.842 Y107.671 E.01676
G1 X119.069 Y102.897 E.21194
G1 X118.535 Y102.897 E.01676
G1 X123.308 Y107.671 E.21194
G1 X122.774 Y107.671 E.01676
G1 X118.001 Y102.897 E.21194
G1 X117.467 Y102.897 E.01676
G1 X122.24 Y107.671 E.21194
G1 X121.706 Y107.671 E.01676
G1 X116.933 Y102.897 E.21194
G1 X116.399 Y102.897 E.01676
G1 X121.172 Y107.671 E.21194
G1 X120.638 Y107.671 E.01676
G1 X115.865 Y102.897 E.21194
G1 X115.331 Y102.897 E.01676
G1 X120.104 Y107.671 E.21194
G1 X119.571 Y107.671 E.01673
G1 X114.797 Y102.897 E.21196
G1 X114.262 Y102.897 E.0168
G1 X119.037 Y107.671 E.21198
G1 X118.503 Y107.671 E.01676
G1 X113.728 Y102.896 E.212
G1 X113.273 Y102.896 E.01428
G1 X113.273 Y102.975 E.00248
G1 X117.969 Y107.671 E.2085
G1 X117.435 Y107.671 E.01676
G1 X113.273 Y103.509 E.18479
G1 X113.273 Y104.043 E.01676
M73 Q4 S18
G1 X116.901 Y107.671 E.16108
G1 X116.367 Y107.671 E.01676
G1 X113.273 Y104.577 E.13737
M73 P4 R18
G1 X113.273 Y105.111 E.01676
G1 X115.833 Y107.671 E.11366
G1 X115.299 Y107.671 E.01676
G1 X113.273 Y105.645 E.08995
G1 X113.273 Y106.179 E.01676
G1 X114.765 Y107.671 E.06624
G1 X114.231 Y107.671 E.01676
G1 X113.273 Y106.713 E.04253
G1 X113.273 Y107.247 E.01676
G1 X113.867 Y107.84 E.02635
M204 S1000
M106 S84.15
;LAYER_CHANGE
;Z:0.4
;HEIGHT:0.2
;BEFORE_LAYER_CHANGE
G92 E0.0
;0.4


;WIPE_START
G1 F8640
G1 X113.273 Y107.247 E-.19381
G1 X113.273 Y106.713 E-.1233
G1 X114.231 Y107.671 E-.31283
G1 X114.765 Y107.671 E-.1233
G1 X114.622 Y107.528 E-.04676
;WIPE_END
G1 Z.4 F720
;AFTER_LAYER_CHANGE
;0.4
M104 S210 ; set temperature
; stop printing object spring_holder_lower.stl id:0 copy 0
G1 Z.8
G1 X114.622 Y112.305 F10800
G1 Z.4 F720
G1 E.8 F2100
;TYPE:Skirt/Brim
;WIDTH:0.42
G1 F3000
G1 X110.503 Y112.305 E.12915
G1 X109.086 Y111.913 E.0461
G1 X108.073 Y110.846 E.04613
G1 X107.749 Y109.551 E.04186
G1 X107.775 Y101.039 E.26689
G1 X108.028 Y100.12 E.02989
G1 X108.447 Y99.41 E.02585
G1 X109.103 Y98.75 E.02918
G1 X109.904 Y98.27 E.02928
G1 X110.867 Y97.959 E.03173
G1 X112.016 Y97.833 E.03624
G1 X137.193 Y97.831 E.78941
G1 X138.061 Y97.891 E.02728
G1 X138.758 Y98.033 E.0223
G1 X139.417 Y98.27 E.02196
G1 X140.011 Y98.6 E.02131
G1 X140.594 Y99.086 E.0238
G1 X141.006 Y99.595 E.02053
G1 X141.293 Y100.119 E.01873
G1 X141.503 Y100.785 E.0219
G1 X141.572 Y101.451 E.02099
G1 X141.572 Y109.551 E.25397
G1 X141.179 Y110.969 E.04614
G1 X140.113 Y111.982 E.04611
G1 X138.817 Y112.305 E.04188
G1 X114.682 Y112.305 E.75674
G1 X114.682 Y112.305 F10800
G1 X114.682 Y111.928
G1 F3000
G1 X110.503 Y111.928 E.13103
G1 X109.196 Y111.537 E.04277
G1 X108.32 Y110.491 E.04278
G1 X108.126 Y109.551 E.03009
G1 X108.15 Y101.084 E.26548
G1 X108.373 Y100.272 E.0264
G1 X108.748 Y99.637 E.02312
G1 X109.336 Y99.047 E.02612
G1 X110.13 Y98.583 E.02883
G1 X111.021 Y98.313 E.02919
G1 X112.021 Y98.21 E.03152
G1 X137.189 Y98.208 E.78912
G1 X138.606 Y98.383 E.04477
G1 X139.191 Y98.583 E.01938
G1 X139.762 Y98.887 E.02028
G1 X140.232 Y99.257 E.01876
G1 X140.692 Y99.802 E.02236
G1 X140.948 Y100.272 E.01678
G1 X141.142 Y100.902 E.02067
G1 X141.195 Y109.551 E.27119
G1 X140.803 Y110.858 E.04278
G1 X139.757 Y111.735 E.0428
G1 X138.817 Y111.928 E.03009
G1 X114.742 Y111.928 E.75485
;WIPE_START
G1 F8640
G1 X114.682 Y111.928 E-.01385
G1 X111.278 Y111.928 E-.78615
;WIPE_END
G1 Z.8 F720
; printing object spring_holder_lower.stl id:0 copy 0
G1 X137.02 Y108.105 F10800
G1 Z.4 F720
G1 E.8 F2100
M204 S800
;TYPE:Perimeter
;WIDTH:0.449999
G1 F3600
G1 X112.301 Y108.105 E.83671
G1 F3587.644
G1 X112.303 Y102.183 E.20045
G1 F2461.871
G1 X137.018 Y102.185 E.83657
G1 F3587.983
G1 X137.02 Y108.045 E.19835
M204 S1000
G1 X137.028 Y108.512 F10800
M204 S800
G1 F3600
G1 X111.894 Y108.512 E.85075
G1 F3585.366
G1 X111.896 Y101.806 E.22699
G1 F2105.515
G1 X112.195 Y101.776 E.01017
G1 F2161.714
G1 X137.15 Y101.778 E.8447
G1 F2095.766
M73 P4 R17
G1 X137.425 Y101.812 E.00938
G1 F3586.558
G1 X137.427 Y108.512 E.22679
G1 X137.088 Y108.512 E.01147
M73 Q4 S17
M204 S1000
G1 X137.088 Y108.512 F10800
G1 X137.028 Y108.919
M204 S800
G1 F3600
G1 X112.293 Y108.919 E.83725
G1 F1450.52
G1 X111.487 Y108.919 E.02728
G1 X111.487 Y108.113 E.02728
G1 F1451.092
G1 X111.488 Y102.345 E.19524
G1 F1455.187
G1 X111.489 Y101.541 E.02721
G1 X111.67 Y101.44 E.00702
G1 F1765.269
G1 X112.181 Y101.369 E.01746
G1 F1826.47
G1 X136.605 Y101.371 E.82672
G1 F1822.597
G1 X137.15 Y101.371 E.01845
G1 F1747.355
G1 X137.557 Y101.418 E.01387
G1 F1455.784
G1 X137.832 Y101.535 E.01012
G1 X137.833 Y102.339 E.02721
G1 F1451.1
G1 X137.834 Y108.113 E.19544
G1 F1450.526
M73 Q5 S17
G1 X137.834 Y108.919 E.02728
G1 X137.088 Y108.919 E.02525
M204 S1000
G1 X137.088 Y108.919 F10800
G1 X137.028 Y109.326
M204 S800
;TYPE:External perimeter
G1 F2100
G1 X112.293 Y109.326 E.83725
G1 F900
M73 P5 R17
G1 X111.193 Y109.326 E.03723
M204 S1000
;TYPE:Overhang perimeter
G1 X111.079 Y109.326 E.00386
G1 X111.081 Y102.652 E.22591
G1 X111.081 Y101.441 E.04099
G1 X111.189 Y101.242 E.00766
G1 X111.266 Y101.205 E.00289
M204 S800
;TYPE:External perimeter
G1 X111.62 Y101.034 E.01331
G1 F948.772
G1 X112.168 Y100.962 E.01871
G1 F1057.477
G1 X136.198 Y100.964 E.81339
G1 F1061.558
G1 X137.15 Y100.964 E.03222
G1 F993.178
G1 X137.61 Y101.015 E.01567
G1 F900
G1 X137.929 Y101.117 E.01134
G1 X138.057 Y101.207 E.0053
M204 S1000
;TYPE:Overhang perimeter
G1 X138.171 Y101.287 E.00471
G1 X138.239 Y101.532 E.00861
G1 X138.24 Y102.744 E.04102
G1 X138.242 Y109.326 E.22279
G1 X138.128 Y109.326 E.00386
M204 S800
;TYPE:External perimeter
G1 X137.088 Y109.326 E.0352
M204 S1000
;WIPE_START
G1 F8640
G1 X137.028 Y109.326 E-.01385
G1 X133.623 Y109.326 E-.78615
;WIPE_END
G1 Z.8 F720
G1 X112.779 Y102.583 F10800
G1 Z.4 F720
G1 E.8 F2100
;TYPE:Solid infill
;WIDTH:0.548794
G1 F8895.496
G1 X112.735 Y102.538 E.00265
G1 X112.673 Y102.554 E.00269
G1 X112.657 Y102.616 E.00269
G1 X112.702 Y102.66 E.00265
G1 X112.763 Y102.644 E.00265
;WIDTH:0.449999
G1 F11054.364
G1 X113.413 Y102.55 E.02223
G1 X112.602 Y103.367 E.03897
;WIDTH:0.41646
G1 F12000
G1 X112.536 Y103.44 E.00306
;WIDTH:0.38292
G1 X112.465 Y103.421 E.00208
G1 X112.484 Y103.492 E.00208
G1 X112.525 Y103.481 E.0012
;WIDTH:0.449999
G1 F11054.364
G1 X112.668 Y103.87 E.01403
G1 X113.989 Y102.55 E.06321
G1 X114.564 Y102.55 E.01946
G1 X112.668 Y104.446 E.09076
G1 X112.668 Y105.022 E.0195
G1 X115.14 Y102.55 E.11833
G1 X115.716 Y102.55 E.0195
G1 X112.668 Y105.598 E.14591
G1 X112.668 Y106.174 E.0195
G1 X116.291 Y102.55 E.17345
G1 X116.867 Y102.55 E.0195
G1 X112.668 Y106.749 E.201
G1 X112.668 Y107.325 E.0195
G1 X117.443 Y102.55 E.22858
G1 X118.018 Y102.55 E.01946
G1 X112.83 Y107.739 E.24837
G1 X112.717 Y107.785 E.00413
;WIDTH:0.41646
G1 F12000
G1 X112.604 Y107.832 E.0038
;WIDTH:0.38292
G1 X112.533 Y107.813 E.00208
G1 X112.552 Y107.884 E.00208
G1 X112.593 Y107.873 E.0012
G1 X112.593 Y107.873 F10800
G1 X113.406 Y107.739
;WIDTH:0.449999
G1 F11054.364
G1 X118.594 Y102.55 E.24837
G1 X119.17 Y102.55 E.0195
G1 X113.981 Y107.739 E.24839
G1 X114.557 Y107.739 E.0195
G1 X119.745 Y102.55 E.24837
G1 X120.321 Y102.55 E.0195
G1 X115.133 Y107.739 E.24837
G1 X115.708 Y107.739 E.01946
G1 X120.897 Y102.55 E.24839
G1 X121.472 Y102.55 E.01946
G1 X116.284 Y107.739 E.24837
G1 X116.86 Y107.739 E.0195
G1 X122.048 Y102.55 E.24837
G1 X122.624 Y102.55 E.0195
G1 X117.435 Y107.739 E.24839
G1 X118.011 Y107.739 E.0195
G1 X123.199 Y102.55 E.24837
G1 X123.775 Y102.551 E.0195
G1 X118.587 Y107.739 E.24835
G1 X119.163 Y107.739 E.0195
G1 X124.351 Y102.551 E.24835
G1 X124.926 Y102.551 E.01946
G1 X119.738 Y107.739 E.24835
G1 X120.314 Y107.739 E.0195
G1 X125.502 Y102.551 E.24835
G1 X126.078 Y102.551 E.0195
G1 X120.89 Y107.739 E.24835
G1 X121.465 Y107.739 E.01946
G1 X126.653 Y102.551 E.24835
G1 X127.229 Y102.551 E.0195
G1 X122.041 Y107.739 E.24835
G1 X122.617 Y107.739 E.0195
G1 X127.805 Y102.551 E.24835
G1 X128.38 Y102.551 E.01946
G1 X123.192 Y107.739 E.24835
G1 X123.768 Y107.739 E.0195
G1 X128.956 Y102.551 E.24835
G1 X129.532 Y102.551 E.0195
G1 X124.344 Y107.739 E.24835
G1 X124.92 Y107.739 E.0195
G1 X130.107 Y102.551 E.24832
G1 X130.683 Y102.551 E.0195
G1 X125.495 Y107.739 E.24835
G1 X126.071 Y107.739 E.0195
G1 X131.259 Y102.551 E.24835
G1 X131.834 Y102.551 E.01946
G1 X126.647 Y107.739 E.24832
G1 X127.222 Y107.739 E.01946
G1 X132.41 Y102.551 E.24835
G1 X132.986 Y102.551 E.0195
G1 X127.798 Y107.739 E.24835
G1 X128.374 Y107.739 E.0195
G1 X133.561 Y102.551 E.24832
G1 X134.137 Y102.551 E.0195
G1 X128.949 Y107.739 E.24835
G1 X129.525 Y107.739 E.0195
G1 X134.713 Y102.551 E.24835
G1 X135.288 Y102.551 E.01946
G1 X130.101 Y107.739 E.24832
G1 X130.677 Y107.739 E.0195
G1 X135.864 Y102.551 E.24832
G1 X136.44 Y102.551 E.0195
G1 X131.252 Y107.739 E.24835
G1 X131.828 Y107.739 E.0195
M73 Q6 S17
G1 X136.652 Y102.914 E.23095
G1 X136.652 Y103.49 E.0195
M73 P6 R17
G1 X132.404 Y107.739 E.20337
G1 X132.979 Y107.739 E.01946
G1 X136.652 Y104.065 E.17585
G1 X136.653 Y104.641 E.0195
G1 X133.555 Y107.739 E.1483
G1 X134.131 Y107.739 E.0195
G1 X136.653 Y105.217 E.12073
G1 X136.653 Y105.792 E.01946
G1 X134.706 Y107.739 E.0932
G1 X135.282 Y107.739 E.0195
G1 X136.653 Y106.368 E.06563
G1 X136.653 Y106.943 E.01946
G1 X135.858 Y107.739 E.03808
G1 X136.636 Y107.722 E.02634
;WIDTH:0.578856
G1 F8396.525
G1 X136.572 Y107.739 E.00295
G1 X136.524 Y107.692 E.00299
G1 X136.542 Y107.627 E.00301
G1 X136.606 Y107.609 E.00296
G1 X136.654 Y107.657 E.00303
M106 S170.85
;LAYER_CHANGE
;Z:0.6
;HEIGHT:0.2
;BEFORE_LAYER_CHANGE
G92 E0.0
;0.6


;WIPE_START
G1 F8640
