; generated by PrusaSlicer 2.7.4 on 2024-04-15 at 09:32:33 UTC


;
;
; 

; external perimeters extrusion width = 0.45mm
; perimeters extrusion width = 0.45mm
; infill extrusion width = 0.45mm
; solid infill extrusion width = 0.45mm
; top infill extrusion width = 0.40mm
; first layer extrusion width = 0.42mm

; external perimeters extrusion width = 0.45mm
; perimeters extrusion width = 0.45mm
; infill extrusion width = 0.45mm
; solid infill extrusion width = 0.45mm
; top infill extrusion width = 0.40mm
; first layer extrusion width = 0.42mm

; external perimeters extrusion width = 0.45mm
; perimeters extrusion width = 0.45mm
; infill extrusion width = 0.45mm
; solid infill extrusion width = 0.45mm
; top infill extrusion width = 0.40mm
; first layer extrusion width = 0.42mm

; external perimeters extrusion width = 0.45mm
; perimeters extrusion width = 0.45mm
; infill extrusion width = 0.45mm
; solid infill extrusion width = 0.45mm
; top infill extrusion width = 0.40mm
; first layer extrusion width = 0.42mm

; external perimeters extrusion width = 0.45mm
; perimeters extrusion width = 0.45mm
; infill extrusion width = 0.45mm
; solid infill extrusion width = 0.45mm
; top infill extrusion width = 0.40mm
; first layer extrusion width = 0.42mm

; external perimeters extrusion width = 0.45mm
; perimeters extrusion width = 0.45mm
; infill extrusion width = 0.45mm
; solid infill extrusion width = 0.45mm
; top infill extrusion width = 0.40mm
; first layer extrusion width = 0.42mm

; external perimeters extrusion width = 0.45mm
; perimeters extrusion width = 0.45mm
; infill extrusion width = 0.45mm
; solid infill extrusion width = 0.45mm
; top infill extrusion width = 0.40mm
; first layer extrusion width = 0.42mm

; external perimeters extrusion width = 0.45mm
; perimeters extrusion width = 0.45mm
; infill extrusion width = 0.45mm
; solid infill extrusion width = 0.45mm
; top infill extrusion width = 0.40mm
; first layer extrusion width = 0.42mm

M73 P0 R141
M73 Q0 S140
M201 X1000 Y1000 Z200 E5000 ; sets maximum accelerations, mm/sec^2
M203 X200 Y200 Z12 E120 ; sets maximum feedrates, mm / sec
M204 S1250 T1250 ; sets acceleration (S) and retract acceleration (R), mm/sec^2
M205 X8.00 Y8.00 Z0.40 E4.50 ; sets the jerk limits, mm/sec
M205 S0 T0 ; sets the minimum extruding and travel feed rate, mm/sec

; printing object spring_holder_lower.stl id:7 copy 0
; stop printing object spring_holder_lower.stl id:7 copy 0
; printing object spring_holder_lower.stl id:4 copy 0
; stop printing object spring_holder_lower.stl id:4 copy 0
; printing object spring_holder_lower.stl id:6 copy 0
; stop printing object spring_holder_lower.stl id:6 copy 0
; printing object spring_holder_lower.stl id:5 copy 0
; stop printing object spring_holder_lower.stl id:5 copy 0
; printing object spring_holder_lower.stl id:3 copy 0
; stop printing object spring_holder_lower.stl id:3 copy 0
; printing object spring_holder_lower.stl id:2 copy 0
; stop printing object spring_holder_lower.stl id:2 copy 0
; printing object spring_holder_lower.stl id:1 copy 0
; stop printing object spring_holder_lower.stl id:1 copy 0
; printing object spring_holder_lower.stl id:0 copy 0
; stop printing object spring_holder_lower.stl id:0 copy 0

;TYPE:Custom
M862.3 P "MK3" ; printer model check
M862.1 P0.4 ; nozzle diameter check
M115 U3.13.3 ; tell printer latest fw version
G90 ; use absolute coordinates
M83 ; extruder relative mode
M104 S215 ; set extruder temp
M140 S60 ; set bed temp
M190 S60 ; wait for bed temp
M109 S215 ; wait for extruder temp
G28 W ; home all without mesh bed level
G80 X91.5025 Y74.7147 W66.995 H60.7071 ; mesh bed levelling

G1 Z0.2 F720
G1 Y-3 F1000 ; go outside print area
G92 E0
G1 X60 E9 F1000 ; intro line
G1 X100 E12.5 F1000 ; intro line

G92 E0
M221 S95

; Don't change E values below. Excessive value can damage the printer.

M907 E538 ; set extruder motor current
G21 ; set units to millimeters
G90 ; use absolute coordinates
M83 ; use relative distances for extrusion

M900 K0.05 ; Filament gcode LA 1.5
M900 K30 ; Filament gcode LA 1.0




M107
;LAYER_CHANGE
;Z:0.2
;HEIGHT:0.2
G1 E-.8 F2100
G1 Z.6 F720
G1 X92.402 Y87.873 F10800
G1 Z.2 F720
G1 E.8 F2100
M204 S800
;TYPE:Skirt/Brim
;WIDTH:0.42
G1 F1200
G1 X92.901 Y87.394 E.02169
G1 X93.907 Y86.846 E.03592
G1 X128.135 Y75.008 E1.13557
G1 X129.275 Y74.903 E.0359
G1 X154.303 Y74.903 E.78474
G1 X155.128 Y74.96 E.02593
G1 X155.894 Y75.127 E.02458
G1 X156.523 Y75.378 E.02123
G1 X157.099 Y75.742 E.02136
G1 X157.598 Y76.221 E.02169
G1 X157.956 Y76.747 E.01995
G1 X158.206 Y77.378 E.02128
G1 X158.305 Y78.009 E.02003
G1 X158.309 Y132.856 E1.71969
G1 X157.917 Y134.163 E.04278
G1 X156.872 Y135.04 E.04277
G1 X155.932 Y135.233 E.03009
G1 X127.618 Y135.233 E.88777
G1 X126.838 Y135.102 E.0248
G1 X93.288 Y123.449 E1.11358
G1 X92.182 Y122.65 E.04278
G1 X91.691 Y121.204 E.04788
G1 X91.693 Y89.705 E.98763
G1 X91.794 Y89.03 E.0214
G1 X92.028 Y88.43 E.02019
G1 X92.368 Y87.923 E.01914
M204 S1000
;WIPE_START
G1 F8640
G1 X92.402 Y87.873 E-.01396
G1 X92.901 Y87.394 E-.15971
G1 X93.907 Y86.846 E-.26452
G1 X95.388 Y86.334 E-.36181
;WIPE_END
G1 Z.6 F720
; printing object spring_holder_lower.stl id:4 copy 0
G1 X96.499 Y90.905 F10800
G1 Z.2 F720
G1 E.8 F2100
M204 S800
;TYPE:Perimeter
;WIDTH:0.419999
G1 F1200
G1 X119.952 Y90.908 E.73535
G1 X119.952 Y96.358 E.17088
G1 X96.499 Y96.358 E.73535
G1 X96.499 Y90.965 E.16909
M204 S1000
G1 X96.499 Y90.965 F10800
G1 X96.122 Y90.527
M204 S800
G1 F1200
G1 X120.329 Y90.531 E.75899
G1 X120.329 Y96.735 E.19452
G1 X96.122 Y96.735 E.75899
G1 X96.122 Y90.587 E.19277
M73 P0 R140
M204 S1000
G1 X96.122 Y90.587 F10800
G1 X95.744 Y90.179
M204 S800
G1 F1200
G1 X95.771 Y90.15 E.00124
G1 X120.706 Y90.154 E.78182
G1 X120.706 Y97.112 E.21816
G1 X95.744 Y97.112 E.78266
G1 X95.744 Y90.239 E.2155
M204 S1000
G1 X95.744 Y90.239 F10800
G1 X95.37 Y89.866
M204 S800
;TYPE:External perimeter
G1 F1200
G1 X95.45 Y89.823 E.00285
G1 X95.744 Y89.773 E.00935
G1 X120.735 Y89.777 E.78357
G1 X121.035 Y89.838 E.0096
G1 X121.083 Y89.929 E.00323
G1 X121.083 Y97.489 E.23704
G1 X95.367 Y97.489 E.80631
G1 X95.37 Y89.926 E.23713
M204 S1000
;WIPE_START
G1 F8640
G1 X95.37 Y89.866 E-.01385
G1 X95.45 Y89.823 E-.02097
G1 X95.744 Y89.773 E-.06886
G1 X98.76 Y89.773 E-.69632
;WIPE_END
G1 Z.6 F720
G1 X119.019 Y91.077 F10800
G1 Z.2 F720
G1 E.8 F2100
M204 S800
;TYPE:Solid infill
;WIDTH:0.420483
G1 F1200
G1 X119.612 Y91.671 E.02635
G1 X119.612 Y92.205 E.01676
G1 X118.654 Y91.247 E.04253
G1 X118.12 Y91.247 E.01676
G1 X119.612 Y92.739 E.06624
G1 X119.612 Y93.273 E.01676
G1 X117.586 Y91.247 E.08995
G1 X117.052 Y91.247 E.01676
G1 X119.612 Y93.807 E.11366
G1 X119.612 Y94.341 E.01676
G1 X116.518 Y91.247 E.13737
G1 X115.984 Y91.247 E.01676
G1 X119.612 Y94.875 E.16108
G1 X119.612 Y95.409 E.01676
G1 X115.45 Y91.247 E.18479
G1 X114.916 Y91.246 E.01676
G1 X119.612 Y95.943 E.20852
G1 X119.612 Y96.018 E.00235
G1 X119.154 Y96.018 E.01438
G1 X114.382 Y91.246 E.21187
G1 X113.848 Y91.246 E.01676
G1 X118.62 Y96.018 E.21187
G1 X118.086 Y96.018 E.01676
G1 X113.314 Y91.246 E.21187
G1 X112.78 Y91.246 E.01676
G1 X117.552 Y96.018 E.21187
G1 X117.018 Y96.018 E.01676
G1 X112.246 Y91.246 E.21187
G1 X111.712 Y91.246 E.01676
G1 X116.484 Y96.018 E.21187
G1 X115.95 Y96.018 E.01676
G1 X111.178 Y91.246 E.21187
G1 X110.644 Y91.246 E.01676
G1 X115.416 Y96.018 E.21187
G1 X114.882 Y96.018 E.01676
G1 X110.11 Y91.246 E.21187
G1 X109.576 Y91.246 E.01676
G1 X114.348 Y96.018 E.21187
G1 X113.814 Y96.018 E.01676
G1 X109.042 Y91.246 E.21187
G1 X108.508 Y91.246 E.01676
G1 X113.28 Y96.018 E.21187
G1 X112.746 Y96.018 E.01676
G1 X107.974 Y91.245 E.21189
G1 X107.44 Y91.245 E.01676
G1 X112.213 Y96.018 E.21191
G1 X111.679 Y96.018 E.01676
G1 X106.906 Y91.245 E.21191
G1 X106.372 Y91.245 E.01676
G1 X111.145 Y96.018 E.21191
G1 X110.611 Y96.018 E.01676
G1 X105.838 Y91.245 E.21191
G1 X105.304 Y91.245 E.01676
G1 X110.077 Y96.018 E.21191
G1 X109.543 Y96.018 E.01676
G1 X104.77 Y91.245 E.21191
G1 X104.236 Y91.245 E.01676
G1 X109.009 Y96.018 E.21191
G1 X108.475 Y96.018 E.01676
G1 X103.702 Y91.245 E.21191
G1 X103.168 Y91.245 E.01676
G1 X107.941 Y96.018 E.21191
G1 X107.407 Y96.018 E.01676
G1 X102.633 Y91.245 E.21194
G1 X102.099 Y91.245 E.01676
M73 Q0 S139
G1 X106.873 Y96.018 E.21194
G1 X106.339 Y96.018 E.01676
G1 X101.565 Y91.245 E.21194
G1 X101.031 Y91.245 E.01676
G1 X105.805 Y96.018 E.21194
G1 X105.271 Y96.018 E.01676
G1 X100.497 Y91.244 E.21196
G1 X99.963 Y91.244 E.01676
G1 X104.737 Y96.018 E.21196
G1 X104.203 Y96.018 E.01676
G1 X99.429 Y91.244 E.21196
G1 X98.895 Y91.244 E.01676
G1 X103.669 Y96.018 E.21196
G1 X103.135 Y96.018 E.01676
G1 X98.361 Y91.244 E.21196
G1 X97.827 Y91.244 E.01676
G1 X102.601 Y96.018 E.21196
G1 X102.067 Y96.018 E.01676
G1 X97.293 Y91.244 E.21196
G1 X96.838 Y91.244 E.01428
G1 X96.838 Y91.323 E.00248
G1 X101.533 Y96.018 E.20845
G1 X100.999 Y96.018 E.01676
G1 X96.838 Y91.857 E.18474
G1 X96.838 Y92.391 E.01676
G1 X100.466 Y96.018 E.16106
G1 X99.932 Y96.018 E.01676
G1 X96.838 Y92.925 E.13735
G1 X96.838 Y93.459 E.01676
G1 X99.398 Y96.018 E.11364
G1 X98.864 Y96.018 E.01676
G1 X96.838 Y93.993 E.08993
G1 X96.838 Y94.526 E.01673
G1 X98.33 Y96.018 E.06624
G1 X97.796 Y96.018 E.01676
G1 X96.838 Y95.06 E.04253
G1 X96.838 Y95.594 E.01676
G1 X97.431 Y96.188 E.02635
M204 S1000
;WIPE_START
G1 F8640
G1 X96.838 Y95.594 E-.19381
G1 X96.838 Y95.06 E-.1233
G1 X97.796 Y96.018 E-.31283
G1 X98.33 Y96.018 E-.1233
G1 X98.187 Y95.875 E-.04676
;WIPE_END
G1 Z.6 F720
; stop printing object spring_holder_lower.stl id:4 copy 0
; printing object spring_holder_lower.stl id:2 copy 0
G1 X96.499 Y102.557 F10800
G1 Z.2 F720
G1 E.8 F2100
M204 S800
;TYPE:Perimeter
;WIDTH:0.419999
G1 F1200
G1 X119.952 Y102.56 E.73535
G1 X119.952 Y108.01 E.17088
G1 X96.499 Y108.01 E.73535
G1 X96.499 Y102.617 E.16909
M204 S1000
G1 X96.499 Y102.617 F10800
G1 X96.122 Y102.18
M204 S800
G1 F1200
G1 X120.329 Y102.183 E.75899
G1 X120.329 Y108.387 E.19452
G1 X96.122 Y108.387 E.75899
G1 X96.122 Y102.24 E.19273
M204 S1000
G1 X96.122 Y102.24 F10800
G1 X95.744 Y101.831
M204 S800
G1 F1200
G1 X95.771 Y101.803 E.00122
G1 X120.706 Y101.806 E.78182
G1 X120.706 Y108.764 E.21816
G1 X95.744 Y108.764 E.78266
G1 X95.744 Y101.891 E.2155
M204 S1000
G1 X95.744 Y101.891 F10800
G1 X95.37 Y101.519
M204 S800
;TYPE:External perimeter
G1 F1200
G1 X95.45 Y101.475 E.00286
G1 X95.744 Y101.426 E.00935
G1 X120.735 Y101.429 E.78357
G1 X121.035 Y101.491 E.00961
G1 X121.083 Y101.581 E.0032
G1 X121.083 Y109.141 E.23704
G1 X95.367 Y109.141 E.80631
G1 X95.37 Y101.579 E.2371
M204 S1000
;WIPE_START
G1 F8640
G1 X95.37 Y101.519 E-.01385
G1 X95.45 Y101.475 E-.02108
G1 X95.744 Y101.426 E-.06882
G1 X98.759 Y101.426 E-.69625
;WIPE_END
G1 Z.6 F720
G1 X119.019 Y102.73 F10800
G1 Z.2 F720
G1 E.8 F2100
M204 S800
;TYPE:Solid infill
;WIDTH:0.420483
G1 F1200
G1 X119.612 Y103.324 E.02635
G1 X119.612 Y103.857 E.01673
G1 X118.654 Y102.899 E.04253
G1 X118.12 Y102.899 E.01676
G1 X119.612 Y104.391 E.06624
G1 X119.612 Y104.925 E.01676
G1 X117.586 Y102.899 E.08995
G1 X117.052 Y102.899 E.01676
G1 X119.612 Y105.459 E.11366
G1 X119.612 Y105.993 E.01676
G1 X116.518 Y102.899 E.13737
G1 X115.984 Y102.899 E.01676
G1 X119.612 Y106.527 E.16108
G1 X119.612 Y107.061 E.01676
G1 X115.45 Y102.899 E.18479
G1 X114.916 Y102.899 E.01676
G1 X119.612 Y107.595 E.2085
G1 X119.612 Y107.671 E.00239
G1 X119.154 Y107.671 E.01438
G1 X114.382 Y102.899 E.21187
G1 X113.848 Y102.899 E.01676
G1 X118.62 Y107.671 E.21187
G1 X118.086 Y107.671 E.01676
G1 X113.314 Y102.899 E.21187
G1 X112.78 Y102.899 E.01676
G1 X117.552 Y107.671 E.21187
G1 X117.018 Y107.671 E.01676
G1 X112.246 Y102.899 E.21187
G1 X111.712 Y102.898 E.01676
G1 X116.484 Y107.671 E.21189
G1 X115.95 Y107.671 E.01676
G1 X111.178 Y102.898 E.21189
G1 X110.644 Y102.898 E.01676
G1 X115.416 Y107.671 E.21189
G1 X114.882 Y107.671 E.01676
G1 X110.11 Y102.898 E.21189
G1 X109.576 Y102.898 E.01676
G1 X114.348 Y107.671 E.21189
G1 X113.814 Y107.671 E.01676
G1 X109.042 Y102.898 E.21189
G1 X108.508 Y102.898 E.01676
G1 X113.28 Y107.671 E.21189
G1 X112.746 Y107.671 E.01676
G1 X107.974 Y102.898 E.21189
G1 X107.44 Y102.898 E.01676
G1 X112.213 Y107.671 E.21191
G1 X111.679 Y107.671 E.01676
G1 X106.906 Y102.898 E.21191
G1 X106.372 Y102.898 E.01676
G1 X111.145 Y107.671 E.21191
G1 X110.611 Y107.671 E.01676
G1 X105.838 Y102.898 E.21191
G1 X105.304 Y102.898 E.01676
G1 X110.077 Y107.671 E.21191
G1 X109.543 Y107.671 E.01676
G1 X104.77 Y102.897 E.21194
G1 X104.236 Y102.897 E.01676
G1 X109.009 Y107.671 E.21194
G1 X108.475 Y107.671 E.01676
G1 X103.702 Y102.897 E.21194
G1 X103.168 Y102.897 E.01676
G1 X107.941 Y107.671 E.21194
G1 X107.407 Y107.671 E.01676
G1 X102.633 Y102.897 E.21196
G1 X102.099 Y102.897 E.01676
G1 X106.873 Y107.671 E.21196
G1 X106.339 Y107.671 E.01676
G1 X101.565 Y102.897 E.21196
G1 X101.031 Y102.897 E.01676
G1 X105.805 Y107.671 E.21196
G1 X105.271 Y107.671 E.01676
G1 X100.497 Y102.897 E.21196
G1 X99.963 Y102.897 E.01676
G1 X104.737 Y107.671 E.21196
G1 X104.203 Y107.671 E.01676
G1 X99.429 Y102.897 E.21196
G1 X98.895 Y102.897 E.01676
G1 X103.669 Y107.671 E.21196
G1 X103.135 Y107.671 E.01676
G1 X98.361 Y102.897 E.21196
G1 X97.827 Y102.897 E.01676
G1 X102.601 Y107.671 E.21196
G1 X102.067 Y107.671 E.01676
G1 X97.293 Y102.896 E.21198
G1 X96.838 Y102.896 E.01428
G1 X96.838 Y102.975 E.00248
G1 X101.533 Y107.671 E.20847
G1 X100.999 Y107.671 E.01676
G1 X96.838 Y103.509 E.18476
G1 X96.838 Y104.043 E.01676
G1 X100.466 Y107.671 E.16108
G1 X99.932 Y107.671 E.01676
G1 X96.838 Y104.577 E.13737
G1 X96.838 Y105.111 E.01676
G1 X99.398 Y107.671 E.11366
G1 X98.864 Y107.671 E.01676
G1 X96.838 Y105.645 E.08995
G1 X96.838 Y106.179 E.01676
G1 X98.33 Y107.671 E.06624
G1 X97.796 Y107.671 E.01676
G1 X96.838 Y106.713 E.04253
G1 X96.838 Y107.247 E.01676
G1 X97.431 Y107.84 E.02633
M204 S1000
;WIPE_START
G1 F8640
G1 X96.838 Y107.247 E-.19364
G1 X96.838 Y106.713 E-.1233
G1 X97.796 Y107.671 E-.31283
G1 X98.33 Y107.671 E-.1233
G1 X98.186 Y107.527 E-.04693
;WIPE_END
G1 Z.6 F720
; stop printing object spring_holder_lower.stl id:2 copy 0
; printing object spring_holder_lower.stl id:1 copy 0
G1 X96.499 Y114.209 F10800
G1 Z.2 F720
G1 E.8 F2100
M204 S800
;TYPE:Perimeter
;WIDTH:0.419999
G1 F1200
G1 X119.952 Y114.213 E.73535
G1 X119.952 Y119.662 E.17085
G1 X96.499 Y119.662 E.73535
G1 X96.499 Y114.269 E.16909
M204 S1000
G1 X96.499 Y114.269 F10800
G1 X96.122 Y113.832
M204 S800
G1 F1200
G1 X120.329 Y113.836 E.75899
G1 X120.329 Y120.04 E.19452
G1 X96.122 Y120.04 E.75899
M73 P0 R139
G1 X96.122 Y113.892 E.19277
M73 P1 R139
M73 Q1 S139
M204 S1000
G1 X96.122 Y113.892 F10800
G1 X95.744 Y113.484
M204 S800
G1 F1200
G1 X95.771 Y113.455 E.00124
G1 X120.706 Y113.459 E.78182
G1 X120.706 Y120.417 E.21816
G1 X95.744 Y120.417 E.78266
G1 X95.744 Y113.544 E.2155
M204 S1000
G1 X95.744 Y113.544 F10800
G1 X95.37 Y113.171
M204 S800
;TYPE:External perimeter
G1 F1200
G1 X95.45 Y113.128 E.00285
G1 X95.744 Y113.078 E.00935
G1 X120.735 Y113.082 E.78357
G1 X121.035 Y113.143 E.0096
G1 X121.083 Y113.234 E.00323
G1 X121.083 Y120.794 E.23704
G1 X95.367 Y120.794 E.80631
G1 X95.37 Y113.231 E.23713
M204 S1000
;WIPE_START
G1 F8640
G1 X95.37 Y113.171 E-.01385
G1 X95.45 Y113.128 E-.02097
G1 X95.744 Y113.078 E-.06886
G1 X98.76 Y113.078 E-.69632
;WIPE_END
G1 Z.6 F720
G1 X119.019 Y114.382 F10800
G1 Z.2 F720
G1 E.8 F2100
M204 S800
;TYPE:Solid infill
;WIDTH:0.420483
G1 F1200
G1 X119.612 Y114.976 E.02635
G1 X119.612 Y115.51 E.01676
G1 X118.654 Y114.552 E.04253
G1 X118.12 Y114.552 E.01676
G1 X119.612 Y116.044 E.06624
G1 X119.612 Y116.578 E.01676
G1 X117.586 Y114.552 E.08995
G1 X117.052 Y114.552 E.01676
G1 X119.612 Y117.112 E.11366
G1 X119.612 Y117.646 E.01676
G1 X116.518 Y114.552 E.13737
G1 X115.984 Y114.551 E.01676
G1 X119.612 Y118.18 E.1611
G1 X119.612 Y118.714 E.01676
G1 X115.45 Y114.551 E.18481
G1 X114.916 Y114.551 E.01676
G1 X119.612 Y119.248 E.20852
G1 X119.612 Y119.323 E.00235
G1 X119.154 Y119.323 E.01438
G1 X114.382 Y114.551 E.21187
G1 X113.848 Y114.551 E.01676
G1 X118.62 Y119.323 E.21187
G1 X118.086 Y119.323 E.01676
G1 X113.314 Y114.551 E.21187
