; generated by PrusaSlicer 2.7.4 on 2024-04-15 at 15:33:55 UTC


;
;
; 

; external perimeters extrusion width = 0.45mm
; perimeters extrusion width = 0.45mm
; infill extrusion width = 0.45mm
; solid infill extrusion width = 0.45mm
; top infill extrusion width = 0.40mm
; first layer extrusion width = 0.42mm

; external perimeters extrusion width = 0.45mm
; perimeters extrusion width = 0.45mm
; infill extrusion width = 0.45mm
; solid infill extrusion width = 0.45mm
; top infill extrusion width = 0.40mm
; first layer extrusion width = 0.42mm

; external perimeters extrusion width = 0.45mm
; perimeters extrusion width = 0.45mm
; infill extrusion width = 0.45mm
; solid infill extrusion width = 0.45mm
; top infill extrusion width = 0.40mm
; first layer extrusion width = 0.42mm

; external perimeters extrusion width = 0.45mm
; perimeters extrusion width = 0.45mm
; infill extrusion width = 0.45mm
; solid infill extrusion width = 0.45mm
; top infill extrusion width = 0.40mm
; first layer extrusion width = 0.42mm

; external perimeters extrusion width = 0.45mm
; perimeters extrusion width = 0.45mm
; infill extrusion width = 0.45mm
; solid infill extrusion width = 0.45mm
; top infill extrusion width = 0.40mm
; first layer extrusion width = 0.42mm

; external perimeters extrusion width = 0.45mm
; perimeters extrusion width = 0.45mm
; infill extrusion width = 0.45mm
; solid infill extrusion width = 0.45mm
; top infill extrusion width = 0.40mm
; first layer extrusion width = 0.42mm

M73 P0 R125
M73 Q0 S125
M201 X1000 Y1000 Z200 E5000 ; sets maximum accelerations, mm/sec^2
M203 X200 Y200 Z12 E120 ; sets maximum feedrates, mm / sec
M204 S1250 T1250 ; sets acceleration (S) and retract acceleration (R), mm/sec^2
M205 X8.00 Y8.00 Z0.40 E4.50 ; sets the jerk limits, mm/sec
M205 S0 T0 ; sets the minimum extruding and travel feed rate, mm/sec

; printing object minipc_holder_right - Part 1.stl id:0 copy 0
; stop printing object minipc_holder_right - Part 1.stl id:0 copy 0
; printing object minipc_holder_right - Part 1.stl id:5 copy 0
; stop printing object minipc_holder_right - Part 1.stl id:5 copy 0
; printing object minipc_holder_right - Part 1.stl id:2 copy 0
; stop printing object minipc_holder_right - Part 1.stl id:2 copy 0
; printing object minipc_holder_right - Part 1.stl id:4 copy 0
; stop printing object minipc_holder_right - Part 1.stl id:4 copy 0
; printing object minipc_holder_right - Part 1.stl id:1 copy 0
; stop printing object minipc_holder_right - Part 1.stl id:1 copy 0
; printing object minipc_holder_right - Part 1.stl id:3 copy 0
; stop printing object minipc_holder_right - Part 1.stl id:3 copy 0

;TYPE:Custom
M862.3 P "MK3" ; printer model check
M862.1 P0.4 ; nozzle diameter check
M115 U3.13.3 ; tell printer latest fw version
G90 ; use absolute coordinates
M83 ; extruder relative mode
M104 S215 ; set extruder temp
M140 S60 ; set bed temp
M190 S60 ; wait for bed temp
M109 S215 ; wait for extruder temp
G28 W ; home all without mesh bed level
G80 X91.7594 Y74.2594 W70.9312 H61.4812 ; mesh bed levelling

G1 Z0.2 F720
G1 Y-3 F1000 ; go outside print area
G92 E0
G1 X60 E9 F1000 ; intro line
G1 X100 E12.5 F1000 ; intro line

G92 E0
M221 S95

; Don't change E values below. Excessive value can damage the printer.

M907 E538 ; set extruder motor current
G21 ; set units to millimeters
G90 ; use absolute coordinates
M83 ; use relative distances for extrusion

M900 K0.05 ; Filament gcode LA 1.5
M900 K30 ; Filament gcode LA 1.0




M107
;LAYER_CHANGE
;Z:0.2
;HEIGHT:0.2
G1 E-.8 F2100
G1 Z.6 F720
G1 X98.05 Y78.132 F10800
G1 Z.2 F720
G1 E.8 F2100
M204 S800
;TYPE:Skirt/Brim
;WIDTH:0.42
G1 F1200
G1 X101.037 Y75.144 E.13247
G1 X102.718 Y74.448 E.05705
G1 X157.137 Y74.448 E1.70627
G1 X158.818 Y75.144 E.05705
G1 X161.806 Y78.132 E.13249
G1 X162.502 Y79.813 E.05705
G1 X162.502 Y112.8 E1.03428
G1 X162.441 Y114.089 E.04046
G1 X162.17 Y115.839 E.05552
G1 X161.669 Y117.582 E.05686
G1 X156.335 Y131.063 E.45457
G1 X155.806 Y131.868 E.0302
G1 X152.818 Y134.856 E.13249
G1 X151.137 Y135.552 E.05705
G1 X97.313 Y135.552 E1.68761
G1 X95.632 Y134.856 E.05705
G1 X92.644 Y131.868 E.13249
G1 X91.948 Y130.187 E.05705
G1 X91.948 Y88.813 E1.29725
G1 X92.287 Y87.589 E.03982
G1 X97.693 Y78.589 E.32918
G1 X98.013 Y78.179 E.01631
M204 S1000
;WIPE_START
G1 F8640
G1 X98.05 Y78.132 E-.01381
G1 X100.457 Y75.724 E-.78619
;WIPE_END
G1 Z.6 F720
G1 X100.645 Y79.501 F10800
G1 Z.2 F720
G1 E.8 F2100
M204 S800
G1 F1200
G1 X101.144 Y78.827 E.02629
G1 X102.002 Y78.011 E.03713
G1 X103.099 Y77.427 E.03897
G1 X104.414 Y77.111 E.0424
G1 X113.416 Y77.115 E.28225
G1 X114.48 Y77.323 E.03399
G1 X115.515 Y77.787 E.03556
G1 X116.684 Y78.783 E.04815
G1 X117.377 Y79.84 E.03963
G1 X117.766 Y81.012 E.03872
G1 X117.822 Y86.904 E.18475
G1 X118.479 Y86.509 E.02404
G1 X119.757 Y86.146 E.04166
G1 X121.024 Y86.126 E.03973
G1 X121.076 Y81.112 E.15722
G1 X121.645 Y79.501 E.05357
G1 X122.15 Y78.821 E.02656
G1 X123.181 Y77.884 E.04368
G1 X124.101 Y77.426 E.03222
G1 X125.414 Y77.111 E.04234
G1 X134.414 Y77.115 E.28219
G1 X135.393 Y77.296 E.03122
G1 X136.6 Y77.84 E.04151
G1 X137.609 Y78.7 E.04157
G1 X138.35 Y79.785 E.0412
G1 X138.764 Y81.003 E.04034
G1 X138.819 Y86.906 E.18509
G1 X139.479 Y86.509 E.02415
G1 X140.757 Y86.146 E.04166
G1 X142.024 Y86.126 E.03973
G1 X142.076 Y81.112 E.15722
G1 X142.645 Y79.501 E.05357
G1 X143.15 Y78.821 E.02656
G1 X144.181 Y77.884 E.04368
G1 X145.101 Y77.426 E.03222
G1 X146.414 Y77.111 E.04234
G1 X155.416 Y77.115 E.28225
G1 X156.517 Y77.335 E.0352
G1 X157.548 Y77.808 E.03557
G1 X158.603 Y78.694 E.0432
G1 X159.372 Y79.831 E.04304
G1 X159.784 Y81.123 E.04252
M73 Q0 S124
G1 X159.83 Y88.684 E.23707
G1 X159.697 Y90.027 E.04231
G1 X159.439 Y91.244 E.03901
G1 X158.981 Y92.604 E.04499
G1 X158.34 Y93.93 E.04618
G1 X157.551 Y95.145 E.04542
G1 X156.598 Y96.272 E.04628
G1 X155.529 Y97.254 E.04551
G1 X154.386 Y98.069 E.04402
G1 X153.841 Y98.366 E.01946
G1 X153.84 Y101.68 E.10391
G1 X155.654 Y101.69 E.05688
G1 X156.778 Y101.981 E.0364
G1 X158.026 Y102.692 E.04503
G1 X158.759 Y103.422 E.03244
G1 X159.312 Y104.254 E.03132
G1 X159.839 Y106.038 E.05833
G1 X159.829 Y113.257 E.22635
G1 X159.703 Y114.535 E.04027
G1 X159.444 Y115.774 E.03969
G1 X158.989 Y117.133 E.04494
G1 X158.378 Y118.413 E.04447
G1 X157.614 Y119.609 E.0445
G1 X156.693 Y120.722 E.0453
G1 X155.636 Y121.716 E.04549
G1 X154.48 Y122.56 E.04488
G1 X153.84 Y122.912 E.0229
G1 X153.802 Y128.757 E.18327
G1 X153.222 Y130.48 E.057
G1 X152.778 Y131.099 E.02388
G1 X152.2 Y131.71 E.02637
G1 X150.907 Y132.516 E.04777
G1 X149.432 Y132.889 E.0477
G1 X140.606 Y132.83 E.27674
G1 X139.581 Y132.532 E.03347
G1 X138.823 Y132.145 E.02668
G1 X137.814 Y131.272 E.04183
G1 X137.069 Y130.149 E.04225
G1 X136.649 Y128.77 E.0452
G1 X136.626 Y119.598 E.28758
G1 X135.692 Y120.723 E.04585
G1 X134.654 Y121.701 E.04472
G1 X133.48 Y122.56 E.04561
G1 X132.84 Y122.912 E.0229
G1 X132.812 Y128.694 E.18129
G1 X132.328 Y130.265 E.05154
G1 X131.836 Y131.028 E.02847
G1 X131.076 Y131.81 E.03419
G1 X129.793 Y132.563 E.04664
G1 X128.431 Y132.889 E.04391
G1 X119.606 Y132.83 E.27671
G1 X118.581 Y132.532 E.03347
G1 X117.899 Y132.196 E.02384
G1 X116.811 Y131.269 E.04482
G1 X116.021 Y130.045 E.04568
G1 X115.634 Y128.663 E.045
G1 X115.626 Y119.598 E.28423
G1 X114.692 Y120.723 E.04585
G1 X113.654 Y121.701 E.04472
G1 X112.48 Y122.56 E.04561
G1 X111.84 Y122.912 E.0229
G1 X111.802 Y128.757 E.18327
G1 X111.247 Y130.431 E.0553
G1 X110.79 Y131.084 E.02499
G1 X110.036 Y131.842 E.03352
G1 X108.844 Y132.543 E.04336
G1 X107.43 Y132.889 E.04564
G1 X98.606 Y132.83 E.27668
G1 X97.581 Y132.532 E.03347
G1 X96.9 Y132.196 E.02381
G1 X95.85 Y131.313 E.04302
G1 X95.046 Y130.099 E.04565
G1 X94.633 Y128.663 E.04685
G1 X94.64 Y114.86 E.43278
G1 X94.852 Y113.935 E.02975
G1 X95.398 Y112.813 E.03912
G1 X96.355 Y111.756 E.04471
G1 X97.413 Y111.089 E.03921
G1 X98.695 Y110.705 E.04196
G1 X100.017 Y110.679 E.04146
G1 X100.017 Y108.326 E.07378
G1 X98.772 Y108.307 E.03904
G1 X97.489 Y107.944 E.04181
G1 X96.564 Y107.41 E.03349
G1 X95.774 Y106.678 E.03377
G1 X94.938 Y105.298 E.05059
G1 X94.612 Y103.943 E.0437
G1 X94.62 Y90.514 E.42106
G1 X94.768 Y89.65 E.02748
G1 X95.349 Y88.339 E.04496
G1 X96.374 Y87.191 E.04825
G1 X97.482 Y86.508 E.04081
G1 X98.649 Y86.162 E.03816
G1 X100.024 Y86.131 E.04312
G1 X100.076 Y81.112 E.15738
G1 X100.625 Y79.558 E.05168
M204 S1000
G1 X100.625 Y79.558 F10800
G1 X100.966 Y79.701
M204 S800
G1 F1200
G1 X101.417 Y79.088 E.02386
G1 X102.243 Y78.302 E.03575
G1 X103.212 Y77.787 E.03441
G1 X104.437 Y77.489 E.03953
G1 X113.397 Y77.492 E.28093
G1 X114.385 Y77.689 E.03159
G1 X115.335 Y78.119 E.0327
G1 X116.384 Y79.014 E.04324
G1 X117.027 Y79.983 E.03646
G1 X117.399 Y81.103 E.037
G1 X117.45 Y87.587 E.20331
G1 X118.609 Y86.864 E.04283
G1 X119.836 Y86.515 E.04
G1 X121.398 Y86.501 E.04898
G1 X121.442 Y81.206 E.16603
G1 X121.966 Y79.701 E.04997
G1 X122.419 Y79.086 E.02395
G1 X123.374 Y78.209 E.04065
G1 X124.212 Y77.787 E.02942
G1 X125.437 Y77.489 E.03953
G1 X134.396 Y77.492 E.2809
G1 X135.301 Y77.662 E.02887
G1 X136.377 Y78.146 E.03699
G1 X137.314 Y78.935 E.03841
G1 X138.002 Y79.934 E.03803
G1 X138.387 Y81.038 E.03666
G1 X138.449 Y87.587 E.20535
G1 X139.609 Y86.864 E.04286
G1 X140.836 Y86.515 E.04
G1 X142.398 Y86.501 E.04898
G1 X142.442 Y81.206 E.16603
G1 X142.966 Y79.701 E.04997
G1 X143.419 Y79.086 E.02395
G1 X144.374 Y78.209 E.04065
G1 X145.212 Y77.787 E.02942
G1 X146.437 Y77.489 E.03953
G1 X155.396 Y77.492 E.2809
G1 X156.421 Y77.7 E.03279
G1 X157.327 Y78.114 E.03123
G1 X158.307 Y78.929 E.03996
G1 X159.023 Y79.975 E.03974
G1 X159.408 Y81.155 E.03892
G1 X159.454 Y88.657 E.23522
G1 X159.323 Y89.98 E.04168
G1 X159.078 Y91.134 E.03699
G1 X158.636 Y92.451 E.04356
G1 X158.017 Y93.735 E.04469
G1 X157.255 Y94.911 E.04394
G1 X156.334 Y96.003 E.04479
G1 X155.3 Y96.954 E.04405
G1 X154.177 Y97.755 E.04325
G1 X153.464 Y98.14 E.02541
G1 X153.462 Y102.054 E.12272
G1 X155.628 Y102.067 E.06791
G1 X156.615 Y102.322 E.03196
G1 X157.779 Y102.978 E.04189
G1 X158.456 Y103.647 E.02984
G1 X158.982 Y104.439 E.02981
G1 X159.462 Y106.065 E.05316
G1 X159.452 Y113.229 E.22462
G1 X159.329 Y114.488 E.03966
G1 X159.083 Y115.665 E.0377
G1 X158.644 Y116.981 E.0435
G1 X158.053 Y118.221 E.04307
G1 X157.316 Y119.378 E.04301
G1 X156.426 Y120.456 E.04383
G1 X155.404 Y121.418 E.04401
G1 X154.268 Y122.248 E.04411
G1 X153.464 Y122.687 E.02872
G1 X153.434 Y128.667 E.1875
G1 X152.898 Y130.285 E.05344
G1 X152.495 Y130.849 E.02173
G1 X151.942 Y131.434 E.02524
G1 X150.785 Y132.158 E.04279
G1 X149.41 Y132.512 E.04452
G1 X140.636 Y132.453 E.27511
G1 X139.706 Y132.176 E.03043
G1 X139.052 Y131.845 E.02298
G1 X138.081 Y131.004 E.04028
G1 X137.4 Y129.966 E.03892
G1 X137.018 Y128.689 E.04179
G1 X137.003 Y118.808 E.30981
G1 X136.732 Y118.729 E.00885
G1 X136.302 Y119.398 E.02494
G1 X135.425 Y120.457 E.04311
G1 X134.404 Y121.419 E.04398
G1 X133.268 Y122.248 E.04409
G1 X132.464 Y122.687 E.02872
G1 X132.435 Y128.664 E.18741
G1 X131.976 Y130.127 E.04808
G1 X131.553 Y130.778 E.02434
G1 X130.823 Y131.529 E.03284
G1 X129.677 Y132.204 E.0417
G1 X128.41 Y132.512 E.04088
G1 X119.636 Y132.453 E.27511
G1 X118.705 Y132.176 E.03046
G1 X118.088 Y131.869 E.02161
G1 X117.078 Y131.001 E.04176
G1 X116.376 Y129.914 E.04057
G1 X116.011 Y128.636 E.04167
G1 X116.003 Y118.808 E.30815
G1 X115.732 Y118.728 E.00886
G1 X115.302 Y119.398 E.02496
G1 X114.425 Y120.457 E.04311
G1 X113.404 Y121.419 E.04398
G1 X112.268 Y122.248 E.04409
G1 X111.464 Y122.687 E.02872
G1 X111.434 Y128.667 E.1875
G1 X110.898 Y130.285 E.05344
G1 X110.492 Y130.852 E.02187
G1 X109.823 Y131.529 E.02984
G1 X108.677 Y132.204 E.0417
G1 X107.41 Y132.512 E.04088
G1 X98.636 Y132.453 E.27511
G1 X97.705 Y132.176 E.03046
G1 X97.089 Y131.869 E.02158
G1 X96.115 Y131.043 E.04004
G1 X95.377 Y129.917 E.04221
G1 X95.011 Y128.637 E.04174
G1 X95.012 Y114.922 E.43002
G1 X95.201 Y114.079 E.02709
G1 X95.725 Y113.002 E.03755
G1 X96.58 Y112.06 E.03989
G1 X97.547 Y111.443 E.03597
G1 X98.777 Y111.074 E.04026
G1 X100.394 Y111.052 E.0507
G1 X100.394 Y107.951 E.09723
G1 X98.85 Y107.937 E.04841
M73 P0 R124
G1 X97.615 Y107.588 E.04024
G1 X96.772 Y107.095 E.03062
G1 X96.081 Y106.458 E.02947
G1 X95.297 Y105.179 E.04704
G1 X94.989 Y103.92 E.04064
G1 X94.995 Y90.56 E.41889
G1 X95.123 Y89.78 E.02478
G1 X95.681 Y88.52 E.04321
G1 X96.635 Y87.464 E.04462
G1 X97.613 Y86.862 E.03601
G1 X98.731 Y86.531 E.03656
G1 X100.398 Y86.504 E.05227
G1 X100.442 Y81.206 E.16612
G1 X100.946 Y79.758 E.04807
M204 S1000
G1 X100.946 Y79.758 F10800
G1 X101.288 Y79.9
M204 S800
G1 F1200
G1 X101.689 Y79.349 E.02137
G1 X102.484 Y78.593 E.0344
G1 X103.325 Y78.148 E.02983
G1 X104.46 Y77.866 E.03667
G1 X113.378 Y77.869 E.27962
G1 X114.288 Y78.054 E.02912
G1 X115.154 Y78.451 E.02987
G1 X116.085 Y79.244 E.03834
G1 X116.698 Y80.17 E.03482
G1 X117.031 Y81.191 E.03367
G1 X117.079 Y88.593 E.23209
G1 X117.814 Y87.805 E.03379
G1 X118.739 Y87.219 E.03433
G1 X119.914 Y86.885 E.0383
G1 X121.773 Y86.877 E.05829
G1 X121.809 Y81.299 E.1749
G1 X122.288 Y79.9 E.04636
G1 X122.69 Y79.349 E.02139
G1 X123.569 Y78.532 E.03763
G1 X124.324 Y78.148 E.02656
G1 X125.46 Y77.866 E.0367
G1 X134.378 Y77.869 E.27962
G1 X135.208 Y78.028 E.0265
G1 X136.155 Y78.451 E.03252
G1 X137.051 Y79.207 E.03676
G1 X137.676 Y80.125 E.03482
G1 X138.021 Y81.131 E.03335
G1 X138.079 Y88.593 E.23397
G1 X138.814 Y87.805 E.03379
G1 X139.739 Y87.219 E.03433
G1 X140.914 Y86.885 E.0383
G1 X142.773 Y86.877 E.05829
G1 X142.809 Y81.299 E.1749
G1 X143.288 Y79.9 E.04636
G1 X143.69 Y79.349 E.02139
G1 X144.569 Y78.532 E.03763
G1 X145.324 Y78.148 E.02656
G1 X146.46 Y77.866 E.0367
G1 X155.378 Y77.869 E.27962
G1 X156.286 Y78.053 E.02905
G1 X157.108 Y78.422 E.02825
G1 X158.013 Y79.166 E.03673
G1 X158.674 Y80.121 E.03642
G1 X159.031 Y81.188 E.03528
G1 X159.077 Y88.629 E.23331
G1 X158.948 Y89.932 E.04105
G1 X158.717 Y91.025 E.03503
G1 X158.291 Y92.298 E.04209
G1 X157.694 Y93.54 E.04321
G1 X156.959 Y94.678 E.04248
G1 X156.07 Y95.734 E.04328
G1 X155.071 Y96.654 E.04258
G1 X153.968 Y97.441 E.04248
G1 X153.087 Y97.915 E.03137
G1 X153.085 Y102.429 E.14153
G1 X155.603 Y102.444 E.07895
G1 X156.453 Y102.663 E.02752
G1 X157.533 Y103.265 E.03877
G1 X158.176 Y103.901 E.02836
G1 X158.652 Y104.623 E.02711
G1 X159.085 Y106.091 E.04799
G1 X159.076 Y113.202 E.22296
G1 X158.955 Y114.441 E.03903
G1 X158.722 Y115.556 E.03572
G1 X158.298 Y116.83 E.0421
G1 X157.729 Y118.028 E.04158
G1 X157.018 Y119.148 E.0416
G1 X156.158 Y120.19 E.04236
G1 X155.172 Y121.121 E.04252
G1 X154.056 Y121.936 E.04333
G1 X153.087 Y122.463 E.03458
G1 X153.067 Y128.579 E.19176
G1 X152.574 Y130.091 E.04986
G1 X151.685 Y131.156 E.0435
G1 X150.611 Y131.823 E.03964
G1 X149.388 Y132.135 E.03957
G1 X140.667 Y132.076 E.27345
G1 X139.832 Y131.82 E.02738
G1 X139.279 Y131.543 E.01939
G1 X138.381 Y130.775 E.03705
G1 X137.731 Y129.783 E.03719
G1 X137.388 Y128.609 E.03835
G1 X137.379 Y117.348 E.35308
G1 X137.086 Y117.281 E.00942
G1 X136.706 Y118.069 E.02743
G1 X136.004 Y119.166 E.04084
G1 X135.142 Y120.207 E.04238
G1 X134.154 Y121.136 E.04252
G1 X133.056 Y121.936 E.0426
G1 X132.087 Y122.463 E.03458
G1 X132.067 Y128.578 E.19173
G1 X131.625 Y129.988 E.04633
G1 X131.248 Y130.555 E.02135
G1 X130.608 Y131.219 E.02892
G1 X129.558 Y131.845 E.03833
G1 X128.388 Y132.135 E.03779
G1 X119.667 Y132.076 E.27345
G1 X118.832 Y131.82 E.02738
G1 X118.279 Y131.543 E.01939
G1 X117.346 Y130.734 E.03872
G1 X116.709 Y129.735 E.03715
G1 X116.388 Y128.61 E.03668
G1 X116.379 Y117.348 E.35311
G1 X116.086 Y117.281 E.00942
G1 X115.706 Y118.069 E.02743
G1 X115.004 Y119.166 E.04084
G1 X114.142 Y120.207 E.04238
G1 X113.154 Y121.136 E.04252
G1 X112.056 Y121.936 E.0426
G1 X111.087 Y122.463 E.03458
G1 X111.067 Y128.579 E.19176
G1 X110.574 Y130.091 E.04986
G1 X110.212 Y130.6 E.01958
G1 X109.608 Y131.219 E.02712
G1 X108.558 Y131.845 E.03833
G1 X107.388 Y132.135 E.03779
G1 X98.667 Y132.076 E.27345
G1 X97.832 Y131.82 E.02738
G1 X97.279 Y131.543 E.01939
G1 X96.381 Y130.775 E.03705
G1 X95.731 Y129.783 E.03719
G1 X95.388 Y128.609 E.03835
G1 X95.385 Y114.982 E.42727
G1 X95.55 Y114.224 E.02432
G1 X96.052 Y113.191 E.03601
