; generated by PrusaSlicer 2.7.4 on 2024-04-16 at 10:30:22 UTC


;
;
; 

; external perimeters extrusion width = 0.45mm
; perimeters extrusion width = 0.45mm
; infill extrusion width = 0.45mm
; solid infill extrusion width = 0.45mm
; top infill extrusion width = 0.40mm
; first layer extrusion width = 0.42mm

M73 P0 R79
M73 Q0 S79
M201 X1000 Y1000 Z200 E5000 ; sets maximum accelerations, mm/sec^2
M203 X200 Y200 Z12 E120 ; sets maximum feedrates, mm / sec
M204 S1250 T1250 ; sets acceleration (S) and retract acceleration (R), mm/sec^2
M205 X8.00 Y8.00 Z0.40 E4.50 ; sets the jerk limits, mm/sec
M205 S0 T0 ; sets the minimum extruding and travel feed rate, mm/sec

; printing object 3D-print_lower_leg_back_spacer.stl id:0 copy 0
; stop printing object 3D-print_lower_leg_back_spacer.stl id:0 copy 0

;TYPE:Custom
M862.3 P "MK3" ; printer model check
M862.1 P0.4 ; nozzle diameter check
M115 U3.13.3 ; tell printer latest fw version
G90 ; use absolute coordinates
M83 ; extruder relative mode
M104 S215 ; set extruder temp
M140 S60 ; set bed temp
M190 S60 ; wait for bed temp
M109 S215 ; wait for extruder temp
G28 W ; home all without mesh bed level
G80 X93.9344 Y76.4344 W62.1312 H57.1312 ; mesh bed levelling

G1 Z0.2 F720
G1 Y-3 F1000 ; go outside print area
G92 E0
G1 X60 E9 F1000 ; intro line
G1 X100 E12.5 F1000 ; intro line

G92 E0
M221 S95

; Don't change E values below. Excessive value can damage the printer.

M907 E538 ; set extruder motor current
G21 ; set units to millimeters
G90 ; use absolute coordinates
M83 ; use relative distances for extrusion

M900 K0.05 ; Filament gcode LA 1.5
M900 K30 ; Filament gcode LA 1.0




M107
;LAYER_CHANGE
;Z:0.2
;HEIGHT:0.2
G1 E-.8 F2100
G1 Z.6 F720
G1 X94.515 Y77.693 F10800
G1 Z.2 F720
G1 E.8 F2100
M204 S800
;TYPE:Skirt/Brim
;WIDTH:0.42
G1 F1200
G1 X95.56 Y76.817 E.04275
G1 X96.5 Y76.623 E.03009
G1 X153.5 Y76.623 E1.78719
G1 X154.807 Y77.015 E.04278
G1 X155.683 Y78.06 E.04275
G1 X155.877 Y79 E.03009
G1 X155.877 Y131 E1.63042
G1 X155.485 Y132.307 E.04278
M73 P0 R78
G1 X154.44 Y133.183 E.04275
G1 X153.5 Y133.377 E.03009
G1 X96.5 Y133.377 E1.78719
G1 X95.193 Y132.985 E.04278
G1 X94.317 Y131.94 E.04275
G1 X94.123 Y131 E.03009
G1 X94.123 Y79 E1.63042
G1 X94.497 Y77.75 E.04091
M204 S1000
;WIPE_START
G1 F8640
G1 X94.515 Y77.693 E-.0138
G1 X95.56 Y76.817 E-.31486
G1 X96.5 Y76.623 E-.22162
G1 X97.581 Y76.623 E-.24972
;WIPE_END
G1 Z.6 F720
; printing object 3D-print_lower_leg_back_spacer.stl id:0 copy 0
G1 X98.041 Y80.541 F10800
G1 Z.2 F720
G1 E.8 F2100
M204 S800
;TYPE:Perimeter
;WIDTH:0.419999
G1 F1200
G1 X151.959 Y80.541 E1.69056
G1 X151.959 Y88.588 E.25231
G1 X151.959 Y129.459 E1.28148
G1 X98.041 Y129.459 E1.69056
G1 X98.041 Y80.601 E1.53191
M204 S1000
G1 X98.041 Y80.601 F10800
G1 X97.664 Y80.164
M204 S800
G1 F1200
G1 X152.336 Y80.164 E1.7142
G1 X152.336 Y88.588 E.26413
G1 X152.336 Y129.836 E1.2933
G1 X97.664 Y129.836 E1.7142
G1 X97.664 Y80.224 E1.55555
M204 S1000
G1 X97.664 Y80.224 F10800
G1 X97.287 Y79.787
M204 S800
G1 F1200
G1 X152.713 Y79.787 E1.73784
G1 X152.713 Y88.588 E.27595
G1 X152.713 Y130.213 E1.30512
G1 X97.287 Y130.213 E1.73784
G1 X97.287 Y79.847 E1.57919
M73 P1 R78
M73 Q1 S79
M204 S1000
G1 X96.91 Y79.41 F10800
M204 S800
;TYPE:External perimeter
G1 F1200
G1 X153.09 Y79.41 E1.76148
G1 X153.09 Y88.588 E.28777
G1 X153.09 Y130.59 E1.31694
G1 X96.91 Y130.59 E1.76148
G1 X96.91 Y79.47 E1.60283
M73 Q1 S78
M204 S1000
;WIPE_START
G1 F8640
G1 X96.91 Y79.41 E-.01385
G1 X100.315 Y79.41 E-.78615
;WIPE_END
G1 Z.6 F720
G1 X123.022 Y103.639 F10800
G1 Z.2 F720
G1 E.8 F2100
M204 S800
;TYPE:Perimeter
G1 F1200
G1 X123.226 Y103.721 E.00689
G1 X123.83 Y103.906 E.01981
G1 X124.35 Y103.985 E.01649
G1 X125.151 Y104.039 E.02517
G1 X125.961 Y103.951 E.02555
G1 X126.448 Y103.824 E.01578
G1 X126.982 Y103.628 E.01784
G1 X126.847 Y104.161 E.01724
G1 X126.803 Y104.662 E.01577
G1 X126.783 Y105.253 E.01854
G1 X126.888 Y106.055 E.02536
G1 X126.962 Y106.354 E.00966
G1 X126.17 Y106.094 E.02614
G1 X125.651 Y106.015 E.01646
G1 X124.84 Y105.961 E.02548
G1 X124.039 Y106.049 E.02527
G1 X123.551 Y106.176 E.01581
G1 X123.018 Y106.372 E.01781
G1 X123.153 Y105.84 E.01721
G1 X123.221 Y104.776 E.03343
G1 X123.151 Y104.132 E.02031
G1 X123.037 Y103.697 E.0141
M204 S1000
;WIPE_START
G1 F8640
G1 X123.022 Y103.639 E-.01383
G1 X123.226 Y103.721 E-.05077
G1 X123.83 Y103.906 E-.14586
G1 X124.35 Y103.985 E-.12145
G1 X125.151 Y104.039 E-.18537
G1 X125.961 Y103.951 E-.18813
G1 X126.358 Y103.848 E-.09459
;WIPE_END
G1 Z.6 F720
G1 X124.048 Y103.561 F10800
G1 Z.2 F720
G1 E.8 F2100
M204 S800
G1 F1200
G1 X124.39 Y103.61 E.01083
G1 X125.119 Y103.663 E.02292
G1 X125.866 Y103.586 E.02355
G1 X126.628 Y103.374 E.0248
G1 X127.302 Y103.062 E.02329
G1 X127.752 Y102.747 E.01722
G1 X127.587 Y103.034 E.01038
G1 X127.465 Y103.346 E.0105
G1 X127.222 Y104.193 E.02763
G1 X127.152 Y104.999 E.02537
G1 X127.195 Y105.495 E.01561
G1 X127.304 Y106.185 E.0219
G1 X127.511 Y106.799 E.02032
G1 X127.744 Y107.239 E.01561
G1 X127.327 Y106.959 E.01575
G1 X126.664 Y106.64 E.02307
G1 X126.06 Y106.455 E.01981
G1 X125.612 Y106.39 E.01419
G1 X124.872 Y106.337 E.02326
G1 X124.134 Y106.414 E.02327
G1 X123.372 Y106.626 E.0248
G1 X122.698 Y106.938 E.02329
G1 X122.247 Y107.254 E.01727
G1 X122.413 Y106.966 E.01042
G1 X122.535 Y106.654 E.0105
G1 X122.778 Y105.807 E.02763
G1 X122.846 Y104.817 E.03111
G1 X122.738 Y103.993 E.02606
G1 X122.495 Y103.221 E.02538
G1 X122.256 Y102.761 E.01625
G1 X122.695 Y103.052 E.01651
G1 X123.337 Y103.36 E.02233
G1 X123.94 Y103.545 E.01978
G1 X123.989 Y103.552 E.00155
M204 S1000
;WIPE_START
G1 F8640
G1 X124.048 Y103.561 E-.01378
G1 X124.39 Y103.61 E-.07978
G1 X125.119 Y103.663 E-.16877
G1 X125.866 Y103.586 E-.1734
G1 X126.628 Y103.374 E-.18263
G1 X127.302 Y103.062 E-.17149
G1 X127.338 Y103.037 E-.01015
;WIPE_END
G1 Z.6 F720
G1 X114.478 Y114.639 F10800
G1 Z.2 F720
G1 E.8 F2100
M204 S800
G1 F1200
G1 X113.932 Y114.826 E.0181
G1 X113.424 Y114.956 E.01644
G1 X112.64 Y115.04 E.02472
G1 X111.759 Y114.989 E.02767
G1 X110.928 Y114.792 E.02678
G1 X110.141 Y114.457 E.02682
G1 X109.172 Y113.792 E.03685
G1 X103.479 Y108.783 E.23776
G1 X102.833 Y108.086 E.0298
G1 X102.26 Y107.155 E.03428
G1 X101.903 Y106.121 E.0343
G1 X101.779 Y105.224 E.02839
G1 X101.816 Y104.349 E.02746
G1 X102.067 Y103.313 E.03342
G1 X102.544 Y102.328 E.03431
G1 X103.221 Y101.469 E.03429
G1 X103.361 Y101.326 E.00627
G1 X109.171 Y96.208 E.24277
G1 X109.923 Y95.668 E.02903
G1 X110.717 Y95.283 E.02767
G1 X111.539 Y95.049 E.0268
G1 X112.381 Y94.958 E.02655
G1 X113.02 Y95.001 E.02008
G1 X113.67 Y95.094 E.02059
G1 X114.274 Y95.279 E.01981
G1 X114.478 Y95.361 E.00689
G1 X114.351 Y94.876 E.01572
G1 X114.279 Y94.226 E.0205
G1 X114.31 Y93.577 E.02037
G1 X114.401 Y92.884 E.02192
G1 X114.644 Y92.109 E.02547
G1 X115.057 Y91.304 E.02837
G1 X115.722 Y90.469 E.03347
G1 X115.862 Y90.325 E.0063
G1 X121.671 Y85.208 E.24272
G1 X122.264 Y84.764 E.02323
G1 X123.191 Y84.295 E.03257
G1 X124.039 Y84.049 E.02768
G1 X124.881 Y83.958 E.02655
G1 X125.922 Y84.044 E.03275
G1 X126.774 Y84.279 E.02771
G1 X127.545 Y84.647 E.02679
G1 X128.328 Y85.208 E.0302
G1 X134.021 Y90.217 E.23776
G1 X134.667 Y90.913 E.02977
G1 X135.239 Y91.845 E.03429
G1 X135.537 Y92.686 E.02798
G1 X135.649 Y93.124 E.01418
G1 X135.721 Y93.774 E.0205
G1 X135.653 Y94.839 E.03346
G1 X135.517 Y95.378 E.01743
G1 X136.052 Y95.176 E.01793
G1 X136.539 Y95.049 E.01578
G1 X137.183 Y94.975 E.02033
G1 X137.632 Y94.96 E.01409
G1 X138.422 Y95.044 E.02491
G1 X139.274 Y95.279 E.02771
G1 X140.045 Y95.647 E.02679
G1 X140.828 Y96.208 E.0302
G1 X146.521 Y101.217 E.23776
G1 X147.167 Y101.914 E.0298
G1 X147.74 Y102.845 E.03428
G1 X148.097 Y103.879 E.0343
G1 X148.221 Y104.776 E.02839
G1 X148.184 Y105.651 E.02746
G1 X147.933 Y106.687 E.03342
G1 X147.456 Y107.672 E.03431
G1 X146.779 Y108.531 E.03429
G1 X146.639 Y108.674 E.00627
G1 X140.829 Y113.792 E.24277
G1 X140.236 Y114.236 E.02323
G1 X139.482 Y114.637 E.02678
G1 X138.67 Y114.906 E.02682
G1 X137.64 Y115.04 E.03257
G1 X136.947 Y115.005 E.02176
G1 X136.539 Y114.951 E.0129
G1 X135.928 Y114.792 E.0198
G1 X135.534 Y114.635 E.0133
G1 X135.627 Y115.058 E.01358
G1 X135.717 Y115.747 E.02179
G1 X135.685 Y116.475 E.02285
G1 X135.598 Y117.121 E.02044
G1 X135.355 Y117.892 E.02535
G1 X135.239 Y118.155 E.00901
G1 X134.836 Y118.856 E.02535
G1 X134.26 Y119.553 E.02835
G1 X128.329 Y124.792 E.24812
G1 X127.577 Y125.332 E.02903
M73 P1 R77
G1 X126.783 Y125.717 E.02767
G1 X125.961 Y125.951 E.0268
G1 X125.112 Y126.042 E.02677
G1 X124.259 Y125.989 E.0268
G1 X123.428 Y125.792 E.02678
G1 X122.648 Y125.461 E.02657
G1 X121.783 Y124.88 E.03267
G1 X115.979 Y119.783 E.24219
G1 X115.333 Y119.087 E.02977
G1 X114.761 Y118.155 E.03429
G1 X114.446 Y117.306 E.02839
G1 X114.294 Y116.342 E.0306
G1 X114.29 Y115.806 E.01681
G1 X114.347 Y115.161 E.0203
G1 X114.463 Y114.697 E.015
M204 S1000
;WIPE_START
G1 F8640
G1 X114.478 Y114.639 E-.01383
G1 X113.932 Y114.826 E-.13326
G1 X113.424 Y114.956 E-.12108
G1 X112.64 Y115.04 E-.18206
G1 X111.759 Y114.989 E-.20377
G1 X111.144 Y114.843 E-.146
;WIPE_END
G1 Z.6 F720
G1 X111.688 Y114.588 F10800
G1 Z.2 F720
G1 E.8 F2100
M204 S800
G1 F1200
G1 X111.023 Y114.427 E.02145
G1 X110.297 Y114.114 E.02479
G1 X109.421 Y113.509 E.03338
G1 X103.728 Y108.5 E.23776
G1 X103.111 Y107.832 E.02851
G1 X102.587 Y106.966 E.03174
G1 X102.262 Y106.008 E.03172
G1 X102.154 Y105.183 E.02609
G1 X102.193 Y104.373 E.02543
G1 X102.431 Y103.41 E.0311
G1 X102.878 Y102.502 E.03173
G1 X103.511 Y101.711 E.03176
G1 X109.42 Y96.491 E.24721
G1 X110.141 Y95.976 E.02778
G1 X110.872 Y95.626 E.02541
G1 X111.634 Y95.414 E.0248
G1 X112.413 Y95.334 E.02455
G1 X112.981 Y95.376 E.01786
G1 X113.56 Y95.455 E.01832
G1 X114.163 Y95.64 E.01978
G1 X114.807 Y95.949 E.0224
G1 X115.244 Y96.239 E.01644
G1 X115.005 Y95.78 E.01623
G1 X114.764 Y95.015 E.02515
G1 X114.691 Y94.518 E.01575
G1 X114.652 Y93.999 E.01632
G1 X114.722 Y93.194 E.02534
G1 X115.002 Y92.228 E.03153
G1 X115.388 Y91.484 E.02628
G1 X116.011 Y90.711 E.03113
G1 X121.92 Y85.491 E.24721
G1 X122.489 Y85.067 E.02225
G1 X123.354 Y84.635 E.03032
G1 X124.134 Y84.414 E.02542
G1 X124.913 Y84.334 E.02455
G1 X125.883 Y84.419 E.03053
G1 X126.664 Y84.64 E.02545
G1 X127.375 Y84.983 E.02475
G1 X128.017 Y85.441 E.02473
G1 X133.772 Y90.5 E.24025
G1 X134.388 Y91.168 E.02849
G1 X134.913 Y92.033 E.03173
G1 X135.178 Y92.8 E.02544
G1 X135.274 Y93.165 E.01183
G1 X135.346 Y93.815 E.0205
G1 X135.278 Y94.807 E.03118
G1 X134.995 Y95.779 E.03174
G1 X134.756 Y96.239 E.01625
G1 X135.193 Y95.951 E.01641
G1 X135.854 Y95.635 E.02297
G1 X136.634 Y95.414 E.02542
G1 X137.215 Y95.351 E.01832
G1 X137.592 Y95.335 E.01183
G1 X138.383 Y95.419 E.02494
G1 X139.163 Y95.64 E.02542
G1 X139.875 Y95.983 E.02478
G1 X140.579 Y96.491 E.02722
G1 X146.272 Y101.5 E.23776
G1 X146.889 Y102.168 E.02851
G1 X147.413 Y103.034 E.03174
G1 X147.738 Y103.992 E.03172
G1 X147.846 Y104.817 E.02609
G1 X147.807 Y105.627 E.02543
G1 X147.569 Y106.59 E.0311
G1 X147.122 Y107.498 E.03173
G1 X146.489 Y108.289 E.03176
G1 X140.58 Y113.509 E.24721
G1 X140.011 Y113.933 E.02225
G1 X139.312 Y114.301 E.02477
G1 X138.56 Y114.545 E.02479
G1 X137.6 Y114.665 E.03033
G1 X136.979 Y114.629 E.0195
G1 X136.634 Y114.586 E.0109
G1 X136.023 Y114.427 E.0198
G1 X135.303 Y114.117 E.02458
G1 X134.747 Y113.746 E.02096
G1 X134.989 Y114.201 E.01616
G1 X135.196 Y114.815 E.02032
G1 X135.335 Y115.733 E.02911
G1 X135.348 Y116.001 E.00841
G1 X135.278 Y116.807 E.02537
G1 X134.995 Y117.779 E.03174
G1 X134.509 Y118.667 E.03174
G1 X133.889 Y119.392 E.02991
G1 X128.08 Y124.509 E.24272
G1 X127.359 Y125.024 E.02778
G1 X126.628 Y125.374 E.02541
G1 X125.866 Y125.586 E.0248
G1 X125.08 Y125.667 E.02477
G1 X124.291 Y125.613 E.0248
G1 X123.523 Y125.427 E.02478
G1 X122.803 Y125.117 E.02458
G1 X122 Y124.572 E.03043
G1 X116.228 Y119.5 E.24092
G1 X115.612 Y118.832 E.02849
G1 X115.087 Y117.967 E.03173
G1 X114.803 Y117.185 E.02609
G1 X114.668 Y116.293 E.02829
G1 X114.666 Y115.839 E.01423
G1 X114.722 Y115.194 E.0203
G1 X115.002 Y114.228 E.03153
G1 X115.232 Y113.77 E.01607
G1 X114.798 Y114.055 E.01628
G1 X114.312 Y114.301 E.01708
G1 X113.822 Y114.465 E.0162
G1 X113.384 Y114.581 E.01421
G1 X112.6 Y114.665 E.02472
G1 X111.791 Y114.613 E.02542
G1 X111.746 Y114.602 E.00145
M204 S1000
G1 X111.746 Y114.602 F10800
G1 X111.77 Y114.224
M204 S800
G1 F1200
G1 X111.118 Y114.062 E.02106
G1 X110.452 Y113.77 E.0228
G1 X109.717 Y113.263 E.028
G1 X103.977 Y108.216 E.23965
G1 X103.39 Y107.578 E.02718
G1 X102.914 Y106.778 E.02919
G1 X102.622 Y105.895 E.02916
G1 X102.529 Y105.142 E.02379
G1 X102.569 Y104.398 E.02336
G1 X102.796 Y103.508 E.0288
G1 X103.213 Y102.675 E.02921
G1 X103.8 Y101.953 E.02918
G1 X109.67 Y96.774 E.24544
G1 X110.358 Y96.283 E.0265
G1 X111.027 Y95.97 E.02316
G1 X111.729 Y95.779 E.02281
G1 X112.445 Y95.709 E.02256
G1 X113.343 Y95.794 E.02828
G1 X114.039 Y95.996 E.02272
G1 X114.637 Y96.285 E.02082
;WIDTH:0.430689
G1 X115.296 Y96.74 E.02582
;WIDTH:0.460712
G1 X115.423 Y96.83 E.00541
;WIDTH:0.490735
G1 X115.551 Y96.921 E.00585
G1 X116.141 Y97.47 E.03001
;WIDTH:0.446704
G1 X116.204 Y97.527 E.00285
;WIDTH:0.44438
G1 X121.031 Y101.774 E.21462
;WIDTH:0.490754
G1 X121.636 Y102.398 E.03236
G1 X121.855 Y102.799 E.01701
;WIDTH:0.455377
G1 X122.073 Y103.2 E.01565
;WIDTH:0.419999
G1 X122.301 Y103.862 E.02195
G1 X122.401 Y104.214 E.01147
G1 X122.471 Y104.858 E.02031
G1 X122.402 Y105.774 E.0288
G1 X122.175 Y106.541 E.02508
G1 X122.086 Y106.778 E.00794
;WIDTH:0.437821
G1 X121.777 Y107.333 E.02086
;WIDTH:0.464848
G1 X121.711 Y107.463 E.00511
;WIDTH:0.491874
G1 X121.645 Y107.593 E.00544
G1 X121.203 Y108.066 E.02417
;WIDTH:0.449651
G1 X121.149 Y108.118 E.00254
;WIDTH:0.446333
G1 X116.085 Y112.579 E.22638
;WIDTH:0.479358
G1 X115.748 Y112.898 E.01684
;WIDTH:0.512383
G1 X115.411 Y113.216 E.01809
G1 X115.099 Y113.423 E.01462
;WIDTH:0.466191
G1 X114.787 Y113.63 E.01318
;WIDTH:0.419999
G1 X114.142 Y113.964 E.02277
G1 X113.45 Y114.185 E.02278
G1 X112.65 Y114.28 E.02526
G1 X111.828 Y114.238 E.02581
M204 S1000
G1 X111.828 Y114.238 F10800
G1 X111.855 Y113.862
M204 S800
;TYPE:External perimeter
G1 F1200
G1 X111.213 Y113.697 E.02078
G1 X110.607 Y113.426 E.02081
G1 X109.935 Y112.955 E.02573
G1 X104.226 Y107.933 E.2384
G1 X103.668 Y107.324 E.0259
G1 X103.241 Y106.59 E.02662
G1 X102.982 Y105.781 E.02663
G1 X102.904 Y105.102 E.02143
G1 X102.945 Y104.423 E.02133
G1 X103.16 Y103.605 E.02652
G1 X103.548 Y102.849 E.02664
G1 X104.109 Y102.175 E.0275
G1 X109.919 Y97.057 E.24277
G1 X110.576 Y96.591 E.02526
G1 X111.183 Y96.314 E.02092
G1 X111.824 Y96.144 E.02079
G1 X112.477 Y96.085 E.02056
G1 X113.304 Y96.169 E.02606
G1 X113.928 Y96.356 E.02042
G1 X114.467 Y96.622 E.01885
G1 X115.069 Y97.047 E.02311
G1 X120.774 Y102.067 E.23827
G1 X121.332 Y102.676 E.0259
G1 X121.747 Y103.388 E.02584
G1 X122.026 Y104.255 E.02856
G1 X122.097 Y104.902 E.02041
G1 X122.026 Y105.741 E.0264
G1 X121.759 Y106.59 E.02791
G1 X121.356 Y107.291 E.02535
G1 X120.891 Y107.826 E.02223
G1 X115.081 Y112.943 E.24275
G1 X114.563 Y113.326 E.0202
G1 X113.972 Y113.627 E.0208
G1 X113.339 Y113.824 E.02079
G1 X112.61 Y113.905 E.023
G1 X111.915 Y113.865 E.02183
M204 S1000
;WIPE_START
G1 F8640
G1 X111.855 Y113.862 E-.01387
G1 X111.213 Y113.697 E-.15306
G1 X110.607 Y113.426 E-.15328
G1 X109.935 Y112.955 E-.18948
G1 X108.991 Y112.125 E-.29031
;WIPE_END
G1 Z.6 F720
G1 X115.137 Y115.095 F10800
G1 Z.2 F720
G1 E.8 F2100
M204 S800
;TYPE:Perimeter
G1 F1200
G1 X115.362 Y114.341 E.02467
;WIDTH:0.449075
G1 X115.527 Y113.996 E.01292
;WIDTH:0.47815
G1 X115.693 Y113.651 E.01386
;WIDTH:0.512383
G1 X115.746 Y113.543 E.0047
G1 X116.017 Y113.243 E.01578
;WIDTH:0.481619
G1 X116.288 Y112.943 E.01475
;WIDTH:0.450854
G1 X116.351 Y112.882 E.00297
;WIDTH:0.446333
G1 X121.415 Y108.421 E.22638
;WIDTH:0.491874
G1 X121.963 Y107.909 E.028
G1 X122.349 Y107.64 E.01756
;WIDTH:0.455937
G1 X122.736 Y107.37 E.01621
;WIDTH:0.419999
G1 X122.952 Y107.23 E.00807
G1 X123.527 Y106.97 E.01979
G1 X124.229 Y106.779 E.02281
G1 X124.905 Y106.713 E.0213
G1 X125.572 Y106.765 E.02098
G1 X125.95 Y106.815 E.01196
G1 X126.553 Y107 E.01978
G1 X127.157 Y107.296 E.02109
