; HEADER_BLOCK_START
; generated by OrcaSlicer 2.1.1 on 2024-10-18 at 18:47:07
; total layer number: 17
; filament_density: 1.24
; filament_diameter: 1.75
; max_z_height: 5.10
; HEADER_BLOCK_END

; THUMBNAIL_BLOCK_START

;
; THUMBNAIL_BLOCK_END

; external perimeters extrusion width = 0.40mm
; perimeters extrusion width = 0.44mm
; infill extrusion width = 0.44mm
; solid infill extrusion width = 0.48mm
; top infill extrusion width = 0.38mm
; first layer extrusion width = 0.48mm

; EXECUTABLE_BLOCK_START
M73 P0 R149
M201 X2000 Y2000 Z300 E5000
M203 X200 Y200 Z12 E120
M204 P2000 R2500 T2000
M205 X9.00 Y9.00 Z0.20 E2.50 ; sets the jerk limits, mm/sec
;TYPE:Custom
M862.3 P "MK3S" ; printer model check
M862.1 P0.4 ; nozzle diameter check
M115 U3.13.0 ; tell printer latest fw version
G90 ; use absolute coordinates
M83 ; extruder relative mode
M104 S220 ; set extruder temp
M140 S60 ; set bed temp
M190 S60 ; wait for bed temp
M109 S220 ; wait for extruder temp
G28 W ; home all without mesh bed level
G80 ; mesh bed leveling

G1 Z0.2 F720
G1 Y-3 F1000 ; go outside print area
G92 E0
G1 X60 E9 F1000 ; intro line
G1 X100 E12.5 F1000 ; intro line

G92 E0
M221 S95
G90
G21
M83 ; use relative distances for extrusion
; filament start gcode
M900 K0.05 ; Filament gcode LA 1.5
M900 K30 ; Filament gcode LA 1.0
M106 S0
;LAYER_CHANGE
;Z:0.3
;HEIGHT:0.3
;BEFORE_LAYER_CHANGE
;0.3
G92 E0

G1 E-.8 F1800
;AFTER_LAYER_CHANGE
;0.3
;_SET_FAN_SPEED_CHANGING_LAYER
M204 S500
; printing object robot - hip_reinforcement.step id:129302792203040 copy 0
G1 X46.459 Y152.586 F10800
G1 Z.4
G1 Z.3
G1 E.8 F1800
;TYPE:Brim
;WIDTH:0.48
G1 F1200
G1 X48.692 Y152.292 E.11441
G1 X48.692 Y163 E.54398
G1 X48.748 Y163.768 E.0391
G1 X48.84 Y164.244 E.02466
G1 X48.98 Y164.724 E.02541
G1 X49.288 Y165.443 E.03972
G1 X49.684 Y166.089 E.03847
G1 X49.984 Y166.47 E.02466
G1 X50.328 Y166.833 E.02541
G1 X50.907 Y167.313 E.03822
G1 X51.579 Y167.723 E.03998
G1 X52.281 Y168.021 E.03872
G1 X53.015 Y168.215 E.03857
G1 X53.508 Y168.285 E.02529
G1 X53.988 Y168.308 E.02441
G1 X64.122 Y168.308 E.51483
G1 X63.896 Y170.023 E.08788
G1 X62.474 Y173.457 E.18881
G1 X60.211 Y176.405 E.18881
G1 X57.263 Y178.668 E.18881
G1 X53.829 Y180.09 E.18881
G1 X50.144 Y180.575 E.18881
G1 X46.459 Y180.09 E.18881
G1 X43.026 Y178.668 E.18881
G1 X40.077 Y176.405 E.18881
G1 X37.814 Y173.457 E.18881
G1 X36.392 Y170.023 E.18881
G1 X35.907 Y166.338 E.18881
G1 X36.392 Y162.653 E.18881
G1 X37.814 Y159.219 E.18881
G1 X40.077 Y156.271 E.18881
G1 X43.026 Y154.008 E.18881
G1 X46.422 Y152.601 E.18678
G1 X46.553 Y152.997 F10800
G1 F1200
G1 X48.136 Y152.785 E.08114
G1 X48.239 Y152.819 E.00553
G1 X48.277 Y152.908 E.00492
G1 X48.277 Y162.995 E.51244
G1 X48.342 Y163.853 E.04371
G1 X48.443 Y164.366 E.02654
G1 X48.579 Y164.834 E.02476
G1 X48.903 Y165.599 E.04221
G1 X49.362 Y166.351 E.04477
G1 X49.686 Y166.76 E.02653
G1 X50.022 Y167.114 E.02477
G1 X50.636 Y167.628 E.04064
G1 X51.356 Y168.073 E.04302
G1 X52.11 Y168.4 E.04179
G1 X52.964 Y168.628 E.04488
G1 X53.444 Y168.695 E.02463
G1 X53.965 Y168.723 E.0265
G1 X63.506 Y168.723 E.48467
G1 X63.604 Y168.771 E.00553
G1 X63.629 Y168.864 E.00492
G1 X63.485 Y169.929 E.0546
G1 X62.117 Y173.232 E.18158
G1 X59.925 Y176.096 E.18322
G1 X57.038 Y178.311 E.18486
G1 X53.704 Y179.687 E.18322
G1 X50.16 Y180.154 E.18158
G1 X46.584 Y179.687 E.18322
G1 X43.222 Y178.295 E.18486
G1 X40.386 Y176.119 E.18158
G1 X38.188 Y173.26 E.18322
G1 X36.795 Y169.898 E.18486
G1 X36.328 Y166.354 E.18158
G1 X36.795 Y162.778 E.18322
G1 X38.188 Y159.416 E.18486
G1 X40.363 Y156.58 E.18158
G1 X43.222 Y154.381 E.18322
G1 X46.516 Y153.013 E.18119
G1 X46.647 Y153.408 F10800
G1 F1200
G1 X47.72 Y153.26 E.05502
G1 X47.823 Y153.294 E.00553
G1 X47.861 Y153.383 E.00494
G1 X47.861 Y162.99 E.48805
G1 X47.935 Y163.941 E.04844
G1 X48.034 Y164.441 E.0259
G1 X48.178 Y164.943 E.02653
G1 X48.553 Y165.823 E.04856
G1 X49.041 Y166.616 E.04731
G1 X49.358 Y167.015 E.02588
G1 X49.716 Y167.395 E.02657
G1 X50.362 Y167.941 E.04296
G1 X51.13 Y168.422 E.04602
G1 X51.937 Y168.778 E.04483
G1 X52.913 Y169.04 E.05135
G1 X53.428 Y169.111 E.02638
G1 X53.94 Y169.137 E.02607
G1 X63.03 Y169.139 E.46176
G1 X63.128 Y169.186 E.00553
G1 X63.154 Y169.28 E.00495
G1 X63.074 Y169.835 E.02847
G1 X61.76 Y173.007 E.17443
G1 X59.638 Y175.786 E.17763
G1 X56.842 Y177.938 E.17925
G1 X53.58 Y179.284 E.17927
M73 P0 R148
G1 X50.144 Y179.732 E.17602
G1 X46.709 Y179.284 E.176
G1 X43.419 Y177.922 E.1809
G1 X40.673 Y175.809 E.176
G1 X38.561 Y173.063 E.176
G1 X37.198 Y169.773 E.1809
G1 X36.75 Y166.338 E.176
G1 X37.198 Y162.903 E.176
G1 X38.561 Y159.613 E.1809
G1 X40.673 Y156.867 E.176
G1 X43.419 Y154.754 E.17601
G1 X46.61 Y153.424 E.17562
G1 X46.742 Y153.819 F10800
G1 F1200
G1 X47.304 Y153.737 E.02882
G1 X47.407 Y153.771 E.00553
G1 X47.445 Y153.86 E.00496
G1 X47.445 Y162.985 E.46357
G1 X47.529 Y164.028 E.05316
G1 X47.636 Y164.561 E.02759
G1 X47.777 Y165.051 E.0259
G1 X48.167 Y165.977 E.05107
G1 X48.683 Y166.828 E.05055
G1 X49.029 Y167.27 E.0285
G1 X49.409 Y167.676 E.02825
G1 X50.088 Y168.253 E.04527
G1 X50.902 Y168.77 E.04898
G1 X51.762 Y169.155 E.04785
G1 X52.865 Y169.453 E.05807
G1 X53.366 Y169.522 E.02572
G1 X53.916 Y169.552 E.02795
G1 X62.551 Y169.555 E.43866
G1 X62.649 Y169.602 E.00553
G1 X62.666 Y169.727 E.0064
G1 X61.403 Y172.783 E.16799
G1 X59.351 Y175.477 E.17205
G1 X56.617 Y177.581 E.17527
G1 X53.455 Y178.881 E.17365
G1 X50.16 Y179.311 E.16883
G1 X46.833 Y178.881 E.17041
G1 X43.616 Y177.549 E.17694
G1 X40.982 Y175.523 E.16879
G1 X38.934 Y172.866 E.17041
G1 X37.601 Y169.649 E.17694
G1 X37.171 Y166.354 E.16879
G1 X37.601 Y163.027 E.17041
G1 X38.934 Y159.809 E.17694
G1 X40.959 Y157.176 E.16879
G1 X43.616 Y155.127 E.17046
G1 X46.705 Y153.834 E.1701
G1 X46.857 Y154.226 F10800
G1 F1200
G1 X46.966 Y154.232 E.00553
G1 X47.03 Y154.341 E.00642
G1 X47.03 Y162.981 E.4389
G1 X47.114 Y164.055 E.05473
G1 X47.238 Y164.68 E.0324
G1 X47.396 Y165.218 E.02849
G1 X47.816 Y166.2 E.05426
G1 X48.361 Y167.09 E.05298
G1 X48.699 Y167.522 E.02787
G1 X49.101 Y167.954 E.03002
G1 X49.872 Y168.608 E.05135
G1 X50.74 Y169.153 E.05202
G1 X51.662 Y169.558 E.0512
G1 X52.749 Y169.852 E.0572
G1 X53.349 Y169.937 E.03077
G1 X53.919 Y169.968 E.02902
G1 X61.929 Y169.97 E.40693
G1 X62.027 Y170.018 E.00553
G1 X62.045 Y170.142 E.0064
G1 X61.03 Y172.587 E.13447
G1 X59.041 Y175.192 E.16648
G1 X56.392 Y177.224 E.16962
G1 X53.331 Y178.478 E.16802
G1 X50.144 Y178.89 E.16328
G1 X46.958 Y178.478 E.1632
G1 X43.812 Y177.176 E.17296
G1 X41.268 Y175.213 E.16322
G1 X39.306 Y172.669 E.1632
G1 X38.004 Y169.524 E.17296
G1 X37.592 Y166.338 E.16322
G1 X38.004 Y163.152 E.1632
G1 X39.307 Y160.006 E.17296
G1 X41.269 Y157.462 E.16322
G1 X43.814 Y155.499 E.1633
G1 X46.82 Y154.241 E.16553
G1 X46.55 Y154.856 F10800
G1 F1200
G1 X46.614 Y154.965 E.00643
G1 X46.614 Y162.976 E.40694
G1 X46.699 Y164.08 E.05626
G1 X46.841 Y164.803 E.03742
G1 X47.017 Y165.388 E.03103
G1 X47.466 Y166.425 E.05742
G1 X48.038 Y167.351 E.05531
G1 X48.398 Y167.808 E.02956
G1 X48.792 Y168.232 E.02938
G1 X49.659 Y168.965 E.05767
G1 X50.58 Y169.536 E.05509
G1 X51.562 Y169.962 E.05439
G1 X52.633 Y170.252 E.05636
G1 X53.332 Y170.352 E.03585
G1 X53.922 Y170.384 E.03004
G1 X61.307 Y170.385 E.37515
G1 X61.405 Y170.433 E.00553
G1 X61.422 Y170.558 E.00641
G1 X60.657 Y172.391 E.1009
G1 X58.731 Y174.906 E.16091
G1 X56.196 Y176.85 E.16231
G1 X53.239 Y178.067 E.16242
G1 X50.16 Y178.469 E.15777
G1 X47.082 Y178.075 E.15762
G1 X44.009 Y176.803 E.16897
G1 X41.577 Y174.927 E.15602
G1 X39.679 Y172.472 E.15762
G1 X38.415 Y169.431 E.16732
G1 X38.013 Y166.354 E.15768
G1 X38.407 Y163.276 E.15762
G1 X39.663 Y160.232 E.16732
G1 X41.578 Y157.749 E.15929
G1 X44.012 Y155.871 E.15616
G1 X46.441 Y154.85 E.13387
G1 X46.51 Y154.854 E.0035
G1 X46.134 Y155.482 F10800
G1 F1200
G1 X46.198 Y155.591 E.00643
G1 X46.198 Y162.971 E.37492
G1 X46.284 Y164.105 E.05776
G1 X46.445 Y164.928 E.04262
G1 X46.638 Y165.559 E.03352
G1 X47.117 Y166.65 E.06053
G1 X47.716 Y167.614 E.05766
G1 X48.069 Y168.062 E.02896
G1 X48.483 Y168.51 E.03098
G1 X49.384 Y169.277 E.06011
G1 X50.353 Y169.885 E.05816
G1 X51.463 Y170.366 E.06141
G1 X52.518 Y170.651 E.05552
G1 X53.316 Y170.768 E.04097
G1 X53.925 Y170.799 E.03102
G1 X60.683 Y170.801 E.34331
G1 X60.781 Y170.848 E.00553
G1 X60.798 Y170.974 E.00642
G1 X60.284 Y172.194 E.06726
G1 X58.421 Y174.619 E.15537
G1 X55.972 Y176.493 E.15669
G1 X53.147 Y177.656 E.15518
G1 X50.175 Y178.048 E.15226
G1 X47.207 Y177.672 E.15202
G1 X44.206 Y176.43 E.16498
G1 X41.864 Y174.618 E.15045
G1 X40.052 Y172.275 E.15044
G1 X38.826 Y169.338 E.16168
G1 X38.434 Y166.369 E.15214
G1 X38.81 Y163.4 E.15203
G1 X40.02 Y160.457 E.16166
G1 X41.887 Y158.035 E.15535
G1 X44.21 Y156.244 E.14904
G1 X46.025 Y155.476 E.10013
G1 X46.094 Y155.48 E.0035
G1 X45.718 Y156.109 F10800
G1 F1200
G1 X45.783 Y156.218 E.00645
G1 X45.783 Y162.966 E.34284
G1 X45.869 Y164.129 E.05923
G1 X46.035 Y165.001 E.04511
G1 X46.26 Y165.733 E.03886
G1 X46.733 Y166.809 E.05973
G1 X47.359 Y167.828 E.06075
G1 X47.767 Y168.347 E.03354
G1 X48.218 Y168.831 E.0336
G1 X49.17 Y169.633 E.06324
G1 X50.196 Y170.27 E.06136
G1 X51.362 Y170.769 E.06444
G1 X52.464 Y171.063 E.05795
G1 X53.25 Y171.178 E.04032
G1 X53.929 Y171.215 E.03454
G1 X60.057 Y171.216 E.31134
G1 X60.155 Y171.264 E.00553
G1 X60.172 Y171.389 E.00644
G1 X59.912 Y171.996 E.03351
G1 X58.135 Y174.309 E.1482
G1 X55.747 Y176.136 E.15273
G1 X53.023 Y177.253 E.1496
G1 X50.158 Y177.627 E.14675
G1 X47.299 Y177.261 E.14646
G1 X44.403 Y176.057 E.15929
G1 X42.15 Y174.309 E.14487
G1 X40.408 Y172.049 E.14495
G1 X39.229 Y169.213 E.15606
G1 X38.856 Y166.352 E.14656
G1 X39.222 Y163.492 E.14649
G1 X40.377 Y160.682 E.15433
G1 X42.173 Y158.344 E.14979
G1 X44.409 Y156.615 E.14355
G1 X45.61 Y156.103 E.06633
G1 X45.678 Y156.107 E.0035
G1 X45.302 Y156.738 F10800
G1 F1200
G1 X45.367 Y156.847 E.00646
G1 X45.367 Y162.962 E.31065
G1 X45.454 Y164.153 E.06068
G1 X45.626 Y165.073 E.04752
G1 X45.883 Y165.906 E.0443
G1 X46.349 Y166.969 E.05894
G1 X47.002 Y168.04 E.06372
G1 X47.467 Y168.635 E.03837
G1 X47.956 Y169.153 E.03618
G1 X48.958 Y169.991 E.06639
G1 X50.041 Y170.655 E.06455
G1 X51.191 Y171.148 E.06352
G1 X52.411 Y171.475 E.06422
G1 X53.184 Y171.589 E.03966
G1 X53.932 Y171.63 E.03806
G1 X59.415 Y171.632 E.27854
G1 X59.513 Y171.679 E.00553
G1 X59.514 Y171.832 E.00778
G1 X57.849 Y174 E.13882
G1 X55.523 Y175.779 E.14876
G1 X52.899 Y176.85 E.14401
G1 X50.142 Y177.205 E.14123
G1 X47.391 Y176.849 E.1409
G1 X44.601 Y175.684 E.1536
G1 X42.437 Y174 E.13928
G1 X40.765 Y171.824 E.13946
G1 X39.632 Y169.088 E.15044
G1 X39.277 Y166.335 E.14097
G1 X39.633 Y163.584 E.14096
G1 X40.734 Y160.907 E.14704
G1 X42.46 Y158.653 E.14424
G1 X44.608 Y156.986 E.1381
G1 X45.194 Y156.732 E.03243
G1 X45.262 Y156.736 E.0035
G1 X44.857 Y157.38 F10800
G1 F1200
G1 X44.952 Y157.501 E.0078
G1 X44.952 Y162.957 E.27722
G1 X45.039 Y164.177 E.06211
G1 X45.216 Y165.142 E.04986
G1 X45.505 Y166.08 E.04984
G1 X45.965 Y167.128 E.05817
G1 X46.643 Y168.25 E.06659
G1 X47.168 Y168.925 E.04343
G1 X47.694 Y169.476 E.03871
G1 X48.748 Y170.35 E.06956
G1 X49.816 Y171.005 E.06365
G1 X51.019 Y171.526 E.0666
G1 X52.358 Y171.888 E.07047
G1 X53.166 Y172.004 E.04146
G1 X53.935 Y172.046 E.03913
G1 X58.572 Y172.047 E.23554
G1 X58.67 Y172.095 E.00553
G1 X58.671 Y172.248 E.00778
G1 X57.54 Y173.713 E.09402
G1 X55.328 Y175.405 E.14146
G1 X52.776 Y176.447 E.14005
G1 X50.158 Y176.784 E.13411
G1 X47.516 Y176.446 E.13528
G1 X44.799 Y175.312 E.14958
G1 X42.725 Y173.692 E.1337
G1 X41.138 Y171.627 E.13233
G1 X40.035 Y168.963 E.14646
G1 X39.698 Y166.32 E.13539
G1 X40.045 Y163.676 E.13545
G1 X41.091 Y161.131 E.13979
G1 X42.748 Y158.961 E.1387
G1 X44.75 Y157.402 E.12893
G1 X44.818 Y157.388 E.0035
G1 X44.441 Y158.23 F10800
G1 F1200
G1 X44.536 Y158.351 E.00781
G1 X44.536 Y162.953 E.2338
G1 X44.624 Y164.2 E.06351
G1 X44.806 Y165.21 E.05213
G1 X45.127 Y166.253 E.05545
G1 X45.581 Y167.288 E.0574
G1 X46.284 Y168.459 E.06938
G1 X46.837 Y169.175 E.04596
G1 X47.435 Y169.8 E.04395
G1 X48.476 Y170.664 E.06875
G1 X49.592 Y171.355 E.06664
G1 X50.846 Y171.904 E.06955
G1 X52.307 Y172.3 E.07689
G1 X53.102 Y172.414 E.0408
G1 X53.909 Y172.461 E.0411
G1 X57.726 Y172.463 E.19391
G1 X57.824 Y172.51 E.00553
G1 X57.825 Y172.663 E.00779
G1 X57.231 Y173.426 E.04908
G1 X55.133 Y175.031 E.1342
G1 X52.653 Y176.043 E.13609
G1 X50.142 Y176.363 E.1286
G1 X47.642 Y176.043 E.12805
G1 X44.998 Y174.939 E.14554
G1 X43.035 Y173.407 E.12652
G1 X41.511 Y171.43 E.1268
G1 X40.438 Y168.839 E.14248
G1 X40.119 Y166.304 E.12978
G1 X40.447 Y163.8 E.12831
G1 X41.464 Y161.327 E.13586
G1 X43.058 Y159.246 E.13314
G1 X44.335 Y158.252 E.08218
G1 X44.402 Y158.238 E.0035
G1 X44.026 Y159.08 F10800
G1 F1200
G1 X44.12 Y159.201 E.00781
G1 X44.12 Y162.949 E.19039
G1 X44.209 Y164.223 E.06489
G1 X44.396 Y165.277 E.05436
G1 X44.728 Y166.369 E.05801
G1 X45.198 Y167.448 E.05978
G1 X45.924 Y168.667 E.07207
G1 X46.504 Y169.424 E.04846
G1 X47.175 Y170.125 E.04929
G1 X48.205 Y170.979 E.06796
G1 X49.366 Y171.704 E.06954
G1 X50.671 Y172.281 E.07251
G1 X52.191 Y172.699 E.08008
G1 X53.038 Y172.825 E.04348
G1 X53.882 Y172.876 E.04298
G1 X56.876 Y172.878 E.1521
G1 X56.974 Y172.925 E.00553
G1 X56.974 Y173.079 E.00781
G1 X56.923 Y173.138 E.00396
G1 X54.909 Y174.673 E.12866
G1 X52.561 Y175.632 E.12883
G1 X50.126 Y175.942 E.12472
G1 X47.734 Y175.631 E.12252
G1 X45.225 Y174.584 E.13815
G1 X43.322 Y173.099 E.12261
G1 X41.867 Y171.205 E.12134
G1 X40.85 Y168.747 E.13514
G1 X40.54 Y166.289 E.12584
G1 X40.859 Y163.893 E.12283
G1 X41.821 Y161.551 E.12863
G1 X43.346 Y159.554 E.12763
G1 X43.919 Y159.103 E.03706
G1 X43.986 Y159.088 E.0035
G1 E-.56 F1800
;WIPE_START
G1 F1200
G1 X44.12 Y159.201 E-.04202
G1 X44.12 Y160.026 E-.19798
;WIPE_END
G1 X43.578 Y160.013 Z.7 F10800
G1 Z.3
G1 E.8 F1800
G1 F1200
G1 X43.677 Y160.059 E.00553
G1 X43.705 Y160.138 E.00424
G1 X43.705 Y162.944 E.14258
G1 X43.794 Y164.246 E.06625
G1 X43.985 Y165.342 E.05654
G1 X44.35 Y166.541 E.06369
G1 X44.845 Y167.667 E.06248
G1 X45.563 Y168.873 E.07132
G1 X46.208 Y169.716 E.05393
G1 X46.915 Y170.449 E.05171
G1 X47.992 Y171.336 E.07085
G1 X49.138 Y172.052 E.06867
G1 X50.57 Y172.684 E.07952
G1 X52.074 Y173.098 E.07924
G1 X52.971 Y173.235 E.04613
G1 X53.885 Y173.291 E.04652
G1 X55.666 Y173.293 E.09044
G1 X55.764 Y173.34 E.00553
G1 X55.787 Y173.446 E.00553
G1 X55.741 Y173.516 E.00424
G1 X54.686 Y174.316 E.06726
G1 X52.47 Y175.22 E.12159
G1 X50.111 Y175.521 E.12083
G1 X47.828 Y175.22 E.11698
G1 X45.452 Y174.228 E.13079
G1 X43.61 Y172.791 E.11869
G1 X42.224 Y170.98 E.11586
G1 X41.262 Y168.655 E.12783
G1 X40.961 Y166.275 E.12188
G1 X41.27 Y163.986 E.11733
G1 X42.179 Y161.775 E.12146
G1 X43.481 Y160.062 E.1093
G1 X43.542 Y160.031 E.0035
G1 E-.56 F1800
;WIPE_START
G1 F1200
G1 X43.677 Y160.059 E-.03294
G1 X43.705 Y160.138 E-.02005
G1 X43.705 Y160.917 E-.18702
;WIPE_END
G1 X43.162 Y161.246 Z.7 F10800
G1 Z.3
G1 E.8 F1800
G1 F1200
G1 X43.261 Y161.292 E.00553
G1 X43.289 Y161.371 E.00426
G1 X43.289 Y162.94 E.07972
G1 X43.379 Y164.268 E.0676
G1 X43.575 Y165.406 E.05866
G1 X43.972 Y166.715 E.06952
G1 X44.491 Y167.886 E.06508
G1 X45.202 Y169.08 E.07058
G1 X45.874 Y169.964 E.0564
G1 X46.611 Y170.733 E.0541
G1 X47.721 Y171.652 E.07323
G1 X48.911 Y172.4 E.07139
G1 X50.394 Y173.061 E.08247
G1 X52.018 Y173.51 E.08562
G1 X52.952 Y173.651 E.04796
G1 X53.857 Y173.706 E.04606
G1 X54.43 Y173.707 E.02912
G1 X54.527 Y173.755 E.00553
G1 X54.551 Y173.861 E.00553
G1 X54.477 Y173.947 E.00576
G1 X52.347 Y174.817 E.11686
G1 X50.128 Y175.1 E.11367
G1 X47.953 Y174.817 E.11138
G1 X45.679 Y173.873 E.12511
G1 X43.898 Y172.484 E.11475
G1 X42.581 Y170.756 E.11037
G1 X41.673 Y168.563 E.12054
G1 X41.382 Y166.293 E.11629
G1 X41.681 Y164.08 E.11345
G1 X42.536 Y161.998 E.11433
G1 X43.065 Y161.296 E.04467
G1 X43.127 Y161.264 E.0035
G1 E-.56 F1800
;WIPE_START
G1 F1200
G1 X43.261 Y161.292 E-.03294
G1 X43.289 Y161.371 E-.0201
G1 X43.289 Y162.15 E-.18696
;WIPE_END
G1 X42.822 Y162.801 Z.7 F10800
G1 Z.3
G1 E.8 F1800
G1 F1200
G1 X42.874 Y162.902 E.00577
G1 X42.964 Y164.29 E.07064
G1 X43.164 Y165.469 E.06075
G1 X43.573 Y166.829 E.07215
