; HEADER_BLOCK_START
; generated by OrcaSlicer 2.1.1 on 2024-07-11 at 17:00:35
; total layer number: 5
; filament_density: 1.24
; filament_diameter: 1.75
; max_z_height: 1.00
; HEADER_BLOCK_END

; THUMBNAIL_BLOCK_START

;
; THUMBNAIL_BLOCK_END

; external perimeters extrusion width = 0.45mm
; perimeters extrusion width = 0.45mm
; infill extrusion width = 0.45mm
; solid infill extrusion width = 0.45mm
; top infill extrusion width = 0.40mm
; first layer extrusion width = 0.42mm

; external perimeters extrusion width = 0.45mm
; perimeters extrusion width = 0.45mm
; infill extrusion width = 0.45mm
; solid infill extrusion width = 0.45mm
; top infill extrusion width = 0.40mm
; first layer extrusion width = 0.42mm

; external perimeters extrusion width = 0.45mm
; perimeters extrusion width = 0.45mm
; infill extrusion width = 0.45mm
; solid infill extrusion width = 0.45mm
; top infill extrusion width = 0.40mm
; first layer extrusion width = 0.42mm

; external perimeters extrusion width = 0.45mm
; perimeters extrusion width = 0.45mm
; infill extrusion width = 0.45mm
; solid infill extrusion width = 0.45mm
; top infill extrusion width = 0.40mm
; first layer extrusion width = 0.42mm

; external perimeters extrusion width = 0.45mm
; perimeters extrusion width = 0.45mm
; infill extrusion width = 0.45mm
; solid infill extrusion width = 0.45mm
; top infill extrusion width = 0.40mm
; first layer extrusion width = 0.42mm

; external perimeters extrusion width = 0.45mm
; perimeters extrusion width = 0.45mm
; infill extrusion width = 0.45mm
; solid infill extrusion width = 0.45mm
; top infill extrusion width = 0.40mm
; first layer extrusion width = 0.42mm

; EXECUTABLE_BLOCK_START
M73 P0 R15
M201 X2000 Y2000 Z300 E5000
M203 X200 Y200 Z12 E120
M204 P2000 R2500 T2000
M205 X9.00 Y9.00 Z0.20 E2.50 ; sets the jerk limits, mm/sec
;TYPE:Custom
M862.3 P "MK3S" ; printer model check
M862.1 P0.4 ; nozzle diameter check
M115 U3.13.0 ; tell printer latest fw version
G90 ; use absolute coordinates
M83 ; extruder relative mode
M104 S240 ; set extruder temp
M140 S35 ; set bed temp
M190 S35 ; wait for bed temp
M109 S240 ; wait for extruder temp
G28 W ; home all without mesh bed level
G80 ; mesh bed leveling

G1 Z0.2 F720
G1 Y-3 F1000 ; go outside print area
G92 E0
G1 X60 E9 F1000 ; intro line
G1 X100 E12.5 F1000 ; intro line

G92 E0
M221 S95
G90
G21
M83 ; use relative distances for extrusion
; filament start gcode
M106 S0
;LAYER_CHANGE
;Z:0.2
;HEIGHT:0.2
;BEFORE_LAYER_CHANGE
;0.2
G92 E0

G1 E-.4 F1800
;AFTER_LAYER_CHANGE
;0.2
;_SET_FAN_SPEED_CHANGING_LAYER
M204 S800
G1 X74.969 Y53.863 F10800
G1 Z.4 F720
G1 Z.2
G1 E.4 F1800
;TYPE:Skirt
;WIDTH:0.42
G1 F2545.881
G1 X75.87 Y53.006 E.03898
G1 X76.932 Y52.361 E.03897
G1 X77.965 Y51.992 E.03439
G1 X79.196 Y51.817 E.03898
G1 X157.059 Y51.813 E2.44134
G1 X158.93 Y52.018 E.05903
G1 X159.798 Y52.251 E.02819
G1 X160.814 Y52.645 E.03416
G1 X173.546 Y59.263 E.4499
G1 X174.544 Y60.004 E.03898
M73 P1 R15
G1 X175.361 Y60.941 E.03898
G1 X175.96 Y62.03 E.03898
G1 X176.313 Y63.222 E.03898
G1 X176.408 Y64.204 E.03093
G1 X176.407 Y152.48 E2.76783
G1 X176.306 Y153.47 E.0312
G1 X176.036 Y154.428 E.0312
G1 X175.607 Y155.326 E.0312
G1 X175.031 Y156.137 E.0312
G1 X174.13 Y156.994 E.03898
G1 X173.068 Y157.639 E.03897
G1 X172.035 Y158.008 E.03439
G1 X170.804 Y158.183 E.03898
G1 X92.544 Y158.176 E2.45381
G1 X90.683 Y157.889 E.05903
G1 X89.092 Y157.311 E.05308
G1 X76.717 Y150.883 E.43725
G1 X75.721 Y150.226 E.03739
G1 X74.849 Y149.341 E.03898
G1 X74.185 Y148.29 E.03898
G1 X73.76 Y147.121 E.03898
G1 X73.592 Y145.796 E.04189
G1 X73.593 Y57.52 E2.76783
G1 X73.694 Y56.53 E.0312
G1 X73.964 Y55.572 E.0312
G1 X74.393 Y54.674 E.0312
G1 X74.945 Y53.895 E.02995
; printing object Kabelführung - Bungee.stl id:0 copy 0
G1 E-.28 F1800
;WIPE_START
G1 F2545.881
G1 X75.666 Y53.202 E-.12
;WIPE_END
G1 X83.271 Y53.854 Z.6 F10800
G1 X140.401 Y58.751 Z.6
G1 Z.2 F720
G1 E.4 F1800
;TYPE:Outer wall
;WIDTH:0.419999
G1 F1200
G1 X140.251 Y58.221 E.01728
G1 X140.194 Y57.672 E.01729
G1 X140.231 Y57.122 E.01729
G1 X140.362 Y56.587 E.01729
G1 X140.583 Y56.081 E.01729
G1 X140.886 Y55.621 E.01729
G1 X141.264 Y55.22 E.01729
G1 X141.705 Y54.889 E.01729
G1 X142.196 Y54.638 E.01729
G1 X142.723 Y54.474 E.01729
G1 X143.259 Y54.404 E.01696
G1 X157.147 Y54.4 E.43544
G1 X157.859 Y54.462 E.02241
G1 X158.42 Y54.561 E.01786
G1 X158.97 Y54.708 E.01786
G1 X159.51 Y54.905 E.01802
G1 X160.026 Y55.139 E.01777
G1 X171.786 Y61.258 E.41564
G1 X172.254 Y61.51 E.01668
M73 P2 R15
G1 X172.717 Y61.849 E.01798
G1 X173.099 Y62.245 E.01726
G1 X173.408 Y62.701 E.01725
G1 X173.634 Y63.203 E.01726
G1 X173.771 Y63.736 E.01725
G1 X173.815 Y64.284 E.01726
G1 X173.783 Y64.758 E.01488
G1 X173.652 Y65.293 E.01729
G1 X173.431 Y65.799 E.01729
G1 X173.127 Y66.259 E.01729
G1 X172.75 Y66.66 E.01729
G1 X172.309 Y66.991 E.01729
G1 X171.818 Y67.242 E.01729
G1 X171.291 Y67.406 E.01729
G1 X170.74 Y67.477 E.01742
G1 X156.861 Y67.48 E.43517
G1 X156.167 Y67.42 E.02183
G1 X155.6 Y67.319 E.01806
G1 X155.037 Y67.17 E.01828
G1 X154.458 Y66.957 E.01934
G1 X153.987 Y66.741 E.01625
G1 X141.807 Y60.403 E.43052
G1 X141.351 Y60.085 E.01742
G1 X140.959 Y59.697 E.01729
G1 X140.647 Y59.261 E.01684
G1 X140.418 Y58.787 E.01649
G1 X140.777 Y58.619 F10800
;TYPE:Inner wall
G1 F1200
G1 X140.662 Y58.291 E.01091
G1 X140.59 Y57.835 E.01448
G1 X140.596 Y57.314 E.01633
G1 X140.683 Y56.86 E.01449
G1 X140.867 Y56.373 E.01632
G1 X141.104 Y55.976 E.01449
G1 X141.442 Y55.58 E.01633
G1 X141.801 Y55.288 E.0145
G1 X142.282 Y55.017 E.01733
G1 X142.761 Y54.857 E.01584
G1 X143.284 Y54.781 E.01655
G1 X157.135 Y54.777 E.43428
G1 X157.81 Y54.836 E.02125
G1 X158.338 Y54.929 E.01683
G1 X158.857 Y55.068 E.01683
G1 X159.366 Y55.253 E.01699
G1 X159.856 Y55.475 E.01687
G1 X171.842 Y61.713 E.42366
G1 X172.362 Y62.045 E.01932
G1 X172.699 Y62.361 E.01451
G1 X173.014 Y62.776 E.01633
G1 X173.24 Y63.222 E.01568
G1 X173.391 Y63.731 E.01663
G1 X173.439 Y64.259 E.01662
G1 X173.412 Y64.655 E.01247
G1 X173.306 Y65.117 E.01485
G1 X173.116 Y65.577 E.01561
G1 X172.858 Y65.983 E.01507
G1 X172.528 Y66.346 E.01539
G1 X172.151 Y66.638 E.01496
G1 X171.731 Y66.863 E.01492
G1 X171.253 Y67.023 E.01581
G1 X170.716 Y67.1 E.01702
G1 X156.873 Y67.103 E.43402
G1 X156.216 Y67.046 E.02068
G1 X155.681 Y66.951 E.01705
G1 X155.15 Y66.81 E.01721
G1 X154.652 Y66.629 E.01661
G1 X154.157 Y66.404 E.01707
G1 X142.219 Y60.192 E.42193
G1 X141.735 Y59.893 E.01786
M73 P2 R14
G1 X141.386 Y59.59 E.01448
G1 X141.058 Y59.187 E.0163
G1 X140.835 Y58.783 E.01447
G1 X140.791 Y58.657 E.0042
G1 E-.28 F1800
;WIPE_START
G1 F1200
G1 X140.662 Y58.291 E-.04654
G1 X140.59 Y57.835 E-.05544
G1 X140.591 Y57.684 E-.01802
;WIPE_END
G1 X148.115 Y58.971 Z.6 F10800
G1 X170.732 Y62.838 Z.6
G1 Z.2 F720
G1 E.4 F1800
;TYPE:Outer wall
G1 F1200
G1 X171.246 Y62.989 E.01677
G1 X171.65 Y63.293 E.01586
G1 X171.915 Y63.696 E.01514
G1 X172.032 Y64.165 E.01516
G1 X171.985 Y64.647 E.01518
G1 X171.779 Y65.088 E.01525
G1 X171.423 Y65.441 E.01574
G1 X171.036 Y65.632 E.01352
G1 X170.543 Y65.696 E.0156
G1 X170.057 Y65.588 E.0156
G1 X169.638 Y65.32 E.0156
G1 X169.335 Y64.925 E.0156
G1 X169.186 Y64.451 E.0156
G1 X169.208 Y63.954 E.0156
G1 X169.399 Y63.494 E.0156
G1 X169.735 Y63.128 E.0156
G1 X170.181 Y62.898 E.01572
G1 X170.693 Y62.842 E.01614
G1 X170.752 Y62.468 F10800
;TYPE:Inner wall
G1 F1200
G1 X170.822 Y62.472 E.00218
G1 X171.369 Y62.622 E.0178
G1 X171.791 Y62.9 E.01585
G1 X172.18 Y63.379 E.01934
G1 X172.277 Y63.591 E.0073
G1 X172.408 Y64.071 E.01559
G1 X172.382 Y64.587 E.01621
G1 X172.33 Y64.799 E.00685
G1 X172.115 Y65.269 E.01621
G1 X171.752 Y65.661 E.01675
G1 X171.268 Y65.947 E.01762
G1 X170.665 Y66.07 E.0193
G1 X170.469 Y66.066 E.00616
G1 X169.861 Y65.91 E.01967
G1 X169.343 Y65.556 E.01967
G1 X168.978 Y65.047 E.01967
G1 X168.809 Y64.443 E.01967
G1 X168.836 Y63.882 E.01761
G1 X169.013 Y63.414 E.01569
G1 X169.4 Y62.92 E.01967
G1 X169.933 Y62.589 E.01967
G1 X170.131 Y62.524 E.00654
G1 X170.614 Y62.46 E.01525
G1 X170.712 Y62.466 E.00311
G1 E-.28 F1800
;WIPE_START
G1 F1200
G1 X170.822 Y62.472 E-.01314
G1 X171.369 Y62.622 E-.06811
G1 X171.639 Y62.8 E-.03874
;WIPE_END
G1 X164.198 Y61.099 Z.6 F10800
G1 X142.982 Y56.248 Z.6
G1 Z.2 F720
G1 E.4 F1800
;TYPE:Outer wall
G1 F1200
G1 X143.489 Y56.183 E.01602
G1 X143.957 Y56.292 E.01507
G1 X144.376 Y56.56 E.0156
G1 X144.679 Y56.955 E.0156
G1 X144.828 Y57.429 E.0156
G1 X144.806 Y57.926 E.0156
G1 X144.615 Y58.386 E.0156
G1 X144.278 Y58.752 E.0156
G1 X143.837 Y58.982 E.0156
G1 X143.344 Y59.046 E.0156
G1 X142.858 Y58.938 E.0156
G1 X142.439 Y58.67 E.0156
G1 X142.136 Y58.275 E.0156
M73 P3 R14
G1 X141.987 Y57.801 E.0156
G1 X142.009 Y57.304 E.0156
G1 X142.2 Y56.844 E.0156
G1 X142.536 Y56.478 E.0156
G1 X142.946 Y56.266 E.01447
G1 X142.928 Y55.881 F10800
;TYPE:Inner wall
G1 F1200
G1 X143.385 Y55.814 E.0145
G1 X143.611 Y55.819 E.00707
G1 X144.152 Y55.97 E.01762
G1 X144.67 Y56.324 E.01967
G1 X145.036 Y56.833 E.01967
G1 X145.205 Y57.437 E.01967
G1 X145.178 Y57.998 E.01761
G1 X145 Y58.466 E.01569
G1 X144.613 Y58.96 E.01967
G1 X144.08 Y59.291 E.01967
G1 X143.467 Y59.42 E.01967
G1 X142.846 Y59.332 E.01967
G1 X142.542 Y59.188 E.01052
G1 X142.145 Y58.906 E.01527
G1 X141.805 Y58.461 E.01756
G1 X141.613 Y57.863 E.01967
G1 X141.619 Y57.36 E.01579
G1 X141.698 Y57.063 E.00964
G1 X141.87 Y56.657 E.0138
G1 X142.202 Y56.27 E.01599
G1 X142.431 Y56.106 E.00884
G1 X142.839 Y55.895 E.01442
G1 X142.888 Y55.887 E.00157
G1 E-.28 F1800
;WIPE_START
G1 F1200
G1 X143.385 Y55.814 E-.06028
G1 X143.611 Y55.819 E-.02706
G1 X143.873 Y55.892 E-.03266
;WIPE_END
G1 X151.341 Y57.469 Z.6 F10800
G1 X171.709 Y61.771 Z.6
G1 Z.2 F720
G1 E.4 F1800
;TYPE:Bottom surface
;WIDTH:0.420181
G1 F2544.657
G1 X172.55 Y62.612 E.03731
G1 X172.804 Y62.968 E.01372
G1 X172.993 Y63.363 E.01373
G1 X173.082 Y63.677 E.01025
G1 X170.996 Y61.591 E.09256
G1 X169.883 Y61.012 E.03934
G1 X171.126 Y62.255 E.05515
G1 X171.311 Y62.3 E.00596
G1 X171.366 Y62.316 E.0018
G1 X171.498 Y62.37 E.00449
G1 X171.577 Y62.417 E.00287
G1 X171.956 Y62.67 E.01428
G1 X172.065 Y62.761 E.00446
G1 X172.15 Y62.86 E.00409
G1 X172.417 Y63.224 E.01417
G1 X172.489 Y63.346 E.00446
G1 X172.537 Y63.472 E.00423
G1 X172.617 Y63.746 E.00894
G1 X173.154 Y64.282 E.02379
G1 X173.128 Y64.656 E.01176
G1 X173.102 Y64.764 E.00347
G1 X172.681 Y64.344 E.01864
G1 X172.663 Y64.62 E.0087
G1 X172.642 Y64.763 E.00451
G1 X172.623 Y64.818 E.00185
G1 X172.982 Y65.178 E.01594
G1 X172.849 Y65.483 E.01044
G1 X172.811 Y65.54 E.00216
G1 X172.465 Y65.194 E.01534
G1 X172.418 Y65.303 E.0037
G1 X172.351 Y65.425 E.00437
G1 X172.268 Y65.53 E.00422
G1 X172.597 Y65.86 E.01461
G1 X172.338 Y66.135 E.01184
G1 X172.007 Y65.804 E.01468
G1 X171.954 Y65.859 E.00242
G1 X171.853 Y65.949 E.00422
G1 X171.739 Y66.021 E.00424
G1 X171.707 Y66.037 E.00111
G1 X172.039 Y66.369 E.01471
G1 X171.958 Y66.43 E.00318
G1 X171.699 Y66.562 E.00913
G1 X171.354 Y66.218 E.01527
G1 X171.259 Y66.256 E.00324
G1 X171.14 Y66.283 E.00382
G1 X170.92 Y66.317 E.00697
G1 X171.311 Y66.708 E.01736
G1 X171.15 Y66.758 E.00531
G1 X170.865 Y66.795 E.00901
G1 X170.197 Y66.127 E.02964
G1 E-.28 F1800
;WIPE_START
G1 F2544.657
G1 X170.865 Y66.795 E-.11338
G1 X170.92 Y66.788 E-.00662
;WIPE_END
G1 X170.693 Y62.355 Z.6 F10800
G1 Z.2 F720
G1 E.4 F1800
G1 F2544.657
G1 X168.771 Y60.433 E.08524
G1 X167.659 Y59.854 E.03934
G1 X170.058 Y62.254 E.10645
G1 X169.805 Y62.337 E.00836
G1 X169.677 Y62.407 E.00455
G1 X166.546 Y59.275 E.13891
G1 X165.434 Y58.697 E.03934
G1 X169.344 Y62.607 E.17346
G1 X169.193 Y62.728 E.00606
G1 X169.071 Y62.867 E.00582
G1 X164.322 Y58.118 E.2107
G1 X163.209 Y57.539 E.03934
G1 X168.836 Y63.166 E.24963
G1 X168.753 Y63.304 E.00505
G1 X168.665 Y63.529 E.00757
G1 X162.097 Y56.96 E.2914
G1 X160.984 Y56.381 E.03934
G1 X168.544 Y63.94 E.33534
G1 X168.536 Y63.998 E.00184
G1 X168.526 Y64.445 E.01401
G1 X168.528 Y64.458 E.00043
G1 X159.872 Y55.802 E.384
G1 X159.728 Y55.728 E.00508
G1 X159.498 Y55.614 E.00805
G1 X159.016 Y55.415 E.01637
G1 X158.921 Y55.385 E.00313
G1 X170.353 Y66.817 E.50717
G1 X169.82 Y66.817 E.01673
G1 X158.188 Y55.186 E.51601
G1 X158.027 Y55.15 E.00518
G1 X157.557 Y55.088 E.01486
G1 X169.286 Y66.817 E.52034
G1 X168.753 Y66.817 E.01673
G1 X156.996 Y55.06 E.52158
G1 X156.462 Y55.06 E.01674
G1 X168.22 Y66.818 E.5216
G1 X167.686 Y66.818 E.01673
G1 X155.929 Y55.06 E.5216
G1 X155.395 Y55.06 E.01673
G1 X167.153 Y66.818 E.52159
G1 X166.619 Y66.818 E.01673
G1 X154.862 Y55.061 E.52159
G1 X154.329 Y55.061 E.01673
G1 X166.086 Y66.818 E.52159
G1 X165.553 Y66.818 E.01673
G1 X153.795 Y55.061 E.52159
G1 X153.262 Y55.061 E.01673
M73 P4 R14
G1 X165.019 Y66.818 E.52159
G1 X164.486 Y66.818 E.01673
G1 X152.728 Y55.061 E.52159
G1 X152.195 Y55.061 E.01673
G1 X163.952 Y66.819 E.52159
G1 X163.419 Y66.819 E.01673
G1 X151.662 Y55.061 E.52158
G1 X151.128 Y55.062 E.01673
G1 X162.885 Y66.819 E.52158
G1 X162.352 Y66.819 E.01673
G1 X150.595 Y55.062 E.52158
G1 X150.062 Y55.062 E.01673
G1 X161.819 Y66.819 E.52158
G1 X161.285 Y66.819 E.01673
G1 X149.528 Y55.062 E.52158
G1 X148.995 Y55.062 E.01673
G1 X160.752 Y66.819 E.52158
G1 X160.218 Y66.819 E.01673
G1 X148.462 Y55.062 E.52157
G1 X147.928 Y55.063 E.01673
G1 X159.685 Y66.82 E.52157
G1 X159.152 Y66.82 E.01673
G1 X147.395 Y55.063 E.52157
G1 X146.861 Y55.063 E.01673
G1 X158.618 Y66.82 E.52157
G1 X158.085 Y66.82 E.01673
G1 X146.328 Y55.063 E.52157
G1 X145.795 Y55.063 E.01673
G1 X157.551 Y66.82 E.52157
G1 X157.018 Y66.82 E.01674
G1 X145.261 Y55.063 E.52155
G1 X144.728 Y55.064 E.01673
G1 X156.456 Y66.792 E.52031
G1 X156.014 Y66.734 E.01401
G1 X155.824 Y66.693 E.0061
G1 X144.195 Y55.064 E.5159
G1 X143.661 Y55.064 E.01673
G1 X155.093 Y66.495 E.50713
G1 X154.997 Y66.465 E.00314
G1 X154.54 Y66.277 E.01551
G1 X154.284 Y66.152 E.00894
G1 X154.141 Y66.077 E.00504
G1 X145.486 Y57.422 E.38399
G1 X145.488 Y57.435 E.00043
G1 X145.478 Y57.882 E.01401
G1 X145.47 Y57.94 E.00184
G1 X153.029 Y65.499 E.33533
G1 X151.917 Y64.92 E.03934
M73 P5 R14
G1 X145.348 Y58.352 E.29139
G1 X145.261 Y58.576 E.00757
G1 X145.177 Y58.714 E.00505
G1 X150.804 Y64.341 E.24962
G1 X149.692 Y63.762 E.03934
G1 X144.943 Y59.013 E.21069
G1 X144.82 Y59.152 E.00582
G1 X144.67 Y59.273 E.00606
G1 X148.579 Y63.183 E.17345
G1 X147.467 Y62.604 E.03934
G1 X144.336 Y59.473 E.1389
G1 X144.209 Y59.543 E.00454
G1 X143.958 Y59.628 E.00834
G1 X146.355 Y62.026 E.10634
G1 X145.242 Y61.447 E.03934
G1 X143.323 Y59.527 E.08515
G1 E-.28 F1800
;WIPE_START
G1 F2544.657
G1 X144.03 Y60.234 E-.12
;WIPE_END
G1 X143.811 Y55.747 Z.6 F10800
G1 Z.2 F720
G1 E.4 F1800
G1 F2544.657
G1 X143.148 Y55.084 E.02942
G1 X142.864 Y55.121 E.00897
G1 X142.702 Y55.172 E.00533
G1 X143.097 Y55.567 E.01754
G1 X142.892 Y55.594 E.00651
G1 X142.756 Y55.624 E.00437
G1 X142.659 Y55.662 E.00326
G1 X142.315 Y55.318 E.01527
G1 X142.056 Y55.45 E.00912
G1 X141.975 Y55.511 E.00318
G1 X142.312 Y55.848 E.01495
G1 X142.216 Y55.901 E.00343
G1 X142.117 Y55.964 E.00368
G1 X142.025 Y56.045 E.00383
G1 X142.001 Y56.071 E.00113
G1 X141.675 Y55.746 E.01444
G1 X141.417 Y56.02 E.01184
G1 X141.751 Y56.355 E.01485
G1 X141.702 Y56.412 E.00236
G1 X141.633 Y56.501 E.00353
G1 X141.575 Y56.604 E.0037
G1 X141.543 Y56.681 E.00261
G1 X141.203 Y56.34 E.01512
G1 X141.165 Y56.397 E.00216
G1 X141.032 Y56.702 E.01044
G1 X141.394 Y57.065 E.01608
G1 X141.36 Y57.171 E.00348
G1 X141.341 Y57.281 E.00351
G1 X141.338 Y57.316 E.0011
G1 X141.333 Y57.537 E.00696
G1 X140.912 Y57.116 E.01869
G1 X140.886 Y57.224 E.00347
G1 X140.86 Y57.598 E.01177
G1 X141.39 Y58.128 E.02351
G1 X141.512 Y58.49 E.012
G1 X141.551 Y58.584 E.00317
G1 X141.604 Y58.678 E.0034
G1 X141.652 Y58.745 E.00258
G1 X141.926 Y59.086 E.01371
G1 X141.989 Y59.156 E.00295
G1 X142.061 Y59.219 E.00303
G1 X142.101 Y59.249 E.00155
G1 X142.144 Y59.277 E.00163
G1 X142.517 Y59.503 E.01367
G1 X142.566 Y59.531 E.00177
G1 X142.699 Y59.586 E.00449
G1 X142.788 Y59.608 E.00289
G1 X142.891 Y59.629 E.0033
G1 X144.13 Y60.868 E.05496
G1 X143.018 Y60.289 E.03934
G1 X140.72 Y57.991 E.10194
; stop printing object Kabelführung - Bungee.stl id:0 copy 0
; printing object Kabelführung - Bungee.stl id:0 copy 0
G1 E-.28 F1800
