; generated by PrusaSlicer 2.7.4 on 2024-05-06 at 12:30:17 UTC


;
;
; 

; external perimeters extrusion width = 0.45mm
; perimeters extrusion width = 0.45mm
; infill extrusion width = 0.45mm
; solid infill extrusion width = 0.45mm
; top infill extrusion width = 0.40mm
; first layer extrusion width = 0.42mm

; external perimeters extrusion width = 0.45mm
; perimeters extrusion width = 0.45mm
; infill extrusion width = 0.45mm
; solid infill extrusion width = 0.45mm
; top infill extrusion width = 0.40mm
; first layer extrusion width = 0.42mm

; external perimeters extrusion width = 0.45mm
; perimeters extrusion width = 0.45mm
; infill extrusion width = 0.45mm
; solid infill extrusion width = 0.45mm
; top infill extrusion width = 0.40mm
; first layer extrusion width = 0.42mm

; external perimeters extrusion width = 0.45mm
; perimeters extrusion width = 0.45mm
; infill extrusion width = 0.45mm
; solid infill extrusion width = 0.45mm
; top infill extrusion width = 0.40mm
; first layer extrusion width = 0.42mm

; external perimeters extrusion width = 0.45mm
; perimeters extrusion width = 0.45mm
; infill extrusion width = 0.45mm
; solid infill extrusion width = 0.45mm
; top infill extrusion width = 0.40mm
; first layer extrusion width = 0.42mm

M73 P0 R25
M73 Q0 S25
M201 X1000 Y1000 Z200 E5000 ; sets maximum accelerations, mm/sec^2
M203 X200 Y200 Z12 E120 ; sets maximum feedrates, mm / sec
M204 S1250 T1250 ; sets acceleration (S) and retract acceleration (R), mm/sec^2
M205 X8.00 Y8.00 Z0.40 E4.50 ; sets the jerk limits, mm/sec
M205 S0 T0 ; sets the minimum extruding and travel feed rate, mm/sec

; printing object BFuehrung_6_6.stl id:1 copy 0
; stop printing object BFuehrung_6_6.stl id:1 copy 0
; printing object BFuehrung_6_5(1).stl id:0 copy 0
; stop printing object BFuehrung_6_5(1).stl id:0 copy 0
; printing object BFuehrung_6_9.stl id:4 copy 0
; stop printing object BFuehrung_6_9.stl id:4 copy 0
; printing object BFuehrung_6_7.stl id:2 copy 0
; stop printing object BFuehrung_6_7.stl id:2 copy 0
; printing object BFuehrung_6_8.stl id:3 copy 0
; stop printing object BFuehrung_6_8.stl id:3 copy 0

;TYPE:Custom
M862.3 P "MK3S" ; printer model check
M862.1 P0.4 ; nozzle diameter check
M115 U3.13.3 ; tell printer latest fw version
G90 ; use absolute coordinates
M83 ; extruder relative mode
M104 S215 ; set extruder temp
M140 S60 ; set bed temp
M190 S60 ; wait for bed temp
M109 S215 ; wait for extruder temp
G28 W ; home all without mesh bed level
G80 X93.7844 Y75.3344 W62.4312 H59.3312 ; mesh bed levelling

G1 Z0.2 F720
G1 Y-3 F1000 ; go outside print area
G92 E0
G1 X60 E9 F1000 ; intro line
G1 X100 E12.5 F1000 ; intro line

G92 E0
M221 S95

; Don't change E values below. Excessive value can damage the printer.

M907 E538 ; set extruder motor current
G21 ; set units to millimeters
G90 ; use absolute coordinates
M83 ; use relative distances for extrusion

M900 K0.05 ; Filament gcode LA 1.5
M900 K30 ; Filament gcode LA 1.0




M107
;LAYER_CHANGE
;Z:0.2
;HEIGHT:0.2
G1 E-.8 F2100
G1 Z.6 F720
G1 X96.338 Y95.512 F10800
G1 Z.2 F720
G1 E.8 F2100
M204 S800
;TYPE:Skirt/Brim
;WIDTH:0.42
G1 F1200
G1 X97.244 Y94.629 E.03967
G1 X98.219 Y93.906 E.03806
G1 X124.967 Y76.943 E.99309
G1 X126.449 Y76.189 E.05214
G1 X127.946 Y75.731 E.04908
G1 X129.551 Y75.529 E.05072
G1 X146.73 Y75.523 E.53864
G1 X148.366 Y75.674 E.05151
G1 X149.974 Y76.12 E.05232
G1 X151.431 Y76.82 E.05068
G1 X152.888 Y77.888 E.05664
G1 X154.026 Y79.108 E.05231
G1 X154.903 Y80.467 E.05071
G1 X155.531 Y81.957 E.0507
G1 X155.905 Y83.644 E.05418
G1 X155.977 Y84.767 E.03528
G1 X156.027 Y101.574 E.52697
G1 X155.916 Y125.66 E.75521
G1 X155.719 Y127.154 E.04725
G1 X155.242 Y128.699 E.0507
G1 X154.504 Y130.138 E.05071
G1 X153.562 Y131.388 E.04908
G1 X152.876 Y132.077 E.03048
G1 X152.059 Y132.737 E.03293
G1 X150.473 Y133.653 E.05743
G1 X149.542 Y134.015 E.03132
G1 X148.604 Y134.269 E.03047
G1 X146.702 Y134.477 E.05999
G1 X129.898 Y134.477 E.52688
G1 X102.938 Y134.063 E.84541
G1 X101.388 Y133.845 E.04908
M73 P1 R24
M73 Q1 S25
G1 X99.951 Y133.392 E.04724
G1 X98.512 Y132.654 E.05071
G1 X97.262 Y131.712 E.04908
G1 X96.025 Y130.362 E.05741
G1 X95.066 Y128.771 E.05825
G1 X94.696 Y127.872 E.03048
G1 X94.417 Y126.913 E.03132
G1 X94.178 Y125.097 E.05743
G1 X93.973 Y108.352 E.52507
G1 X93.999 Y100.999 E.23055
G1 X94.217 Y99.587 E.0448
G1 X94.7 Y98.099 E.04905
G1 X95.396 Y96.762 E.04726
G1 X96.302 Y95.56 E.04719
M204 S1000
;WIPE_START
G1 F8640
G1 X96.338 Y95.512 E-.01385
G1 X97.244 Y94.629 E-.29212
G1 X98.219 Y93.906 E-.28027
G1 X99.001 Y93.41 E-.21376
;WIPE_END
G1 Z.6 F720
G1 X98.292 Y97.323 F10800
G1 Z.2 F720
G1 E.8 F2100
M204 S800
G1 F1200
G1 X98.971 Y96.657 E.02982
G1 X99.875 Y96.016 E.03475
G1 X100.77 Y95.57 E.03135
G1 X101.807 Y95.245 E.03407
G1 X103.018 Y95.093 E.03827
G1 X120.024 Y95.089 E.53321
G1 X121.146 Y95.215 E.0354
G1 X122.263 Y95.543 E.0365
G1 X123.357 Y96.094 E.03841
G1 X124.293 Y96.802 E.0368
G1 X124.796 Y97.336 E.023
G1 X125.558 Y96.584 E.03357
G1 X125.018 Y96.061 E.02357
G1 X124.475 Y95.382 E.02726
G1 X123.957 Y94.499 E.0321
G1 X123.537 Y93.401 E.03686
G1 X123.301 Y92.014 E.04411
G1 X123.313 Y84.21 E.24469
G1 X123.593 Y82.812 E.0447
G1 X123.97 Y81.873 E.03173
G1 X124.788 Y80.604 E.04734
G1 X125.419 Y79.937 E.02879
G1 X126.168 Y79.34 E.03003
G1 X127.548 Y78.619 E.04882
G1 X128.588 Y78.319 E.03394
G1 X129.662 Y78.193 E.03391
G1 X146.921 Y78.192 E.54114
G1 X148.089 Y78.334 E.03689
G1 X149.207 Y78.681 E.0367
G1 X150.261 Y79.228 E.03723
G1 X151.189 Y79.944 E.03675
G1 X151.984 Y80.824 E.03718
G1 X152.607 Y81.826 E.03699
G1 X153.034 Y82.9 E.03624
G1 X153.276 Y84.103 E.03847
G1 X153.314 Y91.675 E.23742
G1 X153.212 Y92.74 E.03355
G1 X152.891 Y93.929 E.03861
G1 X152.539 Y94.705 E.02672
G1 X151.661 Y95.973 E.04836
G1 X151.072 Y96.569 E.02627
G1 X151.963 Y97.53 E.04109
G1 X152.587 Y98.491 E.03593
G1 X153.061 Y99.626 E.03857
G1 X153.322 Y100.864 E.03967
G1 X153.363 Y108.59 E.24225
G1 X153.264 Y109.628 E.03269
G1 X152.933 Y110.852 E.03976
G1 X152.619 Y111.548 E.02394
G1 X152.215 Y112.227 E.02477
G1 X151.028 Y113.528 E.05522
G1 X151.867 Y114.436 E.03876
G1 X152.524 Y115.462 E.0382
G1 X152.963 Y116.531 E.03623
G1 X153.213 Y117.686 E.03705
G1 X153.263 Y125.302 E.2388
G1 X153.182 Y126.222 E.02896
G1 X152.847 Y127.514 E.04185
G1 X152.094 Y128.957 E.05103
G1 X151.265 Y129.935 E.0402
G1 X150.35 Y130.682 E.03704
G1 X149.002 Y131.381 E.04761
G1 X147.962 Y131.681 E.03394
G1 X146.887 Y131.807 E.03394
G1 X129.66 Y131.807 E.54014
G1 X128.815 Y131.715 E.02665
M73 Q1 S24
G1 X128.012 Y131.523 E.02589
G1 X127.24 Y131.233 E.02586
G1 X126.486 Y130.833 E.02676
G1 X125.806 Y130.354 E.02608
G1 X124.775 Y129.293 E.04639
G1 X124.511 Y129.588 E.01241
G1 X123.494 Y130.383 E.04047
G1 X122.603 Y130.858 E.03166
G1 X121.589 Y131.208 E.03363
G1 X120.218 Y131.41 E.04345
G1 X103.166 Y131.404 E.53465
G1 X101.99 Y131.251 E.03718
G1 X100.963 Y130.928 E.03376
G1 X100.169 Y130.541 E.0277
G1 X99.398 Y130.026 E.02907
G1 X98.693 Y129.394 E.02969
G1 X98.044 Y128.609 E.03194
G1 X97.629 Y127.939 E.02471
G1 X97.288 Y127.203 E.02543
G1 X97.008 Y126.296 E.02976
G1 X96.859 Y125.337 E.03043
G1 X96.865 Y117.714 E.23901
G1 X97.125 Y116.366 E.04304
G1 X97.476 Y115.466 E.03029
G1 X97.928 Y114.661 E.02895
G1 X98.562 Y113.845 E.0324
G1 X99.027 Y113.399 E.0202
G1 X98.343 Y112.733 E.02993
G1 X97.823 Y112.079 E.0262
G1 X97.357 Y111.3 E.02846
G1 X96.889 Y110.109 E.04012
G1 X96.651 Y108.715 E.04434
G1 X96.675 Y100.972 E.24278
G1 X97.003 Y99.529 E.0464
G1 X97.313 Y98.788 E.02518
G1 X97.754 Y98.022 E.02771
G1 X98.256 Y97.371 E.02578
M204 S1000
G1 X98.256 Y97.371 F10800
G1 X98.553 Y97.6
M204 S800
G1 F1200
G1 X98.567 Y97.582 E.00071
G1 X99.202 Y96.955 E.02798
G1 X100.081 Y96.332 E.03378
G1 X100.924 Y95.915 E.02949
G1 X101.872 Y95.617 E.03116
G1 X103.03 Y95.47 E.0366
G1 X119.994 Y95.465 E.53189
G1 X121.057 Y95.582 E.03353
M73 Q2 S24
G1 X122.11 Y95.888 E.03438
G1 X123.144 Y96.405 E.03625
M73 P2 R24
G1 X124.053 Y97.093 E.03574
G1 X124.825 Y97.921 E.0355
G1 X125.557 Y97.076 E.03505
G1 X126.16 Y96.58 E.02448
G1 X125.305 Y95.816 E.03595
G1 X124.778 Y95.157 E.02646
G1 X124.303 Y94.349 E.02939
G1 X123.906 Y93.319 E.03461
G1 X123.675 Y91.967 E.04301
G1 X123.69 Y84.23 E.24259
G1 X123.959 Y82.904 E.04242
G1 X124.304 Y82.048 E.02894
G1 X125.086 Y80.836 E.04522
G1 X125.664 Y80.223 E.02642
G1 X126.373 Y79.657 E.02845
G1 X127.689 Y78.969 E.04656
G1 X128.677 Y78.686 E.03222
G1 X129.694 Y78.569 E.0321
G1 X146.887 Y78.568 E.53907
G1 X147.995 Y78.7 E.03499
G1 X149.05 Y79.024 E.0346
G1 X150.045 Y79.538 E.03511
G1 X150.922 Y80.21 E.03464
G1 X151.674 Y81.038 E.03507
G1 X152.263 Y81.982 E.03489
G1 X152.668 Y82.993 E.03415
G1 X152.899 Y84.124 E.03619
G1 X152.937 Y91.667 E.23651
G1 X152.838 Y92.688 E.03216
G1 X152.531 Y93.815 E.03662
G1 X151.829 Y95.147 E.04721
G1 X151.371 Y95.731 E.02327
G1 X150.416 Y96.578 E.04002
G1 X150.943 Y96.984 E.02086
G1 X151.656 Y97.75 E.03281
G1 X152.246 Y98.654 E.03385
G1 X152.696 Y99.722 E.03634
G1 X152.949 Y100.923 E.03848
G1 X152.987 Y108.565 E.23961
G1 X152.895 Y109.546 E.03089
G1 X152.573 Y110.738 E.03871
G1 X151.918 Y111.995 E.04444
G1 X151.036 Y113.028 E.04259
G1 X150.407 Y113.547 E.02557
G1 X150.844 Y113.885 E.01732
G1 X151.559 Y114.655 E.03295
G1 X152.182 Y115.622 E.03607
G1 X152.608 Y116.658 E.03512
G1 X152.841 Y117.745 E.03486
G1 X152.886 Y125.279 E.23623
G1 X152.813 Y126.144 E.02722
G1 X152.496 Y127.375 E.03986
G1 X152.18 Y128.083 E.02431
G1 X151.779 Y128.749 E.02437
G1 X150.989 Y129.677 E.03821
G1 X150.146 Y130.365 E.03412
G1 X148.86 Y131.032 E.04542
G1 X147.873 Y131.314 E.03219
G1 X146.855 Y131.431 E.03213
G1 X129.671 Y131.43 E.53879
G1 X128.133 Y131.166 E.04893
G1 X127.405 Y130.893 E.02438
G1 X126.693 Y130.518 E.02523
G1 X126.034 Y130.053 E.02529
G1 X125.431 Y129.497 E.02572
G1 X124.781 Y128.702 E.0322
G1 X124.263 Y129.304 E.0249
G1 X123.275 Y130.075 E.03929
G1 X122.439 Y130.518 E.02966
G1 X121.517 Y130.837 E.03059
G1 X120.177 Y131.035 E.04247
G1 X103.179 Y131.027 E.53296
G1 X102.056 Y130.879 E.03552
G1 X101.115 Y130.582 E.03094
G1 X100.367 Y130.22 E.02606
G1 X99.619 Y129.72 E.02821
G1 X98.955 Y129.123 E.028
G1 X98.357 Y128.4 E.02942
G1 X97.636 Y127.056 E.04782
G1 X97.379 Y126.224 E.0273
G1 X97.236 Y125.322 E.02863
G1 X97.239 Y117.768 E.23685
G1 X97.492 Y116.455 E.04193
G1 X97.811 Y115.639 E.02747
G1 X98.234 Y114.881 E.02722
G1 X98.851 Y114.088 E.0315
G1 X99.618 Y113.357 E.03322
G1 X98.63 Y112.488 E.04126
G1 X98.139 Y111.873 E.02467
G1 X97.701 Y111.147 E.02659
G1 X97.257 Y110.025 E.03783
G1 X97.028 Y108.699 E.04219
G1 X97.052 Y100.989 E.24174
G1 X97.362 Y99.644 E.04328
G1 X97.656 Y98.945 E.02378
G1 X98.061 Y98.241 E.02547
G1 X98.517 Y97.647 E.02348
M204 S1000
G1 X98.517 Y97.647 F10800
G1 X98.831 Y97.857
M204 S800
G1 F1200
G1 X98.842 Y97.841 E.00061
G1 X99.433 Y97.254 E.02612
G1 X100.286 Y96.649 E.03279
G1 X101.078 Y96.259 E.02768
G1 X101.936 Y95.989 E.0282
G1 X103.066 Y95.845 E.03572
G1 X119.984 Y95.842 E.53045
G1 X120.969 Y95.949 E.03107
G1 X121.958 Y96.234 E.03227
G1 X122.93 Y96.716 E.03402
G1 X123.812 Y97.383 E.03467
G1 X124.456 Y98.079 E.02973
G1 X124.798 Y98.597 E.01946
G1 X125.823 Y97.344 E.05076
G1 X126.817 Y96.599 E.03895
G1 X126.108 Y96.066 E.02781
G1 X125.096 Y94.953 E.04717
G1 X124.649 Y94.197 E.02754
G1 X124.274 Y93.235 E.03237
G1 X124.052 Y91.951 E.04086
G1 X124.067 Y84.25 E.24146
G1 X124.325 Y82.997 E.04011
G1 X124.638 Y82.223 E.02618
G1 X125.383 Y81.068 E.04309
G1 X125.911 Y80.509 E.02411
G1 X126.579 Y79.973 E.02685
G1 X127.832 Y79.318 E.04433
G1 X128.736 Y79.059 E.02948
G1 X129.727 Y78.944 E.03128
G1 X146.855 Y78.944 E.53704
G1 X147.902 Y79.066 E.03305
G1 X148.893 Y79.367 E.03247
G1 X149.83 Y79.848 E.03302
G1 X150.655 Y80.478 E.03255
G1 X151.364 Y81.254 E.03296
G1 X151.92 Y82.14 E.0328
G1 X152.302 Y83.086 E.03199
G1 X152.522 Y84.145 E.03391
G1 X152.56 Y91.66 E.23563
G1 X152.47 Y92.604 E.02973
G1 X152.172 Y93.701 E.03564
G1 X151.513 Y94.942 E.04406
G1 X150.579 Y95.994 E.04411
G1 X149.777 Y96.569 E.03094
G1 X150.678 Y97.253 E.03547
G1 X151.369 Y97.995 E.03179
G1 X151.921 Y98.845 E.03178
G1 X152.331 Y99.818 E.03311
G1 X152.572 Y100.945 E.03614
G1 X152.61 Y108.558 E.2387
G1 X152.527 Y109.464 E.02853
G1 X152.223 Y110.597 E.03678
G1 X151.602 Y111.788 E.04211
G1 X150.761 Y112.77 E.04054
G1 X149.748 Y113.522 E.03956
M73 Q3 S24
G1 X150.579 Y114.154 E.03273
M73 P3 R24
G1 X151.271 Y114.899 E.03188
G1 X151.855 Y115.81 E.03393
G1 X152.252 Y116.785 E.03301
G1 X152.468 Y117.804 E.03266
G1 X152.51 Y125.257 E.23369
G1 X152.444 Y126.066 E.02545
G1 X152.145 Y127.237 E.03789
G1 X151.85 Y127.899 E.02272
G1 X151.464 Y128.541 E.02349
G1 X150.713 Y129.419 E.03623
G1 X149.941 Y130.048 E.03122
G1 X148.718 Y130.682 E.04319
G1 X147.815 Y130.941 E.02945
G1 X146.823 Y131.056 E.03131
G1 X129.681 Y131.053 E.53748
G1 X128.232 Y130.802 E.04611
G1 X126.881 Y130.191 E.04649
G1 X125.697 Y129.23 E.04781
G1 X124.84 Y128.048 E.04578
G1 X124.015 Y129.019 E.03995
G1 X123.056 Y129.767 E.03813
G1 X122.276 Y130.177 E.02763
G1 X121.444 Y130.467 E.02763
G1 X120.163 Y130.658 E.04061
G1 X103.216 Y130.652 E.53136
G1 X102.122 Y130.507 E.0346
G1 X101.267 Y130.237 E.02811
G1 X100.566 Y129.899 E.0244
G1 X99.841 Y129.414 E.02735
G1 X99.218 Y128.852 E.02631
G1 X98.671 Y128.19 E.02693
G1 X97.984 Y126.911 E.04552
G1 X97.743 Y126.126 E.02575
G1 X97.611 Y125.278 E.02691
G1 X97.616 Y117.787 E.23488
G1 X97.858 Y116.544 E.03971
G1 X98.147 Y115.811 E.0247
G1 X98.541 Y115.101 E.02546
G1 X99.141 Y114.33 E.03063
G1 X100.275 Y113.373 E.04653
G1 X99.461 Y112.769 E.03178
G1 X98.456 Y111.668 E.04674
G1 X98.032 Y110.965 E.02574
G1 X97.625 Y109.941 E.03455
G1 X97.405 Y108.683 E.04004
G1 X97.426 Y101.038 E.2397
G1 X97.722 Y99.759 E.04116
G1 X97.998 Y99.102 E.02234
G1 X98.797 Y97.907 E.04507
M204 S1000
G1 X98.797 Y97.907 F10800
G1 X99.107 Y98.114
M204 S800
G1 F1200
G1 X99.117 Y98.098 E.00059
G1 X99.664 Y97.552 E.02423
G1 X100.492 Y96.965 E.03182
G1 X101.23 Y96.604 E.02576
G1 X102.001 Y96.361 E.02535
G1 X103.102 Y96.221 E.0348
G1 X119.973 Y96.22 E.52898
G1 X120.911 Y96.322 E.02958
G1 X121.836 Y96.591 E.0302
G1 X122.746 Y97.046 E.0319
G1 X123.546 Y97.652 E.03147
G1 X124.168 Y98.323 E.02869
G1 X124.836 Y99.353 E.03849
G1 X125.244 Y98.627 E.02611
G1 X126.09 Y97.611 E.04145
G1 X126.699 Y97.114 E.02465
G1 X127.585 Y96.58 E.03244
G1 X126.361 Y95.787 E.04573
G1 X125.399 Y94.729 E.04484
G1 X124.994 Y94.044 E.02495
G1 X124.642 Y93.151 E.0301
G1 X124.429 Y91.935 E.03871
G1 X124.444 Y84.27 E.24033
G1 X124.69 Y83.091 E.03776
G1 X124.972 Y82.398 E.02346
G1 X125.68 Y81.3 E.04096
G1 X126.158 Y80.794 E.02182
G1 X126.784 Y80.289 E.02522
G1 X127.973 Y79.668 E.04206
G1 X128.794 Y79.431 E.02679
G1 X129.759 Y79.32 E.03046
G1 X146.823 Y79.32 E.53503
G1 X147.81 Y79.432 E.03115
G1 X148.737 Y79.711 E.03035
G1 X149.616 Y80.159 E.03093
G1 X150.389 Y80.745 E.03041
G1 X151.054 Y81.47 E.03085
G1 X151.577 Y82.298 E.03071
G1 X151.937 Y83.181 E.0299
G1 X152.145 Y84.166 E.03157
G1 X152.182 Y91.653 E.23475
G1 X152.102 Y92.522 E.02736
G1 X151.822 Y93.559 E.03368
G1 X151.197 Y94.735 E.04176
G1 X150.324 Y95.716 E.04117
G1 X149.428 Y96.353 E.03447
G1 X148.951 Y96.591 E.01671
G1 X149.668 Y96.96 E.02528
G1 X150.413 Y97.522 E.02926
G1 X151.081 Y98.24 E.03075
G1 X151.595 Y99.036 E.02971
G1 X151.966 Y99.916 E.02994
G1 X152.195 Y100.967 E.03373
G1 X152.232 Y108.551 E.23779
G1 X152.158 Y109.383 E.02619
G1 X151.873 Y110.456 E.03481
G1 X151.286 Y111.581 E.03979
G1 X150.487 Y112.51 E.03842
G1 X149.893 Y112.991 E.02396
G1 X148.965 Y113.548 E.03394
G1 X149.566 Y113.859 E.02122
G1 X150.315 Y114.423 E.0294
G1 X150.983 Y115.143 E.03079
G1 X151.527 Y115.998 E.03177
G1 X151.887 Y116.881 E.0299
G1 X152.091 Y117.826 E.03031
G1 X152.132 Y125.251 E.23281
G1 X152.069 Y126.019 E.02416
G1 X151.784 Y127.127 E.03587
G1 X151.511 Y127.734 E.02087
G1 X151.167 Y128.308 E.02098
G1 X150.438 Y129.161 E.03518
G1 X149.736 Y129.731 E.02835
G1 X148.577 Y130.332 E.04093
G1 X147.756 Y130.569 E.02679
G1 X146.791 Y130.68 E.03046
G1 X129.692 Y130.676 E.53613
G1 X128.998 Y130.599 E.02189
G1 X127.694 Y130.196 E.04279
G1 X126.509 Y129.468 E.04361
