; HEADER_BLOCK_START
; generated by OrcaSlicer 2.1.1 on 2024-10-18 at 18:47:15
; total layer number: 17
; filament_density: 1.24
; filament_diameter: 1.75
; max_z_height: 5.10
; HEADER_BLOCK_END

; THUMBNAIL_BLOCK_START

;
; THUMBNAIL_BLOCK_END

; external perimeters extrusion width = 0.40mm
; perimeters extrusion width = 0.44mm
; infill extrusion width = 0.44mm
; solid infill extrusion width = 0.48mm
; top infill extrusion width = 0.38mm
; first layer extrusion width = 0.48mm

; EXECUTABLE_BLOCK_START
M73 P0 R142
M201 X2000 Y2000 Z300 E5000
M203 X200 Y200 Z12 E120
M204 P2000 R2500 T2000
M205 X9.00 Y9.00 Z0.20 E2.50 ; sets the jerk limits, mm/sec
;TYPE:Custom
M862.3 P "MK3S" ; printer model check
M862.1 P0.4 ; nozzle diameter check
M115 U3.13.0 ; tell printer latest fw version
G90 ; use absolute coordinates
M83 ; extruder relative mode
M104 S220 ; set extruder temp
M140 S60 ; set bed temp
M190 S60 ; wait for bed temp
M109 S220 ; wait for extruder temp
G28 W ; home all without mesh bed level
G80 ; mesh bed leveling

G1 Z0.2 F720
G1 Y-3 F1000 ; go outside print area
G92 E0
G1 X60 E9 F1000 ; intro line
G1 X100 E12.5 F1000 ; intro line

G92 E0
M221 S95
G90
G21
M83 ; use relative distances for extrusion
; filament start gcode
M900 K0.05 ; Filament gcode LA 1.5
M900 K30 ; Filament gcode LA 1.0
M106 S0
;LAYER_CHANGE
;Z:0.3
;HEIGHT:0.3
;BEFORE_LAYER_CHANGE
;0.3
G92 E0

G1 E-.8 F1800
;AFTER_LAYER_CHANGE
;0.3
;_SET_FAN_SPEED_CHANGING_LAYER
M204 S500
; printing object robot - torso_top_plate_nuc_23.step id:65 copy 0
M73 P0 R141
G1 X46.883 Y178.449 F10800
G1 Z.4
G1 Z.3
G1 E.8 F1800
;TYPE:Brim
;WIDTH:0.48
G1 F1200
G1 X43.934 Y176.187 E.18881
G1 X41.671 Y173.238 E.18881
G1 X40.249 Y169.804 E.18881
G1 X39.764 Y166.119 E.18881
G1 X40.249 Y162.435 E.18881
G1 X41.671 Y159.001 E.18881
G1 X43.934 Y156.052 E.18881
G1 X46.883 Y153.79 E.18881
G1 X50.316 Y152.368 E.18881
G1 X52.192 Y152.121 E.09612
G1 X52.192 Y162 E.50189
G1 X52.248 Y162.835 E.04249
G1 X52.34 Y163.359 E.02703
G1 X52.481 Y163.886 E.02773
G1 X52.788 Y164.676 E.04306
G1 X53.034 Y165.148 E.02703
G1 X53.327 Y165.609 E.02773
G1 X53.661 Y166.046 E.02795
G1 X54.032 Y166.452 E.02795
G1 X54.672 Y167.013 E.04324
G1 X55.117 Y167.323 E.02755
G1 X55.577 Y167.59 E.02703
G1 X56.328 Y167.922 E.04168
G1 X56.857 Y168.09 E.02818
G1 X57.394 Y168.21 E.02795
G1 X58.236 Y168.302 E.04305
G1 X67.95 Y168.308 E.49349
G1 X67.753 Y169.804 E.07669
G1 X66.331 Y173.238 E.18881
G1 X64.068 Y176.187 E.18881
G1 X61.12 Y178.449 E.18881
G1 X57.686 Y179.871 E.18881
G1 X54.001 Y180.357 E.18881
G1 X50.316 Y179.871 E.18881
G1 X46.92 Y178.464 E.18678
G1 X47.08 Y178.077 F10800
G1 F1200
G1 X47.079 Y178.076 E.00006
G1 X44.243 Y175.9 E.18158
G1 X42.045 Y173.041 E.18322
G1 X40.652 Y169.68 E.18486
G1 X40.185 Y166.136 E.18158
G1 X40.652 Y162.559 E.18322
G1 X42.045 Y159.198 E.18486
G1 X44.22 Y156.362 E.18158
G1 X47.079 Y154.163 E.18322
G1 X50.41 Y152.779 E.18322
G1 X51.636 Y152.613 E.06285
G1 X51.739 Y152.647 E.00553
G1 X51.777 Y152.737 E.00492
G1 X51.777 Y161.996 E.47038
G1 X51.84 Y162.913 E.04672
G1 X51.94 Y163.471 E.02877
G1 X52.078 Y163.986 E.02712
G1 X52.423 Y164.874 E.04838
G1 X52.686 Y165.375 E.02876
G1 X52.973 Y165.827 E.0272
G1 X53.328 Y166.294 E.02979
G1 X53.72 Y166.727 E.02971
G1 X54.44 Y167.358 E.04859
G1 X54.875 Y167.661 E.02694
G1 X55.364 Y167.946 E.02878
G1 X56.154 Y168.299 E.04395
G1 X56.726 Y168.484 E.03053
G1 X57.296 Y168.614 E.02972
G1 X58.243 Y168.718 E.04836
G1 X67.334 Y168.723 E.46187
G1 X67.432 Y168.77 E.00553
G1 X67.458 Y168.864 E.00492
G1 X67.342 Y169.711 E.04343
G1 X65.974 Y173.013 E.18158
G1 X63.782 Y175.877 E.18322
G1 X60.895 Y178.092 E.18486
G1 X57.561 Y179.469 E.18322
G1 X54.017 Y179.935 E.18158
G1 X50.441 Y179.469 E.18322
G1 X47.117 Y178.092 E.18277
G1 X47.278 Y177.704 F10800
G1 F1200
G1 X47.276 Y177.703 E.00012
G1 X44.53 Y175.591 E.176
G1 X42.418 Y172.845 E.176
G1 X41.055 Y169.555 E.1809
G1 X40.607 Y166.119 E.176
G1 X41.055 Y162.684 E.176
G1 X42.418 Y159.394 E.1809
G1 X44.53 Y156.648 E.176
G1 X47.276 Y154.536 E.17601
G1 X50.504 Y153.19 E.17767
G1 X51.22 Y153.089 E.03671
G1 X51.323 Y153.123 E.00553
G1 X51.361 Y153.212 E.00494
G1 X51.361 Y161.991 E.44599
G1 X51.432 Y162.993 E.05104
G1 X51.53 Y163.539 E.02818
G1 X51.674 Y164.087 E.02877
G1 X52.033 Y165.018 E.05069
G1 X52.338 Y165.602 E.03346
G1 X52.645 Y166.082 E.02896
G1 X52.993 Y166.541 E.02926
G1 X53.452 Y167.044 E.03459
G1 X54.207 Y167.702 E.05089
G1 X54.669 Y168.023 E.02857
G1 X55.2 Y168.329 E.03113
G1 X55.979 Y168.676 E.04329
G1 X56.639 Y168.891 E.03527
G1 X57.258 Y169.028 E.0322
G1 X58.19 Y169.13 E.04767
G1 X66.858 Y169.138 E.44032
G1 X66.956 Y169.186 E.00553
G1 X66.981 Y169.28 E.00495
G1 X66.931 Y169.616 E.01728
G1 X65.617 Y172.789 E.17444
G1 X63.495 Y175.568 E.17763
G1 X60.699 Y177.719 E.17925
G1 X57.437 Y179.066 E.17927
G1 X54.001 Y179.514 E.17602
G1 X50.566 Y179.066 E.176
G1 X47.315 Y177.719 E.17876
G1 X47.476 Y177.331 F10800
G1 F1200
G1 X47.473 Y177.33 E.00016
G1 X44.839 Y175.304 E.16879
G1 X42.791 Y172.648 E.17041
G1 X41.458 Y169.43 E.17694
G1 X41.028 Y166.135 E.16879
G1 X41.458 Y162.809 E.17041
G1 X42.791 Y159.591 E.17694
G1 X44.816 Y156.957 E.16879
G1 X47.474 Y154.908 E.17046
G1 X50.6 Y153.6 E.17218
G1 X50.803 Y153.567 E.01045
G1 X50.907 Y153.6 E.00553
G1 X50.945 Y153.691 E.00498
G1 X50.945 Y161.987 E.42146
G1 X51.024 Y163.074 E.05535
G1 X51.13 Y163.65 E.02976
G1 X51.271 Y164.186 E.02819
G1 X51.643 Y165.161 E.05301
G1 X51.991 Y165.831 E.03832
G1 X52.317 Y166.338 E.03062
G1 X52.659 Y166.788 E.02872
G1 X53.184 Y167.362 E.03955
G1 X53.976 Y168.047 E.05319
G1 X54.466 Y168.385 E.03025
G1 X55.037 Y168.711 E.03336
G1 X55.803 Y169.053 E.04265
G1 X56.555 Y169.298 E.04015
G1 X57.219 Y169.442 E.03453
G1 X58.138 Y169.543 E.04699
G1 X66.321 Y169.553 E.41569
G1 X66.419 Y169.601 E.00553
G1 X66.436 Y169.726 E.0064
G1 X65.26 Y172.565 E.1561
G1 X63.185 Y175.282 E.17369
G1 X60.474 Y177.362 E.17363
G1 X57.312 Y178.663 E.17365
G1 X54.017 Y179.093 E.16883
G1 X50.69 Y178.663 E.17041
G1 X47.512 Y177.347 E.17474
G1 X47.673 Y176.959 F10800
G1 F1200
G1 X47.669 Y176.957 E.00021
G1 X45.125 Y174.995 E.16322
G1 X43.163 Y172.451 E.1632
G1 X41.869 Y169.337 E.17131
G1 X41.449 Y166.151 E.16325
G1 X41.861 Y162.933 E.16482
G1 X43.147 Y159.816 E.17131
G1 X45.126 Y157.244 E.16486
G1 X47.699 Y155.264 E.16493
G1 X50.357 Y154.152 E.14636
G1 X50.466 Y154.158 E.00553
G1 X50.53 Y154.267 E.00643
G1 X50.53 Y161.982 E.39194
G1 X50.616 Y163.155 E.05974
G1 X50.72 Y163.72 E.02918
G1 X50.867 Y164.286 E.0297
G1 X51.252 Y165.303 E.05524
G1 X51.644 Y166.06 E.04334
G1 X51.965 Y166.559 E.03009
G1 X52.324 Y167.035 E.03031
G1 X52.917 Y167.681 E.04458
G1 X53.745 Y168.393 E.05548
G1 X54.265 Y168.749 E.03198
G1 X54.826 Y169.069 E.0328
G1 X55.628 Y169.43 E.04471
G1 X56.42 Y169.691 E.04236
G1 X57.18 Y169.855 E.0395
G1 X58.086 Y169.955 E.04632
G1 X65.699 Y169.968 E.38675
G1 X65.797 Y170.016 E.00553
G1 X65.814 Y170.141 E.0064
G1 X64.887 Y172.368 E.12259
G1 X62.875 Y174.996 E.16811
G1 X60.249 Y177.005 E.16799
G1 X57.22 Y178.252 E.16641
G1 X54.033 Y178.671 E.1633
G1 X50.815 Y178.26 E.16482
G1 X47.71 Y176.974 E.17072
G1 X47.871 Y176.586 F10800
G1 F1200
G1 X47.866 Y176.584 E.00025
G1 X45.434 Y174.708 E.15602
G1 X43.536 Y172.254 E.15763
G1 X42.28 Y169.244 E.1657
G1 X41.87 Y166.166 E.1577
G1 X42.264 Y163.057 E.15922
G1 X43.504 Y160.041 E.16567
G1 X45.435 Y157.53 E.16091
G1 X47.897 Y155.637 E.15777
G1 X49.941 Y154.777 E.11268
G1 X50.05 Y154.783 E.00553
G1 X50.114 Y154.892 E.00643
G1 X50.114 Y161.978 E.35997
G1 X50.209 Y163.236 E.06412
G1 X50.319 Y163.829 E.03063
G1 X50.463 Y164.384 E.02915
G1 X50.861 Y165.443 E.05747
G1 X51.298 Y166.29 E.04842
G1 X51.636 Y166.813 E.0316
G1 X51.989 Y167.28 E.02977
G1 X52.652 Y168.001 E.04975
G1 X53.516 Y168.74 E.05777
G1 X54.063 Y169.112 E.03362
G1 X54.615 Y169.427 E.03225
G1 X55.452 Y169.806 E.0467
G1 X56.284 Y170.084 E.04454
G1 X57.141 Y170.269 E.04457
G1 X58.035 Y170.367 E.04565
G1 X65.077 Y170.383 E.35775
G1 X65.175 Y170.43 E.00553
G1 X65.192 Y170.555 E.0064
G1 X64.514 Y172.172 E.08903
G1 X62.566 Y174.709 E.16255
G1 X60.053 Y176.632 E.16071
G1 X57.127 Y177.84 E.16085
G1 X54.048 Y178.25 E.15778
G1 X50.939 Y177.857 E.15921
G1 X47.908 Y176.601 E.16668
G1 X48.092 Y176.228 F10800
G1 F1200
G1 X45.743 Y174.422 E.1505
G1 X43.909 Y172.056 E.15208
G1 X42.691 Y169.149 E.16009
G1 X42.292 Y166.181 E.15215
G1 X42.667 Y163.18 E.15363
G1 X43.861 Y160.266 E.16001
G1 X45.744 Y157.817 E.15695
G1 X48.095 Y156.009 E.15064
G1 X49.525 Y155.402 E.07894
G1 X49.634 Y155.408 E.00553
G1 X49.698 Y155.517 E.00644
G1 X49.698 Y161.973 E.32794
G1 X49.801 Y163.319 E.06857
G1 X49.909 Y163.901 E.03007
G1 X50.059 Y164.483 E.03055
G1 X50.469 Y165.583 E.05963
G1 X50.926 Y166.476 E.05096
G1 X51.285 Y167.035 E.03373
G1 X51.654 Y167.526 E.03121
G1 X52.341 Y168.277 E.05172
G1 X53.241 Y169.052 E.06032
G1 X53.862 Y169.476 E.03819
G1 X54.448 Y169.808 E.03423
G1 X55.326 Y170.202 E.04892
G1 X56.202 Y170.491 E.04684
G1 X57.102 Y170.683 E.04674
G1 X58.04 Y170.783 E.04793
G1 X64.452 Y170.797 E.32576
G1 X64.55 Y170.845 E.00553
G1 X64.567 Y170.97 E.00642
G1 X64.142 Y171.974 E.0554
G1 X62.256 Y174.423 E.157
G1 X59.829 Y176.275 E.15511
G1 X57.033 Y177.429 E.15366
G1 X54.063 Y177.829 E.15226
G1 X51.063 Y177.454 E.15358
G1 X48.129 Y176.243 E.16127
G1 X48.289 Y175.855 F10800
G1 F1200
G1 X48.288 Y175.854 E.00007
G1 X46.029 Y174.112 E.14493
G1 X44.264 Y171.83 E.14657
G1 X43.094 Y169.023 E.15448
G1 X42.713 Y166.163 E.14658
G1 X43.079 Y163.272 E.14807
G1 X44.218 Y160.49 E.15268
G1 X46.031 Y158.126 E.15136
G1 X48.293 Y156.38 E.14516
G1 X49.11 Y156.03 E.04512
G1 X49.218 Y156.036 E.00553
G1 X49.283 Y156.145 E.00645
G1 X49.283 Y161.968 E.29582
G1 X49.394 Y163.401 E.07301
G1 X49.508 Y164.008 E.0314
G1 X49.655 Y164.581 E.03001
G1 X50.077 Y165.721 E.06179
G1 X50.554 Y166.66 E.05348
G1 X50.933 Y167.256 E.03586
G1 X51.318 Y167.771 E.0327
G1 X52.03 Y168.552 E.05369
G1 X52.965 Y169.362 E.06286
G1 X53.623 Y169.816 E.0406
G1 X54.283 Y170.189 E.0385
G1 X55.202 Y170.599 E.05114
G1 X56.122 Y170.899 E.04914
G1 X57.064 Y171.097 E.04893
G1 X58.045 Y171.199 E.05012
G1 X63.826 Y171.211 E.29364
G1 X63.924 Y171.259 E.00553
G1 X63.94 Y171.385 E.00644
G1 X63.77 Y171.776 E.02166
G1 X61.971 Y174.113 E.14985
G1 X59.605 Y175.918 E.15117
G1 X56.939 Y177.018 E.14651
G1 X54.077 Y177.408 E.14676
G1 X51.155 Y177.042 E.14962
G1 X48.326 Y175.87 E.15552
G1 X48.488 Y175.482 F10800
G1 F1200
G1 X48.485 Y175.481 E.00014
G1 X46.315 Y173.803 E.13935
G1 X44.621 Y171.604 E.14106
G1 X43.496 Y168.898 E.14887
G1 X43.134 Y166.146 E.141
G1 X43.491 Y163.363 E.14252
G1 X44.575 Y160.715 E.14539
G1 X46.318 Y158.435 E.14577
G1 X48.493 Y156.751 E.13973
G1 X48.693 Y156.661 E.01116
G1 X48.802 Y156.666 E.00553
G1 X48.867 Y156.776 E.00648
G1 X48.867 Y161.963 E.26354
G1 X48.979 Y163.427 E.07456
G1 X49.099 Y164.081 E.0338
G1 X49.268 Y164.73 E.03409
G1 X49.685 Y165.859 E.06112
G1 X50.18 Y166.843 E.05598
G1 X50.58 Y167.475 E.03796
G1 X51.015 Y168.055 E.03684
G1 X51.763 Y168.871 E.05625
G1 X52.688 Y169.672 E.06215
G1 X53.423 Y170.181 E.04543
G1 X54.119 Y170.571 E.04051
G1 X55.027 Y170.976 E.05051
G1 X56.043 Y171.307 E.05428
G1 X57.027 Y171.511 E.0511
G1 X58.051 Y171.614 E.05225
G1 X63.108 Y171.625 E.25693
G1 X63.206 Y171.673 E.00553
G1 X63.207 Y171.826 E.00778
G1 X61.685 Y173.802 E.12672
G1 X59.381 Y175.56 E.14722
G1 X56.814 Y176.616 E.14099
G1 X54.091 Y176.986 E.13963
G1 X51.246 Y176.63 E.14563
G1 X48.525 Y175.498 E.14976
G1 X48.686 Y175.11 F10800
G1 F1200
G1 X48.683 Y175.109 E.00021
G1 X46.602 Y173.494 E.13378
G1 X44.993 Y171.406 E.1339
G1 X43.899 Y168.772 E.1449
G1 X43.555 Y166.129 E.13543
G1 X43.894 Y163.486 E.13535
G1 X44.933 Y160.938 E.13978
G1 X46.605 Y158.743 E.1402
G1 X48.251 Y157.464 E.10587
G1 X48.357 Y157.442 E.00553
G1 X48.452 Y157.563 E.0078
G1 X48.452 Y161.959 E.2233
G1 X48.564 Y163.452 E.07609
G1 X48.689 Y164.152 E.0361
G1 X48.88 Y164.88 E.03827
G1 X49.293 Y165.997 E.06047
G1 X49.807 Y167.025 E.0584
G1 X50.25 Y167.728 E.04224
G1 X50.712 Y168.34 E.03896
G1 X51.496 Y169.19 E.05873
G1 X52.41 Y169.982 E.06145
G1 X53.225 Y170.546 E.05033
G1 X53.954 Y170.953 E.04243
G1 X54.851 Y171.353 E.0499
G1 X55.965 Y171.715 E.05948
G1 X56.992 Y171.925 E.05326
G1 X58.003 Y172.027 E.05162
G1 X62.265 Y172.039 E.21653
G1 X62.363 Y172.087 E.00553
G1 X62.364 Y172.24 E.00777
G1 X61.376 Y173.515 E.08195
G1 X59.185 Y175.187 E.13999
G1 X56.72 Y176.205 E.1355
G1 X54.105 Y176.565 E.13412
G1 X51.338 Y176.218 E.14164
G1 X48.723 Y175.126 E.14398
G1 X48.909 Y174.753 F10800
G1 F1200
G1 X46.889 Y173.186 E.12987
G1 X45.35 Y171.181 E.12841
G1 X44.31 Y168.679 E.13762
G1 X43.976 Y166.113 E.13149
G1 X44.305 Y163.578 E.12985
G1 X45.291 Y161.162 E.13256
G1 X46.916 Y159.028 E.13625
G1 X47.835 Y158.314 E.05913
G1 X47.941 Y158.291 E.00553
G1 X48.036 Y158.412 E.00781
G1 X48.036 Y161.954 E.17992
G1 X48.149 Y163.477 E.0776
G1 X48.279 Y164.22 E.0383
G1 X48.492 Y165.03 E.04255
G1 X48.924 Y166.188 E.0628
G1 X49.458 Y167.252 E.06046
G1 X49.896 Y167.946 E.04167
G1 X50.377 Y168.586 E.0407
G1 X51.186 Y169.467 E.06076
G1 X52.134 Y170.292 E.06382
G1 X52.983 Y170.884 E.05263
G1 X53.79 Y171.334 E.04692
G1 X54.729 Y171.75 E.05215
G1 X55.888 Y172.124 E.0619
G1 X56.903 Y172.331 E.0526
G1 X57.955 Y172.44 E.05376
G1 X61.42 Y172.452 E.17599
G1 X61.517 Y172.5 E.00553
G1 X61.518 Y172.653 E.00778
G1 X61.068 Y173.228 E.03708
G1 X58.961 Y174.83 E.13443
G1 X56.595 Y175.803 E.12998
G1 X54.086 Y176.144 E.12863
G1 X51.431 Y175.806 E.13599
G1 X48.946 Y174.768 E.1368
G1 X49.135 Y174.397 F10800
G1 F1200
G1 X47.177 Y172.878 E.12595
G1 X45.706 Y170.956 E.12291
G1 X44.722 Y168.586 E.13037
G1 X44.397 Y166.096 E.12755
G1 X44.717 Y163.67 E.12434
G1 X45.648 Y161.385 E.12535
G1 X47.204 Y159.336 E.13069
G1 X47.419 Y159.163 E.01403
G1 X47.526 Y159.141 E.00553
G1 X47.62 Y159.262 E.00781
G1 X47.62 Y161.949 E.13654
G1 X47.734 Y163.502 E.0791
G1 X47.869 Y164.286 E.04042
G1 X48.105 Y165.181 E.04698
G1 X48.555 Y166.381 E.06512
G1 X49.11 Y167.478 E.06247
G1 X49.541 Y168.163 E.04112
G1 X50.041 Y168.831 E.04238
G1 X50.876 Y169.743 E.0628
G1 X51.856 Y170.601 E.06618
G1 X52.741 Y171.222 E.05492
G1 X53.627 Y171.717 E.05155
G1 X54.607 Y172.147 E.0544
G1 X55.754 Y172.517 E.06124
G1 X56.814 Y172.737 E.05497
G1 X57.907 Y172.853 E.05583
G1 X60.489 Y172.865 E.1312
G1 X60.587 Y172.913 E.00553
G1 X60.61 Y173.019 E.00553
G1 X60.564 Y173.089 E.00423
G1 X58.738 Y174.472 E.1164
G1 X56.501 Y175.392 E.12287
G1 X54.068 Y175.723 E.12474
G1 X51.523 Y175.394 E.13035
G1 X49.172 Y174.412 E.12943
G1 X49.362 Y174.041 F10800
G1 F1200
G1 X47.464 Y172.569 E.12201
G1 X46.063 Y170.732 E.11739
G1 X45.133 Y168.493 E.12314
G1 X44.819 Y166.113 E.12196
G1 X45.128 Y163.762 E.12044
G1 X46.022 Y161.58 E.11984
G1 X46.981 Y160.317 E.08052
G1 X47.078 Y160.268 E.00553
G1 X47.177 Y160.313 E.00553
G1 X47.205 Y160.392 E.00426
G1 X47.205 Y161.945 E.07886
G1 X47.319 Y163.527 E.08058
G1 X47.458 Y164.351 E.04248
G1 X47.718 Y165.333 E.05156
G1 X48.164 Y166.521 E.06446
G1 X48.736 Y167.661 E.0648
G1 X49.212 Y168.416 E.04534
G1 X49.738 Y169.116 E.04451
G1 X50.607 Y170.06 E.06518
G1 X51.577 Y170.91 E.06551
G1 X52.497 Y171.559 E.0572
G1 X53.465 Y172.1 E.05632
G1 X54.486 Y172.545 E.05657
G1 X55.62 Y172.911 E.06058
G1 X56.776 Y173.151 E.05997
G1 X57.911 Y173.268 E.05796
G1 X59.26 Y173.275 E.06853
G1 X59.358 Y173.323 E.00553
G1 X59.381 Y173.429 E.00553
G1 X59.335 Y173.499 E.00424
G1 X58.515 Y174.115 E.05208
G1 X56.407 Y174.982 E.11579
G1 X54.05 Y175.301 E.12083
G1 X51.616 Y174.983 E.12469
G1 X49.399 Y174.057 E.12209
G1 X49.588 Y173.685 F10800
G1 F1200
G1 X47.752 Y172.261 E.11806
G1 X46.42 Y170.507 E.11187
G1 X45.544 Y168.399 E.11597
G1 X45.24 Y166.129 E.11637
G1 X45.539 Y163.855 E.11652
G1 X46.38 Y161.803 E.11268
G1 X46.565 Y161.552 E.01582
G1 X46.662 Y161.503 E.00553
G1 X46.761 Y161.548 E.00553
G1 X46.789 Y161.627 E.00426
G1 X46.789 Y161.94 E.0159
G1 X46.904 Y163.551 E.08204
G1 X47.048 Y164.415 E.04448
G1 X47.331 Y165.485 E.05621
G1 X47.773 Y166.661 E.06382
G1 X48.362 Y167.842 E.06707
G1 X48.857 Y168.633 E.0474
G1 X49.437 Y169.402 E.0489
G1 X50.296 Y170.337 E.06453
G1 X51.343 Y171.253 E.07066
