; generated by PrusaSlicer 2.7.2 on 2024-03-17 at 13:14:26 UTC

; 

; external perimeters extrusion width = 0.45mm
; perimeters extrusion width = 0.45mm
; infill extrusion width = 0.45mm
; solid infill extrusion width = 0.45mm
; top infill extrusion width = 0.40mm
; first layer extrusion width = 0.42mm

; external perimeters extrusion width = 0.45mm
; perimeters extrusion width = 0.45mm
; infill extrusion width = 0.45mm
; solid infill extrusion width = 0.45mm
; top infill extrusion width = 0.40mm
; first layer extrusion width = 0.42mm

M73 P0 R20
M73 Q0 S20

; printing object Kabelführung - Track_streight.stl id:1 copy 0
; stop printing object Kabelführung - Track_streight.stl id:1 copy 0
; printing object Kabelführung - Track_angled.stl id:0 copy 0
; stop printing object Kabelführung - Track_angled.stl id:0 copy 0

;TYPE:Custom
M862.3 P "MK3SMMU2S" ; printer model check
M862.1 P0.4 ; nozzle diameter check
M115 U3.10.0 ; tell printer latest fw version
G90 ; use absolute coordinates
M83 ; extruder relative mode
M104 S215 ; set extruder temp
M140 S60 ; set bed temp
M190 S60 ; wait for bed temp
M109 S215 ; wait for extruder temp
G28 W ; home all without mesh bed level
G80 ; mesh bed leveling

; Send the filament type to the MMU2.0 unit.
; E stands for extruder number, F stands for filament type (0: default; 1:flex; 2: PVA)
M403 E0 F0
M403 E1 F0
M403 E2 F0
M403 E3 F0
M403 E4 F0


;go outside print area
G1 Y-3.0 F1000.0
G1 Z0.4 F1000.0
; select extruder
T0
; initial load
G1 X55.0 E29.0 F1073.0
G1 X5.0 E29.0 F1800.0
G1 X55.0 E8.0 F2000.0
G1 Z0.3 F1000.0
G92 E0.0
G1 X240.0 E25.0 F2200.0
G1 Y-2.0 F1000.0
G1 X55.0 E25 F1400.0
G1 Z0.20 F1000.0
M73 P1 R20
M73 Q1 S20
G1 X5.0 E4.0 F1000.0
G92 E0.0


M221 S95
G92 E0.0

; Don't change E values below. Excessive value can damage the printer.

M907 E538 ; set extruder motor current
G21 ; set units to millimeters
G90 ; use absolute coordinates
M83 ; use relative distances for extrusion
M900 K0.05 ; Filament gcode LA 1.5
M900 K30 ; Filament gcode LA 1.0
M107
;LAYER_CHANGE
;Z:0.2
;HEIGHT:0.2
G1 E-.8 F2100
G1 Z.6 F10800
G1 X102.423 Y86.453
G1 Z.2
G1 E.8 F2100
M204 S1000
;TYPE:Skirt/Brim
;WIDTH:0.42
G1 F1200
G1 X103.349 Y85.491 E.04187
G1 X104.903 Y84.288 E.06162
G1 X106.591 Y83.396 E.05986
G1 X108.173 Y82.859 E.05238
G1 X110.061 Y82.537 E.06005
G1 X139.046 Y82.498 E.90881
G1 X141.002 Y82.677 E.06159
M73 P2 R20
M73 Q2 S20
G1 X142.94 Y83.209 E.06301
G1 X144.721 Y84.057 E.06185
G1 X145.547 Y84.593 E.03087
G1 X146.547 Y85.396 E.04021
G1 X147.92 Y86.876 E.0633
G1 X148.984 Y88.532 E.06172
G1 X149.739 Y90.333 E.06123
G1 X150.178 Y92.281 E.06261
G1 X150.272 Y93.448 E.03671
G1 X150.236 Y94.733 E.04031
G1 X148.063 Y118.142 E.73713
G1 X147.578 Y119.995 E.06006
M73 P2 R19
G1 X146.882 Y121.564 E.05382
G1 X145.888 Y123.1 E.05736
G1 X144.581 Y124.527 E.06067
G1 X143.458 Y125.434 E.04526
G1 X142.292 Y126.155 E.04298
G1 X141.159 Y126.686 E.03923
G1 X139.775 Y127.142 E.04569
G1 X138.386 Y127.41 E.04435
G1 X136.905 Y127.502 E.04653
G1 X135.443 Y127.401 E.04595
G1 X134.075 Y127.129 E.04373
G1 X132.677 Y126.661 E.04622
G1 X108.373 Y116.586 E.82492
G1 X107.373 Y116.069 E.0353
G1 X106.501 Y115.506 E.03254
G1 X105.502 Y114.704 E.04017
G1 X104.766 Y113.977 E.03244
G1 X103.837 Y112.828 E.04633
G1 X103.092 Y111.618 E.04455
G1 X102.593 Y110.546 E.03707
G1 X102.144 Y109.193 E.0447
G1 X99.873 Y95.604 E.43198
G1 X99.737 Y94.332 E.04011
G1 X99.739 Y93.177 E.03621
G1 X99.884 Y91.878 E.04098
G1 X100.136 Y90.753 E.03615
G1 X100.572 Y89.482 E.04213
G1 X101.028 Y88.51 E.03366
G1 X101.732 Y87.35 E.04255
G1 X102.387 Y86.501 E.03362
;WIPE_START
G1 F8640
G1 X102.423 Y86.453 E-.01385
G1 X103.349 Y85.491 E-.30832
G1 X104.903 Y84.288 E-.45378
G1 X104.995 Y84.239 E-.02405
;WIPE_END
G1 Z.6 F10800
G1 X104.555 Y88.261
G1 Z.2
G1 E.8 F2100
G1 F1200
G1 X105.807 Y87.069 E.0542
G1 X107.037 Y86.276 E.04589
G1 X107.893 Y85.883 E.02953
G1 X109.42 Y85.442 E.04983
G1 X110.904 Y85.294 E.04676
G1 X139.797 Y85.331 E.90592
G1 X141.265 Y85.601 E.0468
G1 X142.817 Y86.201 E.05217
G1 X144.123 Y87.015 E.04825
G1 X145.268 Y88.06 E.0486
G1 X146.183 Y89.264 E.04741
G1 X146.592 Y89.994 E.02624
G1 X147.181 Y91.534 E.0517
G1 X147.448 Y93.016 E.04722
G1 X147.447 Y94.548 E.04803
G1 X147.33 Y95.369 E.026
G1 X146.853 Y96.982 E.05274
G1 X146.167 Y98.312 E.04692
G1 X145.731 Y98.937 E.02389
G1 X144.737 Y100.023 E.04616
G1 X144.142 Y100.521 E.02433
G1 X142.78 Y101.368 E.05029
G1 X141.974 Y101.719 E.02756
G1 X140.517 Y102.12 E.04738
G1 X139.055 Y102.257 E.04604
G1 X134.978 Y102.257 E.12783
G1 X143.477 Y110.808 E.37801
G1 X144.346 Y112.073 E.04812
G1 X145.019 Y113.611 E.05264
G1 X145.238 Y114.425 E.02643
G1 X145.432 Y116.192 E.05574
G1 X145.303 Y117.697 E.04736
G1 X144.891 Y119.205 E.04902
G1 X144.57 Y119.949 E.02541
G1 X143.699 Y121.362 E.05204
G1 X143.093 Y122.073 E.02929
G1 X141.863 Y123.139 E.05103
G1 X140.443 Y123.953 E.05132
M73 P3 R19
G1 X139.45 Y124.331 E.03331
G1 X138.091 Y124.63 E.04363
G1 X136.978 Y124.707 E.03498
G1 X135.874 Y124.638 E.03468
G1 X134.375 Y124.306 E.04814
G1 X133.424 Y123.939 E.03196
G1 X132.509 Y123.451 E.03251
M73 Q3 S20
G1 X131.752 Y122.927 E.02887
G1 X131.044 Y122.311 E.02942
G1 X123.537 Y114.807 E.33281
G1 X113.011 Y114.807 E.33004
G1 X111.515 Y114.667 E.04711
G1 X110.358 Y114.369 E.03746
G1 X109.403 Y113.983 E.0323
G1 X108.504 Y113.486 E.03221
G1 X107.634 Y112.853 E.03373
G1 X106.849 Y112.113 E.03383
G1 X106.146 Y111.252 E.03485
G1 X105.518 Y110.224 E.03777
G1 X104.854 Y108.507 E.05772
G1 X104.584 Y106.84 E.05295
G1 X104.577 Y105.935 E.02838
G1 X104.66 Y105.086 E.02675
G1 X105.058 Y103.485 E.05173
G1 X105.721 Y102.057 E.04936
G1 X106.497 Y100.956 E.04223
G1 X105.273 Y100.032 E.04809
G1 X104.718 Y99.475 E.02465
G1 X103.868 Y98.367 E.04379
G1 X103.489 Y97.718 E.02356
G1 X103.03 Y96.676 E.0357
G1 X102.801 Y95.948 E.02393
G1 X102.55 Y94.512 E.04571
G1 X102.518 Y93.717 E.02495
G1 X102.72 Y91.934 E.05626
G1 X103.201 Y90.441 E.04918
G1 X103.583 Y89.662 E.0272
G1 X104.52 Y88.311 E.05155
G1 X104.52 Y88.311 F10800
G1 X104.828 Y88.524
G1 F1200
G1 X104.836 Y88.513 E.00043
G1 X106.047 Y87.36 E.05243
G1 X107.219 Y86.606 E.0437
G1 X108.023 Y86.237 E.02774
G1 X109.498 Y85.811 E.04814
G1 X110.909 Y85.671 E.04446
G1 X139.08 Y85.671 E.88328
G1 X140.425 Y85.797 E.04236
G1 X141.902 Y86.208 E.04807
G1 X143.302 Y86.906 E.04905
G1 X144.452 Y87.778 E.04525
G1 X145.461 Y88.882 E.04689
G1 X146.25 Y90.153 E.04691
G1 X146.819 Y91.641 E.04995
G1 X147.073 Y93.058 E.04514
G1 X147.07 Y94.521 E.04587
G1 X146.958 Y95.306 E.02486
G1 X146.767 Y96.089 E.02527
G1 X146.207 Y97.483 E.0471
G1 X145.844 Y98.118 E.02293
G1 X144.98 Y99.246 E.04455
G1 X143.907 Y100.226 E.04556
G1 X143.302 Y100.644 E.02306
G1 X141.848 Y101.363 E.05086
G1 X141.14 Y101.592 E.02333
G1 X139.739 Y101.846 E.04464
G1 X134.068 Y101.88 E.17781
G1 X143.192 Y111.055 E.40571
G1 X144.012 Y112.248 E.04539
G1 X144.663 Y113.735 E.0509
G1 X144.867 Y114.493 E.02461
G1 X145.055 Y116.202 E.05391
G1 X144.93 Y117.64 E.04526
G1 X144.541 Y119.064 E.04628
G1 X144.227 Y119.792 E.02486
G1 X143.406 Y121.125 E.04909
G1 X142.812 Y121.821 E.02869
G1 X141.652 Y122.826 E.04812
G1 X140.281 Y123.613 E.04957
G1 X139.326 Y123.974 E.03201
G1 X138.055 Y124.255 E.04081
G1 X136.988 Y124.329 E.03354
G1 X135.928 Y124.265 E.0333
G1 X134.482 Y123.945 E.04644
G1 X133.572 Y123.592 E.0306
G1 X132.697 Y123.123 E.03113
G1 X131.297 Y122.031 E.05567
G1 X123.693 Y114.43 E.33711
G1 X113.016 Y114.43 E.33477
G1 X111.598 Y114.299 E.04465
G1 X110.487 Y114.014 E.03596
G1 X109.576 Y113.647 E.03079
G1 X108.697 Y113.162 E.03148
G1 X107.866 Y112.555 E.03227
G1 X107.118 Y111.847 E.03229
G1 X106.447 Y111.024 E.03329
G1 X105.857 Y110.06 E.03544
G1 X105.216 Y108.401 E.05576
G1 X104.96 Y106.809 E.05056
G1 X104.954 Y105.942 E.02718
G1 X105.186 Y104.365 E.04998
G1 X105.701 Y102.909 E.04842
G1 X106.46 Y101.608 E.04723
G1 X107.055 Y100.863 E.02989
G1 X106.369 Y100.427 E.02549
G1 X105.002 Y99.227 E.05703
G1 X104.181 Y98.156 E.04231
G1 X103.821 Y97.537 E.02245
G1 X103.167 Y95.859 E.05647
G1 X102.925 Y94.472 E.04415
G1 X102.896 Y93.712 E.02385
G1 X103.086 Y92.024 E.05326
G1 X103.551 Y90.582 E.04751
G1 X103.917 Y89.836 E.02605
G1 X104.794 Y88.573 E.04821
G1 X104.794 Y88.573 F10800
G1 X105.101 Y88.787
G1 F1200
G1 X105.117 Y88.764 E.00088
G1 X106.272 Y87.663 E.05003
G1 X107.401 Y86.936 E.0421
G1 X108.153 Y86.591 E.02594
G1 X109.577 Y86.18 E.04647
G1 X110.924 Y86.048 E.04244
G1 X139.712 Y86.08 E.90263
G1 X141.047 Y86.323 E.04255
M73 P4 R19
M73 Q4 S20
G1 X141.758 Y86.557 E.02347
G1 X143.109 Y87.23 E.04732
G1 X144.191 Y88.05 E.04257
G1 X144.722 Y88.581 E.02355
G1 X145.534 Y89.65 E.04209
G1 X146.243 Y91.081 E.05007
G1 X146.457 Y91.749 E.02199
M73 Q4 S19
G1 X146.697 Y93.083 E.0425
G1 X146.694 Y94.494 E.04424
G1 X146.586 Y95.243 E.02373
G1 X146.16 Y96.683 E.04708
G1 X145.521 Y97.923 E.04374
G1 X144.696 Y98.998 E.04249
G1 X144.216 Y99.477 E.02126
G1 X143.109 Y100.32 E.04363
G1 X141.723 Y101.007 E.0485
G1 X141.048 Y101.227 E.02226
G1 X139.696 Y101.472 E.04308
G1 X133.157 Y101.503 E.20503
G1 X142.454 Y110.8 E.41224
G1 X143.315 Y111.842 E.04238
G1 X144.057 Y113.191 E.04827
G1 X144.496 Y114.562 E.04514
G1 X144.644 Y115.508 E.03002
G1 X144.649 Y116.891 E.04336
G1 X144.409 Y118.246 E.04315
G1 X143.893 Y119.617 E.04593
G1 X143.112 Y120.888 E.04677
G1 X142.545 Y121.555 E.02745
G1 X141.426 Y122.524 E.04641
G1 X140.137 Y123.264 E.0466
G1 X139.22 Y123.612 E.03075
G1 X137.998 Y123.882 E.03924
G1 X136.975 Y123.952 E.03215
G1 X135.962 Y123.889 E.03182
G1 X134.609 Y123.589 E.04345
G1 X133.719 Y123.245 E.02992
G1 X132.885 Y122.797 E.02968
G1 X131.55 Y121.752 E.05316
G1 X123.849 Y114.053 E.34143
G1 X113.02 Y114.053 E.33954
G1 X111.68 Y113.931 E.04219
G1 X110.615 Y113.659 E.03446
G1 X109.747 Y113.311 E.02932
G1 X108.909 Y112.85 E.02999
G1 X108.116 Y112.273 E.03075
G1 X107.386 Y111.582 E.03152
G1 X106.747 Y110.796 E.03176
G1 X106.196 Y109.895 E.03311
G1 X105.578 Y108.296 E.05375
G1 X105.336 Y106.777 E.04823
G1 X105.331 Y105.968 E.02537
G1 X105.55 Y104.464 E.04765
G1 X106.039 Y103.075 E.04617
G1 X106.771 Y101.822 E.0455
G1 X107.703 Y100.764 E.04421
G1 X106.596 Y100.126 E.04006
G1 X105.762 Y99.457 E.03352
G1 X105.276 Y98.967 E.02164
G1 X104.494 Y97.946 E.04032
G1 X104.152 Y97.357 E.02136
G1 X103.534 Y95.77 E.0534
G1 X103.3 Y94.432 E.04259
G1 X103.273 Y93.708 E.02272
G1 X103.453 Y92.113 E.05033
G1 X103.901 Y90.723 E.04579
G1 X104.251 Y90.011 E.02488
G1 X105.067 Y88.836 E.04485
G1 X105.067 Y88.836 F10800
G1 X105.375 Y89.05
G1 F1200
G1 X105.399 Y89.014 E.00136
G1 X106.498 Y87.965 E.04764
G1 X107.583 Y87.267 E.04045
G1 X108.284 Y86.945 E.02419
G1 X109.654 Y86.549 E.04471
G1 X110.939 Y86.425 E.04048
G1 X139.052 Y86.425 E.88146
G1 X140.276 Y86.536 E.03854
G1 X140.938 Y86.685 E.02128
G1 X142.334 Y87.224 E.04692
G1 X142.915 Y87.554 E.02095
G1 X143.931 Y88.324 E.03997
G1 X144.449 Y88.842 E.02297
G1 X145.211 Y89.843 E.03944
G1 X145.893 Y91.222 E.04824
G1 X146.096 Y91.855 E.02084
G1 X146.321 Y93.108 E.03992
G1 X146.318 Y94.467 E.04261
G1 X146.218 Y95.163 E.02205
G1 X146.044 Y95.874 E.02295
G1 X145.537 Y97.137 E.04267
G1 X144.828 Y98.255 E.04151
G1 X143.956 Y99.204 E.04041
G1 X143.45 Y99.626 E.02066
G1 X142.301 Y100.343 E.04246
G1 X140.956 Y100.861 E.04519
G1 X140.307 Y101.009 E.02087
G1 X139.033 Y101.126 E.04011
G1 X132.247 Y101.126 E.21277
G1 X142.177 Y111.057 E.44033
G1 X142.999 Y112.049 E.04039
G1 X143.707 Y113.332 E.04595
G1 X144.13 Y114.65 E.0434
G1 X144.268 Y115.537 E.02815
G1 X144.274 Y116.851 E.0412
G1 X144.047 Y118.139 E.04101
G1 X143.558 Y119.443 E.04367
G1 X142.807 Y120.666 E.045
G1 X142.278 Y121.289 E.02563
G1 X141.201 Y122.221 E.04466
G1 X139.993 Y122.915 E.04368
G1 X139.115 Y123.25 E.02946
G1 X137.942 Y123.509 E.03766
G1 X136.962 Y123.575 E.0308
G1 X135.997 Y123.513 E.03032
G1 X134.735 Y123.234 E.04052
G1 X133.887 Y122.907 E.0285
G1 X133.073 Y122.47 E.02897
G1 X131.803 Y121.472 E.05064
G1 X124.005 Y113.676 E.34573
G1 X113.025 Y113.676 E.34427
M73 P5 R19
G1 X111.742 Y113.558 E.0404
G1 X110.744 Y113.305 E.03228
G1 X109.898 Y112.966 E.02858
G1 X109.102 Y112.526 E.02852
M73 Q5 S19
G1 X108.349 Y111.976 E.02924
G1 X107.655 Y111.317 E.03001
G1 X107.048 Y110.569 E.0302
G1 X106.536 Y109.73 E.03082
G1 X105.94 Y108.19 E.05178
G1 X105.712 Y106.746 E.04584
G1 X105.775 Y105.277 E.0461
G1 X106.122 Y103.87 E.04544
G1 X106.702 Y102.62 E.04321
G1 X107.567 Y101.43 E.04613
G1 X108.369 Y100.637 E.03536
G1 X107.335 Y100.147 E.03588
G1 X106.022 Y99.184 E.05105
G1 X105.56 Y98.719 E.02055
G1 X104.816 Y97.749 E.03833
G1 X104.493 Y97.196 E.02008
G1 X103.896 Y95.666 E.05149
G1 X103.675 Y94.392 E.04054
G1 X103.65 Y93.704 E.02159
G1 X103.82 Y92.202 E.04739
G1 X104.251 Y90.864 E.04407
G1 X104.585 Y90.187 E.02367
G1 X105.34 Y89.099 E.04152
G1 X105.34 Y89.099 F10800
G1 X105.648 Y89.313
G1 F1200
G1 X105.681 Y89.265 E.00183
G1 X106.724 Y88.267 E.04526
G1 X107.765 Y87.597 E.03882
G1 X108.414 Y87.299 E.02239
G1 X109.732 Y86.918 E.04302
G1 X110.953 Y86.802 E.03846
G1 X139.628 Y86.83 E.89908
G1 X140.847 Y87.051 E.03884
G1 X141.471 Y87.254 E.02057
G1 X142.708 Y87.869 E.04331
G1 X143.683 Y88.608 E.03836
G1 X144.165 Y89.09 E.02137
G1 X144.896 Y90.051 E.03786
G1 X145.225 Y90.632 E.02093
G1 X145.73 Y91.947 E.04417
G1 X145.946 Y93.15 E.03832
G1 X145.974 Y93.801 E.02043
G1 X145.846 Y95.099 E.0409
G1 X145.68 Y95.775 E.02183
G1 X145.461 Y96.401 E.02079
G1 X144.893 Y97.505 E.03893
G1 X144.13 Y98.499 E.03929
G1 X143.228 Y99.321 E.03826
G1 X142.14 Y100.001 E.04023
G1 X140.863 Y100.495 E.04293
G1 X140.232 Y100.639 E.02029
G1 X139.029 Y100.749 E.03788
G1 X131.282 Y100.749 E.2429
G1 X141.901 Y111.314 E.46967
G1 X142.685 Y112.257 E.03845
G1 X143.357 Y113.474 E.04359
G1 X143.763 Y114.738 E.04163
G1 X143.892 Y115.566 E.02627
G1 X143.899 Y116.811 E.03904
G1 X143.685 Y118.033 E.0389
G1 X143.223 Y119.269 E.04137
G1 X142.502 Y120.444 E.04322
G1 X142.01 Y121.022 E.0238
G1 X140.976 Y121.919 E.04292
G1 X139.848 Y122.567 E.04079
G1 X139.009 Y122.888 E.02817
G1 X137.887 Y123.135 E.03602
G1 X136.949 Y123.198 E.02948
G1 X136.032 Y123.138 E.02881
G1 X134.861 Y122.878 E.03761
G1 X134.034 Y122.559 E.02779
G1 X133.262 Y122.143 E.0275
G1 X132.057 Y121.193 E.04811
G1 X124.162 Y113.299 E.35006
G1 X113.029 Y113.299 E.34907
G1 X111.803 Y113.186 E.0386
G1 X110.872 Y112.95 E.03011
G1 X110.07 Y112.63 E.02707
G1 X109.295 Y112.201 E.02777
G1 X108.582 Y111.679 E.02771
G1 X107.924 Y111.053 E.02848
G1 X107.349 Y110.341 E.0287
G1 X106.875 Y109.566 E.02848
G1 X106.307 Y108.103 E.04921
G1 X106.088 Y106.715 E.04406
G1 X106.149 Y105.322 E.04372
G1 X106.48 Y103.988 E.04309
G1 X107.032 Y102.803 E.04099
G1 X107.856 Y101.673 E.04385
G1 X109.166 Y100.506 E.05501
G1 X108.051 Y100.095 E.03726
G1 X107.018 Y99.501 E.03736
G1 X106.266 Y98.896 E.03026
G1 X105.466 Y98.019 E.03722
G1 X104.834 Y97.034 E.03669
G1 X104.428 Y96.109 E.03167
G1 X104.132 Y94.987 E.03638
G1 X104.027 Y93.7 E.04049
G1 X104.079 Y92.925 E.02435
G1 X104.35 Y91.676 E.04007
G1 X104.919 Y90.363 E.04487
G1 X105.614 Y89.362 E.03821
G1 X105.614 Y89.362 F10800
G1 X105.916 Y89.616
G1 F1200
G1 X106.373 Y89.074 E.02223
G1 X106.95 Y88.569 E.02404
G1 X107.947 Y87.928 E.03716
G1 X108.545 Y87.653 E.02064
G1 X109.808 Y87.287 E.04123
G1 X110.967 Y87.179 E.0365
G1 X139.025 Y87.179 E.87974
G1 X140.159 Y87.281 E.0357
G1 X140.755 Y87.416 E.01916
G1 X141.328 Y87.603 E.0189
G1 X142.501 Y88.185 E.04106
G1 X143.436 Y88.893 E.03677
G1 X143.881 Y89.338 E.01973
G1 X144.572 Y90.245 E.03575
G1 X144.883 Y90.793 E.01976
G1 X145.364 Y92.038 E.04185
G1 X145.569 Y93.175 E.03622
M73 P6 R19
G1 X145.597 Y93.792 E.01937
G1 X145.478 Y95.019 E.03865
G1 X145.321 Y95.659 E.02066
G1 X145.108 Y96.268 E.02023
G1 X144.578 Y97.297 E.03629
G1 X143.858 Y98.238 E.03715
G1 X142.994 Y99.026 E.03666
G1 X141.979 Y99.66 E.03752
G1 X140.755 Y100.134 E.04115
G1 X140.173 Y100.267 E.01872
G1 X139.015 Y100.372 E.03646
G1 X130.482 Y100.372 E.26755
G1 X130.401 Y100.641 E.00881
G1 X131.7 Y101.646 E.0515
G1 X141.625 Y111.571 E.44009
M73 Q6 S19
G1 X142.37 Y112.465 E.03649
G1 X143.015 Y113.633 E.04183
G1 X143.396 Y114.825 E.03924
G1 X143.516 Y115.595 E.02443
