; generated by PrusaSlicer 2.7.4 on 2024-04-15 at 14:31:00 UTC


;
;
; 

; external perimeters extrusion width = 0.45mm
; perimeters extrusion width = 0.45mm
; infill extrusion width = 0.45mm
; solid infill extrusion width = 0.45mm
; top infill extrusion width = 0.40mm
; first layer extrusion width = 0.42mm

; external perimeters extrusion width = 0.45mm
; perimeters extrusion width = 0.45mm
; infill extrusion width = 0.45mm
; solid infill extrusion width = 0.45mm
; top infill extrusion width = 0.40mm
; first layer extrusion width = 0.42mm

; external perimeters extrusion width = 0.45mm
; perimeters extrusion width = 0.45mm
; infill extrusion width = 0.45mm
; solid infill extrusion width = 0.45mm
; top infill extrusion width = 0.40mm
; first layer extrusion width = 0.42mm

; external perimeters extrusion width = 0.45mm
; perimeters extrusion width = 0.45mm
; infill extrusion width = 0.45mm
; solid infill extrusion width = 0.45mm
; top infill extrusion width = 0.40mm
; first layer extrusion width = 0.42mm

M73 P0 R98
M73 Q0 S99
M201 X1000 Y1000 Z200 E5000 ; sets maximum accelerations, mm/sec^2
M203 X200 Y200 Z12 E120 ; sets maximum feedrates, mm / sec
M204 S1250 T1250 ; sets acceleration (S) and retract acceleration (R), mm/sec^2
M205 X8.00 Y8.00 Z0.40 E4.50 ; sets the jerk limits, mm/sec
M205 S0 T0 ; sets the minimum extruding and travel feed rate, mm/sec

; printing object minipc_holder_left - Part 2.stl id:1 copy 0
; stop printing object minipc_holder_left - Part 2.stl id:1 copy 0
; printing object minipc_holder_left - Part 2.stl id:0 copy 0
; stop printing object minipc_holder_left - Part 2.stl id:0 copy 0
; printing object minipc_holder_left - Part 2.stl id:3 copy 0
; stop printing object minipc_holder_left - Part 2.stl id:3 copy 0
; printing object minipc_holder_left - Part 2.stl id:2 copy 0
; stop printing object minipc_holder_left - Part 2.stl id:2 copy 0

;TYPE:Custom
M862.3 P "MK3" ; printer model check
M862.1 P0.4 ; nozzle diameter check
M115 U3.13.3 ; tell printer latest fw version
G90 ; use absolute coordinates
M83 ; extruder relative mode
M104 S215 ; set extruder temp
M140 S60 ; set bed temp
M190 S60 ; wait for bed temp
M109 S215 ; wait for extruder temp
G28 W ; home all without mesh bed level
G80 X98.147 Y77.9594 W53.706 H54.0812 ; mesh bed levelling

G1 Z0.2 F720
G1 Y-3 F1000 ; go outside print area
G92 E0
G1 X60 E9 F1000 ; intro line
G1 X100 E12.5 F1000 ; intro line

G92 E0
M221 S95

; Don't change E values below. Excessive value can damage the printer.

M907 E538 ; set extruder motor current
G21 ; set units to millimeters
G90 ; use absolute coordinates
M83 ; use relative distances for extrusion

M900 K0.05 ; Filament gcode LA 1.5
M900 K30 ; Filament gcode LA 1.0




M107
;LAYER_CHANGE
;Z:0.2
;HEIGHT:0.2
G1 E-.8 F2100
M73 Q0 S98
G1 Z.6 F720
G1 X99.674 Y91.427 F10800
G1 Z.2 F720
G1 E.8 F2100
M204 S800
;TYPE:Skirt/Brim
;WIDTH:0.42
G1 F1200
G1 X108.36 Y82.059 E.40056
G1 X109.178 Y81.259 E.03587
G1 X110.302 Y80.369 E.04495
G1 X111.619 Y79.565 E.04838
G1 X112.777 Y79.029 E.04001
G1 X114.243 Y78.546 E.0484
G1 X115.699 Y78.259 E.04653
G1 X117.239 Y78.149 E.04841
G1 X146.3 Y78.148 E.91119
G1 X147.981 Y78.844 E.05705
G1 X150.968 Y81.832 E.13247
G1 X151.664 Y83.513 E.05705
G1 X151.626 Y114.18 E.96154
G1 X151.298 Y116.19 E.06386
G1 X150.661 Y118.074 E.06236
G1 X149.865 Y119.613 E.05433
G1 X148.662 Y121.257 E.06387
G1 X140.344 Y130.239 E.38384
G1 X139.552 Y130.802 E.03047
G1 X137.6 Y131.654 E.06678
G1 X136.649 Y131.852 E.03046
G1 X103.7 Y131.852 E1.03309
G1 X102.019 Y131.156 E.05705
G1 X99.032 Y128.168 E.13247
G1 X98.336 Y126.487 E.05705
G1 X98.336 Y94.839 E.9923
G1 X98.5 Y93.971 E.0277
G1 X99.204 Y92.175 E.06048
G1 X99.642 Y91.478 E.02581
M204 S1000
;WIPE_START
G1 F8640
G1 X99.674 Y91.427 E-.0139
G1 X101.989 Y88.931 E-.7861
;WIPE_END
G1 Z.6 F720
G1 X101.992 Y92.913 F10800
G1 Z.2 F720
G1 E.8 F2100
M204 S800
G1 F1200
G1 X102.114 Y92.713 E.00735
G1 X110.507 Y83.668 E.38689
G1 X111.751 Y82.607 E.05126
G1 X112.578 Y82.077 E.0308
G1 X114.374 Y81.283 E.06157
G1 X116.194 Y80.881 E.05844
G1 X117.273 Y80.811 E.0339
G1 X124.258 Y80.815 E.21901
G1 X125.428 Y81.06 E.03748
G1 X126.478 Y81.568 E.03657
G1 X127.506 Y82.466 E.0428
G1 X128.256 Y83.631 E.04344
G1 X128.645 Y84.973 E.04381
G1 X128.664 Y86.005 E.03236
G1 X130.866 Y83.633 E.10148
G1 X132.17 Y82.541 E.05333
G1 X133.666 Y81.685 E.05404
G1 X134.697 Y81.284 E.03469
G1 X136.453 Y80.889 E.05643
G1 X137.532 Y80.814 E.03391
G1 X144.733 Y80.831 E.22578
G1 X145.681 Y81.035 E.0304
G1 X146.592 Y81.432 E.03116
G1 X148.05 Y82.731 E.06123
G1 X148.676 Y83.857 E.04039
G1 X149.001 Y85.21 E.04363
G1 X148.995 Y92.706 E.23503
G1 X148.872 Y93.929 E.03854
G1 X148.691 Y94.785 E.02743
G1 X148.007 Y96.62 E.0614
G1 X147.489 Y97.538 E.03305
G1 X146.493 Y98.839 E.05137
G1 X143.863 Y101.676 E.12129
G1 X144.822 Y101.692 E.03007
G1 X145.891 Y101.96 E.03456
G1 X146.873 Y102.464 E.03461
G1 X147.759 Y103.235 E.03683
G1 X148.581 Y104.483 E.04686
G1 X148.994 Y105.997 E.0492
G1 X148.995 Y113.572 E.23751
G1 X148.719 Y115.524 E.06181
G1 X148.06 Y117.362 E.06122
G1 X147.415 Y118.503 E.0411
G1 X146.53 Y119.646 E.04532
G1 X138.891 Y127.889 E.35237
G1 X137.72 Y128.691 E.0445
G1 X136.325 Y129.13 E.04585
G1 X125.72 Y129.189 E.33252
G1 X124.266 Y128.821 E.04703
G1 X123.187 Y128.192 E.03916
G1 X122.333 Y127.335 E.03793
G1 X121.804 Y126.503 E.03091
G1 X121.318 Y124.918 E.05198
G1 X118.514 Y127.935 E.12914
G1 X116.963 Y128.88 E.05695
G1 X115.594 Y129.184 E.04397
G1 X105.391 Y129.188 E.31991
G1 X103.874 Y128.793 E.04915
G1 X102.781 Y128.127 E.04013
G1 X101.906 Y127.206 E.03983
G1 X101.388 Y126.293 E.03291
G1 X101.036 Y125.073 E.03981
G1 X101.023 Y116.138 E.28015
G1 X101.368 Y114.805 E.04317
G1 X102.089 Y113.596 E.04414
G1 X106.969 Y108.33 E.22511
G1 X105.217 Y108.315 E.05493
G1 X103.772 Y107.897 E.04716
G1 X102.651 Y107.168 E.04193
G1 X101.942 Y106.403 E.0327
G1 X101.453 Y105.595 E.02961
G1 X100.999 Y103.959 E.05323
G1 X101.006 Y95.415 E.26789
G1 X101.398 Y93.886 E.04949
G1 X101.96 Y92.964 E.03386
M204 S1000
G1 X101.96 Y92.964 F10800
G1 X102.278 Y93.159
M204 S800
G1 F1200
G1 X102.403 Y92.956 E.00747
G1 X110.778 Y83.93 E.38606
G1 X111.346 Y83.402 E.02432
G1 X112.758 Y82.409 E.05412
G1 X114.501 Y81.638 E.05976
G1 X116.228 Y81.257 E.05545
G1 X117.279 Y81.189 E.03302
G1 X124.238 Y81.192 E.21819
G1 X125.326 Y81.424 E.03488
G1 X126.289 Y81.895 E.03361
G1 X127.237 Y82.732 E.03965
G1 X127.902 Y83.762 E.03844
G1 X128.275 Y85.052 E.0421
G1 X128.288 Y86.964 E.05995
G1 X131.127 Y83.906 E.13083
G1 X132.379 Y82.854 E.05127
G1 X133.83 Y82.025 E.0524
G1 X134.824 Y81.639 E.03343
G1 X136.509 Y81.262 E.05414
G1 X137.538 Y81.191 E.03234
G1 X144.673 Y81.204 E.22371
G1 X145.583 Y81.4 E.02919
G1 X146.413 Y81.765 E.02843
G1 X147.737 Y82.943 E.05557
G1 X148.316 Y83.973 E.03705
G1 X148.624 Y85.233 E.04067
G1 X148.618 Y92.696 E.234
G1 X148.501 Y93.861 E.03671
G1 X148.328 Y94.683 E.02634
G1 X147.664 Y96.463 E.05957
G1 X146.676 Y98.037 E.05827
G1 X143.001 Y102.051 E.17064
G1 X144.755 Y102.063 E.055
G1 X145.741 Y102.306 E.03184
G1 X146.643 Y102.764 E.03172
G1 X147.492 Y103.503 E.03529
G1 X148.225 Y104.611 E.04165
G1 X148.624 Y106.072 E.04749
G1 X148.618 Y113.545 E.23431
G1 X148.351 Y115.441 E.06003
G1 X147.716 Y117.206 E.05881
G1 X146.694 Y118.863 E.06104
G1 X138.629 Y127.616 E.37318
G1 X137.532 Y128.363 E.04161
G1 X136.241 Y128.762 E.04237
G1 X125.743 Y128.812 E.32916
G1 X124.387 Y128.462 E.04391
G1 X123.4 Y127.88 E.03593
G1 X122.639 Y127.114 E.03386
G1 X122.157 Y126.367 E.02787
G1 X121.727 Y124.967 E.04592
G1 X121.709 Y123.94 E.03221
G1 X118.295 Y127.626 E.15753
G1 X116.794 Y128.541 E.05512
G1 X115.535 Y128.811 E.04037
G1 X105.415 Y128.811 E.31731
G1 X104.045 Y128.455 E.04438
G1 X103.037 Y127.848 E.03689
G1 X102.195 Y126.963 E.0383
G1 X101.744 Y126.167 E.02869
G1 X101.406 Y124.994 E.03828
G1 X101.394 Y116.209 E.27545
G1 X101.726 Y114.927 E.04152
M73 P0 R97
G1 X102.401 Y113.808 E.04097
G1 X107.833 Y107.953 E.25042
G1 X105.294 Y107.945 E.07961
G1 X103.952 Y107.565 E.04373
G1 X102.91 Y106.893 E.03888
G1 X102.253 Y106.188 E.03022
G1 X101.808 Y105.466 E.02659
G1 X101.376 Y103.933 E.04994
G1 X101.383 Y95.44 E.26629
G1 X101.755 Y94.008 E.04639
G1 X102.246 Y93.21 E.02938
M204 S1000
G1 X102.246 Y93.21 F10800
G1 X102.563 Y93.407
M204 S800
G1 F1200
G1 X102.691 Y93.2 E.00763
G1 X111.05 Y84.191 E.38533
G1 X112.201 Y83.212 E.04738
G1 X112.938 Y82.74 E.02744
G1 X114.628 Y81.993 E.05793
G1 X116.263 Y81.633 E.05249
G1 X117.285 Y81.566 E.03211
G1 X124.217 Y81.569 E.21735
G1 X125.223 Y81.787 E.03227
G1 X126.099 Y82.221 E.03065
G1 X126.935 Y82.96 E.03499
G1 X127.548 Y83.894 E.03503
G1 X127.905 Y85.131 E.04037
G1 X127.91 Y87.926 E.08764
G1 X131.398 Y84.168 E.16076
G1 X131.992 Y83.625 E.02523
G1 X133.238 Y82.754 E.04767
G1 X133.976 Y82.373 E.02604
G1 X135.72 Y81.783 E.05773
G1 X137.544 Y81.568 E.05759
G1 X144.615 Y81.577 E.22171
G1 X145.449 Y81.753 E.02673
G1 X146.234 Y82.099 E.0269
G1 X147.425 Y83.157 E.04995
G1 X147.957 Y84.09 E.03368
G1 X148.247 Y85.256 E.03767
G1 X148.241 Y92.686 E.23296
G1 X148.127 Y93.813 E.03552
G1 X147.961 Y94.596 E.0251
G1 X147.321 Y96.306 E.05725
G1 X146.373 Y97.812 E.0558
G1 X142.138 Y102.426 E.19637
G1 X144.688 Y102.435 E.07995
G1 X145.59 Y102.652 E.02909
G1 X146.452 Y103.09 E.03032
G1 X147.193 Y103.734 E.03078
G1 X147.871 Y104.742 E.03809
G1 X148.247 Y106.098 E.04412
G1 X148.241 Y113.535 E.23318
G1 X147.983 Y115.357 E.0577
G1 X147.373 Y117.05 E.05642
G1 X146.79 Y118.081 E.03714
G1 X145.958 Y119.155 E.0426
G1 X138.367 Y127.344 E.35011
G1 X137.346 Y128.034 E.03864
G1 X136.159 Y128.393 E.03888
G1 X125.766 Y128.434 E.32587
G1 X124.509 Y128.105 E.04074
G1 X123.614 Y127.569 E.03271
G1 X122.943 Y126.891 E.02991
G1 X122.509 Y126.23 E.02479
G1 X122.096 Y124.884 E.04414
G1 X122.089 Y122.975 E.05986
G1 X118.036 Y127.351 E.18702
G1 X116.682 Y128.179 E.04976
G1 X115.514 Y128.434 E.03748
G1 X105.439 Y128.434 E.31589
G1 X104.168 Y128.098 E.04122
G1 X103.256 Y127.54 E.03352
G1 X102.486 Y126.721 E.03525
G1 X102.1 Y126.042 E.02449
G1 X101.776 Y124.915 E.03677
G1 X101.765 Y116.278 E.27081
G1 X102.064 Y115.096 E.03823
G1 X102.691 Y114.05 E.03824
G1 X108.695 Y107.579 E.27677
G1 X105.322 Y107.568 E.10576
G1 X104.084 Y107.21 E.04041
G1 X103.169 Y106.618 E.03417
G1 X102.562 Y105.972 E.02779
G1 X102.163 Y105.336 E.02354
G1 X101.753 Y103.906 E.04664
G1 X101.76 Y95.465 E.26466
G1 X102.112 Y94.133 E.0432
G1 X102.531 Y93.458 E.02491
M204 S1000
G1 X102.531 Y93.458 F10800
G1 X102.847 Y93.655
M204 S800
G1 F1200
G1 X102.979 Y93.443 E.00783
G1 X111.322 Y84.453 E.38455
G1 X111.847 Y83.966 E.02245
G1 X113.119 Y83.071 E.04877
G1 X114.755 Y82.349 E.05607
G1 X116.298 Y82.008 E.04955
G1 X117.291 Y81.943 E.0312
G1 X124.197 Y81.946 E.21653
G1 X125.079 Y82.136 E.02829
G1 X125.869 Y82.521 E.02755
G1 X126.666 Y83.225 E.03334
G1 X127.216 Y84.075 E.03174
G1 X127.528 Y85.158 E.03534
G1 X127.535 Y88.884 E.11683
G1 X131.669 Y84.43 E.19054
G1 X132.227 Y83.919 E.02372
G1 X133.433 Y83.077 E.04612
G1 X134.139 Y82.713 E.02491
G1 X135.811 Y82.149 E.05533
G1 X137.551 Y81.945 E.05493
G1 X144.558 Y81.95 E.2197
G1 X145.316 Y82.106 E.02426
G1 X146.055 Y82.432 E.02533
G1 X147.114 Y83.372 E.0444
G1 X147.598 Y84.209 E.03032
G1 X147.87 Y85.28 E.03465
G1 X147.864 Y92.676 E.2319
G1 X147.753 Y93.764 E.03429
G1 X147.382 Y95.197 E.04641
G1 X146.978 Y96.148 E.0324
G1 X146.07 Y97.588 E.05338
G1 X141.277 Y102.801 E.22204
G1 X144.665 Y102.812 E.10623
G1 X145.441 Y102.999 E.02503
G1 X146.223 Y103.39 E.02741
G1 X146.928 Y104.003 E.02929
G1 X147.516 Y104.875 E.03298
G1 X147.87 Y106.124 E.0407
G1 X147.864 Y113.526 E.23208
G1 X147.616 Y115.273 E.05533
G1 X147.03 Y116.894 E.05404
G1 X146.477 Y117.87 E.03517
G1 X145.672 Y118.909 E.04121
G1 X138.106 Y127.071 E.34895
G1 X137.16 Y127.705 E.03571
G1 X136.079 Y128.024 E.03534
G1 X125.791 Y128.057 E.32257
G1 X124.633 Y127.748 E.03758
G1 X123.866 Y127.287 E.02806
G1 X123.225 Y126.64 E.02856
G1 X122.84 Y126.047 E.02217
G1 X122.473 Y124.855 E.03911
G1 X122.462 Y122.017 E.08898
G1 X117.777 Y127.076 E.21619
G1 X116.57 Y127.818 E.04442
G1 X115.493 Y128.057 E.03459
G1 X105.465 Y128.057 E.31442
G1 X104.294 Y127.742 E.03802
G1 X103.477 Y127.234 E.03016
G1 X102.777 Y126.481 E.03224
G1 X102.456 Y125.916 E.02037
G1 X102.145 Y124.836 E.03524
G1 X102.136 Y116.348 E.26614
G1 X102.423 Y115.216 E.03662
G1 X102.98 Y114.292 E.03383
G1 X109.557 Y107.205 E.30315
G1 X105.35 Y107.191 E.13191
G1 X104.217 Y106.857 E.03704
G1 X103.429 Y106.344 E.02948
G1 X102.85 Y105.727 E.02653
G1 X102.497 Y105.159 E.02097
G1 X102.13 Y103.88 E.04172
G1 X102.137 Y95.49 E.26306
G1 X102.469 Y94.258 E.04001
G1 X102.815 Y93.706 E.02043
M204 S1000
G1 X102.815 Y93.706 F10800
G1 X103.133 Y93.904
M204 S800
G1 F1200
G1 X103.268 Y93.686 E.00804
G1 X111.593 Y84.715 E.38373
G1 X112.65 Y83.818 E.04347
G1 X113.3 Y83.402 E.0242
G1 X114.882 Y82.704 E.05422
G1 X116.332 Y82.384 E.04656
G1 X117.297 Y82.32 E.03032
G1 X124.177 Y82.324 E.21572
G1 X124.937 Y82.486 E.02436
G1 X125.64 Y82.822 E.02443
G1 X126.396 Y83.49 E.03163
G1 X126.883 Y84.254 E.02841
G1 X127.151 Y85.185 E.03038
G1 X127.16 Y89.843 E.14605
G1 X131.94 Y84.692 E.22033
G1 X132.463 Y84.214 E.02222
G1 X133.628 Y83.4 E.04456
G1 X135.205 Y82.704 E.05405
G1 X136.618 Y82.389 E.04539
G1 X137.557 Y82.322 E.02952
G1 X144.503 Y82.324 E.21779
G1 X145.183 Y82.46 E.02174
G1 X145.876 Y82.765 E.02374
M73 Q1 S98
G1 X146.804 Y83.589 E.03891
G1 X147.24 Y84.33 E.02696
M73 P1 R97
G1 X147.493 Y85.304 E.03155
G1 X147.487 Y92.666 E.23083
G1 X147.379 Y93.715 E.03306
G1 X147.031 Y95.059 E.04353
G1 X146.635 Y95.991 E.03175
G1 X145.767 Y97.363 E.0509
G1 X140.416 Y103.175 E.2477
G1 X144.641 Y103.189 E.13247
G1 X145.329 Y103.36 E.02223
G1 X146.03 Y103.715 E.02464
G1 X146.661 Y104.27 E.02635
G1 X147.163 Y105.009 E.02801
G1 X147.493 Y106.151 E.03727
G1 X147.487 Y113.516 E.23092
G1 X147.248 Y115.189 E.05299
G1 X146.686 Y116.738 E.05167
G1 X146.165 Y117.659 E.03318
G1 X145.387 Y118.663 E.03982
G1 X137.845 Y126.798 E.34782
G1 X136.977 Y127.374 E.03266
G1 X136.001 Y127.654 E.03184
G1 X125.816 Y127.68 E.31934
G1 X124.758 Y127.391 E.03439
G1 X124.118 Y127.005 E.02343
G1 X123.506 Y126.387 E.02727
G1 X123.191 Y125.908 E.01798
G1 X122.85 Y124.824 E.03563
G1 X122.836 Y121.059 E.11805
G1 X117.517 Y126.801 E.24541
G1 X116.455 Y127.458 E.03916
G1 X115.472 Y127.68 E.0316
G1 X105.489 Y127.68 E.31301
G1 X104.467 Y127.406 E.03318
G1 X103.734 Y126.957 E.02695
G1 X103.092 Y126.273 E.02941
G1 X102.812 Y125.788 E.01756
G1 X102.515 Y124.757 E.03364
G1 X102.507 Y116.418 E.26146
G1 X102.781 Y115.336 E.035
M73 Q1 S97
G1 X103.27 Y114.535 E.02943
G1 X110.419 Y106.83 E.32956
G1 X105.379 Y106.814 E.15803
G1 X104.353 Y106.504 E.03361
G1 X103.688 Y106.069 E.02492
G1 X103.138 Y105.484 E.02518
G1 X102.832 Y104.984 E.01838
G1 X102.507 Y103.854 E.03687
G1 X102.515 Y95.515 E.26146
G1 X102.804 Y94.433 E.03511
G1 X103.101 Y93.955 E.01764
M204 S1000
G1 X103.101 Y93.955 F10800
G1 X103.416 Y94.153
M204 S800
G1 F1200
G1 X103.556 Y93.93 E.00826
G1 X112.347 Y84.531 E.40351
G1 X113.481 Y83.733 E.04348
G1 X115.009 Y83.059 E.05236
G1 X116.368 Y82.759 E.04364
G1 X117.303 Y82.697 E.02938
G1 X124.157 Y82.701 E.2149
G1 X124.798 Y82.837 E.02055
G1 X125.413 Y83.124 E.02128
G1 X126.095 Y83.718 E.02836
G1 X126.53 Y84.389 E.02507
G1 X126.774 Y85.214 E.02697
G1 X126.784 Y90.802 E.17521
G1 X132.211 Y84.955 E.25013
G1 X132.711 Y84.498 E.02124
G1 X133.808 Y83.731 E.04197
G1 X135.314 Y83.065 E.05163
G1 X136.674 Y82.762 E.04369
G1 X137.577 Y82.699 E.02838
G1 X144.483 Y82.701 E.21653
G1 X145.086 Y82.825 E.0193
G1 X145.696 Y83.097 E.02094
G1 X146.496 Y83.808 E.03356
G1 X146.883 Y84.454 E.02361
G1 X147.116 Y85.329 E.02839
G1 X147.11 Y92.657 E.22976
G1 X147.008 Y93.647 E.03121
G1 X146.673 Y94.939 E.04185
G1 X146.302 Y95.814 E.0298
G1 X145.474 Y97.125 E.04862
G1 X139.555 Y103.549 E.27388
G1 X144.615 Y103.566 E.15865
G1 X145.213 Y103.719 E.01935
G1 X145.836 Y104.039 E.02196
G1 X146.393 Y104.536 E.02341
G1 X146.81 Y105.145 E.02314
G1 X147.116 Y106.179 E.03381
G1 X147.11 Y113.507 E.22976
G1 X146.88 Y115.104 E.05059
G1 X146.343 Y116.581 E.04928
