; HEADER_BLOCK_START
; generated by OrcaSlicer 2.1.1 on 2024-06-29 at 21:11:26
; total layer number: 235
; filament_density: 1.24
; filament_diameter: 1.75
; max_z_height: 47.00
; HEADER_BLOCK_END

; THUMBNAIL_BLOCK_START

;
; THUMBNAIL_BLOCK_END

; external perimeters extrusion width = 0.45mm
; perimeters extrusion width = 0.45mm
; infill extrusion width = 0.45mm
; solid infill extrusion width = 0.45mm
; top infill extrusion width = 0.40mm
; first layer extrusion width = 0.42mm

; EXECUTABLE_BLOCK_START
M73 P0 R235
M201 X2000 Y2000 Z300 E5000
M203 X200 Y200 Z12 E120
M204 P2000 R2500 T2000
M205 X9.00 Y9.00 Z0.20 E2.50 ; sets the jerk limits, mm/sec
;TYPE:Custom
M862.3 P "MK3S" ; printer model check
M862.1 P0.4 ; nozzle diameter check
M115 U3.13.0 ; tell printer latest fw version
G90 ; use absolute coordinates
M83 ; extruder relative mode
M104 S210 ; set extruder temp
M140 S60 ; set bed temp
M190 S60 ; wait for bed temp
M109 S210 ; wait for extruder temp
G28 W ; home all without mesh bed level
G80 ; mesh bed leveling

G1 Z0.2 F720
G1 Y-3 F1000 ; go outside print area
G92 E0
G1 X60 E9 F1000 ; intro line
G1 X100 E12.5 F1000 ; intro line

G92 E0
M221 S95
G90
G21
M83 ; use relative distances for extrusion
; filament start gcode
M900 K0.05 ; Filament gcode LA 1.5
M900 K30 ; Filament gcode LA 1.0
M106 S0
;LAYER_CHANGE
;Z:0.2
;HEIGHT:0.2
;BEFORE_LAYER_CHANGE
;0.2
G92 E0

M73 P0 R234
G1 E-.8 F1800
;AFTER_LAYER_CHANGE
;0.2
;_SET_FAN_SPEED_CHANGING_LAYER
M204 S800
G1 X88.209 Y26.505 F10800
G1 Z.4 F720
G1 Z.2
G1 E.8 F1800
;TYPE:Skirt
;WIDTH:0.42
G1 F3000
G1 X89.593 Y23.164 E.11111
G1 X89.903 Y22.627 E.01907
G1 X92.104 Y19.758 E.11111
G1 X92.543 Y19.319 E.01907
G1 X95.412 Y17.118 E.11111
G1 X95.949 Y16.808 E.01907
G1 X99.29 Y15.424 E.11111
G1 X99.89 Y15.263 E.01907
G1 X103.775 Y14.771 E.12033
G1 X145.366 Y14.61 E1.278
G1 X148.951 Y15.082 E.11111
G1 X149.551 Y15.243 E.01907
G1 X152.891 Y16.626 E.11111
G1 X153.429 Y16.937 E.01907
G1 X156.298 Y19.138 E.11111
G1 X156.736 Y19.577 E.01907
G1 X158.938 Y22.446 E.11111
G1 X159.248 Y22.983 E.01907
G1 X160.632 Y26.324 E.11111
G1 X160.792 Y26.923 E.01907
G1 X161.264 Y30.508 E.11111
G1 X161.452 Y178.987 E4.56233
G1 X160.96 Y182.885 E.12073
G1 X160.799 Y183.484 E.01907
G1 X159.415 Y186.825 E.11111
G1 X159.105 Y187.362 E.01907
G1 X156.903 Y190.231 E.11111
G1 X156.465 Y190.67 E.01907
G1 X153.596 Y192.871 E.11111
G1 X153.058 Y193.182 E.01907
G1 X149.718 Y194.565 E.11111
G1 X149.118 Y194.726 E.01907
G1 X145.235 Y195.218 E.12028
G1 X104.035 Y195.429 E1.26598
G1 X100.127 Y194.937 E.12102
G1 X99.528 Y194.776 E.01907
G1 X96.187 Y193.392 E.11111
G1 X95.65 Y193.082 E.01907
G1 X92.781 Y190.881 E.11111
G1 X92.342 Y190.442 E.01907
G1 X90.141 Y187.573 E.11111
G1 X89.831 Y187.036 E.01907
G1 X88.447 Y183.695 E.11111
G1 X88.286 Y183.095 E.01907
G1 X87.814 Y179.51 E.11111
G1 X87.556 Y31.004 E4.56319
G1 X88.048 Y27.105 E.12076
G1 X88.199 Y26.544 E.01784
; printing object battery_cage2 - Battery Cage.stl id:111139872461024 copy 0
G1 E-.56 F1800
;WIPE_START
G1 F3000
G1 X88.58 Y25.619 E-.24
;WIPE_END
G1 X90.589 Y27.464 Z.6 F10800
G1 Z.2 F720
G1 E.8 F1800
;TYPE:Brim
G1 F1200
G1 X91.954 Y24.169 E.10959
G1 X94.125 Y21.34 E.10959
G1 X96.954 Y19.169 E.10959
G1 X100.249 Y17.804 E.10959
G1 X103.785 Y17.338 E.10959
G1 X107.321 Y17.804 E.10959
G1 X110.616 Y19.169 E.10959
G1 X113.445 Y21.34 E.10959
G1 X115.616 Y24.169 E.10959
G1 X116.981 Y27.464 E.10959
G1 X117.395 Y30.608 E.09744
G1 X103.985 Y30.611 E.41206
G1 X103.913 Y30.626 E.00226
G1 X103.781 Y30.696 E.00459
G1 X103.64 Y30.857 E.00658
G1 X103.597 Y31 E.00459
G1 X103.6 Y44.636 E.41901
G1 X100.249 Y44.196 E.10385
G1 X96.954 Y42.831 E.10959
G1 X94.125 Y40.66 E.10959
G1 X91.954 Y37.831 E.10959
G1 X90.589 Y34.536 E.10959
G1 X90.123 Y31 E.10959
G1 X90.584 Y27.504 E.10836
G1 X90.954 Y27.577 F10800
G1 F1200
G1 X92.292 Y24.347 E.10742
G1 X94.385 Y21.62 E.10562
G1 X97.133 Y19.507 E.10652
G1 X100.362 Y18.169 E.10742
G1 X103.77 Y17.72 E.10562
G1 X107.208 Y18.169 E.10652
G1 X110.412 Y19.492 E.10652
G1 X113.186 Y21.62 E.10742
G1 X115.293 Y24.373 E.10652
G1 X116.608 Y27.549 E.10562
G1 X116.948 Y30.103 E.07918
G1 X116.914 Y30.2 E.00318
G1 X116.836 Y30.231 E.00255
G1 X103.993 Y30.234 E.39464
G1 X103.844 Y30.255 E.00461
G1 X103.728 Y30.297 E.00378
G1 X103.613 Y30.358 E.00402
G1 X103.49 Y30.456 E.00481
G1 X103.364 Y30.6 E.00589
G1 X103.278 Y30.755 E.00544
G1 X103.219 Y31.013 E.00813
G1 X103.223 Y44.078 E.40145
G1 X103.176 Y44.17 E.00318
G1 X103.095 Y44.19 E.00255
G1 X100.362 Y43.831 E.08469
G1 X97.133 Y42.493 E.10742
G1 X94.405 Y40.4 E.10562
G1 X92.292 Y37.652 E.10652
G1 X90.954 Y34.423 E.10742
G1 X90.506 Y31.015 E.10562
G1 X90.949 Y27.617 E.10529
G1 X91.32 Y27.69 F10800
G1 F1200
G1 X92.631 Y24.526 E.10525
G1 X94.665 Y21.88 E.10256
G1 X97.311 Y19.845 E.10255
G1 X100.476 Y18.535 E.10525
G1 X103.785 Y18.103 E.10256
G1 X107.095 Y18.535 E.10256
G1 X110.234 Y19.831 E.10435
G1 X112.926 Y21.901 E.10434
G1 X114.969 Y24.577 E.10345
G1 X116.235 Y27.634 E.10167
G1 X116.518 Y29.726 E.06487
G1 X116.483 Y29.823 E.00318
G1 X116.406 Y29.854 E.00256
G1 X103.999 Y29.857 E.38121
G1 X103.799 Y29.881 E.00621
G1 X103.606 Y29.94 E.00621
G1 X103.442 Y30.022 E.00562
G1 X103.261 Y30.156 E.00691
G1 X103.086 Y30.346 E.00795
G1 X102.952 Y30.567 E.00794
G1 X102.909 Y30.677 E.00364
G1 X102.842 Y31.024 E.01084
G1 X102.846 Y43.648 E.3879
G1 X102.798 Y43.74 E.00318
G1 X102.718 Y43.76 E.00255
G1 X100.475 Y43.465 E.06949
G1 X97.311 Y42.154 E.10525
G1 X94.665 Y40.12 E.10256
G1 X92.631 Y37.474 E.10255
G1 X91.32 Y34.309 E.10525
G1 X90.888 Y31 E.10256
G1 X91.315 Y27.73 E.10133
G1 X91.692 Y27.78 F10800
G1 F1200
G1 X91.693 Y27.775 E.00016
G1 X92.954 Y24.73 E.10126
G1 X94.946 Y22.14 E.1004
G1 X97.515 Y20.169 E.0995
G1 X100.56 Y18.908 E.10126
G1 X103.8 Y18.485 E.1004
G1 X107.011 Y18.908 E.09951
G1 X110.03 Y20.155 E.10037
G1 X112.644 Y22.16 E.10126
G1 X114.645 Y24.78 E.10129
G1 X115.863 Y27.719 E.09775
G1 X116.086 Y29.349 E.05054
G1 X116.052 Y29.446 E.00318
G1 X115.974 Y29.477 E.00256
G1 X104.005 Y29.48 E.36777
G1 X103.762 Y29.506 E.00752
G1 X103.501 Y29.578 E.00832
G1 X103.28 Y29.682 E.00751
G1 X103.043 Y29.849 E.0089
G1 X102.816 Y30.083 E.01002
G1 X102.597 Y30.44 E.01288
G1 X102.538 Y30.613 E.0056
G1 X102.465 Y31.033 E.01312
G1 X102.468 Y43.218 E.37439
G1 X102.421 Y43.31 E.00318
G1 X102.341 Y43.33 E.00255
G1 X100.56 Y43.092 E.05519
G1 X97.515 Y41.831 E.10127
G1 X94.925 Y39.839 E.1004
G1 X92.954 Y37.27 E.0995
G1 X91.693 Y34.225 E.10126
G1 X91.27 Y30.985 E.1004
G1 X91.687 Y27.819 E.09812
G1 X92.065 Y27.87 F10800
G1 F1200
G1 X92.066 Y27.859 E.00032
G1 X93.278 Y24.934 E.09729
G1 X95.227 Y22.4 E.09823
G1 X97.719 Y20.493 E.09644
G1 X100.644 Y19.281 E.09729
G1 X103.814 Y18.867 E.09823
G1 X106.926 Y19.281 E.09646
G1 X109.826 Y20.478 E.0964
G1 X112.363 Y22.42 E.09817
G1 X114.321 Y24.983 E.09912
G1 X115.49 Y27.805 E.09384
G1 X115.654 Y28.972 E.03619
G1 X115.62 Y29.069 E.00318
G1 X115.542 Y29.1 E.00257
G1 X104.012 Y29.103 E.35429
G1 X103.654 Y29.145 E.01107
G1 X103.335 Y29.24 E.01023
G1 X103.057 Y29.378 E.00955
G1 X102.767 Y29.592 E.01105
G1 X102.489 Y29.894 E.01262
G1 X102.237 Y30.328 E.01543
G1 X102.165 Y30.555 E.00733
G1 X102.088 Y31.042 E.01515
G1 X102.091 Y42.787 E.36088
G1 X102.044 Y42.879 E.00318
G1 X101.963 Y42.899 E.00256
G1 X100.645 Y42.719 E.04087
G1 X97.719 Y41.507 E.09731
G1 X95.185 Y39.558 E.09823
G1 X93.278 Y37.066 E.09644
G1 X92.066 Y34.141 E.09729
G1 X91.652 Y30.971 E.09823
G1 X92.059 Y27.909 E.0949
G1 X92.437 Y27.96 F10800
G1 F1200
G1 X92.439 Y27.944 E.00048
G1 X93.601 Y25.138 E.09333
G1 X95.507 Y22.66 E.09606
G1 X97.923 Y20.816 E.09338
G1 X100.729 Y19.654 E.09333
G1 X103.829 Y19.249 E.09606
G1 X106.813 Y19.646 E.09251
G1 X109.622 Y20.802 E.09335
G1 X112.082 Y22.68 E.09508
G1 X113.997 Y25.187 E.09695
G1 X115.118 Y27.892 E.08996
G1 X115.22 Y28.594 E.02181
G1 X115.186 Y28.692 E.00318
G1 X115.108 Y28.723 E.00258
G1 X104.019 Y28.726 E.34075
G1 X103.538 Y28.786 E.01489
G1 X103.16 Y28.906 E.01217
G1 X102.827 Y29.08 E.01157
G1 X102.484 Y29.343 E.01327
G1 X102.158 Y29.714 E.01518
G1 X101.917 Y30.128 E.01473
G1 X101.791 Y30.505 E.01221
G1 X101.711 Y31.051 E.01695
G1 X101.714 Y42.355 E.34734
G1 X101.667 Y42.447 E.00318
G1 X101.586 Y42.467 E.00257
G1 X100.731 Y42.347 E.02652
G1 X97.923 Y41.184 E.09338
G1 X95.445 Y39.278 E.09606
G1 X93.602 Y36.862 E.09338
G1 X92.439 Y34.056 E.09333
G1 X92.035 Y30.956 E.09606
G1 X92.432 Y28 E.09167
G1 X92.804 Y28.058 F10800
G1 F1200
G1 X93.925 Y25.342 E.09026
G1 X95.787 Y22.921 E.09388
G1 X98.101 Y21.155 E.08942
G1 X100.813 Y20.027 E.09026
G1 X103.843 Y19.632 E.09389
G1 X106.728 Y20.019 E.08946
G1 X109.419 Y21.126 E.08941
G1 X111.801 Y22.94 E.09197
G1 X113.673 Y25.39 E.09477
G1 X114.746 Y27.98 E.08612
G1 X114.784 Y28.217 E.00738
G1 X114.751 Y28.315 E.00318
G1 X114.672 Y28.346 E.0026
G1 X103.966 Y28.353 E.32898
G1 X103.415 Y28.429 E.01707
G1 X102.979 Y28.575 E.01413
G1 X102.59 Y28.786 E.0136
G1 X102.195 Y29.101 E.01555
G1 X101.882 Y29.457 E.01456
G1 X101.596 Y29.93 E.01697
G1 X101.436 Y30.379 E.01463
G1 X101.339 Y30.988 E.01898
G1 X101.337 Y41.921 E.33593
G1 X101.29 Y42.013 E.00318
G1 X101.208 Y42.033 E.00258
G1 X100.818 Y41.974 E.01212
G1 X98.128 Y40.86 E.08947
G1 X95.706 Y38.998 E.09388
G1 X93.94 Y36.684 E.08942
G1 X92.812 Y33.972 E.09026
G1 X92.417 Y30.942 E.09388
G1 X92.799 Y28.098 E.08819
G1 X93.169 Y28.171 F10800
G1 F1200
G1 X94.263 Y25.521 E.0881
G1 X96.047 Y23.202 E.08988
G1 X98.279 Y21.493 E.08638
G1 X100.927 Y20.393 E.0881
G1 X103.857 Y20.014 E.09079
G1 X106.644 Y20.392 E.0864
G1 X109.242 Y21.465 E.08639
G1 X111.541 Y23.221 E.08889
G1 X113.335 Y25.568 E.09078
G1 X114.269 Y27.813 E.0747
G1 X114.26 Y27.916 E.00318
G1 X114.164 Y27.969 E.00337
G1 X103.907 Y27.98 E.31519
G1 X103.288 Y28.075 E.01925
G1 X102.793 Y28.248 E.01611
G1 X102.349 Y28.496 E.01564
G1 X101.906 Y28.859 E.01758
G1 X101.555 Y29.269 E.01661
G1 X101.238 Y29.813 E.01933
G1 X101.063 Y30.328 E.01673
G1 X100.962 Y30.997 E.02077
G1 X100.96 Y41.456 E.32138
G1 X100.913 Y41.548 E.00318
G1 X100.803 Y41.56 E.00338
G1 X98.306 Y40.522 E.08311
G1 X95.987 Y38.738 E.08989
G1 X94.264 Y36.481 E.08727
G1 X93.178 Y33.858 E.08722
G1 X92.799 Y30.958 E.08988
G1 X93.164 Y28.211 E.08515
G1 X93.535 Y28.284 F10800
G1 F1200
G1 X94.602 Y25.699 E.08594
G1 X96.306 Y23.483 E.0859
G1 X98.457 Y21.832 E.08333
G1 X101.04 Y20.758 E.08593
G1 X103.871 Y20.396 E.08769
G1 X106.558 Y20.765 E.08335
G1 X109.064 Y21.804 E.08336
G1 X111.282 Y23.502 E.08582
G1 X112.997 Y25.747 E.0868
G1 X113.704 Y27.436 E.05628
G1 X113.695 Y27.539 E.00318
G1 X113.599 Y27.593 E.00338
G1 X103.842 Y27.609 E.29982
G1 X103.155 Y27.722 E.02141
G1 X102.601 Y27.923 E.0181
G1 X102.103 Y28.21 E.01766
G1 X101.614 Y28.62 E.01962
G1 X101.225 Y29.087 E.01867
G1 X100.877 Y29.701 E.02167
G1 X100.688 Y30.282 E.01876
G1 X100.591 Y30.933 E.02022
G1 X100.583 Y40.891 E.30599
G1 X100.536 Y40.983 E.00318
G1 X100.426 Y40.995 E.00338
G1 X98.485 Y40.184 E.06466
G1 X96.268 Y38.479 E.08592
G1 X94.588 Y36.277 E.0851
G1 X93.543 Y33.745 E.08416
G1 X93.181 Y30.973 E.08591
G1 X93.53 Y28.324 E.0821
G1 X93.9 Y28.397 F10800
G1 F1200
G1 X94.941 Y25.877 E.08376
G1 X96.566 Y23.764 E.08193
G1 X98.636 Y22.17 E.08028
G1 X101.153 Y21.124 E.08375
G1 X103.884 Y20.779 E.08458
G1 X106.472 Y21.137 E.08029
G1 X108.886 Y22.142 E.08034
G1 X111.022 Y23.783 E.08275
G1 X112.659 Y25.926 E.08286
G1 X113.137 Y27.06 E.03783
G1 X113.129 Y27.163 E.00318
G1 X113.033 Y27.217 E.00338
G1 X103.773 Y27.238 E.28456
G1 X103.017 Y27.371 E.02356
G1 X102.405 Y27.601 E.0201
G1 X101.854 Y27.927 E.01967
G1 X101.319 Y28.386 E.02167
G1 X100.892 Y28.91 E.02077
G1 X100.554 Y29.506 E.02106
G1 X100.332 Y30.157 E.02113
G1 X100.219 Y30.869 E.02214
G1 X100.206 Y40.325 E.29056
G1 X100.159 Y40.417 E.00318
G1 X100.05 Y40.429 E.00338
G1 X98.664 Y39.846 E.04619
G1 X96.55 Y38.22 E.08196
G1 X94.912 Y36.074 E.08294
G1 X93.909 Y33.633 E.08111
G1 X93.564 Y30.988 E.08196
G1 X93.895 Y28.437 E.07905
G1 X94.266 Y28.51 F10800
G1 F1200
G1 X95.279 Y26.056 E.08159
G1 X96.826 Y24.044 E.07796
G1 X98.815 Y22.508 E.07722
G1 X101.266 Y21.49 E.08155
G1 X103.896 Y21.161 E.08146
G1 X106.386 Y21.51 E.07723
G1 X108.707 Y22.481 E.07732
G1 X110.761 Y24.063 E.07969
G1 X112.321 Y26.105 E.07895
G1 X112.569 Y26.684 E.01936
G1 X112.562 Y26.787 E.00318
G1 X112.466 Y26.841 E.00339
G1 X103.698 Y26.868 E.26941
G1 X102.962 Y26.998 E.02296
G1 X102.281 Y27.245 E.02227
G1 X101.67 Y27.598 E.02168
G1 X101.08 Y28.094 E.02366
G1 X100.605 Y28.665 E.02284
G1 X100.231 Y29.313 E.02297
G1 X99.978 Y30.027 E.0233
G1 X99.848 Y30.801 E.02411
G1 X99.83 Y39.757 E.2752
G1 X99.783 Y39.849 E.00318
G1 X99.673 Y39.861 E.00339
G1 X98.844 Y39.508 E.02769
G1 X96.831 Y37.96 E.07802
G1 X95.236 Y35.871 E.08076
G1 X94.275 Y33.52 E.07804
G1 X93.946 Y31.002 E.07803
G1 X94.261 Y28.549 E.07599
G1 X94.632 Y28.622 F10800
G1 F1200
G1 X95.618 Y26.234 E.0794
G1 X97.086 Y24.324 E.07401
G1 X98.994 Y22.846 E.07415
G1 X101.349 Y21.864 E.07842
G1 X103.908 Y21.544 E.07926
G1 X106.299 Y21.882 E.07417
G1 X108.528 Y22.818 E.07429
G1 X110.501 Y24.344 E.07663
G1 X111.983 Y26.284 E.07503
G1 X112.002 Y26.386 E.00318
G1 X111.894 Y26.466 E.00412
G1 X103.624 Y26.499 E.25413
G1 X102.825 Y26.646 E.02496
M73 P0 R233
G1 X102.084 Y26.923 E.0243
G1 X101.42 Y27.315 E.02369
G1 X100.785 Y27.859 E.02572
G1 X100.274 Y28.484 E.02479
G1 X99.872 Y29.196 E.02512
G1 X99.605 Y29.974 E.02528
G1 X99.478 Y30.729 E.02354
G1 X99.454 Y39.187 E.2599
G1 X99.407 Y39.279 E.00318
G1 X99.297 Y39.291 E.0034
G1 X99.024 Y39.171 E.00915
G1 X97.112 Y37.701 E.07411
G1 X95.56 Y35.668 E.07858
G1 X94.64 Y33.408 E.07498
G1 X94.328 Y31.016 E.07412
G1 X94.627 Y28.662 E.07293
G1 X95.005 Y28.711 F10800
G1 F1200
G1 X95.005 Y28.706 E.00015
G1 X95.956 Y26.412 E.0763
G1 X97.367 Y24.584 E.07095
G1 X99.173 Y23.184 E.07022
G1 X101.462 Y22.229 E.0762
G1 X103.92 Y21.926 E.07611
G1 X106.211 Y22.254 E.0711
G1 X108.323 Y23.141 E.07037
G1 X110.22 Y24.603 E.07358
G1 X111.223 Y25.91 E.05064
G1 X111.241 Y26.012 E.00318
G1 X111.134 Y26.092 E.00412
G1 X103.546 Y26.13 E.23316
G1 X102.685 Y26.296 E.02695
G1 X101.885 Y26.603 E.02633
G1 X101.168 Y27.035 E.02569
G1 X100.487 Y27.628 E.02776
G1 X99.941 Y28.307 E.02677
G1 X99.549 Y29.002 E.02453
G1 X99.251 Y29.843 E.02743
G1 X99.107 Y30.658 E.02541
G1 X99.079 Y38.508 E.24122
G1 X99.031 Y38.6 E.00318
G1 X98.897 Y38.598 E.00413
G1 X97.373 Y37.421 E.05917
G1 X95.9 Y35.491 E.07458
G1 X95.013 Y33.325 E.07193
G1 X94.71 Y31.001 E.072
G1 X94.999 Y28.75 E.06974
G1 X95.377 Y28.799 F10800
G1 F1200
G1 X95.379 Y28.79 E.00028
G1 X96.295 Y26.591 E.07319
G1 X97.627 Y24.864 E.06703
G1 X99.353 Y23.522 E.06717
G1 X101.545 Y22.603 E.07304
G1 X103.932 Y22.309 E.07388
G1 X106.095 Y22.619 E.06716
G1 X108.118 Y23.464 E.06736
G1 X109.939 Y24.862 E.07055
G1 X110.461 Y25.536 E.0262
G1 X110.48 Y25.638 E.00318
G1 X110.372 Y25.718 E.00412
G1 X103.464 Y25.761 E.21226
G1 X102.541 Y25.947 E.02893
G1 X101.682 Y26.285 E.02836
G1 X100.914 Y26.756 E.02771
G1 X100.247 Y27.337 E.02718
G1 X99.653 Y28.064 E.02884
G1 X99.225 Y28.809 E.02639
G1 X98.899 Y29.71 E.02944
G1 X98.738 Y30.583 E.02729
G1 X98.705 Y37.743 E.22
G1 X98.657 Y37.835 E.00318
G1 X98.522 Y37.832 E.00414
G1 X97.633 Y37.141 E.0346
G1 X96.239 Y35.314 E.0706
G1 X95.386 Y33.241 E.06888
G1 X95.092 Y31.015 E.06898
G1 X95.372 Y28.839 E.06744
G1 X95.75 Y28.888 F10800
G1 F1200
G1 X95.752 Y28.874 E.00043
G1 X96.633 Y26.77 E.07009
G1 X97.908 Y25.123 E.064
G1 X99.533 Y23.86 E.06325
G1 X101.659 Y22.969 E.07081
G1 X103.943 Y22.691 E.07071
G1 X106.007 Y22.991 E.06411
G1 X107.913 Y23.787 E.06348
G1 X109.675 Y25.143 E.06831
G1 X109.719 Y25.237 E.00318
G1 X109.668 Y25.327 E.00318
G1 X109.607 Y25.346 E.00198
G1 X103.379 Y25.394 E.19136
G1 X102.476 Y25.576 E.02831
G1 X101.553 Y25.93 E.03039
G1 X100.724 Y26.431 E.02975
G1 X100.006 Y27.047 E.02908
G1 X99.366 Y27.819 E.0308
G1 X98.902 Y28.613 E.02826
G1 X98.547 Y29.573 E.03146
G1 X98.369 Y30.505 E.02916
G1 X98.331 Y36.975 E.19879
G1 X98.283 Y37.066 E.00318
G1 X98.148 Y37.063 E.00414
G1 X97.894 Y36.861 E.00998
G1 X96.578 Y35.137 E.06666
G1 X95.759 Y33.156 E.06584
G1 X95.474 Y31 E.06683
