; HEADER_BLOCK_START
; generated by OrcaSlicer 2.1.1 on 2024-06-30 at 15:56:33
; total layer number: 88
; filament_density: 1.24
; filament_diameter: 1.75
; max_z_height: 17.60
; HEADER_BLOCK_END

; THUMBNAIL_BLOCK_START

;
; THUMBNAIL_BLOCK_END

; external perimeters extrusion width = 0.45mm
; perimeters extrusion width = 0.45mm
; infill extrusion width = 0.45mm
; solid infill extrusion width = 0.45mm
; top infill extrusion width = 0.40mm
; first layer extrusion width = 0.42mm

; external perimeters extrusion width = 0.45mm
; perimeters extrusion width = 0.45mm
; infill extrusion width = 0.45mm
; solid infill extrusion width = 0.45mm
; top infill extrusion width = 0.40mm
; first layer extrusion width = 0.42mm

; external perimeters extrusion width = 0.45mm
; perimeters extrusion width = 0.45mm
; infill extrusion width = 0.45mm
; solid infill extrusion width = 0.45mm
; top infill extrusion width = 0.40mm
; first layer extrusion width = 0.42mm

; external perimeters extrusion width = 0.45mm
; perimeters extrusion width = 0.45mm
; infill extrusion width = 0.45mm
; solid infill extrusion width = 0.45mm
; top infill extrusion width = 0.40mm
; first layer extrusion width = 0.42mm

; external perimeters extrusion width = 0.45mm
; perimeters extrusion width = 0.45mm
; infill extrusion width = 0.45mm
; solid infill extrusion width = 0.45mm
; top infill extrusion width = 0.40mm
; first layer extrusion width = 0.42mm

; external perimeters extrusion width = 0.45mm
; perimeters extrusion width = 0.45mm
; infill extrusion width = 0.45mm
; solid infill extrusion width = 0.45mm
; top infill extrusion width = 0.40mm
; first layer extrusion width = 0.42mm

; external perimeters extrusion width = 0.45mm
; perimeters extrusion width = 0.45mm
; infill extrusion width = 0.45mm
; solid infill extrusion width = 0.45mm
; top infill extrusion width = 0.40mm
; first layer extrusion width = 0.42mm

; external perimeters extrusion width = 0.45mm
; perimeters extrusion width = 0.45mm
; infill extrusion width = 0.45mm
; solid infill extrusion width = 0.45mm
; top infill extrusion width = 0.40mm
; first layer extrusion width = 0.42mm

; EXECUTABLE_BLOCK_START
M73 P0 R38
M201 X2000 Y2000 Z300 E5000
M203 X200 Y200 Z12 E120
M204 P2000 R2500 T2000
M205 X9.00 Y9.00 Z0.20 E2.50 ; sets the jerk limits, mm/sec
;TYPE:Custom
M862.3 P "MK3S" ; printer model check
M862.1 P0.4 ; nozzle diameter check
M115 U3.13.0 ; tell printer latest fw version
G90 ; use absolute coordinates
M83 ; extruder relative mode
M104 S220 ; set extruder temp
M140 S60 ; set bed temp
M190 S60 ; wait for bed temp
M109 S220 ; wait for extruder temp
G28 W ; home all without mesh bed level
G80 ; mesh bed leveling

G1 Z0.2 F720
G1 Y-3 F1000 ; go outside print area
G92 E0
G1 X60 E9 F1000 ; intro line
G1 X100 E12.5 F1000 ; intro line

G92 E0
M221 S95
G90
G21
M83 ; use relative distances for extrusion
; filament start gcode
M900 K0.05 ; Filament gcode LA 1.5
M900 K30 ; Filament gcode LA 1.0
M106 S0
;LAYER_CHANGE
;Z:0.2
;HEIGHT:0.2
;BEFORE_LAYER_CHANGE
;0.2
G92 E0

G1 E-.8 F1800
;AFTER_LAYER_CHANGE
;0.2
;_SET_FAN_SPEED_CHANGING_LAYER
M204 S800
G1 X96.303 Y78.651 F10800
G1 Z.4 F720
G1 Z.2
G1 E.8 F1800
;TYPE:Skirt
;WIDTH:0.42
G1 F3000
G1 X97.028 Y77.764 E.03522
G1 X98.045 Y76.78 E.0435
G1 X99.273 Y75.877 E.04681
G1 X100.104 Y75.399 E.02948
G1 X101.314 Y74.861 E.04069
G1 X102.538 Y74.484 E.03935
G1 X103.501 Y74.294 E.03017
G1 X104.643 Y74.179 E.03525
G1 X125.428 Y74.174 E.63866
G1 X127.403 Y74.433 E.06121
G1 X128.329 Y74.683 E.02948
G1 X129.402 Y75.087 E.03522
G1 X130.697 Y75.757 E.04481
G1 X132.227 Y76.877 E.05827
G1 X152.799 Y97.415 E.89322
G1 X153.7 Y98.491 E.04311
G1 X154.602 Y99.944 E.05254
G1 X155.14 Y101.154 E.04069
G1 X155.516 Y102.378 E.03935
G1 X155.807 Y104.252 E.05827
G1 X155.831 Y105.236 E.03024
G1 X155.826 Y125.258 E.61524
G1 X155.568 Y127.241 E.06143
G1 X155.317 Y128.167 E.02948
G1 X154.913 Y129.239 E.03522
G1 X154.338 Y130.376 E.03914
G1 X153.696 Y131.35 E.03584
G1 X152.446 Y132.776 E.05827
G1 X151.347 Y133.7 E.04412
G1 X149.727 Y134.686 E.05827
G1 X148.684 Y135.14 E.03495
G1 X147.46 Y135.516 E.03935
G1 X145.586 Y135.807 E.05827
G1 X104.896 Y135.831 E1.25029
G1 X103.652 Y135.73 E.03834
G1 X102.759 Y135.567 E.02788
G1 X101.833 Y135.317 E.02948
G1 X100.761 Y134.913 E.03522
G1 X99.624 Y134.337 E.03915
G1 X98.65 Y133.696 E.03584
G1 X97.224 Y132.446 E.05828
G1 X96.3 Y131.347 E.04412
G1 X95.398 Y129.894 E.05254
G1 X94.86 Y128.684 E.04069
G1 X94.484 Y127.46 E.03935
G1 X94.193 Y125.586 E.05827
G1 X94.169 Y84.896 E1.25029
G1 X94.269 Y83.654 E.03828
G1 X94.432 Y82.761 E.02789
G1 X94.741 Y81.658 E.03522
G1 X95.095 Y80.742 E.03017
G1 X95.608 Y79.719 E.03515
G1 X96.281 Y78.685 E.03792
; printing object LongSpacer.stl id:101948468713216 copy 0
G1 E-.56 F1800
;WIPE_START
G1 F3000
G1 X96.911 Y77.908 E-.24
;WIPE_END
G1 X102.329 Y83.284 Z.6 F10800
G1 X138.549 Y119.222 Z.6
G1 Z.2 F720
G1 E.8 F1800
;TYPE:Brim
G1 F1200
G1 X139.061 Y118.696 E.02257
G1 X139.619 Y118.215 E.02263
G1 X140.388 Y117.676 E.02884
G1 X141.176 Y117.243 E.02766
G1 X141.853 Y116.952 E.02264
G1 X142.749 Y116.669 E.02886
G1 X143.469 Y116.518 E.0226
G1 X144.362 Y116.42 E.02759
G1 X145.105 Y116.41 E.02285
G1 X145.671 Y116.447 E.01742
G1 X146.033 Y116.491 E.01121
G1 X146.758 Y116.628 E.02266
G1 X147.465 Y116.826 E.02258
G1 X148.303 Y117.151 E.02762
G1 X148.818 Y117.405 E.01764
G1 X149.136 Y117.584 E.0112
G1 X149.753 Y117.987 E.02264
G1 X150.454 Y118.549 E.0276
G1 X150.982 Y119.063 E.02266
G1 X151.36 Y119.494 E.0176
G1 X151.585 Y119.781 E.01121
G1 X152.001 Y120.39 E.02266
G1 X152.361 Y121.031 E.02258
G1 X152.724 Y121.854 E.02766
G1 X152.845 Y122.197 E.01118
G1 X153.006 Y122.749 E.01767
G1 X153.157 Y123.469 E.0226
G1 X153.256 Y124.362 E.02759
G1 X153.265 Y125.099 E.02267
G1 X153.228 Y125.671 E.0176
G1 X153.184 Y126.033 E.0112
G1 X153.048 Y126.758 E.02266
G1 X152.849 Y127.465 E.02258
G1 X152.524 Y128.304 E.02766
G1 X152.367 Y128.633 E.01118
G1 X152.091 Y129.137 E.01766
G1 X151.688 Y129.753 E.02261
G1 X151.127 Y130.454 E.0276
G1 X150.613 Y130.98 E.0226
G1 X150.181 Y131.36 E.01767
G1 X149.894 Y131.585 E.01121
G1 X149.286 Y132 E.02264
G1 X148.499 Y132.433 E.02759
G1 X147.822 Y132.724 E.02264
G1 X147.478 Y132.845 E.01121
G1 X146.926 Y133.006 E.01767
G1 X146.206 Y133.157 E.0226
G1 X145.314 Y133.256 E.02759
G1 X144.576 Y133.265 E.02267
G1 X144.005 Y133.228 E.0176
G1 X143.642 Y133.184 E.01121
G1 X142.918 Y133.048 E.02266
G1 X142.21 Y132.849 E.02258
G1 X141.371 Y132.524 E.02766
G1 X141.043 Y132.367 E.01118
G1 X140.538 Y132.091 E.01767
G1 X139.923 Y131.688 E.0226
G1 X139.222 Y131.127 E.0276
G1 X138.694 Y130.613 E.02264
G1 X138.45 Y130.342 E.0112
G1 X138.09 Y129.893 E.01767
G1 X137.675 Y129.285 E.02263
G1 X137.315 Y128.645 E.02257
G1 X136.952 Y127.821 E.02766
G1 X136.83 Y127.478 E.01118
G1 X136.669 Y126.926 E.01767
G1 X136.518 Y126.206 E.0226
G1 X136.42 Y125.314 E.0276
G1 X136.41 Y124.576 E.02266
G1 X136.447 Y124.004 E.01761
G1 X136.491 Y123.642 E.01121
G1 X136.628 Y122.918 E.02266
G1 X136.826 Y122.21 E.02258
G1 X137.152 Y121.371 E.02766
G1 X137.585 Y120.538 E.02884
G1 X137.987 Y119.923 E.0226
G1 X138.524 Y119.253 E.02637
G1 X138.818 Y119.489 F10800
G1 F1200
G1 X138.828 Y119.476 E.00049
G1 X139.324 Y118.967 E.02182
G1 X139.856 Y118.51 E.02157
G1 X140.582 Y118 E.02726
G1 X141.337 Y117.585 E.02648
G1 X141.98 Y117.308 E.02149
G1 X142.839 Y117.036 E.02771
G1 X143.523 Y116.892 E.02147
G1 X144.379 Y116.797 E.02647
G1 X145.1 Y116.788 E.02214
G1 X145.972 Y116.864 E.0269
G1 X146.667 Y116.994 E.02174
G1 X147.351 Y117.186 E.02183
G1 X148.156 Y117.499 E.02654
G1 X148.937 Y117.905 E.02703
G1 X149.527 Y118.29 E.02164
G1 X150.199 Y118.828 E.02647
G1 X150.711 Y119.327 E.02195
G1 X151.278 Y120.001 E.02708
G1 X151.677 Y120.585 E.02174
G1 X152.025 Y121.204 E.02183
G1 X152.374 Y121.997 E.02662
G1 X152.639 Y122.837 E.02704
G1 X152.783 Y123.523 E.02156
G1 X152.878 Y124.379 E.02647
G1 X152.888 Y125.094 E.02196
G1 X152.812 Y125.972 E.02707
G1 X152.681 Y126.667 E.02174
G1 X152.489 Y127.351 E.02183
G1 X152.175 Y128.159 E.02662
G1 X151.769 Y128.939 E.02703
G1 X151.386 Y129.527 E.02156
G1 X150.847 Y130.199 E.02647
G1 X150.35 Y130.71 E.02189
G1 X149.674 Y131.278 E.02714
G1 X149.093 Y131.676 E.02164
G1 X148.338 Y132.091 E.02647
G1 X147.681 Y132.373 E.02198
G1 X146.839 Y132.639 E.02714
G1 X146.152 Y132.783 E.02156
G1 X145.296 Y132.878 E.02647
G1 X144.582 Y132.888 E.02196
G1 X143.704 Y132.812 E.02707
G1 X143.008 Y132.681 E.02174
G1 X142.324 Y132.489 E.02183
G1 X141.517 Y132.175 E.02662
G1 X140.736 Y131.769 E.02704
G1 X140.149 Y131.386 E.02156
G1 X139.476 Y130.847 E.02647
G1 X138.964 Y130.348 E.02198
G1 X138.396 Y129.672 E.02714
G1 X137.998 Y129.09 E.02166
G1 X137.65 Y128.471 E.02182
G1 X137.301 Y127.678 E.02662
G1 X137.036 Y126.839 E.02704
G1 X136.892 Y126.152 E.02156
G1 X136.797 Y125.296 E.02647
G1 X136.788 Y124.582 E.02195
G1 X136.864 Y123.704 E.02708
G1 X136.994 Y123.008 E.02174
G1 X137.186 Y122.324 E.02183
G1 X137.494 Y121.532 E.0261
G1 X137.908 Y120.734 E.02764
G1 X138.29 Y120.149 E.02147
G1 X138.793 Y119.52 E.02475
G1 X139.088 Y119.755 F10800
G1 F1200
G1 X139.108 Y119.731 E.00098
G1 X139.586 Y119.239 E.02107
G1 X140.092 Y118.805 E.0205
G1 X140.777 Y118.324 E.0257
G1 X141.498 Y117.926 E.02531
G1 X142.106 Y117.664 E.02035
G1 X142.93 Y117.403 E.02655
G1 X143.577 Y117.266 E.02033
G1 X144.397 Y117.175 E.02534
G1 X145.091 Y117.166 E.02134
G1 X145.915 Y117.237 E.0254
G1 X146.576 Y117.361 E.02067
G1 X147.237 Y117.546 E.02108
G1 X147.995 Y117.841 E.02499
G1 X148.741 Y118.228 E.02584
G1 X149.301 Y118.592 E.02051
G1 X149.945 Y119.108 E.02535
G1 X150.43 Y119.58 E.02081
G1 X150.974 Y120.225 E.02592
G1 X151.354 Y120.78 E.02067
G1 X151.69 Y121.378 E.02108
G1 X152.019 Y122.125 E.02507
G1 X152.272 Y122.927 E.02585
G1 X152.41 Y123.577 E.02043
G1 X152.501 Y124.397 E.02534
G1 X152.51 Y125.074 E.02081
G1 X152.438 Y125.915 E.02592
G1 X152.314 Y126.576 E.02067
G1 X152.129 Y127.237 E.02108
G1 X151.834 Y127.997 E.02507
G1 X151.446 Y128.744 E.02585
G1 X151.083 Y129.301 E.02043
G1 X150.568 Y129.945 E.02535
G1 X150.097 Y130.429 E.02075
G1 X149.45 Y130.974 E.02598
G1 X148.9 Y131.351 E.02051
G1 X148.177 Y131.749 E.02535
G1 X147.555 Y132.017 E.02083
G1 X146.749 Y132.272 E.02598
G1 X146.098 Y132.41 E.02043
G1 X145.278 Y132.501 E.02534
G1 X144.601 Y132.51 E.02081
G1 X143.761 Y132.438 E.02592
G1 X143.099 Y132.314 E.02067
G1 X142.439 Y132.129 E.02108
G1 X141.678 Y131.834 E.02507
G1 X140.932 Y131.446 E.02585
G1 X140.375 Y131.083 E.02043
G1 X139.73 Y130.568 E.02535
G1 X139.244 Y130.095 E.02083
G1 X138.7 Y129.448 E.02598
G1 X138.322 Y128.895 E.02059
G1 X137.986 Y128.297 E.02107
G1 X137.657 Y127.551 E.02507
G1 X137.403 Y126.749 E.02585
G1 X137.266 Y126.098 E.02043
G1 X137.175 Y125.278 E.02535
G1 X137.165 Y124.601 E.02081
G1 X137.237 Y123.761 E.02592
G1 X137.361 Y123.099 E.02067
G1 X137.546 Y122.439 E.02108
G1 X137.836 Y121.694 E.02456
G1 X138.231 Y120.929 E.02645
G1 X138.593 Y120.375 E.02033
G1 X139.063 Y119.787 E.02314
G1 X139.357 Y120.022 F10800
G1 F1200
G1 X139.387 Y119.985 E.00147
G1 X139.848 Y119.511 E.02031
G1 X140.328 Y119.1 E.01943
G1 X140.972 Y118.648 E.02415
G1 X141.66 Y118.268 E.02414
G1 X142.233 Y118.02 E.0192
G1 X143.021 Y117.769 E.0254
G1 X143.632 Y117.64 E.0192
G1 X144.415 Y117.552 E.0242
G1 X145.083 Y117.543 E.02053
G1 X145.858 Y117.611 E.02391
G1 X146.485 Y117.728 E.01961
G1 X147.122 Y117.906 E.02032
G1 X147.834 Y118.183 E.02345
G1 X148.546 Y118.552 E.02466
G1 X149.075 Y118.895 E.01937
G1 X149.691 Y119.387 E.02422
G1 X150.15 Y119.833 E.01966
G1 X150.67 Y120.449 E.02477
G1 X151.03 Y120.975 E.0196
G1 X151.354 Y121.552 E.02032
G1 X151.663 Y122.252 E.02352
G1 X151.906 Y123.018 E.02467
G1 X152.036 Y123.632 E.0193
G1 X152.124 Y124.415 E.02422
G1 X152.133 Y125.055 E.01967
G1 X152.065 Y125.858 E.02477
G1 X151.948 Y126.485 E.0196
G1 X151.769 Y127.122 E.02032
G1 X151.492 Y127.836 E.02352
G1 X151.122 Y128.548 E.02466
G1 X150.78 Y129.075 E.0193
G1 X150.288 Y129.691 E.02422
G1 X149.844 Y130.149 E.0196
G1 X149.226 Y130.67 E.02483
G1 X148.706 Y131.026 E.01937
G1 X148.016 Y131.407 E.02422
G1 X147.428 Y131.661 E.01968
G1 X146.658 Y131.906 E.02483
G1 X146.043 Y132.036 E.0193
G1 X145.26 Y132.124 E.02421
G1 X144.62 Y132.133 E.01967
G1 X143.817 Y132.065 E.02477
G1 X143.19 Y131.948 E.0196
G1 X142.553 Y131.769 E.02032
G1 X141.84 Y131.492 E.02352
G1 X141.127 Y131.122 E.02467
G1 X140.601 Y130.78 E.0193
G1 X139.984 Y130.288 E.02422
G1 X139.525 Y129.842 E.01968
G1 X139.004 Y129.224 E.02483
G1 X138.645 Y128.7 E.01952
G1 X138.321 Y128.124 E.02032
G1 X138.013 Y127.423 E.02352
G1 X137.77 Y126.658 E.02467
G1 X137.64 Y126.043 E.0193
G1 X137.552 Y125.26 E.02422
G1 X137.542 Y124.62 E.01966
G1 X137.611 Y123.817 E.02477
G1 X137.728 Y123.19 E.0196
G1 X137.906 Y122.553 E.02033
G1 X138.177 Y121.855 E.02302
G1 X138.555 Y121.124 E.02527
G1 X138.895 Y120.601 E.0192
G1 X139.332 Y120.053 E.02152
G1 X139.627 Y120.288 F10800
G1 F1200
G1 X139.667 Y120.239 E.00194
G1 X140.103 Y119.79 E.01923
G1 X140.564 Y119.395 E.01867
G1 X141.167 Y118.972 E.02262
G1 X141.821 Y118.61 E.02298
G1 X142.36 Y118.376 E.01805
G1 X143.112 Y118.136 E.02425
G1 X143.687 Y118.014 E.01806
G1 X144.433 Y117.929 E.02306
G1 X145.075 Y117.921 E.01973
G1 X145.802 Y117.984 E.02243
G1 X146.405 Y118.097 E.01884
G1 X147.008 Y118.267 E.01925
G1 X147.684 Y118.53 E.02228
G1 X148.351 Y118.875 E.0231
G1 X148.849 Y119.198 E.01824
G1 X149.437 Y119.667 E.0231
G1 X149.87 Y120.086 E.01852
G1 X150.366 Y120.674 E.02362
G1 X150.707 Y121.17 E.01852
G1 X151.019 Y121.726 E.01957
G1 X151.307 Y122.38 E.02198
G1 X151.539 Y123.109 E.02349
G1 X151.662 Y123.687 E.01817
G1 X151.746 Y124.434 E.02309
G1 X151.756 Y125.036 E.01852
G1 X151.691 Y125.802 E.02361
G1 X151.581 Y126.395 E.01852
G1 X151.409 Y127.008 E.01956
M73 P1 R38
G1 X151.15 Y127.675 E.02198
G1 X150.799 Y128.353 E.02348
G1 X150.477 Y128.849 E.01817
G1 X150.008 Y129.437 E.0231
G1 X149.59 Y129.869 E.01846
G1 X149.002 Y130.366 E.02367
G1 X148.513 Y130.702 E.01824
G1 X147.855 Y131.066 E.0231
G1 X147.301 Y131.305 E.01852
G1 X146.567 Y131.539 E.02368
G1 X145.989 Y131.662 E.01817
G1 X145.242 Y131.746 E.02309
G1 X144.639 Y131.756 E.01852
G1 X143.873 Y131.691 E.02361
G1 X143.281 Y131.581 E.01852
G1 X142.668 Y131.409 E.01956
G1 X142.001 Y131.15 E.02198
G1 X141.322 Y130.799 E.02349
G1 X140.826 Y130.477 E.01816
G1 X140.238 Y130.008 E.0231
G1 X139.805 Y129.589 E.01852
G1 X139.308 Y129 E.02368
G1 X138.968 Y128.505 E.01845
G1 X138.657 Y127.95 E.01956
G1 X138.368 Y127.295 E.02198
G1 X138.137 Y126.567 E.02349
G1 X138.014 Y125.989 E.01816
G1 X137.929 Y125.242 E.02309
G1 X137.92 Y124.639 E.01852
G1 X137.985 Y123.873 E.02362
G1 X138.094 Y123.281 E.01852
G1 X138.267 Y122.667 E.01957
G1 X138.52 Y122.016 E.02148
G1 X138.879 Y121.319 E.02408
G1 X139.199 Y120.826 E.01806
G1 X139.602 Y120.32 E.0199
G1 X139.89 Y120.564 F10800
G1 F1200
G1 X140.038 Y120.389 E.00702
G1 X140.628 Y119.829 E.02501
G1 X141.11 Y119.459 E.01866
G1 X141.597 Y119.152 E.0177
G1 X142.108 Y118.89 E.01766
G1 X142.714 Y118.649 E.02002
G1 X143.425 Y118.449 E.0227
G1 X144.015 Y118.345 E.01842
G1 X144.589 Y118.298 E.01769
G1 X145.403 Y118.32 E.02501
G1 X146.005 Y118.398 E.01866
G1 X146.567 Y118.526 E.01771
G1 X147.114 Y118.702 E.01765
G1 X147.712 Y118.96 E.02002
G1 X148.356 Y119.322 E.02271
G1 X148.847 Y119.665 E.01841
G1 X149.286 Y120.038 E.01769
G1 X149.847 Y120.629 E.02505
G1 X150.216 Y121.11 E.01863
G1 X150.524 Y121.597 E.01769
G1 X150.786 Y122.108 E.01766
G1 X151.027 Y122.714 E.02002
G1 X151.226 Y123.425 E.0227
G1 X151.331 Y124.02 E.01857
G1 X151.378 Y124.593 E.01764
G1 X151.368 Y125.244 E.02001
G1 X151.281 Y125.977 E.0227
G1 X151.151 Y126.563 E.01841
G1 X150.974 Y127.113 E.01778
G1 X150.716 Y127.712 E.02003
G1 X150.354 Y128.356 E.02271
G1 X150.01 Y128.847 E.01841
G1 X149.636 Y129.288 E.01778
G1 X149.169 Y129.743 E.02003
G1 X148.589 Y130.199 E.02267
G1 X148.082 Y130.521 E.01844
G1 X147.567 Y130.786 E.01779
G1 X146.962 Y131.027 E.02003
G1 X146.25 Y131.226 E.0227
G1 X145.66 Y131.33 E.01841
G1 X145.083 Y131.377 E.01778
G1 X144.432 Y131.368 E.02003
G1 X143.698 Y131.281 E.02271
