; HEADER_BLOCK_START
; generated by OrcaSlicer 2.0.0 on 2024-06-17 at 21:26:53
; total layer number: 56
; filament_density: 1.04
; filament_diameter: 1.75
; max_z_height: 14.00
; HEADER_BLOCK_END

; THUMBNAIL_BLOCK_START

;
; THUMBNAIL_BLOCK_END

; external perimeters extrusion width = 0.45mm
; perimeters extrusion width = 0.45mm
; infill extrusion width = 0.45mm
; solid infill extrusion width = 0.45mm
; top infill extrusion width = 0.40mm
; first layer extrusion width = 0.42mm

; external perimeters extrusion width = 0.45mm
; perimeters extrusion width = 0.45mm
; infill extrusion width = 0.45mm
; solid infill extrusion width = 0.45mm
; top infill extrusion width = 0.40mm
; first layer extrusion width = 0.42mm

; external perimeters extrusion width = 0.45mm
; perimeters extrusion width = 0.45mm
; infill extrusion width = 0.45mm
; solid infill extrusion width = 0.45mm
; top infill extrusion width = 0.40mm
; first layer extrusion width = 0.42mm

; external perimeters extrusion width = 0.45mm
; perimeters extrusion width = 0.45mm
; infill extrusion width = 0.45mm
; solid infill extrusion width = 0.45mm
; top infill extrusion width = 0.40mm
; first layer extrusion width = 0.42mm

; EXECUTABLE_BLOCK_START
M73 P0 R14
M201 X2000 Y2000 Z300 E5000
M203 X200 Y200 Z12 E120
M204 P2000 R2500 T2000
M205 X9.00 Y9.00 Z0.20 E2.50 ; sets the jerk limits, mm/sec
;TYPE:Custom
M862.3 P "MK3S" ; printer model check
M862.1 P0.4 ; nozzle diameter check
M115 U3.13.0 ; tell printer latest fw version
G90 ; use absolute coordinates
M83 ; extruder relative mode
M104 S260 ; set extruder temp
M140 S105 ; set bed temp
M190 S105 ; wait for bed temp
M109 S260 ; wait for extruder temp
G28 W ; home all without mesh bed level
G80 ; mesh bed leveling

G1 Z0.2 F720
G1 Y-3 F1000 ; go outside print area
G92 E0
G1 X60 E9 F1000 ; intro line
G1 X100 E12.5 F1000 ; intro line

G92 E0
M221 S95
G90
G21
M83 ; use relative distances for extrusion
; Filament gcode
M900 K0.04 ; Filament gcode LA 1.5
M900 K20 ; Filament gcode LA 1.0
M106 S0
;LAYER_CHANGE
;Z:0.25
;HEIGHT:0.25
;BEFORE_LAYER_CHANGE
;0.25
G92 E0

G1 E-.8 F1800
;AFTER_LAYER_CHANGE
;0.25
;_SET_FAN_SPEED_CHANGING_LAYER
M204 S800
G1 Z.4 F720
G1 X111.768 Y93.385 F10800
G1 Z.4 F720
G1 Z.25
G1 E.8 F1800
;TYPE:Skirt
;WIDTH:0.42
G1 F3000
G1 X112.767 Y92.428 E.04897
G1 X113.584 Y91.839 E.0357
G1 X115.032 Y91.095 E.05765
G1 X116.74 Y90.61 E.06285
G1 X117.605 Y90.5 E.03089
G1 X118.629 Y90.485 E.03626
G1 X119.623 Y90.585 E.03538
G1 X120.967 Y90.912 E.04897
G1 X122.678 Y91.688 E.06656
G1 X142.925 Y103.377 E.82789
G1 X143.681 Y103.883 E.03222
G1 X144.723 Y104.797 E.04907
G1 X145.837 Y106.211 E.06374
G1 X146.558 Y107.626 E.05625
G1 X147.043 Y109.333 E.06285
G1 X147.177 Y110.97 E.05816
G1 X146.964 Y112.757 E.06374
G1 X146.469 Y114.279 E.05668
G1 X145.588 Y115.852 E.06383
G1 X144.556 Y117.06 E.05625
G1 X143.164 Y118.161 E.06285
G1 X142.279 Y118.657 E.03594
G1 X140.753 Y119.225 E.05765
G1 X139.144 Y119.5 E.05783
G1 X111.335 Y119.524 E.98476
G1 X109.589 Y119.311 E.06228
M73 P1 R14
G1 X108.067 Y118.816 E.05668
G1 X106.495 Y117.935 E.06383
G1 X105.277 Y116.893 E.05677
G1 X104.472 Y115.935 E.0443
G1 X103.787 Y114.822 E.04629
G1 X103.351 Y113.822 E.03862
G1 X102.948 Y112.317 E.05515
G1 X102.833 Y111.272 E.03723
G1 X102.898 Y109.716 E.05516
G1 X103.259 Y108.129 E.05763
G1 X103.633 Y107.186 E.03594
G1 X110.784 Y94.728 E.50867
G1 X111.744 Y93.417 E.05756
; printing object Spacer.stl id:2816 copy 0
G1 E-.56 F1800
;WIPE_START
G1 F3000
G1 X112.463 Y92.722 E-.24
;WIPE_END
G1 Z.65 F720
G1 X133.283 Y107.625 Z.65 F10800
G1 Z.25 F720
G1 E.8 F1800
;TYPE:Brim
G1 F1200
G1 X133.532 Y107.248 E.016
G1 X133.864 Y106.829 E.01893
G1 X134.277 Y106.397 E.02117
G1 X134.679 Y106.047 E.01887
G1 X135.287 Y105.621 E.02632
G1 X135.753 Y105.362 E.01887
G1 X136.3 Y105.12 E.02117
G1 X136.805 Y104.951 E.01887
G1 X137.53 Y104.79 E.0263
G1 X138.123 Y104.724 E.02111
G1 X138.663 Y104.715 E.01914
G1 X139.396 Y104.779 E.02606
G1 X139.92 Y104.88 E.01887
G1 X140.494 Y105.047 E.02117
G1 X140.99 Y105.242 E.01887
G1 X141.649 Y105.585 E.02632
G1 X142.094 Y105.878 E.01887
G1 X142.56 Y106.252 E.02117
G1 X142.946 Y106.624 E.01896
G1 X143.422 Y107.191 E.02623
G1 X143.721 Y107.633 E.01889
G1 X143.981 Y108.1 E.01893
G1 X144.222 Y108.647 E.02117
G1 X144.391 Y109.152 E.01887
G1 X144.553 Y109.877 E.0263
G1 X144.618 Y110.47 E.02111
G1 X144.627 Y111.005 E.01896
G1 X144.563 Y111.743 E.02623
G1 X144.462 Y112.266 E.01887
G1 X144.295 Y112.841 E.02117
G1 X144.1 Y113.337 E.01887
G1 X143.758 Y113.996 E.02632
G1 X143.464 Y114.441 E.01889
G1 X143.132 Y114.86 E.01893
G1 X142.719 Y115.292 E.02117
G1 X142.317 Y115.642 E.01887
G1 X141.708 Y116.069 E.02632
G1 X141.243 Y116.328 E.01887
G1 X140.695 Y116.569 E.02117
G1 X140.19 Y116.738 E.01887
G1 X139.465 Y116.9 E.0263
G1 X138.873 Y116.965 E.02111
G1 X138.337 Y116.974 E.01896
G1 X137.599 Y116.91 E.02623
G1 X137.076 Y116.809 E.01887
M73 P1 R13
G1 X136.502 Y116.642 E.02117
G1 X136.006 Y116.447 E.01887
G1 X135.346 Y116.105 E.02632
G1 X134.902 Y115.811 E.01887
G1 X134.435 Y115.437 E.02117
G1 X134.05 Y115.065 E.01896
G1 X133.573 Y114.498 E.02623
G1 X133.275 Y114.057 E.01889
G1 X133.015 Y113.589 E.01893
G1 X132.774 Y113.044 E.02112
G1 X132.55 Y112.336 E.0263
G1 X132.443 Y111.814 E.01887
G1 X132.378 Y111.219 E.02117
G1 X132.368 Y110.684 E.01896
G1 X132.432 Y109.946 E.02623
G1 X132.533 Y109.423 E.01887
G1 X132.7 Y108.849 E.02117
G1 X132.895 Y108.353 E.01887
G1 X133.238 Y107.693 E.02631
G1 X133.261 Y107.659 E.00147
G1 X133.567 Y107.86 F10800
G1 F1200
G1 X133.826 Y107.467 E.01667
G1 X134.144 Y107.067 E.01811
G1 X134.534 Y106.659 E.01997
G1 X134.91 Y106.333 E.01762
G1 X135.477 Y105.935 E.02456
G1 X135.921 Y105.688 E.01798
G1 X136.437 Y105.461 E.01997
G1 X136.909 Y105.303 E.01762
G1 X137.585 Y105.153 E.0245
G1 X138.141 Y105.091 E.01983
G1 X138.656 Y105.082 E.01824
G1 X139.34 Y105.142 E.0243
G1 X139.829 Y105.236 E.01762
G1 X140.37 Y105.393 E.01997
G1 X140.832 Y105.574 E.01757
G1 X141.458 Y105.898 E.02496
G1 X141.874 Y106.172 E.01762
G1 X142.314 Y106.524 E.01997
G1 X142.673 Y106.87 E.01766
G1 X143.126 Y107.408 E.02488
G1 X143.406 Y107.821 E.01768
G1 X143.654 Y108.268 E.01811
G1 X143.882 Y108.784 E.01997
G1 X144.039 Y109.256 E.01762
G1 X144.189 Y109.931 E.0245
G1 X144.251 Y110.488 E.01984
G1 X144.261 Y110.987 E.01766
G1 X144.2 Y111.687 E.02488
G1 X144.107 Y112.176 E.01762
G1 X143.95 Y112.717 E.01997
G1 X143.768 Y113.179 E.01757
G1 X143.444 Y113.805 E.02496
G1 X143.17 Y114.222 E.01768
G1 X142.852 Y114.623 E.01811
G1 X142.462 Y115.03 E.01997
G1 X142.086 Y115.356 E.01762
G1 X141.518 Y115.755 E.02456
G1 X141.075 Y116.001 E.01798
G1 X140.558 Y116.229 E.01997
G1 X140.086 Y116.386 E.01762
G1 X139.411 Y116.536 E.0245
G1 X138.854 Y116.598 E.01984
G1 X138.356 Y116.608 E.01766
G1 X137.656 Y116.547 E.02488
G1 X137.167 Y116.454 E.01762
G1 X136.625 Y116.297 E.01997
G1 X136.163 Y116.115 E.01757
G1 X135.537 Y115.791 E.02496
G1 X135.122 Y115.517 E.01762
G1 X134.681 Y115.165 E.01997
G1 X134.322 Y114.819 E.01766
G1 X133.87 Y114.282 E.02488
G1 X133.59 Y113.868 E.01768
G1 X133.341 Y113.422 E.01811
G1 X133.12 Y112.92 E.01942
G1 X132.907 Y112.249 E.02493
G1 X132.806 Y111.762 E.01762
G1 X132.744 Y111.201 E.01997
G1 X132.735 Y110.703 E.01766
G1 X132.795 Y110.003 E.02488
G1 X132.889 Y109.514 E.01762
G1 X133.046 Y108.972 E.01997
G1 X133.227 Y108.51 E.01758
G1 X133.546 Y107.894 E.02456
G1 X133.865 Y108.084 F10800
G1 F1200
G1 X133.991 Y107.872 E.00876
G1 X134.271 Y107.486 E.01685
G1 X134.579 Y107.131 E.01667
G1 X134.972 Y106.757 E.01918
G1 X135.461 Y106.382 E.02185
G1 X135.873 Y106.127 E.01716
G1 X136.299 Y105.914 E.01684
G1 X136.804 Y105.719 E.01919
G1 X137.402 Y105.559 E.02191
G1 X137.879 Y105.482 E.0171
G1 X138.352 Y105.448 E.01681
G1 X139.04 Y105.474 E.02437
G1 X139.52 Y105.544 E.01718
G1 X139.983 Y105.654 E.01686
G1 X140.429 Y105.803 E.01665
G1 X141.055 Y106.091 E.02442
G1 X141.471 Y106.338 E.01712
G1 X141.856 Y106.618 E.01685
G1 X142.212 Y106.926 E.01667
G1 X142.585 Y107.319 E.01918
G1 X142.961 Y107.808 E.02185
G1 X143.216 Y108.22 E.01716
G1 X143.428 Y108.645 E.01684
G1 X143.623 Y109.151 E.01919
G1 X143.783 Y109.749 E.02191
G1 X143.861 Y110.225 E.0171
G1 X143.895 Y110.699 E.01681
G1 X143.869 Y111.387 E.02437
G1 X143.799 Y111.867 E.01718
G1 X143.688 Y112.33 E.01686
G1 X143.539 Y112.776 E.01667
G1 X143.32 Y113.272 E.01919
G1 X143.01 Y113.807 E.02191
G1 X142.725 Y114.203 E.01727
G1 X142.416 Y114.559 E.01668
G1 X142.024 Y114.932 E.01918
G1 X141.535 Y115.308 E.02185
G1 X141.122 Y115.563 E.01716
G1 X140.697 Y115.775 E.01684
G1 X140.191 Y115.97 E.01919
G1 X139.594 Y116.13 E.02191
G1 X139.117 Y116.208 E.0171
G1 X138.643 Y116.241 E.01681
G1 X137.956 Y116.215 E.02437
G1 X137.476 Y116.146 E.01718
G1 X137.013 Y116.035 E.01686
G1 X136.566 Y115.886 E.01667
G1 X136.071 Y115.667 E.01918
G1 X135.535 Y115.357 E.02191
G1 X135.14 Y115.072 E.01727
G1 X134.784 Y114.763 E.01668
G1 X134.41 Y114.371 E.01918
G1 X134.035 Y113.881 E.02185
G1 X133.78 Y113.469 E.01716
G1 X133.567 Y113.044 E.01684
G1 X133.372 Y112.538 E.01919
G1 X133.212 Y111.941 E.02191
G1 X133.135 Y111.464 E.0171
G1 X133.101 Y110.99 E.01681
G1 X133.127 Y110.303 E.02437
G1 X133.197 Y109.823 E.01718
G1 X133.306 Y109.364 E.0167
G1 X133.456 Y108.914 E.0168
G1 X133.744 Y108.287 E.02443
G1 X133.844 Y108.118 E.00695
G1 X134.157 Y108.307 F10800
G1 F1200
G1 X134.307 Y108.057 E.01033
G1 X134.569 Y107.699 E.01571
G1 X134.858 Y107.368 E.01555
G1 X135.19 Y107.052 E.01625
G1 X135.688 Y106.669 E.02225
G1 X136.068 Y106.437 E.01575
G1 X136.465 Y106.24 E.01571
G1 X136.893 Y106.074 E.01625
G1 X137.502 Y105.911 E.02231
G1 X137.94 Y105.843 E.01569
G1 X138.382 Y105.813 E.01571
G1 X139.03 Y105.84 E.02295
G1 X139.47 Y105.906 E.01575
G1 X139.901 Y106.011 E.01571
G1 X140.317 Y106.152 E.01555
G1 X140.906 Y106.425 E.02301
G1 X141.285 Y106.654 E.01569
G1 X141.643 Y106.916 E.01571
G1 X141.974 Y107.205 E.01555
G1 X142.291 Y107.537 E.01625
G1 X142.673 Y108.035 E.02225
G1 X142.905 Y108.415 E.01575
G1 X143.102 Y108.812 E.01571
G1 X143.268 Y109.24 E.01625
G1 X143.431 Y109.849 E.02231
G1 X143.5 Y110.287 E.01569
G1 X143.529 Y110.729 E.01571
G1 X143.502 Y111.377 E.02295
G1 X143.436 Y111.816 E.01575
G1 X143.331 Y112.247 E.01571
G1 X143.191 Y112.663 E.01555
G1 X143.005 Y113.083 E.01625
G1 X142.69 Y113.629 E.02231
G1 X142.427 Y113.99 E.01584
G1 X142.137 Y114.321 E.01555
G1 X141.805 Y114.638 E.01625
G1 X141.307 Y115.02 E.02225
G1 X140.928 Y115.252 E.01575
G1 X140.53 Y115.449 E.01571
G1 X140.102 Y115.615 E.01625
G1 X139.493 Y115.778 E.02231
G1 X139.056 Y115.847 E.01569
G1 X138.613 Y115.876 E.01571
G1 X137.966 Y115.849 E.02295
G1 X137.526 Y115.783 E.01575
G1 X137.095 Y115.678 E.01571
G1 X136.679 Y115.538 E.01555
G1 X136.259 Y115.352 E.01625
G1 X135.713 Y115.037 E.02231
G1 X135.352 Y114.773 E.01584
G1 X135.021 Y114.484 E.01555
G1 X134.705 Y114.152 E.01625
G1 X134.322 Y113.654 E.02225
G1 X134.09 Y113.275 E.01575
G1 X133.893 Y112.877 E.01571
M73 P2 R13
G1 X133.728 Y112.449 E.01625
G1 X133.564 Y111.84 E.02231
G1 X133.496 Y111.403 E.01569
G1 X133.466 Y110.96 E.01571
G1 X133.493 Y110.313 E.02295
G1 X133.559 Y109.873 E.01575
G1 X133.663 Y109.446 E.01555
G1 X133.805 Y109.026 E.0157
G1 X134.079 Y108.436 E.02302
G1 X134.136 Y108.341 E.00394
G1 X134.357 Y108.99 F10800
;TYPE:Outer wall
;WIDTH:0.419999
G1 F1200
G1 X134.359 Y108.985 E.0002
G1 X134.673 Y108.409 E.02322
G1 X134.981 Y107.977 E.0188
G1 X135.386 Y107.542 E.02102
G1 X135.843 Y107.165 E.02101
G1 X136.403 Y106.823 E.02322
G1 X136.887 Y106.603 E.01881
G1 X137.454 Y106.429 E.02102
G1 X138.039 Y106.331 E.02101
G1 X138.695 Y106.315 E.02322
G1 X139.223 Y106.366 E.0188
G1 X139.802 Y106.499 E.02102
G1 X140.358 Y106.706 E.02101
G1 X140.933 Y107.02 E.02322
G1 X141.365 Y107.328 E.0188
G1 X141.8 Y107.733 E.02102
G1 X142.178 Y108.19 E.02101
G1 X142.519 Y108.75 E.02322
G1 X142.739 Y109.233 E.01881
G1 X142.913 Y109.801 E.02102
G1 X143.012 Y110.386 E.02101
G1 X143.028 Y111.042 E.02322
G1 X142.977 Y111.57 E.0188
G1 X142.844 Y112.149 E.02102
G1 X142.636 Y112.705 E.02101
G1 X142.322 Y113.28 E.02322
G1 X142.014 Y113.712 E.0188
G1 X141.61 Y114.147 E.02102
G1 X141.152 Y114.525 E.02101
G1 X140.592 Y114.866 E.02322
G1 X140.109 Y115.086 E.01881
G1 X139.542 Y115.26 E.02102
G1 X138.956 Y115.359 E.02101
G1 X138.301 Y115.375 E.02322
G1 X137.772 Y115.324 E.0188
G1 X137.194 Y115.191 E.02102
G1 X136.638 Y114.983 E.02101
G1 X136.062 Y114.669 E.02322
G1 X135.63 Y114.361 E.0188
G1 X135.195 Y113.956 E.02102
G1 X134.818 Y113.499 E.02101
G1 X134.476 Y112.939 E.02322
G1 X134.256 Y112.456 E.0188
G1 X134.082 Y111.888 E.02102
G1 X133.984 Y111.303 E.02101
G1 X133.968 Y110.648 E.02322
G1 X134.019 Y110.119 E.0188
G1 X134.151 Y109.543 E.02096
G1 X134.343 Y109.027 E.01947
G1 X134.681 Y109.152 F10800
;TYPE:Inner wall
;WIDTH:0.414024
G1 F1200
G1 X134.933 Y108.668 E.01902
G1 X135.249 Y108.222 E.01903
;WIDTH:0.415923
G1 X135.62 Y107.822 E.01912
G1 X136.039 Y107.471 E.01912
;WIDTH:0.414017
G1 X136.497 Y107.178 E.01896
G1 X136.996 Y106.95 E.0191
;WIDTH:0.415923
G1 X137.517 Y106.788 E.01912
G1 X138.055 Y106.694 E.01912
;WIDTH:0.414021
G1 X138.601 Y106.669 E.01902
G1 X139.144 Y106.72 E.01903
;WIDTH:0.415921
G1 X139.677 Y106.841 E.01912
G1 X140.19 Y107.028 E.01912
;WIDTH:0.414022
G1 X140.674 Y107.28 E.01902
G1 X141.12 Y107.596 E.01903
;WIDTH:0.415921
G1 X141.521 Y107.967 E.01912
G1 X141.871 Y108.386 E.01912
;WIDTH:0.414016
G1 X142.164 Y108.844 E.01896
G1 X142.393 Y109.343 E.0191
;WIDTH:0.415922
G1 X142.555 Y109.864 E.01912
G1 X142.649 Y110.402 E.01912
;WIDTH:0.414022
G1 X142.673 Y110.947 E.01902
G1 X142.622 Y111.491 E.01903
;WIDTH:0.415922
G1 X142.501 Y112.024 E.01912
G1 X142.314 Y112.537 E.01912
;WIDTH:0.414022
G1 X142.063 Y113.021 E.01902
G1 X141.746 Y113.467 E.01903
;WIDTH:0.415921
G1 X141.375 Y113.868 E.01912
G1 X140.957 Y114.218 E.01912
;WIDTH:0.414017
G1 X140.498 Y114.511 E.01896
G1 X140 Y114.74 E.0191
;WIDTH:0.415922
G1 X139.478 Y114.902 E.01912
G1 X138.941 Y114.996 E.01912
;WIDTH:0.414022
G1 X138.395 Y115.02 E.01902
G1 X137.851 Y114.969 E.01903
;WIDTH:0.415923
G1 X137.318 Y114.848 E.01912
G1 X136.806 Y114.661 E.01912
;WIDTH:0.414025
G1 X136.321 Y114.41 E.01902
G1 X135.876 Y114.093 E.01903
;WIDTH:0.415923
G1 X135.475 Y113.722 E.01912
G1 X135.124 Y113.304 E.01912
;WIDTH:0.414022
G1 X134.83 Y112.844 E.01902
G1 X134.603 Y112.347 E.01903
;WIDTH:0.415923
G1 X134.441 Y111.825 E.01912
G1 X134.347 Y111.287 E.01912
;WIDTH:0.414023
G1 X134.322 Y110.742 E.01902
G1 X134.373 Y110.198 E.01903
;WIDTH:0.415904
G1 X134.494 Y109.667 E.01906
G1 X134.668 Y109.19 E.01778
G1 E-.56 F1800
;WIPE_START
G1 F1200
G1 X134.933 Y108.668 E-.14055
G1 X135.173 Y108.33 E-.09945
;WIPE_END
G1 Z.65 F720
G1 X137.258 Y114.074 Z.65 F10800
G1 Z.25 F720
G1 E.8 F1800
;TYPE:Outer wall
;WIDTH:0.419999
G1 F1200
G1 X136.717 Y113.81 E.02132
G1 X136.229 Y113.456 E.02135
G1 X135.81 Y113.022 E.02135
G1 X135.473 Y112.523 E.02135
G1 X135.227 Y111.972 E.02135
G1 X135.081 Y111.387 E.02135
G1 X135.039 Y110.785 E.02135
G1 X135.102 Y110.185 E.02135
G1 X135.268 Y109.606 E.02135
G1 X135.532 Y109.064 E.02135
G1 X135.886 Y108.576 E.02135
G1 X136.32 Y108.157 E.02135
G1 X136.82 Y107.819 E.02135
G1 X137.371 Y107.574 E.02135
G1 X137.956 Y107.428 E.02135
G1 X138.557 Y107.386 E.02135
G1 X139.157 Y107.449 E.02135
G1 X139.737 Y107.615 E.02135
G1 X140.279 Y107.879 E.02135
G1 X140.767 Y108.233 E.02135
G1 X141.186 Y108.667 E.02135
G1 X141.523 Y109.167 E.02135
G1 X141.768 Y109.718 E.02135
G1 X141.914 Y110.303 E.02135
G1 X141.957 Y110.904 E.02135
G1 X141.894 Y111.504 E.02135
G1 X141.728 Y112.084 E.02135
G1 X141.463 Y112.626 E.02135
G1 X141.109 Y113.114 E.02135
G1 X140.675 Y113.533 E.02135
G1 X140.176 Y113.87 E.02135
G1 X139.625 Y114.115 E.02135
G1 X139.04 Y114.261 E.02135
G1 X138.438 Y114.304 E.02135
G1 X137.839 Y114.241 E.02135
G1 X137.296 Y114.085 E.01998
G1 X137.105 Y114.395 F10800
;TYPE:Inner wall
;WIDTH:0.409009
G1 F1200
G1 X136.557 Y114.134 E.02085
;WIDTH:0.414025
G1 X136.104 Y113.815 E.01931
G1 X135.55 Y113.271 E.02704
;WIDTH:0.409008
G1 X135.173 Y112.723 E.02286
;WIDTH:0.414022
G1 X134.939 Y112.22 E.01931
G1 X134.732 Y111.472 E.02703
