; HEADER_BLOCK_START
; generated by OrcaSlicer 2.0.0 on 2024-06-17 at 20:20:23
; total layer number: 70
; filament_density: 1.04
; filament_diameter: 1.75
; max_z_height: 14.00
; HEADER_BLOCK_END

; THUMBNAIL_BLOCK_START

;
; THUMBNAIL_BLOCK_END

; external perimeters extrusion width = 0.45mm
; perimeters extrusion width = 0.45mm
; infill extrusion width = 0.45mm
; solid infill extrusion width = 0.45mm
; top infill extrusion width = 0.40mm
; first layer extrusion width = 0.42mm

; external perimeters extrusion width = 0.45mm
; perimeters extrusion width = 0.45mm
; infill extrusion width = 0.45mm
; solid infill extrusion width = 0.45mm
; top infill extrusion width = 0.40mm
; first layer extrusion width = 0.42mm

; external perimeters extrusion width = 0.45mm
; perimeters extrusion width = 0.45mm
; infill extrusion width = 0.45mm
; solid infill extrusion width = 0.45mm
; top infill extrusion width = 0.40mm
; first layer extrusion width = 0.42mm

; external perimeters extrusion width = 0.45mm
; perimeters extrusion width = 0.45mm
; infill extrusion width = 0.45mm
; solid infill extrusion width = 0.45mm
; top infill extrusion width = 0.40mm
; first layer extrusion width = 0.42mm

; EXECUTABLE_BLOCK_START
M73 P0 R18
M201 X2000 Y2000 Z300 E5000
M203 X200 Y200 Z12 E120
M204 P2000 R2500 T2000
M205 X9.00 Y9.00 Z0.20 E2.50 ; sets the jerk limits, mm/sec
;TYPE:Custom
M862.3 P "MK3S" ; printer model check
M862.1 P0.4 ; nozzle diameter check
M115 U3.13.0 ; tell printer latest fw version
G90 ; use absolute coordinates
M83 ; extruder relative mode
M104 S260 ; set extruder temp
M140 S105 ; set bed temp
M190 S105 ; wait for bed temp
M109 S260 ; wait for extruder temp
G28 W ; home all without mesh bed level
G80 ; mesh bed leveling

G1 Z0.2 F720
G1 Y-3 F1000 ; go outside print area
G92 E0
G1 X60 E9 F1000 ; intro line
G1 X100 E12.5 F1000 ; intro line

G92 E0
M221 S95
G90
G21
M83 ; use relative distances for extrusion
; Filament gcode
M900 K0.04 ; Filament gcode LA 1.5
M900 K20 ; Filament gcode LA 1.0
M106 S0
;LAYER_CHANGE
;Z:0.2
;HEIGHT:0.2
;BEFORE_LAYER_CHANGE
;0.2
G92 E0

G1 E-.8 F1800
;AFTER_LAYER_CHANGE
;0.2
;_SET_FAN_SPEED_CHANGING_LAYER
M204 S800
G1 Z.4 F720
G1 X113.926 Y95.285 F10800
G1 Z.4 F720
G1 Z.2
G1 E.8 F1800
;TYPE:Skirt
;WIDTH:0.42
G1 F3000
G1 X115.077 Y94.245 E.04525
G1 X116.426 Y93.478 E.04525
G1 X117.91 Y93.022 E.04525
G1 X119.458 Y92.898 E.04531
G1 X120.384 Y92.985 E.02712
G1 X121.193 Y93.164 E.02416
G1 X122.631 Y93.747 E.04525
G1 X140.149 Y103.858 E.58979
G1 X140.917 Y104.388 E.0272
G1 X141.61 Y105.013 E.0272
G1 X142.452 Y106.062 E.03924
G1 X143.12 Y107.346 E.0422
G1 X143.497 Y108.637 E.03921
G1 X143.624 Y110.082 E.0423
G1 X143.478 Y111.418 E.03917
G1 X143.042 Y112.801 E.0423
G1 X142.394 Y113.981 E.03923
G1 X141.463 Y115.091 E.04224
G1 X140.501 Y115.875 E.0362
G1 X139.416 Y116.48 E.03622
G1 X138.242 Y116.889 E.03625
G1 X137.016 Y117.087 E.03622
G1 X113.399 Y117.105 E.68866
G1 X112.061 Y116.958 E.03924
G1 X110.68 Y116.523 E.04224
G1 X109.5 Y115.875 E.03923
G1 X108.39 Y114.944 E.04224
G1 X107.726 Y114.153 E.03014
G1 X107.135 Y113.179 E.03321
G1 X106.737 Y112.22 E.03026
G1 X106.467 Y111.115 E.03319
G1 X106.376 Y109.876 E.03622
G1 X106.466 Y108.846 E.03016
G1 X106.737 Y107.739 E.03321
G1 X107.133 Y106.782 E.0302
G1 X113.131 Y96.37 E.35039
G1 X113.902 Y95.317 E.03805
; printing object Spacer.stl id:2816 copy 0
G1 E-.56 F1800
;WIPE_START
G1 F3000
G1 X114.641 Y94.643 E-.24
;WIPE_END
G1 Z.6 F720
G1 X139.342 Y106.446 Z.6 F10800
G1 Z.2 F720
G1 E.8 F1800
;TYPE:Outer wall
;WIDTH:0.419999
G1 F1200
G1 X139.365 Y106.462 E.00084
G1 X139.8 Y106.867 E.01731
G1 X140.178 Y107.324 E.0173
G1 X140.519 Y107.885 E.01914
G1 X140.739 Y108.367 E.01546
G1 X140.913 Y108.935 E.01731
G1 X141.012 Y109.52 E.0173
G1 X141.028 Y110.176 E.01914
G1 X140.977 Y110.704 E.01546
G1 X140.844 Y111.283 E.01731
G1 X140.636 Y111.839 E.0173
G1 X140.322 Y112.415 E.01914
G1 X140.014 Y112.846 E.01546
G1 X139.61 Y113.281 E.01731
G1 X139.152 Y113.659 E.0173
G1 X138.592 Y114 E.01914
G1 X138.109 Y114.22 E.01546
G1 X137.542 Y114.394 E.01731
G1 X136.956 Y114.493 E.0173
G1 X136.3 Y114.509 E.01914
G1 X135.772 Y114.458 E.01546
G1 X135.194 Y114.325 E.01731
G1 X134.638 Y114.117 E.0173
G1 X134.062 Y113.803 E.01914
G1 X133.63 Y113.495 E.01546
G1 X133.196 Y113.09 E.01731
G1 X132.818 Y112.633 E.0173
G1 X132.476 Y112.073 E.01914
G1 X132.256 Y111.59 E.01546
G1 X132.082 Y111.022 E.01731
G1 X131.984 Y110.437 E.0173
G1 X131.968 Y109.781 E.01914
G1 X132.019 Y109.253 E.01546
G1 X132.151 Y108.676 E.01727
G1 X132.359 Y108.119 E.01735
G1 X132.673 Y107.543 E.01913
G1 X132.981 Y107.111 E.01546
G1 X133.386 Y106.676 E.01731
G1 X133.843 Y106.299 E.0173
G1 X134.404 Y105.957 E.01914
G1 X134.886 Y105.737 E.01547
G1 X135.454 Y105.563 E.01731
G1 X136.039 Y105.464 E.0173
G1 X136.695 Y105.449 E.01914
G1 X137.223 Y105.5 E.01546
G1 X137.802 Y105.633 E.01731
G1 X138.358 Y105.84 E.0173
G1 X138.934 Y106.154 E.01914
G1 X139.309 Y106.422 E.01346
G1 X139.118 Y106.732 F10800
;TYPE:Inner wall
;WIDTH:0.399813
G1 F1200
G1 X139.519 Y107.103 E.01506
G1 X139.869 Y107.521 E.01506
;WIDTH:0.397914
G1 X140.163 Y107.981 E.01498
G1 X140.39 Y108.477 E.01499
;WIDTH:0.399812
M73 P1 R18
G1 X140.552 Y108.999 E.01506
G1 X140.646 Y109.536 E.01506
;WIDTH:0.397911
G1 X140.671 Y110.081 E.01498
G1 X140.619 Y110.625 E.01499
;WIDTH:0.399811
G1 X140.499 Y111.157 E.01506
G1 X140.312 Y111.67 E.01506
;WIDTH:0.397913
G1 X140.06 Y112.154 E.01498
G1 X139.744 Y112.599 E.01499
;WIDTH:0.399812
G1 X139.374 Y113 E.01506
G1 X138.955 Y113.35 E.01506
;WIDTH:0.397915
G1 X138.495 Y113.644 E.01498
G1 X137.999 Y113.871 E.01499
;WIDTH:0.399812
G1 X137.478 Y114.033 E.01506
G1 X136.94 Y114.127 E.01506
;WIDTH:0.397914
G1 X136.395 Y114.152 E.01498
G1 X135.852 Y114.1 E.01499
;WIDTH:0.399813
G1 X135.319 Y113.98 E.01506
G1 X134.807 Y113.793 E.01506
;WIDTH:0.397915
G1 X134.323 Y113.541 E.01498
G1 X133.877 Y113.225 E.01499
;WIDTH:0.399813
G1 X133.477 Y112.855 E.01506
G1 X133.126 Y112.436 E.01506
;WIDTH:0.397915
G1 X132.833 Y111.976 E.01498
G1 X132.605 Y111.48 E.01499
;WIDTH:0.399813
G1 X132.443 Y110.959 E.01506
G1 X132.349 Y110.421 E.01506
;WIDTH:0.397913
G1 X132.325 Y109.876 E.01498
G1 X132.376 Y109.333 E.01499
;WIDTH:0.399797
G1 X132.496 Y108.802 E.01502
G1 X132.684 Y108.288 E.0151
;WIDTH:0.397913
G1 X132.935 Y107.803 E.01498
G1 X133.251 Y107.358 E.01499
;WIDTH:0.399814
G1 X133.622 Y106.958 E.01506
G1 X134.04 Y106.607 E.01506
;WIDTH:0.397914
G1 X134.5 Y106.314 E.01498
G1 X134.996 Y106.086 E.01499
;WIDTH:0.399813
G1 X135.518 Y105.924 E.01506
G1 X136.055 Y105.83 E.01506
;WIDTH:0.397912
G1 X136.6 Y105.806 E.01498
G1 X137.144 Y105.857 E.01499
;WIDTH:0.39981
G1 X137.676 Y105.978 E.01506
G1 X138.189 Y106.165 E.01506
;WIDTH:0.397911
G1 X138.673 Y106.416 E.01498
G1 X139.086 Y106.709 E.01389
G1 E-.56 F1800
;WIPE_START
G1 F1200
G1 X139.519 Y107.103 E-.1405
G1 X139.785 Y107.421 E-.0995
;WIPE_END
G1 Z.6 F720
G1 X134.717 Y112.945 Z.6 F10800
G1 Z.2 F720
G1 E.8 F1800
;TYPE:Outer wall
;WIDTH:0.419999
G1 F1200
G1 X134.229 Y112.59 E.01758
G1 X133.81 Y112.157 E.01758
G1 X133.473 Y111.657 E.01758
G1 X133.227 Y111.106 E.01758
G1 X133.081 Y110.521 E.01758
G1 X133.039 Y109.92 E.01758
G1 X133.102 Y109.32 E.01758
G1 X133.268 Y108.74 E.01758
G1 X133.532 Y108.198 E.01758
G1 X133.886 Y107.71 E.01758
G1 X134.32 Y107.291 E.01758
G1 X134.819 Y106.954 E.01758
G1 X135.37 Y106.708 E.01758
G1 X135.955 Y106.562 E.01758
G1 X136.557 Y106.52 E.01758
G1 X137.156 Y106.583 E.01758
G1 X137.736 Y106.749 E.01758
G1 X138.278 Y107.013 E.01758
G1 X138.766 Y107.367 E.01758
G1 X139.185 Y107.801 E.01758
G1 X139.523 Y108.3 E.01758
G1 X139.768 Y108.851 E.01758
G1 X139.914 Y109.436 E.01758
G1 X139.957 Y110.038 E.01758
G1 X139.894 Y110.637 E.01758
G1 X139.728 Y111.217 E.01758
G1 X139.464 Y111.759 E.01758
G1 X139.109 Y112.247 E.01758
G1 X138.676 Y112.666 E.01758
G1 X138.176 Y113.004 E.01758
G1 X137.625 Y113.249 E.01758
G1 X137.04 Y113.395 E.01758
G1 X136.439 Y113.437 E.01758
G1 X135.839 Y113.375 E.01758
G1 X135.259 Y113.209 E.01758
G1 X134.753 Y112.962 E.01642
G1 X134.511 Y113.239 F10800
;TYPE:Inner wall
;WIDTH:0.397915
G1 F1200
G1 X134.102 Y112.951 E.01373
G1 X133.548 Y112.407 E.02131
;WIDTH:0.392903
G1 X133.171 Y111.859 E.01802
;WIDTH:0.397915
G1 X132.937 Y111.355 E.01525
G1 X132.729 Y110.607 E.02131
;WIDTH:0.392902
G1 X132.676 Y109.943 E.01802
;WIDTH:0.397913
G1 X132.726 Y109.39 E.01525
G1 X132.92 Y108.639 E.0213
;WIDTH:0.392904
G1 X133.206 Y108.037 E.01802
;WIDTH:0.397913
G1 X133.525 Y107.583 E.01524
;WIDTH:0.39186
G1 X134.069 Y107.029 E.02094
;WIDTH:0.392903
G1 X134.617 Y106.651 E.01802
;WIDTH:0.397914
G1 X135.121 Y106.418 E.01525
G1 X135.869 Y106.21 E.02131
;WIDTH:0.392902
G1 X136.533 Y106.157 E.01802
;WIDTH:0.397912
G1 X137.086 Y106.207 E.01524
G1 X137.838 Y106.401 E.02131
;WIDTH:0.392903
G1 X138.439 Y106.687 E.01802
;WIDTH:0.397911
G1 X138.893 Y107.006 E.01524
G1 X139.447 Y107.55 E.02131
;WIDTH:0.392902
G1 X139.825 Y108.098 E.01802
;WIDTH:0.397914
G1 X140.059 Y108.602 E.01525
G1 X140.266 Y109.35 E.02131
;WIDTH:0.392902
G1 X140.319 Y110.014 E.01802
;WIDTH:0.397911
G1 X140.27 Y110.567 E.01524
G1 X140.076 Y111.319 E.02131
;WIDTH:0.392903
G1 X139.79 Y111.92 E.01802
;WIDTH:0.397913
G1 X139.47 Y112.374 E.01524
G1 X138.926 Y112.928 E.02131
;WIDTH:0.392901
G1 X138.378 Y113.306 E.01802
;WIDTH:0.397915
G1 X137.874 Y113.539 E.01525
G1 X137.126 Y113.747 E.02131
;WIDTH:0.392902
G1 X136.462 Y113.8 E.01802
;WIDTH:0.397914
G1 X135.909 Y113.751 E.01524
G1 X135.158 Y113.557 E.02131
;WIDTH:0.392905
G1 X134.556 Y113.271 E.01802
;WIDTH:0.397915
G1 X134.544 Y113.262 E.00042
; stop printing object Spacer.stl id:2816 copy 0
; printing object Spacer.stl id:2816 copy 0
G1 E-.56 F1800
;WIPE_START
G1 F1200
G1 X134.102 Y112.951 E-.12962
G1 X133.774 Y112.629 E-.11038
;WIPE_END
G1 Z.6 F720
G1 X122.095 Y96.488 Z.6 F10800
G1 Z.2 F720
G1 E.8 F1800
;TYPE:Outer wall
;WIDTH:0.419999
G1 F1200
G1 X122.119 Y96.505 E.00084
G1 X122.553 Y96.91 E.01731
G1 X122.931 Y97.367 E.0173
G1 X123.273 Y97.927 E.01914
G1 X123.493 Y98.41 E.01546
G1 X123.667 Y98.978 E.01731
G1 X123.765 Y99.563 E.0173
G1 X123.781 Y100.219 E.01914
G1 X123.73 Y100.747 E.01546
G1 X123.597 Y101.325 E.01731
G1 X123.39 Y101.881 E.0173
G1 X123.075 Y102.457 E.01914
G1 X122.767 Y102.889 E.01546
G1 X122.363 Y103.324 E.01731
G1 X121.905 Y103.701 E.0173
G1 X121.345 Y104.043 E.01914
G1 X120.862 Y104.263 E.01546
G1 X120.295 Y104.437 E.01731
G1 X119.71 Y104.535 E.0173
G1 X119.054 Y104.551 E.01914
G1 X118.526 Y104.5 E.01546
G1 X117.947 Y104.367 E.01731
G1 X117.391 Y104.16 E.0173
G1 X116.815 Y103.846 E.01914
G1 X116.383 Y103.538 E.01546
G1 X115.949 Y103.133 E.01731
G1 X115.571 Y102.676 E.0173
G1 X115.229 Y102.115 E.01914
G1 X115.009 Y101.633 E.01546
G1 X114.835 Y101.065 E.01731
G1 X114.737 Y100.48 E.0173
G1 X114.721 Y99.824 E.01914
G1 X114.772 Y99.296 E.01546
G1 X114.905 Y98.719 E.01727
G1 X115.112 Y98.161 E.01735
G1 X115.427 Y97.585 E.01913
G1 X115.735 Y97.154 E.01546
G1 X116.139 Y96.719 E.01731
G1 X116.597 Y96.341 E.0173
G1 X117.157 Y96 E.01914
G1 X117.64 Y95.78 E.01547
G1 X118.207 Y95.606 E.01731
G1 X118.793 Y95.507 E.0173
G1 X119.449 Y95.491 E.01914
G1 X119.976 Y95.542 E.01546
G1 X120.555 Y95.675 E.01731
G1 X121.111 Y95.883 E.0173
G1 X121.687 Y96.197 E.01914
G1 X122.063 Y96.465 E.01346
G1 X121.872 Y96.775 F10800
;TYPE:Inner wall
;WIDTH:0.399813
G1 F1200
G1 X122.272 Y97.145 E.01506
G1 X122.622 Y97.564 E.01506
;WIDTH:0.397914
G1 X122.916 Y98.024 E.01498
G1 X123.144 Y98.52 E.01499
;WIDTH:0.399812
G1 X123.305 Y99.041 E.01506
G1 X123.4 Y99.579 E.01506
;WIDTH:0.397911
G1 X123.424 Y100.124 E.01498
G1 X123.373 Y100.667 E.01499
;WIDTH:0.399811
G1 X123.252 Y101.2 E.01506
G1 X123.065 Y101.712 E.01506
;WIDTH:0.397913
G1 X122.814 Y102.197 E.01498
G1 X122.498 Y102.642 E.01499
;WIDTH:0.399812
G1 X122.127 Y103.042 E.01506
G1 X121.709 Y103.393 E.01506
;WIDTH:0.397915
G1 X121.249 Y103.686 E.01498
G1 X120.752 Y103.914 E.01499
;WIDTH:0.399812
G1 X120.231 Y104.076 E.01506
G1 X119.694 Y104.17 E.01506
;WIDTH:0.397914
G1 X119.149 Y104.194 E.01498
G1 X118.605 Y104.143 E.01499
;WIDTH:0.399813
G1 X118.073 Y104.022 E.01506
G1 X117.56 Y103.835 E.01506
;WIDTH:0.397915
G1 X117.076 Y103.584 E.01498
G1 X116.631 Y103.268 E.01499
;WIDTH:0.399813
G1 X116.23 Y102.897 E.01506
G1 X115.88 Y102.479 E.01506
;WIDTH:0.397915
G1 X115.586 Y102.019 E.01498
G1 X115.359 Y101.523 E.01499
;WIDTH:0.399813
G1 X115.197 Y101.001 E.01506
G1 X115.103 Y100.464 E.01506
;WIDTH:0.397913
G1 X115.078 Y99.919 E.01498
G1 X115.129 Y99.375 E.01499
;WIDTH:0.399797
G1 X115.25 Y98.844 E.01502
G1 X115.437 Y98.33 E.0151
;WIDTH:0.397913
G1 X115.689 Y97.846 E.01498
G1 X116.005 Y97.401 E.01499
;WIDTH:0.399814
G1 X116.375 Y97 E.01506
G1 X116.794 Y96.65 E.01506
;WIDTH:0.397914
G1 X117.253 Y96.356 E.01498
G1 X117.75 Y96.129 E.01499
;WIDTH:0.399813
G1 X118.271 Y95.967 E.01506
G1 X118.808 Y95.873 E.01506
;WIDTH:0.397912
G1 X119.354 Y95.848 E.01498
G1 X119.897 Y95.9 E.01499
;WIDTH:0.39981
G1 X120.43 Y96.02 E.01506
G1 X120.942 Y96.207 E.01506
;WIDTH:0.397911
G1 X121.426 Y96.459 E.01498
G1 X121.839 Y96.752 E.01389
G1 E-.56 F1800
;WIPE_START
G1 F1200
G1 X122.272 Y97.145 E-.1405
G1 X122.538 Y97.463 E-.0995
;WIPE_END
G1 Z.6 F720
G1 X117.471 Y102.987 Z.6 F10800
G1 Z.2 F720
G1 E.8 F1800
;TYPE:Outer wall
;WIDTH:0.419999
G1 F1200
G1 X116.983 Y102.633 E.01758
G1 X116.564 Y102.199 E.01758
G1 X116.226 Y101.7 E.01758
G1 X115.981 Y101.149 E.01758
G1 X115.835 Y100.564 E.01758
G1 X115.792 Y99.962 E.01758
G1 X115.855 Y99.363 E.01758
G1 X116.021 Y98.783 E.01758
G1 X116.285 Y98.241 E.01758
G1 X116.639 Y97.753 E.01758
G1 X117.073 Y97.334 E.01758
G1 X117.573 Y96.996 E.01758
G1 X118.124 Y96.751 E.01758
G1 X118.709 Y96.605 E.01758
G1 X119.31 Y96.563 E.01758
G1 X119.91 Y96.625 E.01758
G1 X120.49 Y96.791 E.01758
G1 X121.032 Y97.055 E.01758
G1 X121.52 Y97.41 E.01758
G1 X121.939 Y97.843 E.01758
G1 X122.276 Y98.343 E.01758
G1 X122.522 Y98.894 E.01758
G1 X122.668 Y99.479 E.01758
G1 X122.71 Y100.08 E.01758
G1 X122.647 Y100.68 E.01758
G1 X122.481 Y101.26 E.01758
G1 X122.217 Y101.802 E.01758
G1 X121.863 Y102.29 E.01758
G1 X121.429 Y102.709 E.01758
G1 X120.929 Y103.046 E.01758
G1 X120.379 Y103.292 E.01758
G1 X119.794 Y103.438 E.01758
G1 X119.192 Y103.48 E.01758
G1 X118.592 Y103.417 E.01758
G1 X118.013 Y103.251 E.01758
G1 X117.507 Y103.005 E.01642
G1 X117.265 Y103.281 F10800
;TYPE:Inner wall
;WIDTH:0.397915
G1 F1200
G1 X116.856 Y102.994 E.01373
G1 X116.302 Y102.45 E.02131
;WIDTH:0.392903
G1 X115.924 Y101.902 E.01802
;WIDTH:0.397915
G1 X115.69 Y101.398 E.01525
G1 X115.483 Y100.65 E.02131
;WIDTH:0.392902
G1 X115.43 Y99.986 E.01802
;WIDTH:0.397913
G1 X115.479 Y99.433 E.01525
G1 X115.673 Y98.681 E.0213
;WIDTH:0.392904
G1 X115.959 Y98.08 E.01802
;WIDTH:0.397913
G1 X116.279 Y97.626 E.01524
;WIDTH:0.39186
G1 X116.823 Y97.072 E.02094
;WIDTH:0.392903
G1 X117.371 Y96.694 E.01802
;WIDTH:0.397914
G1 X117.875 Y96.461 E.01525
G1 X118.623 Y96.253 E.02131
;WIDTH:0.392902
G1 X119.286 Y96.2 E.01802
;WIDTH:0.397912
G1 X119.84 Y96.249 E.01524
G1 X120.591 Y96.443 E.02131
;WIDTH:0.392903
G1 X121.192 Y96.729 E.01802
;WIDTH:0.397911
G1 X121.647 Y97.049 E.01524
G1 X122.2 Y97.593 E.02131
;WIDTH:0.392902
G1 X122.578 Y98.141 E.01802
;WIDTH:0.397914
G1 X122.812 Y98.645 E.01525
G1 X123.02 Y99.393 E.02131
;WIDTH:0.392902
G1 X123.073 Y100.057 E.01802
;WIDTH:0.397911
G1 X123.023 Y100.61 E.01524
G1 X122.829 Y101.361 E.02131
;WIDTH:0.392903
G1 X122.543 Y101.963 E.01802
;WIDTH:0.397913
G1 X122.224 Y102.417 E.01524
G1 X121.68 Y102.971 E.02131
;WIDTH:0.392901
G1 X121.131 Y103.349 E.01802
;WIDTH:0.397915
G1 X120.628 Y103.582 E.01525
G1 X119.88 Y103.79 E.02131
;WIDTH:0.392902
G1 X119.216 Y103.843 E.01802
;WIDTH:0.397914
G1 X118.663 Y103.793 E.01524
G1 X117.911 Y103.599 E.02131
;WIDTH:0.392905
G1 X117.31 Y103.313 E.01802
;WIDTH:0.397915
G1 X117.297 Y103.305 E.00042
; stop printing object Spacer.stl id:2816 copy 0
; printing object Spacer.stl id:2816 copy 0
G1 E-.56 F1800
;WIPE_START
G1 F1200
G1 X116.856 Y102.994 E-.12962
G1 X116.527 Y102.672 E-.11038
;WIPE_END
G1 Z.6 F720
G1 X127.844 Y106.446 Z.6 F10800
G1 Z.2 F720
