; HEADER_BLOCK_START
; generated by OrcaSlicer 2.0.0 on 2024-06-14 at 21:13:45
; total layer number: 280
; filament_density: 1.04
; filament_diameter: 1.75
; max_z_height: 14.00
; HEADER_BLOCK_END

; THUMBNAIL_BLOCK_START

;
; THUMBNAIL_BLOCK_END

; external perimeters extrusion width = 0.45mm
; perimeters extrusion width = 0.45mm
; infill extrusion width = 0.45mm
; solid infill extrusion width = 0.45mm
; top infill extrusion width = 0.40mm
; first layer extrusion width = 0.42mm

; external perimeters extrusion width = 0.45mm
; perimeters extrusion width = 0.45mm
; infill extrusion width = 0.45mm
; solid infill extrusion width = 0.45mm
; top infill extrusion width = 0.40mm
; first layer extrusion width = 0.42mm

; external perimeters extrusion width = 0.45mm
; perimeters extrusion width = 0.45mm
; infill extrusion width = 0.45mm
; solid infill extrusion width = 0.45mm
; top infill extrusion width = 0.40mm
; first layer extrusion width = 0.42mm

; external perimeters extrusion width = 0.45mm
; perimeters extrusion width = 0.45mm
; infill extrusion width = 0.45mm
; solid infill extrusion width = 0.45mm
; top infill extrusion width = 0.40mm
; first layer extrusion width = 0.42mm

; EXECUTABLE_BLOCK_START
M73 P0 R18
M201 X2000 Y2000 Z300 E5000
M203 X200 Y200 Z12 E120
M204 P2000 R2500 T2000
M205 X9.00 Y9.00 Z0.20 E2.50 ; sets the jerk limits, mm/sec
;TYPE:Custom
M862.3 P "MK3S" ; printer model check
M862.1 P0.4 ; nozzle diameter check
M115 U3.13.0 ; tell printer latest fw version
G90 ; use absolute coordinates
M83 ; extruder relative mode
M104 S260 ; set extruder temp
M140 S105 ; set bed temp
M190 S105 ; wait for bed temp
M109 S260 ; wait for extruder temp
G28 W ; home all without mesh bed level
G80 ; mesh bed leveling

G1 Z0.2 F720
G1 Y-3 F1000 ; go outside print area
G92 E0
G1 X60 E9 F1000 ; intro line
G1 X100 E12.5 F1000 ; intro line

G92 E0
M221 S95
G90
G21
M83 ; use relative distances for extrusion
; Filament gcode
M900 K0.04 ; Filament gcode LA 1.5
M900 K20 ; Filament gcode LA 1.0
M106 S0
;LAYER_CHANGE
;Z:0.2
;HEIGHT:0.2
;BEFORE_LAYER_CHANGE
;0.2
G92 E0

G1 E-.8 F1800
;AFTER_LAYER_CHANGE
;0.2
;_SET_FAN_SPEED_CHANGING_LAYER
M204 S800
G1 Z.4 F720
G1 X82.425 Y63.014 F10800
G1 Z.4 F720
G1 Z.2
G1 E.8 F1800
;TYPE:Skirt
;WIDTH:0.42
G1 F3000
G1 X83.577 Y61.974 E.04525
G1 X84.831 Y61.249 E.04224
G1 X86.105 Y60.817 E.03923
G1 X87.542 Y60.627 E.04226
G1 X162.457 Y60.627 E2.18448
G1 X163.891 Y60.816 E.04217
G1 X165.072 Y61.207 E.03629
G1 X166.25 Y61.853 E.03917
G1 X167.215 Y62.639 E.03629
G1 X168.146 Y63.748 E.04222
G1 X168.751 Y64.832 E.03622
G1 X169.159 Y66.006 E.03625
G1 X169.364 Y67.334 E.03917
G1 X169.373 Y142.457 E2.19054
G1 X169.229 Y143.688 E.03616
G1 X168.873 Y144.881 E.03629
G1 X168.315 Y145.991 E.03622
G1 X167.575 Y146.986 E.03616
G1 X166.423 Y148.026 E.04525
G1 X165.168 Y148.751 E.04228
G1 X163.893 Y149.184 E.03926
G1 X162.353 Y149.375 E.04525
G1 X87.543 Y149.373 E2.18141
G1 X86.309 Y149.229 E.03622
M73 P1 R18
G1 X85.119 Y148.873 E.03622
G1 X84.009 Y148.315 E.03622
G1 X83.014 Y147.575 E.03616
G1 X81.974 Y146.423 E.04525
G1 X81.249 Y145.169 E.04224
G1 X80.772 Y143.693 E.04525
G1 X80.625 Y142.355 E.03924
G1 X80.627 Y67.543 E2.18148
G1 X80.771 Y66.312 E.03616
G1 X81.127 Y65.119 E.03629
G1 X81.684 Y64.011 E.03616
G1 X82.401 Y63.047 E.03506
; printing object Spacer.stl id:2816 copy 0
G1 E-.56 F1800
;WIPE_START
G1 F3000
G1 X83.14 Y62.373 E-.24
;WIPE_END
G1 Z.6 F720
G1 X90.595 Y64.218 Z.6 F10800
G1 Z.2 F720
G1 E.8 F1800
;TYPE:Outer wall
;WIDTH:0.419999
G1 F1200
G1 X90.618 Y64.234 E.00084
G1 X91.053 Y64.639 E.01731
G1 X91.431 Y65.096 E.0173
G1 X91.772 Y65.657 E.01914
G1 X91.992 Y66.139 E.01546
G1 X92.166 Y66.707 E.01731
G1 X92.265 Y67.292 E.0173
G1 X92.281 Y67.948 E.01914
G1 X92.23 Y68.476 E.01546
G1 X92.097 Y69.055 E.01731
G1 X91.889 Y69.611 E.0173
G1 X91.575 Y70.187 E.01914
G1 X91.267 Y70.618 E.01546
G1 X90.862 Y71.053 E.01731
G1 X90.405 Y71.431 E.0173
G1 X89.845 Y71.772 E.01914
G1 X89.362 Y71.992 E.01546
G1 X88.794 Y72.166 E.01731
G1 X88.209 Y72.265 E.0173
G1 X87.553 Y72.281 E.01914
G1 X87.025 Y72.23 E.01546
G1 X86.447 Y72.097 E.01731
G1 X85.891 Y71.889 E.0173
G1 X85.315 Y71.575 E.01914
G1 X84.883 Y71.267 E.01546
G1 X84.448 Y70.862 E.01731
G1 X84.071 Y70.405 E.0173
G1 X83.729 Y69.845 E.01914
G1 X83.509 Y69.362 E.01546
G1 X83.335 Y68.794 E.01731
G1 X83.236 Y68.209 E.0173
G1 X83.221 Y67.553 E.01914
G1 X83.272 Y67.025 E.01546
G1 X83.404 Y66.448 E.01727
G1 X83.612 Y65.891 E.01735
G1 X83.926 Y65.315 E.01913
G1 X84.234 Y64.883 E.01546
G1 X84.639 Y64.448 E.01731
G1 X85.096 Y64.071 E.0173
G1 X85.657 Y63.729 E.01914
G1 X86.139 Y63.509 E.01547
G1 X86.707 Y63.335 E.01731
G1 X87.292 Y63.236 E.0173
G1 X87.948 Y63.221 E.01914
G1 X88.476 Y63.272 E.01546
G1 X89.055 Y63.405 E.01731
G1 X89.611 Y63.612 E.0173
G1 X90.187 Y63.926 E.01914
G1 X90.562 Y64.194 E.01346
G1 X90.371 Y64.504 F10800
;TYPE:Inner wall
;WIDTH:0.399813
M73 P1 R17
G1 F1200
G1 X90.772 Y64.875 E.01506
G1 X91.122 Y65.293 E.01506
;WIDTH:0.397914
G1 X91.416 Y65.753 E.01498
G1 X91.643 Y66.249 E.01499
;WIDTH:0.399812
G1 X91.805 Y66.771 E.01506
G1 X91.899 Y67.308 E.01506
;WIDTH:0.397911
G1 X91.924 Y67.853 E.01498
G1 X91.872 Y68.397 E.01499
;WIDTH:0.399811
G1 X91.752 Y68.929 E.01506
G1 X91.565 Y69.442 E.01506
;WIDTH:0.397913
G1 X91.313 Y69.926 E.01498
G1 X90.997 Y70.371 E.01499
;WIDTH:0.399812
G1 X90.627 Y70.772 E.01506
G1 X90.208 Y71.122 E.01506
;WIDTH:0.397915
G1 X89.748 Y71.416 E.01498
G1 X89.252 Y71.643 E.01499
;WIDTH:0.399812
G1 X88.731 Y71.805 E.01506
G1 X88.193 Y71.899 E.01506
;WIDTH:0.397914
G1 X87.648 Y71.924 E.01498
G1 X87.105 Y71.872 E.01499
;WIDTH:0.399813
G1 X86.572 Y71.752 E.01506
G1 X86.06 Y71.565 E.01506
;WIDTH:0.397915
G1 X85.575 Y71.313 E.01498
G1 X85.13 Y70.997 E.01499
;WIDTH:0.399813
G1 X84.73 Y70.627 E.01506
G1 X84.379 Y70.208 E.01506
;WIDTH:0.397915
G1 X84.086 Y69.748 E.01498
G1 X83.858 Y69.252 E.01499
;WIDTH:0.399813
G1 X83.696 Y68.731 E.01506
G1 X83.602 Y68.193 E.01506
;WIDTH:0.397913
G1 X83.578 Y67.648 E.01498
G1 X83.629 Y67.104 E.01499
;WIDTH:0.399797
G1 X83.749 Y66.574 E.01502
G1 X83.937 Y66.06 E.0151
;WIDTH:0.397913
G1 X84.188 Y65.575 E.01498
G1 X84.504 Y65.13 E.01499
;WIDTH:0.399814
G1 X84.875 Y64.73 E.01506
G1 X85.293 Y64.379 E.01506
;WIDTH:0.397914
G1 X85.753 Y64.086 E.01498
G1 X86.249 Y63.858 E.01499
;WIDTH:0.399813
G1 X86.771 Y63.696 E.01506
G1 X87.308 Y63.602 E.01506
;WIDTH:0.397912
G1 X87.853 Y63.578 E.01498
G1 X88.397 Y63.629 E.01499
;WIDTH:0.39981
G1 X88.929 Y63.749 E.01506
G1 X89.442 Y63.937 E.01506
;WIDTH:0.397911
G1 X89.926 Y64.188 E.01498
G1 X90.338 Y64.481 E.01389
G1 E-.56 F1800
;WIPE_START
G1 F1200
G1 X90.772 Y64.875 E-.1405
G1 X91.038 Y65.193 E-.0995
;WIPE_END
G1 Z.6 F720
G1 X85.97 Y70.717 Z.6 F10800
G1 Z.2 F720
G1 E.8 F1800
;TYPE:Outer wall
;WIDTH:0.419999
G1 F1200
G1 X85.482 Y70.362 E.01758
G1 X85.063 Y69.929 E.01758
G1 X84.726 Y69.429 E.01758
G1 X84.48 Y68.878 E.01758
G1 X84.334 Y68.293 E.01758
G1 X84.292 Y67.692 E.01758
G1 X84.355 Y67.092 E.01758
G1 X84.521 Y66.512 E.01758
G1 X84.785 Y65.97 E.01758
G1 X85.139 Y65.482 E.01758
G1 X85.573 Y65.063 E.01758
G1 X86.072 Y64.726 E.01758
G1 X86.623 Y64.48 E.01758
G1 X87.208 Y64.334 E.01758
G1 X87.81 Y64.292 E.01758
G1 X88.409 Y64.355 E.01758
G1 X88.989 Y64.521 E.01758
G1 X89.531 Y64.785 E.01758
G1 X90.019 Y65.139 E.01758
G1 X90.438 Y65.573 E.01758
G1 X90.776 Y66.072 E.01758
G1 X91.021 Y66.623 E.01758
G1 X91.167 Y67.208 E.01758
G1 X91.209 Y67.81 E.01758
G1 X91.147 Y68.409 E.01758
G1 X90.981 Y68.989 E.01758
G1 X90.717 Y69.531 E.01758
G1 X90.362 Y70.019 E.01758
G1 X89.929 Y70.438 E.01758
G1 X89.429 Y70.776 E.01758
G1 X88.878 Y71.021 E.01758
G1 X88.293 Y71.167 E.01758
G1 X87.692 Y71.209 E.01758
G1 X87.092 Y71.147 E.01758
G1 X86.512 Y70.981 E.01758
G1 X86.006 Y70.734 E.01642
G1 X85.764 Y71.011 F10800
;TYPE:Inner wall
;WIDTH:0.397915
G1 F1200
G1 X85.355 Y70.723 E.01373
G1 X84.801 Y70.179 E.02131
;WIDTH:0.392903
G1 X84.423 Y69.631 E.01802
;WIDTH:0.397915
G1 X84.19 Y69.127 E.01525
G1 X83.982 Y68.379 E.02131
;WIDTH:0.392902
G1 X83.929 Y67.715 E.01802
;WIDTH:0.397913
G1 X83.979 Y67.162 E.01525
G1 X84.173 Y66.411 E.0213
;WIDTH:0.392904
G1 X84.459 Y65.809 E.01802
;WIDTH:0.397913
G1 X84.778 Y65.355 E.01524
;WIDTH:0.39186
G1 X85.322 Y64.801 E.02094
;WIDTH:0.392903
G1 X85.87 Y64.423 E.01802
;WIDTH:0.397914
G1 X86.374 Y64.19 E.01525
G1 X87.122 Y63.982 E.02131
;WIDTH:0.392902
G1 X87.786 Y63.929 E.01802
;WIDTH:0.397912
G1 X88.339 Y63.979 E.01524
G1 X89.09 Y64.173 E.02131
;WIDTH:0.392903
G1 X89.692 Y64.459 E.01802
;WIDTH:0.397911
G1 X90.146 Y64.778 E.01524
G1 X90.7 Y65.322 E.02131
;WIDTH:0.392902
G1 X91.078 Y65.87 E.01802
;WIDTH:0.397914
G1 X91.311 Y66.374 E.01525
G1 X91.519 Y67.122 E.02131
;WIDTH:0.392902
G1 X91.572 Y67.786 E.01802
;WIDTH:0.397911
G1 X91.523 Y68.339 E.01524
G1 X91.329 Y69.09 E.02131
;WIDTH:0.392903
G1 X91.043 Y69.692 E.01802
;WIDTH:0.397913
G1 X90.723 Y70.146 E.01524
G1 X90.179 Y70.7 E.02131
;WIDTH:0.392901
G1 X89.631 Y71.078 E.01802
;WIDTH:0.397915
G1 X89.127 Y71.311 E.01525
G1 X88.379 Y71.519 E.02131
;WIDTH:0.392902
G1 X87.715 Y71.572 E.01802
;WIDTH:0.397914
G1 X87.162 Y71.523 E.01524
G1 X86.411 Y71.329 E.02131
;WIDTH:0.392905
G1 X85.809 Y71.043 E.01802
;WIDTH:0.397915
G1 X85.797 Y71.034 E.00042
; stop printing object Spacer.stl id:2816 copy 0
;LAYER_CHANGE
;Z:0.4
;HEIGHT:0.2
;BEFORE_LAYER_CHANGE
;0.4
G92 E0

G1 E-.56 F1800
;WIPE_START
G1 F1200
G1 X85.355 Y70.723 E-.12962
G1 X85.027 Y70.401 E-.11038
;WIPE_END
;AFTER_LAYER_CHANGE
;0.4
;_SET_FAN_SPEED_CHANGING_LAYER
M204 S1000
; printing object Spacer.stl id:2816 copy 0
G1 Z.6 F720
G1 X90.588 Y64.231 Z.6 F10800
G1 Z.4 F720
G1 E.8 F1800
;TYPE:Outer wall
;WIDTH:0.449999
G1 F2100
G1 X90.608 Y64.245 E.00077
G1 X91.041 Y64.648 E.01863
G1 X91.418 Y65.104 E.01862
G1 X91.759 Y65.663 E.0206
G1 X91.978 Y66.144 E.01663
G1 X92.152 Y66.709 E.01863
G1 X92.25 Y67.293 E.01862
G1 X92.266 Y67.947 E.0206
G1 X92.215 Y68.473 E.01663
G1 X92.083 Y69.049 E.01863
G1 X91.876 Y69.604 E.01862
G1 X91.565 Y70.175 E.02049
G1 X91.256 Y70.608 E.01674
G1 X90.853 Y71.041 E.01863
G1 X90.397 Y71.418 E.01862
G1 X89.838 Y71.759 E.0206
G1 X89.357 Y71.978 E.01663
G1 X88.792 Y72.152 E.01863
G1 X88.209 Y72.25 E.01862
G1 X87.554 Y72.266 E.0206
G1 X87.029 Y72.215 E.01663
G1 X86.452 Y72.083 E.01863
G1 X85.898 Y71.876 E.01862
G1 X85.323 Y71.563 E.0206
G1 X84.893 Y71.256 E.01663
G1 X84.46 Y70.853 E.01863
G1 X84.083 Y70.397 E.01862
G1 X83.742 Y69.838 E.0206
G1 X83.523 Y69.357 E.01663
G1 X83.35 Y68.792 E.01863
G1 X83.251 Y68.209 E.01862
G1 X83.236 Y67.554 E.0206
G1 X83.286 Y67.029 E.01663
G1 X83.419 Y66.452 E.01863
G1 X83.625 Y65.898 E.01862
G1 X83.939 Y65.323 E.0206
G1 X84.245 Y64.893 E.01663
G1 X84.648 Y64.46 E.01863
G1 X85.104 Y64.083 E.01862
G1 X85.663 Y63.742 E.0206
G1 X86.144 Y63.523 E.01663
G1 X86.709 Y63.35 E.01863
G1 X87.293 Y63.251 E.01862
G1 X87.943 Y63.235 E.02049
G1 X88.473 Y63.286 E.01674
G1 X89.049 Y63.419 E.01863
G1 X89.604 Y63.625 E.01862
G1 X90.175 Y63.937 E.02049
G1 X90.556 Y64.208 E.01472
G1 E-.56 F1800
;WIPE_START
G1 F2100
G1 X90.608 Y64.245 E-.01545
G1 X91.041 Y64.648 E-.14201
G1 X91.26 Y64.914 E-.08254
;WIPE_END
G1 Z.8 F720
G1 X85.962 Y70.729 Z.8 F10800
G1 Z.4 F720
G1 E.8 F1800
G1 F2100
G1 X85.473 Y70.374 E.01902
G1 X85.052 Y69.939 E.01906
G1 X84.713 Y69.437 E.01906
G1 X84.466 Y68.884 E.01906
G1 X84.32 Y68.3 E.01897
G1 X84.277 Y67.693 E.01916
G1 X84.34 Y67.09 E.01907
G1 X84.506 Y66.508 E.01906
G1 X84.771 Y65.963 E.01906
G1 X85.127 Y65.473 E.01906
G1 X85.562 Y65.052 E.01906
G1 X86.064 Y64.713 E.01906
G1 X86.617 Y64.466 E.01906
G1 X87.205 Y64.32 E.01906
G1 X87.806 Y64.277 E.01897
G1 X88.411 Y64.34 E.01916
G1 X88.993 Y64.506 E.01907
G1 X89.535 Y64.77 E.01897
G1 X90.028 Y65.127 E.01916
M73 P2 R17
G1 X90.449 Y65.562 E.01907
G1 X90.788 Y66.064 E.01906
G1 X91.035 Y66.617 E.01906
G1 X91.181 Y67.202 E.01897
G1 X91.224 Y67.809 E.01916
G1 X91.162 Y68.411 E.01907
G1 X90.995 Y68.993 E.01906
G1 X90.732 Y69.535 E.01897
G1 X90.374 Y70.028 E.01916
G1 X89.939 Y70.449 E.01907
G1 X89.437 Y70.788 E.01906
G1 X88.884 Y71.035 E.01906
G1 X88.3 Y71.181 E.01897
G1 X87.693 Y71.224 E.01916
G1 X87.09 Y71.162 E.01907
G1 X86.508 Y70.995 E.01906
G1 X85.998 Y70.747 E.01785
G1 X85.756 Y71.023 F10800
M204 S800
;TYPE:Inner wall
;WIDTH:0.367915
G1 F3367
G1 X85.346 Y70.735 E.01258
G1 X84.791 Y70.19 E.01957
;WIDTH:0.362903
G1 X84.411 Y69.639 E.01654
;WIDTH:0.367913
G1 X84.176 Y69.133 E.01402
G1 X83.968 Y68.386 E.01949
;WIDTH:0.362907
G1 X83.914 Y67.717 E.01662
;WIDTH:0.367912
G1 X83.964 Y67.161 E.01403
G1 X84.158 Y66.407 E.01957
;WIDTH:0.362903
G1 X84.445 Y65.803 E.01654
;WIDTH:0.367914
G1 X84.766 Y65.346 E.01402
;WIDTH:0.361861
G1 X85.312 Y64.791 E.01921
;WIDTH:0.362903
G1 X85.862 Y64.411 E.01654
;WIDTH:0.367913
G1 X86.368 Y64.176 E.01402
G1 X87.118 Y63.968 E.01957
;WIDTH:0.362838
G1 X87.782 Y63.914 E.01646
;WIDTH:0.367945
G1 X88.341 Y63.964 E.01411
G1 X89.095 Y64.158 E.01957
;WIDTH:0.362837
G1 X89.696 Y64.444 E.01646
;WIDTH:0.367944
G1 X90.155 Y64.766 E.01411
G1 X90.711 Y65.312 E.01957
;WIDTH:0.362901
G1 X91.09 Y65.862 E.01654
;WIDTH:0.367912
G1 X91.325 Y66.368 E.01402
G1 X91.533 Y67.115 E.01949
;WIDTH:0.362906
G1 X91.587 Y67.785 E.01662
;WIDTH:0.367913
G1 X91.538 Y68.341 E.01403
G1 X91.343 Y69.095 E.01957
;WIDTH:0.362839
G1 X91.058 Y69.696 E.01646
;WIDTH:0.367945
G1 X90.735 Y70.155 E.01411
G1 X90.19 Y70.711 E.01957
;WIDTH:0.362902
G1 X89.639 Y71.09 E.01654
;WIDTH:0.367912
G1 X89.133 Y71.325 E.01402
G1 X88.386 Y71.533 E.01949
;WIDTH:0.362907
G1 X87.717 Y71.587 E.01662
;WIDTH:0.367913
G1 X87.161 Y71.538 E.01403
G1 X86.407 Y71.343 E.01957
;WIDTH:0.362905
G1 X85.803 Y71.056 E.01654
;WIDTH:0.367915
G1 X85.789 Y71.046 E.00043
G1 E-.56 F1800
;WIPE_START
G1 F3600
G1 X85.346 Y70.735 E-.12977
G1 X85.018 Y70.413 E-.11023
;WIPE_END
G1 Z.8 F720
G1 X90.361 Y64.515 Z.8 F10800
G1 Z.4 F720
G1 E.8 F1800
;WIDTH:0.369813
G1 F3367
G1 X90.76 Y64.884 E.01375
G1 X91.109 Y65.301 E.01374
;WIDTH:0.367912
G1 X91.402 Y65.759 E.01367
G1 X91.629 Y66.254 E.01367
;WIDTH:0.369761
G1 X91.79 Y66.773 E.01374
G1 X91.884 Y67.309 E.01374
;WIDTH:0.368045
G1 X91.909 Y67.852 E.01367
;WIDTH:0.367913
G1 X91.858 Y68.394 E.01367
;WIDTH:0.369811
G1 X91.738 Y68.924 E.01375
G1 X91.551 Y69.435 E.01374
;WIDTH:0.367893
G1 X91.301 Y69.917 E.01366
G1 X90.986 Y70.361 E.01367
;WIDTH:0.369811
G1 X90.617 Y70.76 E.01375
G1 X90.2 Y71.109 E.01374
;WIDTH:0.367912
G1 X89.742 Y71.402 E.01367
G1 X89.247 Y71.629 E.01367
;WIDTH:0.369761
G1 X88.728 Y71.79 E.01374
G1 X88.193 Y71.884 E.01374
;WIDTH:0.368045
G1 X87.649 Y71.909 E.01367
;WIDTH:0.367913
G1 X87.108 Y71.858 E.01367
;WIDTH:0.369812
G1 X86.577 Y71.738 E.01375
G1 X86.067 Y71.551 E.01374
;WIDTH:0.367915
G1 X85.584 Y71.301 E.01366
G1 X85.14 Y70.986 E.01367
;WIDTH:0.369813
G1 X84.741 Y70.617 E.01375
G1 X84.392 Y70.2 E.01374
;WIDTH:0.367913
G1 X84.099 Y69.742 E.01367
G1 X83.872 Y69.247 E.01367
;WIDTH:0.369762
G1 X83.711 Y68.728 E.01374
G1 X83.617 Y68.193 E.01374
;WIDTH:0.368047
G1 X83.593 Y67.649 E.01367
;WIDTH:0.367912
G1 X83.644 Y67.108 E.01367
;WIDTH:0.369811
G1 X83.764 Y66.577 E.01375
G1 X83.95 Y66.067 E.01374
;WIDTH:0.367915
G1 X84.2 Y65.584 E.01366
G1 X84.515 Y65.14 E.01367
;WIDTH:0.369814
G1 X84.884 Y64.741 E.01375
G1 X85.301 Y64.392 E.01374
;WIDTH:0.367913
G1 X85.759 Y64.099 E.01367
G1 X86.254 Y63.872 E.01367
;WIDTH:0.369813
G1 X86.773 Y63.711 E.01375
G1 X87.309 Y63.617 E.01374
;WIDTH:0.367896
G1 X87.852 Y63.593 E.01366
G1 X88.394 Y63.644 E.01367
;WIDTH:0.369811
G1 X88.924 Y63.764 E.01375
G1 X89.435 Y63.95 E.01374
;WIDTH:0.367894
G1 X89.917 Y64.2 E.01366
G1 X90.328 Y64.492 E.01267
; stop printing object Spacer.stl id:2816 copy 0
;LAYER_CHANGE
;Z:0.6
;HEIGHT:0.2
;BEFORE_LAYER_CHANGE
;0.6
G92 E0

G1 E-.56 F1800
;WIPE_START
G1 F3600
G1 X90.76 Y64.884 E-.14003
G1 X91.028 Y65.204 E-.09997
;WIPE_END
;AFTER_LAYER_CHANGE
;0.6
;_SET_FAN_SPEED_CHANGING_LAYER
; printing object Spacer.stl id:2816 copy 0
G1 Z.8 F720
G1 X90.591 Y64.233 Z.8 F10800
G1 Z.6 F720
G1 E.8 F1800
M204 S1000
;TYPE:Outer wall
;WIDTH:0.449999
G1 F2100
G1 X90.608 Y64.245 E.00068
G1 X91.041 Y64.648 E.01863
G1 X91.418 Y65.104 E.01862
