; HEADER_BLOCK_START
; generated by OrcaSlicer 2.0.0 on 2024-06-24 at 20:33:59
; total layer number: 64
; filament_density: 1.04
; filament_diameter: 1.75
; max_z_height: 16.00
; HEADER_BLOCK_END

; THUMBNAIL_BLOCK_START

;
; THUMBNAIL_BLOCK_END

; external perimeters extrusion width = 0.45mm
; perimeters extrusion width = 0.45mm
; infill extrusion width = 0.45mm
; solid infill extrusion width = 0.45mm
; top infill extrusion width = 0.40mm
; first layer extrusion width = 0.42mm

; external perimeters extrusion width = 0.45mm
; perimeters extrusion width = 0.45mm
; infill extrusion width = 0.45mm
; solid infill extrusion width = 0.45mm
; top infill extrusion width = 0.40mm
; first layer extrusion width = 0.42mm

; external perimeters extrusion width = 0.45mm
; perimeters extrusion width = 0.45mm
; infill extrusion width = 0.45mm
; solid infill extrusion width = 0.45mm
; top infill extrusion width = 0.40mm
; first layer extrusion width = 0.42mm

; external perimeters extrusion width = 0.45mm
; perimeters extrusion width = 0.45mm
; infill extrusion width = 0.45mm
; solid infill extrusion width = 0.45mm
; top infill extrusion width = 0.40mm
; first layer extrusion width = 0.42mm

; EXECUTABLE_BLOCK_START
M73 P0 R13
M201 X2000 Y2000 Z300 E5000
M203 X200 Y200 Z12 E120
M204 P2000 R2500 T2000
M205 X9.00 Y9.00 Z0.20 E2.50 ; sets the jerk limits, mm/sec
;TYPE:Custom
M862.3 P "MK3S" ; printer model check
M862.1 P0.4 ; nozzle diameter check
M115 U3.13.0 ; tell printer latest fw version
G90 ; use absolute coordinates
M83 ; extruder relative mode
M104 S260 ; set extruder temp
M140 S105 ; set bed temp
M190 S105 ; wait for bed temp
M109 S260 ; wait for extruder temp
G28 W ; home all without mesh bed level
G80 ; mesh bed leveling

G1 Z0.2 F720
G1 Y-3 F1000 ; go outside print area
G92 E0
G1 X60 E9 F1000 ; intro line
G1 X100 E12.5 F1000 ; intro line

G92 E0
M221 S95
G90
G21
M83 ; use relative distances for extrusion
; Filament gcode
M900 K0.04 ; Filament gcode LA 1.5
M900 K20 ; Filament gcode LA 1.0
M106 S0
;LAYER_CHANGE
;Z:0.25
;HEIGHT:0.25
;BEFORE_LAYER_CHANGE
;0.25
G92 E0

G1 E-.8 F1800
;AFTER_LAYER_CHANGE
;0.25
;_SET_FAN_SPEED_CHANGING_LAYER
M204 S800
G1 Z.4 F720
G1 X112.818 Y94.194 F10800
G1 Z.4 F720
G1 Z.25
G1 E.8 F1800
;TYPE:Skirt
;WIDTH:0.42
G1 F3000
G1 X114.16 Y92.991 E.06382
G1 X115.342 Y92.272 E.04897
G1 X116.043 Y91.956 E.02724
G1 X117.778 Y91.468 E.06383
G1 X119.629 Y91.351 E.06568
G1 X121.376 Y91.606 E.06252
G1 X122.685 Y92.05 E.04897
G1 X123.495 Y92.448 E.03195
G1 X140.742 Y102.406 E.70525
G1 X141.682 Y103.018 E.03971
G1 X142.891 Y104.111 E.05774
G1 X143.945 Y105.521 E.06234
G1 X144.649 Y107.002 E.05807
G1 X145.086 Y108.722 E.06285
G1 X145.168 Y110.35 E.05774
G1 X144.916 Y112.093 E.06234
G1 X144.385 Y113.602 E.05668
G1 X143.459 Y115.163 E.06425
G1 X142.366 Y116.372 E.05774
G1 X141.132 Y117.318 E.05506
G1 X139.716 Y118.039 E.05625
G1 X138.51 Y118.422 E.04482
G1 X137.143 Y118.634 E.04897
G1 X113.335 Y118.658 E.84309
G1 X111.59 Y118.445 E.06226
M73 P1 R13
G1 X109.879 Y117.866 E.06395
G1 X108.328 Y116.948 E.06383
G1 X107.137 Y115.879 E.05668
G1 X106.186 Y114.646 E.05515
G1 X105.69 Y113.76 E.03594
G1 X105.121 Y112.23 E.05783
G1 X104.914 Y111.236 E.03594
G1 X104.823 Y109.853 E.04908
G1 X104.931 Y108.607 E.04428
G1 X105.258 Y107.264 E.04897
G1 X105.86 Y105.863 E.054
G1 X111.678 Y95.778 E.41229
G1 X112.289 Y94.838 E.0397
G1 X112.793 Y94.225 E.02809
; printing object Spacer.stl id:2816 copy 0
G1 E-.56 F1800
;WIPE_START
G1 F3000
G1 X113.535 Y93.555 E-.24
;WIPE_END
G1 Z.65 F720
G1 X131.532 Y106.381 Z.65 F10800
G1 Z.25 F720
G1 E.8 F1800
;TYPE:Brim
G1 F1200
G1 X131.905 Y105.916 E.02112
G1 X132.277 Y105.531 E.01894
G1 X132.844 Y105.054 E.02624
G1 X133.286 Y104.755 E.01889
G1 X133.753 Y104.495 E.01893
G1 X134.299 Y104.255 E.02112
G1 X135.007 Y104.031 E.0263
G1 X135.529 Y103.924 E.01887
G1 X136.123 Y103.858 E.02117
G1 X136.663 Y103.849 E.01912
G1 X137.397 Y103.913 E.02607
G1 X137.92 Y104.014 E.01889
G1 X138.434 Y104.161 E.01893
G1 X138.992 Y104.377 E.02117
G1 X139.469 Y104.615 E.01887
G1 X140.095 Y105.013 E.0263
G1 X140.561 Y105.386 E.02112
G1 X140.946 Y105.758 E.01895
G1 X141.422 Y106.325 E.02624
G1 X141.721 Y106.767 E.01889
G1 X141.981 Y107.234 E.01893
G1 X142.222 Y107.78 E.02112
G1 X142.445 Y108.488 E.0263
G1 X142.552 Y109.01 E.01887
G1 X142.618 Y109.604 E.02117
G1 X142.627 Y110.139 E.01895
G1 X142.563 Y110.877 E.02624
G1 X142.462 Y111.401 E.01889
G1 X142.316 Y111.915 E.01893
G1 X142.099 Y112.473 E.02117
G1 X141.862 Y112.95 E.01887
G1 X141.463 Y113.576 E.0263
G1 X141.09 Y114.042 E.02112
G1 X140.719 Y114.426 E.01895
G1 X140.151 Y114.903 E.02624
G1 X139.709 Y115.202 E.01889
G1 X139.242 Y115.462 E.01893
G1 X138.697 Y115.702 E.02112
G1 X137.988 Y115.926 E.0263
G1 X137.466 Y116.033 E.01887
G1 X136.872 Y116.099 E.02117
G1 X136.337 Y116.108 E.01895
G1 X135.599 Y116.044 E.02624
G1 X135.075 Y115.943 E.01889
G1 X134.561 Y115.797 E.01893
G1 X134.004 Y115.58 E.02117
G1 X133.527 Y115.343 E.01887
G1 X132.9 Y114.944 E.0263
G1 X132.435 Y114.571 E.02112
G1 X132.05 Y114.199 E.01895
G1 X131.573 Y113.632 E.02624
G1 X131.274 Y113.19 E.01889
G1 X131.015 Y112.723 E.01893
G1 X130.774 Y112.178 E.02112
G1 X130.55 Y111.469 E.0263
G1 X130.443 Y110.947 E.01887
G1 X130.377 Y110.353 E.02117
G1 X130.368 Y109.818 E.01895
G1 X130.432 Y109.08 E.02624
G1 X130.533 Y108.556 E.01889
G1 X130.68 Y108.042 E.01893
G1 X130.896 Y107.485 E.02117
G1 X131.134 Y107.008 E.01887
G1 X131.511 Y106.415 E.02488
G1 X131.82 Y106.611 F10800
G1 F1200
G1 X131.828 Y106.6 E.0005
G1 X132.177 Y106.162 E.01984
G1 X132.523 Y105.803 E.01765
G1 X133.061 Y105.351 E.02489
G1 X133.474 Y105.07 E.01768
G1 X133.921 Y104.822 E.01811
G1 X134.423 Y104.601 E.01942
G1 X135.094 Y104.388 E.02493
G1 X135.581 Y104.287 E.01762
G1 X136.141 Y104.225 E.01997
G1 X136.656 Y104.216 E.01823
G1 X137.34 Y104.276 E.02432
G1 X137.831 Y104.37 E.01768
G1 X138.322 Y104.51 E.01811
G1 X138.848 Y104.715 E.01997
G1 X139.293 Y104.937 E.01762
G1 X139.877 Y105.309 E.0245
G1 X140.314 Y105.658 E.01984
G1 X140.673 Y106.004 E.01765
G1 X141.126 Y106.542 E.02489
G1 X141.406 Y106.955 E.01768
G1 X141.655 Y107.402 E.01811
G1 X141.876 Y107.904 E.01942
G1 X142.089 Y108.575 E.02492
G1 X142.189 Y109.062 E.01762
G1 X142.251 Y109.623 E.01997
G1 X142.261 Y110.121 E.01765
G1 X142.2 Y110.821 E.02489
G1 X142.106 Y111.311 E.01768
G1 X141.966 Y111.803 E.01811
G1 X141.762 Y112.329 E.01997
G1 X141.539 Y112.774 E.01762
G1 X141.168 Y113.358 E.0245
G1 X140.818 Y113.795 E.01984
G1 X140.472 Y114.154 E.01765
G1 X139.934 Y114.607 E.02489
G1 X139.521 Y114.887 E.01768
G1 X139.074 Y115.136 E.01811
G1 X138.573 Y115.357 E.01942
G1 X137.902 Y115.57 E.02493
G1 X137.414 Y115.67 E.01762
G1 X136.854 Y115.732 E.01997
G1 X136.356 Y115.742 E.01765
G1 X135.655 Y115.681 E.02489
G1 X135.165 Y115.587 E.01768
G1 X134.673 Y115.447 E.01811
G1 X134.148 Y115.243 E.01997
G1 X133.703 Y115.02 E.01762
G1 X133.119 Y114.649 E.0245
G1 X132.681 Y114.299 E.01984
G1 X132.322 Y113.953 E.01765
G1 X131.87 Y113.415 E.02489
G1 X131.589 Y113.002 E.01768
G1 X131.341 Y112.555 E.01811
G1 X131.12 Y112.054 E.01942
G1 X130.907 Y111.383 E.02493
G1 X130.806 Y110.895 E.01762
G1 X130.744 Y110.335 E.01997
G1 X130.735 Y109.837 E.01765
G1 X130.795 Y109.136 E.02489
G1 X130.889 Y108.646 E.01768
G1 X131.029 Y108.154 E.01811
G1 X131.234 Y107.628 E.01997
G1 X131.456 Y107.183 E.01762
G1 X131.799 Y106.645 E.02259
G1 X132.096 Y106.861 F10800
G1 F1200
G1 X132.268 Y106.624 E.01035
G1 X132.579 Y106.266 E.0168
G1 X133.083 Y105.798 E.02438
G1 X133.472 Y105.507 E.01717
G1 X133.878 Y105.258 E.01685
G1 X134.298 Y105.048 E.01665
G1 X134.943 Y104.809 E.02436
G1 X135.413 Y104.69 E.01717
G1 X135.883 Y104.615 E.01686
G1 X136.353 Y104.582 E.01667
G1 X136.895 Y104.595 E.01918
G1 X137.508 Y104.676 E.02191
G1 X137.983 Y104.788 E.01727
G1 X138.429 Y104.937 E.01666
G1 X139.054 Y105.224 E.02436
G1 X139.471 Y105.472 E.01717
G1 X139.852 Y105.749 E.01669
G1 X140.211 Y106.06 E.01683
G1 X140.585 Y106.453 E.01919
G1 X140.961 Y106.942 E.02185
G1 X141.216 Y107.354 E.01716
G1 X141.428 Y107.779 E.01684
G1 X141.623 Y108.285 E.01919
G1 X141.783 Y108.883 E.0219
G1 X141.861 Y109.364 E.01727
G1 X141.895 Y109.833 E.01666
G1 X141.869 Y110.521 E.02436
G1 X141.799 Y111.001 E.01717
G1 X141.69 Y111.459 E.01669
G1 X141.539 Y111.909 E.0168
G1 X141.251 Y112.536 E.02443
G1 X141.004 Y112.952 E.01712
G1 X140.728 Y113.333 E.01669
G1 X140.416 Y113.692 E.01683
G1 X140.024 Y114.066 E.01919
G1 X139.534 Y114.442 E.02185
G1 X139.122 Y114.697 E.01716
G1 X138.697 Y114.909 E.01684
G1 X138.191 Y115.104 E.01919
G1 X137.594 Y115.264 E.0219
G1 X137.112 Y115.342 E.01727
G1 X136.643 Y115.375 E.01666
G1 X135.956 Y115.349 E.02436
G1 X135.476 Y115.28 E.01717
G1 X135.017 Y115.17 E.0167
G1 X134.567 Y115.02 E.0168
G1 X133.94 Y114.732 E.02443
G1 X133.525 Y114.485 E.01712
G1 X133.143 Y114.209 E.01669
G1 X132.784 Y113.897 E.01683
G1 X132.41 Y113.505 E.01919
G1 X132.035 Y113.015 E.02185
G1 X131.78 Y112.603 E.01715
G1 X131.567 Y112.178 E.01684
G1 X131.372 Y111.672 E.01919
G1 X131.212 Y111.075 E.02191
G1 X131.134 Y110.593 E.01727
G1 X131.101 Y110.123 E.01668
G1 X131.114 Y109.582 E.01918
G1 X131.195 Y108.968 E.02191
G1 X131.306 Y108.498 E.01711
G1 X131.456 Y108.048 E.01681
G1 X131.743 Y107.423 E.02437
G1 X131.991 Y107.006 E.01717
G1 X132.073 Y106.893 E.00492
G1 X132.368 Y107.108 F10800
G1 F1200
G1 X132.566 Y106.836 E.01192
G1 X132.858 Y106.502 E.01571
G1 X133.335 Y106.064 E.02296
G1 X133.693 Y105.8 E.01574
G1 X134.072 Y105.569 E.01571
G1 X134.465 Y105.374 E.01555
G1 X135.074 Y105.151 E.02296
G1 X135.506 Y105.044 E.01574
G1 X135.944 Y104.976 E.01571
G1 X136.382 Y104.947 E.01555
G1 X136.841 Y104.958 E.01625
G1 X137.466 Y105.04 E.02231
G1 X137.901 Y105.145 E.01585
G1 X138.317 Y105.286 E.01555
G1 X138.905 Y105.559 E.02296
G1 X139.285 Y105.788 E.01574
G1 X139.64 Y106.047 E.01555
G1 X139.974 Y106.339 E.01571
G1 X140.291 Y106.671 E.01625
G1 X140.674 Y107.169 E.02225
G1 X140.905 Y107.549 E.01574
G1 X141.102 Y107.946 E.01571
G1 X141.268 Y108.374 E.01625
G1 X141.431 Y108.983 E.02231
G1 X141.5 Y109.425 E.01585
G1 X141.529 Y109.863 E.01555
G1 X141.502 Y110.511 E.02296
G1 X141.436 Y110.95 E.01574
G1 X141.333 Y111.377 E.01555
G1 X141.191 Y111.797 E.01571
G1 X140.917 Y112.387 E.02302
G1 X140.688 Y112.766 E.01569
G1 X140.429 Y113.121 E.01555
G1 X140.137 Y113.455 E.01571
G1 X139.805 Y113.772 E.01625
G1 X139.307 Y114.154 E.02225
G1 X138.928 Y114.386 E.01574
G1 X138.53 Y114.583 E.01571
G1 X138.102 Y114.749 E.01625
G1 X137.494 Y114.912 E.02231
G1 X137.051 Y114.981 E.01585
G1 X136.613 Y115.01 E.01555
G1 X135.966 Y114.983 E.02296
G1 X135.526 Y114.917 E.01574
G1 X135.099 Y114.813 E.01555
G1 X134.679 Y114.672 E.0157
G1 X134.089 Y114.398 E.02302
G1 X133.71 Y114.169 E.01569
G1 X133.355 Y113.91 E.01555
G1 X133.022 Y113.618 E.0157
G1 X132.705 Y113.286 E.01625
G1 X132.322 Y112.788 E.02226
G1 X132.09 Y112.408 E.01574
M73 P2 R13
G1 X131.893 Y112.011 E.01571
G1 X131.728 Y111.583 E.01625
G1 X131.564 Y110.974 E.02231
G1 X131.495 Y110.532 E.01584
G1 X131.466 Y110.094 E.01555
G1 X131.477 Y109.635 E.01625
G1 X131.559 Y109.011 E.02231
G1 X131.663 Y108.58 E.01569
G1 X131.805 Y108.16 E.0157
G1 X132.078 Y107.572 E.02296
G1 X132.307 Y107.191 E.01574
G1 X132.344 Y107.141 E.00221
G1 E-.56 F1800
;WIPE_START
G1 F1200
G1 X132.566 Y106.836 E-.09042
G1 X132.858 Y106.502 E-.10644
G1 X132.99 Y106.381 E-.04314
;WIPE_END
G1 Z.65 F720
G1 X136.718 Y105.451 Z.65 F10800
G1 Z.25 F720
G1 E.8 F1800
;TYPE:Outer wall
;WIDTH:0.419999
G1 F1200
G1 X137.223 Y105.5 E.01799
G1 X137.802 Y105.633 E.02102
G1 X138.358 Y105.84 E.02101
G1 X138.933 Y106.154 E.02322
G1 X139.365 Y106.462 E.0188
G1 X139.8 Y106.867 E.02102
G1 X140.178 Y107.324 E.02101
G1 X140.519 Y107.884 E.02322
G1 X140.739 Y108.367 E.0188
G1 X140.913 Y108.935 E.02102
G1 X141.012 Y109.52 E.02101
G1 X141.028 Y110.176 E.02322
G1 X140.977 Y110.704 E.0188
G1 X140.844 Y111.283 E.02102
G1 X140.636 Y111.839 E.02101
G1 X140.322 Y112.414 E.02322
G1 X140.014 Y112.846 E.0188
G1 X139.61 Y113.281 E.02102
G1 X139.152 Y113.659 E.02101
G1 X138.592 Y114 E.02322
G1 X138.109 Y114.22 E.01881
G1 X137.542 Y114.394 E.02102
G1 X136.956 Y114.493 E.02101
G1 X136.301 Y114.509 E.02322
G1 X135.772 Y114.458 E.0188
G1 X135.194 Y114.325 E.02102
G1 X134.638 Y114.117 E.02101
G1 X134.062 Y113.803 E.02322
G1 X133.63 Y113.495 E.0188
G1 X133.196 Y113.09 E.02102
G1 X132.818 Y112.633 E.02101
G1 X132.476 Y112.073 E.02322
G1 X132.256 Y111.59 E.01881
G1 X132.082 Y111.022 E.02102
G1 X131.984 Y110.437 E.02101
G1 X131.968 Y109.782 E.02322
G1 X132.019 Y109.253 E.0188
G1 X132.151 Y108.676 E.02097
G1 X132.359 Y108.119 E.02107
G1 X132.673 Y107.543 E.02322
G1 X132.981 Y107.111 E.0188
G1 X133.386 Y106.676 E.02102
G1 X133.843 Y106.299 E.02101
G1 X134.403 Y105.957 E.02322
G1 X134.886 Y105.737 E.0188
G1 X135.454 Y105.563 E.02102
G1 X136.039 Y105.464 E.02101
G1 X136.678 Y105.449 E.02262
G1 X136.684 Y105.811 F10800
;TYPE:Inner wall
;WIDTH:0.414022
G1 F1200
G1 X137.144 Y105.854 E.01613
;WIDTH:0.41592
G1 X137.677 Y105.975 E.01912
G1 X138.19 Y106.162 E.01912
;WIDTH:0.414023
G1 X138.675 Y106.414 E.01902
G1 X139.12 Y106.73 E.01903
;WIDTH:0.415922
G1 X139.521 Y107.101 E.01912
G1 X139.871 Y107.52 E.01912
;WIDTH:0.414021
G1 X140.165 Y107.98 E.01902
G1 X140.393 Y108.477 E.01903
;WIDTH:0.415922
G1 X140.555 Y108.998 E.01912
G1 X140.649 Y109.536 E.01912
;WIDTH:0.414022
G1 X140.673 Y110.081 E.01902
G1 X140.622 Y110.625 E.01903
;WIDTH:0.41592
G1 X140.501 Y111.158 E.01912
G1 X140.314 Y111.671 E.01912
;WIDTH:0.414021
G1 X140.063 Y112.155 E.01902
G1 X139.746 Y112.601 E.01903
;WIDTH:0.415921
G1 X139.375 Y113.002 E.01912
G1 X138.957 Y113.352 E.01912
;WIDTH:0.414017
G1 X138.498 Y113.645 E.01897
G1 X138 Y113.874 E.01909
;WIDTH:0.415922
G1 X137.478 Y114.036 E.01912
G1 X136.94 Y114.13 E.01912
;WIDTH:0.414024
G1 X136.395 Y114.154 E.01902
G1 X135.851 Y114.103 E.01903
;WIDTH:0.415923
G1 X135.318 Y113.982 E.01912
G1 X134.806 Y113.795 E.01912
;WIDTH:0.414023
G1 X134.321 Y113.543 E.01902
G1 X133.876 Y113.227 E.01903
;WIDTH:0.415923
G1 X133.475 Y112.856 E.01912
G1 X133.124 Y112.438 E.01912
;WIDTH:0.414018
G1 X132.831 Y111.979 E.01897
G1 X132.603 Y111.481 E.01909
;WIDTH:0.415923
G1 X132.441 Y110.959 E.01912
G1 X132.347 Y110.421 E.01912
;WIDTH:0.414024
G1 X132.322 Y109.876 E.01902
G1 X132.373 Y109.332 E.01903
;WIDTH:0.415906
G1 X132.494 Y108.801 E.01907
G1 X132.681 Y108.286 E.01917
;WIDTH:0.414022
G1 X132.933 Y107.802 E.01902
G1 X133.249 Y107.356 E.01903
;WIDTH:0.415923
G1 X133.62 Y106.956 E.01912
G1 X134.039 Y106.605 E.01912
;WIDTH:0.414023
G1 X134.499 Y106.311 E.01902
G1 X134.996 Y106.084 E.01903
;WIDTH:0.415923
G1 X135.517 Y105.922 E.01912
G1 X136.055 Y105.828 E.01912
;WIDTH:0.414022
G1 X136.601 Y105.803 E.01902
G1 X136.644 Y105.807 E.00151
G1 E-.56 F1800
;WIPE_START
G1 F1200
G1 X137.144 Y105.854 E-.1207
G1 X137.629 Y105.964 E-.1193
;WIPE_END
G1 Z.65 F720
G1 X138.174 Y113.005 Z.65 F10800
G1 Z.25 F720
G1 E.8 F1800
;TYPE:Outer wall
;WIDTH:0.419999
G1 F1200
G1 X137.625 Y113.249 E.02128
G1 X137.04 Y113.395 E.02135
G1 X136.438 Y113.437 E.02135
G1 X135.839 Y113.375 E.02135
G1 X135.259 Y113.209 E.02135
G1 X134.717 Y112.944 E.02135
G1 X134.229 Y112.59 E.02135
G1 X133.81 Y112.156 E.02135
G1 X133.473 Y111.657 E.02135
G1 X133.227 Y111.106 E.02135
G1 X133.081 Y110.521 E.02135
G1 X133.039 Y109.919 E.02135
G1 X133.102 Y109.319 E.02135
G1 X133.268 Y108.74 E.02135
G1 X133.532 Y108.198 E.02135
G1 X133.886 Y107.71 E.02135
G1 X134.32 Y107.291 E.02135
G1 X134.82 Y106.953 E.02135
G1 X135.371 Y106.708 E.02135
G1 X135.956 Y106.562 E.02135
G1 X136.557 Y106.52 E.02135
G1 X137.157 Y106.583 E.02135
G1 X137.737 Y106.749 E.02135
G1 X138.279 Y107.013 E.02135
G1 X138.767 Y107.367 E.02135
G1 X139.186 Y107.801 E.02135
G1 X139.523 Y108.301 E.02135
G1 X139.768 Y108.852 E.02135
G1 X139.914 Y109.437 E.02135
G1 X139.957 Y110.038 E.02135
G1 X139.894 Y110.638 E.02135
G1 X139.728 Y111.218 E.02135
G1 X139.463 Y111.76 E.02135
G1 X139.109 Y112.248 E.02135
G1 X138.675 Y112.667 E.02135
G1 X138.207 Y112.983 E.02001
G1 X138.324 Y113.328 F10800
;TYPE:Inner wall
;WIDTH:0.414017
G1 F1200
G1 X137.873 Y113.537 E.0173
