; generated by PrusaSlicer 2.5.0+linux-x64-GTK3 on 2023-09-26 at 15:41:47 UTC

; 

; external perimeters extrusion width = 0.45mm
; perimeters extrusion width = 0.45mm
; infill extrusion width = 0.45mm
; solid infill extrusion width = 0.45mm
; top infill extrusion width = 0.40mm
; support material extrusion width = 0.35mm
; first layer extrusion width = 0.42mm

M73 P0 R140
M73 Q0 S141
M107
;TYPE:Custom
M862.3 P "MK3S" ; printer model check
M862.1 P0.4 ; nozzle diameter check
M115 U3.9.2 ; tell printer latest fw version
G90 ; use absolute coordinates
M83 ; extruder relative mode
M104 S215 ; set extruder temp
M140 S60 ; set bed temp
M190 S60 ; wait for bed temp
M109 S215 ; wait for extruder temp
G28 W ; home all without mesh bed level
G80 ; mesh bed leveling
G1 Y-3.0 F1000.0 ; go outside print area
G92 E0.0
G1 X60.0 E9.0 F1000.0 ; intro line
G1 X100.0 E12.5 F1000.0 ; intro line
G92 E0.0
M221 S95

; Don't change E values below. Excessive value can damage the printer.
M907 E430 ; set extruder motor current
G21 ; set units to millimeters
G90 ; use absolute coordinates
M83 ; use relative distances for extrusion
M900 K0.05 ; Filament gcode LA 1.5
M900 K30 ; Filament gcode LA 1.0
M107
;LAYER_CHANGE
;Z:0.2
;HEIGHT:0.2
;BEFORE_LAYER_CHANGE
G92 E0.0
;0.2


G1 E-.8 F2100
G1 Z.4 F10800
;AFTER_LAYER_CHANGE
;0.2
G1 X60.515 Y39.693
G1 Z.2
G1 E.8 F2100
M204 S1000
;TYPE:Skirt/Brim
;WIDTH:0.42
G1 F1200
G1 X61.56 Y38.817 E.04278
G1 X62.5 Y38.623 E.03008
G1 X187.5 Y38.623 E3.91929
G1 X188.807 Y39.015 E.04278
G1 X189.683 Y40.06 E.04278
G1 X189.877 Y41 E.03008
G1 X189.877 Y169 E4.01335
G1 X189.485 Y170.307 E.04278
G1 X188.44 Y171.183 E.04278
G1 X187.5 Y171.377 E.03008
G1 X62.5 Y171.377 E3.91929
G1 X61.193 Y170.985 E.04278
G1 X60.317 Y169.94 E.04278
G1 X60.123 Y169 E.03008
G1 X60.123 Y41 E4.01335
G1 X60.497 Y39.75 E.0409
; printing object PlateForSMDDispenserRail.stl id:0 copy 0
;WIPE_START
G1 F8640
G1 X61.56 Y38.817 E-.32671
G1 X62.5 Y38.623 E-.22155
G1 X63.417 Y38.623 E-.21174
;WIPE_END
G1 E-.04 F2100
G1 Z.6 F10800
G1 X66.92 Y42.164
G1 Z.2
G1 E.8 F2100
;TYPE:Perimeter
;WIDTH:0.419999
G1 F1200
G1 X93.076 Y42.164 E.8201
G1 X92.749 Y42.582 E.01663
G1 X92.528 Y43.013 E.01521
G1 X92.377 Y43.551 E.01751
G1 X92.338 Y44.034 E.0152
G1 X92.405 Y44.589 E.01752
G1 X92.594 Y45.145 E.01841
G1 X92.886 Y45.621 E.01751
G1 X93.259 Y46.014 E.01701
G1 X93.677 Y46.313 E.01611
G1 X94.151 Y46.524 E.01625
G1 X94.638 Y46.64 E.0157
G1 X95.152 Y46.66 E.01612
G1 X95.656 Y46.58 E.01602
G1 X96.128 Y46.414 E.0157
G1 X96.563 Y46.156 E.01583
G1 X96.944 Y45.821 E.01592
G1 X97.251 Y45.418 E.01587
G1 X97.472 Y44.987 E.01521
G1 X97.623 Y44.449 E.01751
G1 X97.662 Y43.966 E.01519
G1 X97.615 Y43.504 E.01456
G1 X97.453 Y42.969 E.01752
G1 X97.172 Y42.463 E.01816
G1 X96.923 Y42.164 E.0122
G1 X123.074 Y42.164 E.81995
G1 X122.749 Y42.582 E.01658
G1 X122.528 Y43.013 E.01519
G1 X122.364 Y43.64 E.02032
G1 X122.345 Y44.198 E.01751
G1 X122.427 Y44.676 E.0152
G1 X122.623 Y45.199 E.01751
G1 X122.881 Y45.609 E.0152
G1 X123.233 Y45.993 E.01633
G1 X123.658 Y46.298 E.01639
G1 X124.127 Y46.517 E.01622
G1 X124.616 Y46.636 E.01579
G1 X125.12 Y46.662 E.01582
G1 X125.623 Y46.59 E.01593
G1 X126.096 Y46.428 E.01568
G1 X126.537 Y46.172 E.01599
G1 X126.906 Y45.858 E.01519
G1 X127.202 Y45.496 E.01465
G1 X127.464 Y45.005 E.01745
G1 X127.623 Y44.449 E.01814
G1 X127.662 Y43.966 E.0152
G1 X127.595 Y43.411 E.01751
G1 X127.446 Y42.95 E.01519
G1 X127.226 Y42.541 E.01456
G1 X126.92 Y42.164 E.01522
G1 X153.075 Y42.164 E.82008
G1 X152.8 Y42.501 E.01365
G1 X152.537 Y42.994 E.01751
G1 X152.394 Y43.457 E.0152
G1 X152.339 Y44.013 E.01752
G1 X152.405 Y44.589 E.01816
G1 X152.593 Y45.142 E.01832
G1 X152.885 Y45.621 E.01759
G1 X153.25 Y46.007 E.01664
G1 X153.679 Y46.313 E.01654
G1 X154.135 Y46.519 E.01569
G1 X154.623 Y46.637 E.01576
G1 X155.123 Y46.661 E.01568
G1 X155.635 Y46.586 E.01624
G1 X156.118 Y46.418 E.01603
G1 X156.569 Y46.152 E.01641
G1 X156.944 Y45.821 E.01569
G1 X157.251 Y45.418 E.01587
G1 X157.472 Y44.987 E.01519
G1 X157.606 Y44.543 E.01456
G1 X157.661 Y43.987 E.01751
G1 X157.615 Y43.504 E.0152
G1 X157.453 Y42.97 E.01751
G1 X157.227 Y42.541 E.0152
G1 X156.92 Y42.164 E.01523
G1 X183.076 Y42.164 E.8201
M73 Q0 S140
G1 X182.749 Y42.582 E.01663
G1 X182.528 Y43.013 E.01519
G1 X182.394 Y43.457 E.01456
G1 X182.339 Y44.013 E.01752
G1 X182.405 Y44.589 E.01816
G1 X182.555 Y45.053 E.0153
G1 X182.828 Y45.537 E.01743
G1 X183.148 Y45.913 E.01548
G1 X183.582 Y46.251 E.01722
G1 X184.016 Y46.473 E.0153
G1 X184.552 Y46.623 E.01743
G1 X185.034 Y46.662 E.01518
G1 X185.589 Y46.595 E.01752
G1 X186.051 Y46.446 E.01522
G1 X186.336 Y46.293 E.01016
G1 X186.336 Y163.701 E3.68126
G1 X185.985 Y163.527 E.01229
G1 X185.449 Y163.377 E.01745
G1 X184.966 Y163.338 E.01518
G1 X184.504 Y163.385 E.01456
G1 X183.969 Y163.547 E.01752
G1 X183.463 Y163.828 E.01816
G1 X183.094 Y164.142 E.0152
G1 X182.749 Y164.582 E.01751
G1 X182.528 Y165.013 E.01519
G1 X182.394 Y165.457 E.01456
G1 X182.339 Y166.013 E.01752
G1 X182.405 Y166.589 E.01816
G1 X182.554 Y167.05 E.01519
G1 X182.773 Y167.459 E.01456
G1 X183.08 Y167.836 E.01523
G1 X156.924 Y167.836 E.8201
G1 X157.251 Y167.418 E.01663
G1 X157.472 Y166.987 E.01521
G1 X157.623 Y166.449 E.01751
G1 X157.662 Y165.966 E.0152
G1 X157.595 Y165.411 E.01752
G1 X157.406 Y164.855 E.01841
G1 X157.114 Y164.379 E.01751
G1 X156.741 Y163.986 E.01701
G1 X156.323 Y163.687 E.01611
G1 X155.849 Y163.476 E.01625
G1 X155.357 Y163.36 E.01585
G1 X154.845 Y163.341 E.01609
G1 X154.344 Y163.42 E.0159
G1 X153.871 Y163.587 E.01573
G1 X153.437 Y163.844 E.0158
G1 X153.056 Y164.179 E.01592
G1 X152.749 Y164.582 E.01587
G1 X152.528 Y165.013 E.01521
G1 X152.377 Y165.551 E.01751
G1 X152.338 Y166.034 E.01519
G1 X152.385 Y166.496 E.01456
G1 X152.547 Y167.031 E.01752
G1 X152.828 Y167.537 E.01816
G1 X153.077 Y167.836 E.0122
G1 X126.926 Y167.836 E.81995
G1 X127.251 Y167.418 E.01658
G1 X127.472 Y166.987 E.01519
G1 X127.606 Y166.543 E.01456
G1 X127.661 Y165.987 E.01752
G1 X127.595 Y165.411 E.01816
G1 X127.407 Y164.858 E.01832
G1 X127.115 Y164.379 E.01759
G1 X126.75 Y163.993 E.01664
G1 X126.333 Y163.693 E.0161
G1 X125.871 Y163.483 E.01595
G1 X125.384 Y163.364 E.0157
G1 X124.88 Y163.338 E.01582
G1 X124.377 Y163.41 E.01593
G1 X123.904 Y163.572 E.01568
G1 X123.463 Y163.828 E.01599
G1 X123.094 Y164.142 E.01519
G1 X122.798 Y164.504 E.01465
G1 X122.536 Y164.995 E.01745
G1 X122.377 Y165.551 E.01814
G1 X122.338 Y166.034 E.0152
G1 X122.405 Y166.589 E.01751
G1 X122.554 Y167.05 E.01519
G1 X122.774 Y167.459 E.01456
G1 X123.08 Y167.836 E.01522
G1 X96.925 Y167.836 E.82008
G1 X97.298 Y167.342 E.01941
G1 X97.528 Y166.833 E.01751
G1 X97.636 Y166.36 E.0152
G1 X97.655 Y165.802 E.01751
G1 X97.573 Y165.324 E.0152
G1 X97.377 Y164.801 E.01751
G1 X97.119 Y164.391 E.0152
G1 X96.753 Y163.996 E.01688
G1 X96.321 Y163.687 E.01665
G1 X95.865 Y163.481 E.01569
G1 X95.377 Y163.363 E.01576
G1 X94.877 Y163.339 E.01568
G1 X94.365 Y163.414 E.01624
G1 X93.882 Y163.582 E.01603
G1 X93.431 Y163.848 E.01641
G1 X93.056 Y164.179 E.01569
G1 X92.749 Y164.582 E.01587
G1 X92.528 Y165.013 E.01519
G1 X92.394 Y165.457 E.01456
G1 X92.339 Y166.013 E.01751
G1 X92.385 Y166.496 E.0152
G1 X92.547 Y167.03 E.01751
G1 X92.773 Y167.459 E.0152
G1 X93.08 Y167.836 E.01523
G1 X66.924 Y167.836 E.8201
G1 X67.251 Y167.418 E.01663
G1 X67.472 Y166.987 E.01519
G1 X67.606 Y166.543 E.01456
G1 X67.661 Y165.987 E.01752
G1 X67.595 Y165.411 E.01816
G1 X67.445 Y164.947 E.0153
G1 X67.172 Y164.463 E.01743
G1 X66.852 Y164.087 E.01548
G1 X66.418 Y163.749 E.01722
G1 X65.984 Y163.527 E.0153
G1 X65.448 Y163.377 E.01743
G1 X64.966 Y163.338 E.01518
G1 X64.411 Y163.405 E.01752
G1 X63.949 Y163.554 E.01522
G1 X63.664 Y163.707 E.01016
G1 X63.664 Y46.299 E3.68126
G1 X64.015 Y46.473 E.01229
M73 P0 R139
G1 X64.551 Y46.623 E.01745
G1 X65.034 Y46.662 E.01518
G1 X65.496 Y46.615 E.01456
G1 X66.031 Y46.453 E.01752
G1 X66.537 Y46.172 E.01816
G1 X66.906 Y45.858 E.0152
G1 X67.251 Y45.418 E.01751
G1 X67.472 Y44.987 E.01519
G1 X67.606 Y44.543 E.01456
G1 X67.661 Y43.987 E.01752
G1 X67.595 Y43.411 E.01816
G1 X67.446 Y42.95 E.01519
G1 X67.227 Y42.541 E.01456
G1 X66.958 Y42.211 E.01335
G1 X67.066 Y43.032 F10800
G1 F1200
G1 X66.9 Y42.73 E.01081
G1 X66.589 Y42.358 E.0152
G1 X66.269 Y42.099 E.01289
G1 X65.839 Y41.875 E.0152
G1 X65.441 Y41.772 E.01289
G1 X65.86 Y41.787 E.01313
G1 X94.446 Y41.777 E.8963
G1 X94.091 Y41.904 E.01182
G1 X93.73 Y42.1 E.01289
G1 X93.358 Y42.412 E.01521
G1 X93.053 Y42.805 E.01559
G1 X92.869 Y43.173 E.01289
G1 X92.744 Y43.641 E.0152
G1 X92.715 Y44.051 E.01289
G1 X92.778 Y44.531 E.0152
G1 X92.909 Y44.924 E.01298
G1 X93.151 Y45.342 E.01512
G1 X93.42 Y45.652 E.01288
G1 X93.805 Y45.947 E.0152
G1 X94.175 Y46.131 E.01298
G1 X94.641 Y46.256 E.01512
G1 X95.05 Y46.285 E.01287
G1 X95.447 Y46.242 E.0125
G1 X95.909 Y46.096 E.01521
G1 X96.341 Y45.85 E.01559
G1 X96.652 Y45.58 E.01289
G1 X96.947 Y45.195 E.0152
G1 X97.131 Y44.827 E.01289
G1 X97.256 Y44.359 E.0152
G1 X97.285 Y43.95 E.01288
G1 X97.242 Y43.553 E.0125
G1 X97.096 Y43.091 E.01521
G1 X96.85 Y42.659 E.01559
G1 X96.58 Y42.349 E.01288
G1 X96.269 Y42.099 E.0125
G1 X95.839 Y41.875 E.0152
G1 X95.441 Y41.772 E.01289
G1 X95.86 Y41.787 E.01313
G1 X124.458 Y41.783 E.89666
G1 X124.079 Y41.908 E.01251
G1 X123.659 Y42.15 E.0152
G1 X123.348 Y42.42 E.01289
G1 X123.053 Y42.805 E.0152
G1 X122.87 Y43.172 E.01288
G1 X122.758 Y43.555 E.0125
G1 X122.716 Y44.038 E.0152
G1 X122.758 Y44.447 E.01289
G1 X122.904 Y44.909 E.0152
G1 X123.1 Y45.27 E.01289
G1 X123.411 Y45.642 E.0152
G1 X123.731 Y45.901 E.01289
G1 X124.161 Y46.125 E.01521
G1 X124.641 Y46.256 E.01559
G1 X125.05 Y46.285 E.01288
G1 X125.447 Y46.242 E.0125
G1 X125.909 Y46.096 E.01521
G1 X126.341 Y45.85 E.01559
G1 X126.651 Y45.58 E.01288
G1 X126.902 Y45.267 E.01259
G1 X127.125 Y44.839 E.01514
G1 X127.256 Y44.359 E.01558
G1 X127.285 Y43.949 E.01289
G1 X127.222 Y43.469 E.0152
G1 X127.092 Y43.079 E.01288
G1 X126.9 Y42.729 E.0125
G1 X126.588 Y42.358 E.01521
G1 X126.195 Y42.053 E.01559
G1 X125.825 Y41.869 E.01298
G1 X125.354 Y41.765 E.01513
G1 X125.843 Y41.787 E.01535
G1 X154.446 Y41.777 E.89682
G1 X154.091 Y41.904 E.01182
G1 X153.73 Y42.1 E.01289
G1 X153.358 Y42.411 E.0152
G1 X153.099 Y42.731 E.01289
G1 X152.875 Y43.161 E.0152
G1 X152.758 Y43.555 E.01289
G1 X152.716 Y44.038 E.01521
G1 X152.778 Y44.531 E.01559
G1 X152.908 Y44.921 E.01289
G1 X153.15 Y45.341 E.0152
G1 X153.42 Y45.652 E.01289
G1 X153.805 Y45.947 E.0152
G1 X154.175 Y46.131 E.01298
G1 X154.641 Y46.256 E.01512
G1 X155.05 Y46.285 E.01287
G1 X155.447 Y46.242 E.0125
G1 X155.909 Y46.096 E.01521
G1 X156.341 Y45.85 E.01559
G1 X156.652 Y45.58 E.01289
G1 X156.947 Y45.195 E.0152
G1 X157.13 Y44.828 E.01288
G1 X157.242 Y44.445 E.0125
G1 X157.284 Y43.962 E.0152
G1 X157.242 Y43.553 E.01289
G1 X157.096 Y43.091 E.0152
G1 X156.9 Y42.73 E.01289
G1 X156.589 Y42.358 E.0152
G1 X156.269 Y42.099 E.01289
G1 X155.839 Y41.875 E.0152
G1 X155.441 Y41.772 E.01289
G1 X155.86 Y41.787 E.01313
G1 X184.446 Y41.777 E.8963
G1 X184.091 Y41.904 E.01182
G1 X183.73 Y42.1 E.01289
G1 X183.358 Y42.412 E.01521
G1 X183.053 Y42.805 E.01559
G1 X182.87 Y43.172 E.01288
G1 X182.758 Y43.555 E.0125
G1 X182.716 Y44.038 E.01521
G1 X182.778 Y44.531 E.01559
G1 X182.909 Y44.924 E.01298
G1 X183.151 Y45.342 E.01512
G1 X183.42 Y45.652 E.01288
G1 X183.805 Y45.947 E.0152
G1 X184.175 Y46.131 E.01298
G1 X184.641 Y46.256 E.01513
G1 X185.051 Y46.285 E.01288
G1 X185.531 Y46.222 E.0152
G1 X185.922 Y46.091 E.0129
G1 X186.343 Y45.846 E.01529
G1 X186.726 Y45.481 E.01658
G1 X186.713 Y46 E.01627
G1 X186.713 Y163.303 E3.67797
G1 X186.726 Y164.525 E.03831
G1 X186.592 Y164.367 E.0065
G1 X186.199 Y164.056 E.01571
G1 X185.825 Y163.869 E.01311
G1 X185.359 Y163.744 E.01514
G1 X184.95 Y163.715 E.01288
G1 X184.553 Y163.758 E.0125
G1 X184.091 Y163.904 E.01521
G1 X183.659 Y164.15 E.01559
G1 X183.348 Y164.42 E.01289
G1 X183.053 Y164.805 E.0152
G1 X182.87 Y165.172 E.01288
G1 X182.758 Y165.555 E.0125
G1 X182.716 Y166.038 E.01521
G1 X182.778 Y166.531 E.01559
G1 X182.908 Y166.921 E.01288
G1 X183.1 Y167.27 E.0125
G1 X183.411 Y167.642 E.0152
G1 X183.731 Y167.901 E.01289
G1 X184.161 Y168.125 E.0152
G1 X184.562 Y168.228 E.01297
G1 X184.14 Y168.213 E.01322
G1 X155.554 Y168.223 E.8963
G1 X155.909 Y168.096 E.01182
G1 X156.27 Y167.9 E.01289
G1 X156.642 Y167.588 E.01521
G1 X156.947 Y167.195 E.01559
G1 X157.131 Y166.827 E.01289
G1 X157.256 Y166.359 E.0152
G1 X157.285 Y165.949 E.01289
G1 X157.222 Y165.469 E.0152
G1 X157.091 Y165.076 E.01298
G1 X156.849 Y164.658 E.01512
G1 X156.58 Y164.348 E.01288
G1 X156.195 Y164.053 E.0152
G1 X155.825 Y163.869 E.01298
G1 X155.359 Y163.744 E.01512
G1 X154.95 Y163.715 E.01287
G1 X154.553 Y163.758 E.0125
G1 X154.091 Y163.904 E.01521
G1 X153.659 Y164.15 E.01559
G1 X153.348 Y164.42 E.01289
G1 X153.053 Y164.805 E.0152
G1 X152.869 Y165.173 E.01289
G1 X152.744 Y165.641 E.0152
G1 X152.715 Y166.05 E.01288
G1 X152.758 Y166.447 E.0125
G1 X152.904 Y166.909 E.01521
G1 X153.15 Y167.341 E.01559
G1 X153.42 Y167.651 E.01288
G1 X153.731 Y167.901 E.0125
G1 X154.161 Y168.125 E.0152
G1 X154.559 Y168.228 E.01289
G1 X154.14 Y168.213 E.01313
G1 X125.542 Y168.217 E.89666
G1 X125.921 Y168.092 E.01251
G1 X126.341 Y167.85 E.0152
G1 X126.652 Y167.58 E.01289
G1 X126.947 Y167.195 E.0152
G1 X127.13 Y166.828 E.01288
G1 X127.242 Y166.445 E.0125
G1 X127.284 Y165.962 E.01521
G1 X127.222 Y165.469 E.01559
G1 X127.092 Y165.079 E.01289
G1 X126.85 Y164.659 E.0152
G1 X126.58 Y164.348 E.01289
G1 X126.195 Y164.053 E.0152
G1 X125.825 Y163.869 E.01298
G1 X125.359 Y163.744 E.01512
G1 X124.95 Y163.715 E.01287
G1 X124.553 Y163.758 E.0125
G1 X124.091 Y163.904 E.01521
G1 X123.659 Y164.15 E.01559
G1 X123.349 Y164.42 E.01288
G1 X123.098 Y164.733 E.01259
G1 X122.875 Y165.161 E.01514
G1 X122.744 Y165.641 E.01558
G1 X122.715 Y166.051 E.01289
G1 X122.778 Y166.531 E.0152
G1 X122.908 Y166.921 E.01288
G1 X123.1 Y167.271 E.0125
G1 X123.411 Y167.642 E.0152
G1 X123.731 Y167.901 E.01289
G1 X124.161 Y168.125 E.01521
G1 X124.646 Y168.235 E.01559
G1 X124.14 Y168.213 E.01586
G1 X95.554 Y168.223 E.8963
G1 X95.909 Y168.096 E.01182
G1 X96.27 Y167.9 E.01289
G1 X96.642 Y167.589 E.0152
G1 X96.901 Y167.269 E.01289
G1 X97.125 Y166.839 E.0152
G1 X97.242 Y166.445 E.01289
G1 X97.284 Y165.962 E.0152
G1 X97.242 Y165.553 E.01289
G1 X97.096 Y165.091 E.0152
G1 X96.9 Y164.73 E.01289
G1 X96.588 Y164.358 E.01521
G1 X96.195 Y164.053 E.01559
G1 X95.825 Y163.869 E.01298
G1 X95.359 Y163.744 E.01512
G1 X94.95 Y163.715 E.01287
G1 X94.553 Y163.758 E.0125
G1 X94.091 Y163.904 E.01521
G1 X93.659 Y164.15 E.01559
G1 X93.348 Y164.42 E.01289
G1 X93.053 Y164.805 E.0152
G1 X92.87 Y165.172 E.01288
G1 X92.758 Y165.555 E.0125
G1 X92.716 Y166.038 E.0152
G1 X92.758 Y166.447 E.01289
G1 X92.904 Y166.909 E.0152
G1 X93.1 Y167.27 E.01289
G1 X93.411 Y167.642 E.0152
G1 X93.731 Y167.901 E.01289
G1 X94.161 Y168.125 E.0152
G1 X94.559 Y168.228 E.01289
G1 X94.14 Y168.213 E.01313
G1 X65.554 Y168.223 E.8963
G1 X65.909 Y168.096 E.01182
G1 X66.27 Y167.9 E.01289
G1 X66.642 Y167.588 E.01521
G1 X66.947 Y167.195 E.01559
G1 X67.13 Y166.828 E.01288
G1 X67.242 Y166.445 E.0125
G1 X67.284 Y165.962 E.01521
G1 X67.222 Y165.469 E.01559
G1 X67.091 Y165.076 E.01298
G1 X66.849 Y164.658 E.01512
G1 X66.58 Y164.348 E.01288
G1 X66.195 Y164.053 E.0152
G1 X65.825 Y163.869 E.01298
G1 X65.359 Y163.744 E.01513
G1 X64.949 Y163.715 E.01288
G1 X64.469 Y163.778 E.0152
G1 X64.078 Y163.909 E.0129
G1 X63.657 Y164.154 E.01529
G1 X63.274 Y164.519 E.01658
G1 X63.287 Y164 E.01627
G1 X63.287 Y46.697 E3.67797
G1 X63.274 Y45.475 E.03831
M73 P1 R139
M73 Q1 S140
G1 X63.408 Y45.633 E.0065
G1 X63.801 Y45.944 E.01571
G1 X64.175 Y46.131 E.01311
G1 X64.641 Y46.256 E.01514
G1 X65.05 Y46.285 E.01288
G1 X65.447 Y46.242 E.0125
G1 X65.909 Y46.096 E.01521
G1 X66.341 Y45.85 E.01559
G1 X66.652 Y45.58 E.01289
G1 X66.947 Y45.195 E.0152
G1 X67.13 Y44.828 E.01288
G1 X67.242 Y44.445 E.0125
G1 X67.284 Y43.962 E.01521
G1 X67.222 Y43.469 E.01559
G1 X67.094 Y43.085 E.01269
;WIPE_START
G1 F8640
G1 X66.9 Y42.73 E-.09344
G1 X66.589 Y42.358 E-.11195
G1 X66.269 Y42.099 E-.09492
G1 X65.839 Y41.875 E-.11195
G1 X65.441 Y41.772 E-.09489
