; generated by PrusaSlicer 2.7.2 on 2024-03-17 at 19:48:02 UTC


;
;
; 

; external perimeters extrusion width = 0.60mm
; perimeters extrusion width = 0.50mm
; infill extrusion width = 0.50mm
; solid infill extrusion width = 0.50mm
; top infill extrusion width = 0.45mm
; support material extrusion width = 0.38mm
; first layer extrusion width = 0.42mm

M73 P0 R302
M73 Q0 S306
M201 X1000 Y1000 Z200 E8000 ; sets maximum accelerations, mm/sec^2
M203 X200 Y200 Z12 E120 ; sets maximum feedrates, mm / sec
M204 S1250 T1250 ; sets acceleration (S) and retract acceleration (R), mm/sec^2
M205 X8.00 Y8.00 Z0.40 E4.50 ; sets the jerk limits, mm/sec
M205 S0 T0 ; sets the minimum extruding and travel feed rate, mm/sec

; printing object Case - CaseBottom.stl id:0 copy 0
; stop printing object Case - CaseBottom.stl id:0 copy 0

;TYPE:Custom
M862.3 P "MK3SMMU2S" ; printer model check
M862.1 P0.4 ; nozzle diameter check
M115 U3.11.0 ; tell printer latest fw version
G90 ; use absolute coordinates
M83 ; extruder relative mode
M104 S215 ; set extruder temp
M140 S60 ; set bed temp
M190 S60 ; wait for bed temp
M109 S215 ; wait for extruder temp
G28 W ; home all without mesh bed level
G80 ; mesh bed leveling

; Send the filament type to the MMU2.0 unit.
; E stands for extruder number, F stands for filament type (0: default; 1:flex; 2: PVA)
M403 E0 F0
M403 E1 F0
M403 E2 F0
M403 E3 F0
M403 E4 F0


;go outside print area
G1 Y-3 F1000
G1 Z0.4 F1000
; select extruder
T0
; initial load
G1 X55 E29 F1073
G1 X5 E29 F1800
G1 X55 E8 F2000
G1 Z0.3 F1000
G92 E0
G1 X240 E25 F2200
G1 Y-2 F1000
G1 X55 E25 F1400
G1 Z0.2 F1000
G1 X5 E4 F1000
G92 E0


M221 S95
G92 E0

; Don't change E values below. Excessive value can damage the printer.

M907 E538 ; set extruder motor current
G21 ; set units to millimeters
G90 ; use absolute coordinates
M83 ; use relative distances for extrusion
M900 K0.05 ; Filament gcode LA 1.5
M900 K30 ; Filament gcode LA 1.0
M107
;LAYER_CHANGE
;Z:0.2
;HEIGHT:0.2
G1 E-.8 F2100
G1 Z.6 F720
G1 X57.191 Y44.457 F10800
G1 Z.2 F720
G1 E.8 F2100
M204 S800
;TYPE:Skirt/Brim
;WIDTH:0.42
G1 F1200
G1 X59 Y43.623 E.06246
G1 X191 Y43.623 E4.13877
G1 X192.307 Y44.015 E.04278
G1 X193.25 Y45.235 E.04835
G1 X197.351 Y57.29 E.39925
G1 X197.478 Y58.056 E.02435
G1 X197.478 Y151.944 E2.94379
G1 X197.351 Y152.71 E.02435
G1 X193.25 Y164.765 E.39925
G1 X192.459 Y165.877 E.04279
M73 Q0 S305
G1 X191 Y166.377 E.04836
G1 X59 Y166.377 E4.13877
G1 X57.693 Y165.985 E.04278
G1 X56.676 Y164.501 E.05641
G1 X52.576 Y145.499 E.60951
G1 X52.522 Y144.998 E.0158
G1 X52.522 Y78.896 E2.07258
G1 X56.641 Y45.706 E1.04863
G1 X57.167 Y44.512 E.04091
M204 S1000
; printing object Case - CaseBottom.stl id:0 copy 0
;WIPE_START
G1 F8640
G1 X57.191 Y44.457 E-.01386
G1 X59 Y43.623 E-.45996
G1 X60.413 Y43.623 E-.32618
;WIPE_END
G1 Z.6 F720
G1 X195.101 Y151.944 F10800
M73 P0 R301
G1 Z.2 F720
G1 E.8 F2100
M204 S800
;TYPE:Support material
G1 F1200
G1 X191.57 Y151.944 E.11071
G1 X191.57 Y58.056 E2.94379
G1 X195.101 Y58.056 E.11071
G1 X195.101 Y151.888 E2.94204
M204 S1000
G1 X195.101 Y151.888 F10800
G1 X194.55 Y151.775
M204 S800
G1 F1200
G1 X194.55 Y58.395 E2.92786
G1 X194.131 Y58.395 E.01314
G1 X194.131 Y151.605 E2.92253
G1 X193.712 Y151.605 E.01314
G1 X193.712 Y58.395 E2.92253
G1 X193.293 Y58.395 E.01314
G1 X193.293 Y151.605 E2.92253
G1 X192.874 Y151.605 E.01314
G1 X192.874 Y58.395 E2.92253
G1 X192.455 Y58.395 E.01314
G1 X192.455 Y151.605 E2.92253
G1 X192.036 Y151.605 E.01314
G1 X192.036 Y58.225 E2.92786
M204 S1000
;WIPE_START
G1 F8640
G1 X192.036 Y61.69 E-.8
;WIPE_END
G1 Z.6 F720
G1 X58.43 Y144.998 F10800
G1 Z.2 F720
G1 E.8 F2100
M204 S800
G1 F1200
G1 X54.899 Y144.998 E.11071
G1 X54.899 Y78.896 E2.07258
G1 X58.43 Y78.896 E.11071
M73 Q0 S304
G1 X58.43 Y144.941 E2.07079
M204 S1000
G1 X57.964 Y144.828 F10800
M204 S800
G1 F1200
G1 X57.964 Y79.235 E2.05662
G1 X57.545 Y79.235 E.01314
G1 X57.545 Y144.658 E2.05129
G1 X57.126 Y144.658 E.01314
G1 X57.126 Y79.235 E2.05129
G1 X56.707 Y79.235 E.01314
M73 P0 R300
G1 X56.707 Y144.658 E2.05129
G1 X56.288 Y144.658 E.01314
G1 X56.288 Y79.235 E2.05129
G1 X55.869 Y79.235 E.01314
G1 X55.869 Y144.658 E2.05129
G1 X55.45 Y144.658 E.01314
G1 X55.45 Y79.066 E2.05659
M204 S1000
;WIPE_START
G1 F8640
G1 X55.45 Y82.531 E-.8
;WIPE_END
G1 Z.6 F720
G1 X59.787 Y46.787 F10800
G1 Z.2 F720
G1 E.8 F2100
M204 S800
;TYPE:Perimeter
;WIDTH:0.419999
G1 F1200
G1 X190.213 Y46.787 E4.08941
G1 X190.213 Y105 E1.82522
G1 X190.213 Y163.213 E1.82522
G1 X59.787 Y163.213 E4.08941
G1 X59.787 Y46.847 E3.64857
M204 S1000
G1 X59.41 Y46.41 F10800
M204 S800
;TYPE:External perimeter
G1 F1200
G1 X190.59 Y46.41 E4.11305
G1 X190.59 Y105 E1.83705
M73 Q0 S303
G1 X190.59 Y163.59 E1.83705
G1 X59.41 Y163.59 E4.11305
G1 X59.41 Y46.47 E3.67221
M204 S1000
;WIPE_START
G1 F8640
M73 P0 R299
G1 X59.41 Y46.41 E-.01385
G1 X62.815 Y46.41 E-.78615
;WIPE_END
G1 Z.6 F720
G1 X190.1 Y47.663 F10800
G1 Z.2 F720
G1 E.8 F2100
M204 S800
;TYPE:Solid infill
;WIDTH:0.420157
G1 F1200
G1 X189.507 Y47.07 E.02631
G1 X188.973 Y47.07 E.01675
G1 X189.93 Y48.027 E.04245
G1 X189.93 Y48.56 E.01672
G1 X188.44 Y47.07 E.0661
G1 X187.906 Y47.07 E.01675
G1 X189.93 Y49.094 E.08979
G1 X189.93 Y49.627 E.01672
G1 X187.373 Y47.07 E.11343
G1 X186.839 Y47.07 E.01675
G1 X189.93 Y50.161 E.13712
G1 X189.93 Y50.694 E.01672
G1 X186.306 Y47.07 E.16076
G1 X185.772 Y47.07 E.01675
G1 X189.93 Y51.228 E.18445
G1 X189.93 Y51.761 E.01672
G1 X185.239 Y47.07 E.20809
G1 X184.705 Y47.07 E.01675
G1 X189.93 Y52.295 E.23178
G1 X189.93 Y52.828 E.01672
G1 X184.172 Y47.07 E.25543
G1 X183.638 Y47.07 E.01675
G1 X189.93 Y53.362 E.27911
G1 X189.93 Y53.895 E.01672
G1 X183.105 Y47.07 E.30276
G1 X182.571 Y47.07 E.01675
G1 X189.93 Y54.429 E.32645
G1 X189.93 Y54.962 E.01672
G1 X182.038 Y47.07 E.35009
G1 X181.504 Y47.07 E.01675
G1 X189.93 Y55.496 E.37378
G1 X189.93 Y56.029 E.01672
M73 P1 R299
G1 X180.971 Y47.07 E.39742
G1 X180.437 Y47.07 E.01675
M73 Q1 S303
G1 X189.93 Y56.563 E.42111
G1 X189.93 Y57.096 E.01672
G1 X179.904 Y47.07 E.44476
G1 X179.371 Y47.07 E.01672
G1 X189.93 Y57.63 E.46842
G1 X189.93 Y58.163 E.01672
G1 X178.837 Y47.07 E.49209
G1 X178.304 Y47.07 E.01672
G1 X189.93 Y58.696 E.51573
G1 X189.93 Y59.23 E.01675
G1 X177.77 Y47.07 E.53942
G1 X177.237 Y47.07 E.01672
G1 X189.93 Y59.763 E.56306
G1 X189.93 Y60.297 E.01675
G1 X176.703 Y47.07 E.58675
G1 X176.17 Y47.07 E.01672
G1 X189.93 Y60.83 E.6104
G1 X189.93 Y61.364 E.01675
G1 X175.636 Y47.07 E.63408
G1 X175.103 Y47.07 E.01672
G1 X189.93 Y61.897 E.65773
G1 X189.93 Y62.431 E.01675
G1 X174.569 Y47.07 E.68142
G1 X174.036 Y47.07 E.01672
G1 X189.93 Y62.964 E.70506
G1 X189.93 Y63.498 E.01675
G1 X173.502 Y47.07 E.72875
G1 X172.969 Y47.07 E.01672
G1 X189.93 Y64.031 E.75239
G1 X189.93 Y64.565 E.01675
G1 X172.435 Y47.07 E.77608
G1 X171.902 Y47.07 E.01672
G1 X189.93 Y65.098 E.79973
G1 X189.93 Y65.632 E.01675
G1 X171.368 Y47.07 E.82341
G1 X170.835 Y47.07 E.01672
G1 X189.93 Y66.165 E.84706
G1 X189.93 Y66.699 E.01675
G1 X170.301 Y47.07 E.87075
G1 X169.768 Y47.07 E.01672
G1 X189.93 Y67.232 E.89439
G1 X189.93 Y67.766 E.01675
G1 X169.234 Y47.07 E.91808
G1 X168.701 Y47.07 E.01672
G1 X189.93 Y68.299 E.94172
G1 X189.93 Y68.833 E.01675
G1 X168.167 Y47.07 E.96541
G1 X167.634 Y47.07 E.01672
G1 X189.93 Y69.366 E.98905
G1 X189.93 Y69.9 E.01675
G1 X167.1 Y47.07 E1.01274
G1 X166.567 Y47.07 E.01672
G1 X189.93 Y70.433 E1.03639
G1 X189.93 Y70.967 E.01675
M73 Q1 S302
G1 X166.033 Y47.07 E1.06008
G1 X165.5 Y47.07 E.01672
G1 X189.93 Y71.5 E1.08372
G1 X189.93 Y72.034 E.01675
G1 X164.966 Y47.07 E1.10741
G1 X164.433 Y47.07 E.01672
G1 X189.93 Y72.567 E1.13105
G1 X189.93 Y73.101 E.01675
G1 X163.899 Y47.07 E1.15474
G1 X163.366 Y47.07 E.01672
G1 X189.93 Y73.634 E1.17838
G1 X189.93 Y74.168 E.01675
G1 X162.832 Y47.07 E1.20207
G1 X162.299 Y47.07 E.01672
G1 X189.93 Y74.701 E1.22572
G1 X189.93 Y75.235 E.01675
M73 P1 R298
G1 X161.765 Y47.07 E1.2494
G1 X161.232 Y47.07 E.01672
G1 X189.93 Y75.768 E1.27305
G1 X189.93 Y76.302 E.01675
G1 X160.698 Y47.07 E1.29674
G1 X160.165 Y47.07 E.01672
G1 X189.93 Y76.835 E1.32038
G1 X189.93 Y77.369 E.01675
G1 X159.631 Y47.07 E1.34407
G1 X159.098 Y47.07 E.01672
G1 X189.93 Y77.902 E1.36771
G1 X189.93 Y78.436 E.01675
G1 X158.564 Y47.07 E1.3914
G1 X158.031 Y47.07 E.01672
G1 X189.93 Y78.969 E1.41505
G1 X189.93 Y79.503 E.01675
G1 X157.497 Y47.07 E1.43873
G1 X156.964 Y47.07 E.01672
G1 X189.93 Y80.036 E1.46238
G1 X189.93 Y80.57 E.01675
G1 X156.43 Y47.07 E1.48607
G1 X155.897 Y47.07 E.01672
G1 X189.93 Y81.103 E1.50971
G1 X189.93 Y81.637 E.01675
G1 X155.363 Y47.07 E1.5334
G1 X154.83 Y47.07 E.01672
G1 X189.93 Y82.17 E1.55704
G1 X189.93 Y82.704 E.01675
G1 X154.296 Y47.07 E1.58073
G1 X153.763 Y47.07 E.01672
G1 X189.93 Y83.237 E1.60437
G1 X189.93 Y83.771 E.01675
G1 X153.229 Y47.07 E1.62806
G1 X152.696 Y47.07 E.01672
G1 X189.93 Y84.304 E1.65171
G1 X189.93 Y84.838 E.01675
G1 X152.162 Y47.07 E1.6754
G1 X151.629 Y47.07 E.01672
M73 Q1 S301
G1 X189.93 Y85.371 E1.69904
G1 X189.93 Y85.905 E.01675
G1 X151.095 Y47.07 E1.72273
G1 X150.562 Y47.07 E.01672
G1 X189.93 Y86.438 E1.74637
G1 X189.93 Y86.972 E.01675
G1 X150.028 Y47.07 E1.77006
G1 X149.495 Y47.07 E.01672
G1 X189.93 Y87.505 E1.7937
G1 X189.93 Y88.039 E.01675
G1 X148.961 Y47.07 E1.81739
G1 X148.428 Y47.07 E.01672
M73 P1 R297
G1 X189.93 Y88.572 E1.84104
G1 X189.93 Y89.106 E.01675
G1 X147.894 Y47.07 E1.86472
G1 X147.361 Y47.07 E.01672
G1 X189.93 Y89.639 E1.88837
G1 X189.93 Y90.173 E.01675
G1 X146.827 Y47.07 E1.91206
G1 X146.294 Y47.07 E.01672
G1 X189.93 Y90.706 E1.9357
G1 X189.93 Y91.24 E.01675
G1 X145.76 Y47.07 E1.95939
G1 X145.227 Y47.07 E.01672
G1 X189.93 Y91.773 E1.98303
G1 X189.93 Y92.307 E.01675
G1 X144.693 Y47.07 E2.00672
G1 X144.16 Y47.07 E.01672
G1 X189.93 Y92.84 E2.03037
G1 X189.93 Y93.374 E.01675
G1 X143.626 Y47.07 E2.05405
G1 X143.093 Y47.07 E.01672
G1 X189.93 Y93.907 E2.0777
G1 X189.93 Y94.441 E.01675
G1 X142.559 Y47.07 E2.10139
G1 X142.026 Y47.07 E.01672
G1 X189.93 Y94.974 E2.12503
G1 X189.93 Y95.508 E.01675
G1 X141.492 Y47.07 E2.14872
G1 X140.959 Y47.07 E.01672
M73 Q1 S300
G1 X189.93 Y96.041 E2.17236
G1 X189.93 Y96.575 E.01675
G1 X140.425 Y47.07 E2.19605
G1 X139.892 Y47.07 E.01672
G1 X189.93 Y97.108 E2.21969
G1 X189.93 Y97.642 E.01675
G1 X139.358 Y47.07 E2.24338
G1 X138.825 Y47.07 E.01672
M73 P1 R296
G1 X189.93 Y98.175 E2.26703
G1 X189.93 Y98.709 E.01675
G1 X138.291 Y47.07 E2.29072
G1 X137.758 Y47.07 E.01672
G1 X189.93 Y99.242 E2.31436
G1 X189.93 Y99.776 E.01675
G1 X137.225 Y47.07 E2.33803
G1 X136.691 Y47.07 E.01675
M73 P2 R296
G1 X189.93 Y100.309 E2.36169
G1 X189.93 Y100.842 E.01672
M73 Q2 S300
G1 X136.158 Y47.07 E2.38534
G1 X135.624 Y47.07 E.01675
G1 X189.93 Y101.376 E2.40902
G1 X189.93 Y101.909 E.01672
G1 X135.091 Y47.07 E2.43267
G1 X134.557 Y47.07 E.01675
G1 X189.93 Y102.443 E2.45636
G1 X189.93 Y102.976 E.01672
G1 X134.024 Y47.07 E2.48
G1 X133.49 Y47.07 E.01675
G1 X189.93 Y103.51 E2.50369
G1 X189.93 Y104.043 E.01672
G1 X132.957 Y47.07 E2.52733
G1 X132.423 Y47.07 E.01675
M73 Q2 S299
G1 X189.93 Y104.577 E2.55102
G1 X189.93 Y105.11 E.01672
G1 X131.89 Y47.07 E2.57466
G1 X131.356 Y47.07 E.01675
G1 X189.93 Y105.644 E2.59835
G1 X189.93 Y106.177 E.01672
M73 P2 R295
G1 X130.823 Y47.07 E2.622
G1 X130.289 Y47.07 E.01675
G1 X189.93 Y106.711 E2.64569
G1 X189.93 Y107.244 E.01672
G1 X129.756 Y47.07 E2.66933
G1 X129.222 Y47.07 E.01675
G1 X189.93 Y107.778 E2.69302
G1 X189.93 Y108.311 E.01672
G1 X128.689 Y47.07 E2.71666
G1 X128.155 Y47.07 E.01675
G1 X189.93 Y108.845 E2.74035
G1 X189.93 Y109.378 E.01672
G1 X127.622 Y47.07 E2.76399
G1 X127.088 Y47.07 E.01675
G1 X189.93 Y109.912 E2.78768
G1 X189.93 Y110.445 E.01672
G1 X126.555 Y47.07 E2.81133
G1 X126.021 Y47.07 E.01675
G1 X189.93 Y110.979 E2.83501
G1 X189.93 Y111.512 E.01672
G1 X125.488 Y47.07 E2.85866
G1 X124.954 Y47.07 E.01675
M73 Q2 S298
G1 X189.93 Y112.046 E2.88235
G1 X189.93 Y112.579 E.01672
G1 X124.421 Y47.07 E2.90599
G1 X123.887 Y47.07 E.01675
G1 X189.93 Y113.113 E2.92968
G1 X189.93 Y113.646 E.01672
M73 P2 R294
G1 X123.354 Y47.07 E2.95332
G1 X122.82 Y47.07 E.01675
G1 X189.93 Y114.18 E2.97701
G1 X189.93 Y114.713 E.01672
G1 X122.287 Y47.07 E3.00066
G1 X121.753 Y47.07 E.01675
G1 X189.93 Y115.247 E3.02434
G1 X189.93 Y115.78 E.01672
G1 X121.22 Y47.07 E3.04799
G1 X120.686 Y47.07 E.01675
G1 X189.93 Y116.314 E3.07168
G1 X189.93 Y116.847 E.01672
G1 X120.153 Y47.07 E3.09532
G1 X119.619 Y47.07 E.01675
G1 X189.93 Y117.381 E3.11901
G1 X189.93 Y117.914 E.01672
G1 X119.086 Y47.07 E3.14265
G1 X118.552 Y47.07 E.01675
M73 Q2 S297
G1 X189.93 Y118.448 E3.16634
G1 X189.93 Y118.981 E.01672
G1 X118.019 Y47.07 E3.18999
G1 X117.485 Y47.07 E.01675
G1 X189.93 Y119.515 E3.21367
G1 X189.93 Y120.048 E.01672
M73 P2 R293
G1 X116.952 Y47.07 E3.23732
G1 X116.418 Y47.07 E.01675
G1 X189.93 Y120.582 E3.26101
G1 X189.93 Y121.115 E.01672
G1 X115.885 Y47.07 E3.28465
G1 X115.351 Y47.07 E.01675
M73 P3 R293
G1 X189.93 Y121.649 E3.30834
G1 X189.93 Y122.182 E.01672
M73 Q3 S297
G1 X114.818 Y47.07 E3.33198
G1 X114.284 Y47.07 E.01675
G1 X189.93 Y122.716 E3.35567
G1 X189.93 Y123.249 E.01672
G1 X113.751 Y47.07 E3.37931
G1 X113.217 Y47.07 E.01675
G1 X189.93 Y123.783 E3.403
G1 X189.93 Y124.316 E.01672
G1 X112.684 Y47.07 E3.42665
G1 X112.15 Y47.07 E.01675
M73 Q3 S296
G1 X189.93 Y124.85 E3.45033
G1 X189.93 Y125.383 E.01672
G1 X111.617 Y47.07 E3.47398
G1 X111.083 Y47.07 E.01675
M73 P3 R292
G1 X189.93 Y125.917 E3.49767
G1 X189.93 Y126.45 E.01672
G1 X110.55 Y47.07 E3.52131
G1 X110.016 Y47.07 E.01675
G1 X189.93 Y126.984 E3.545
G1 X189.93 Y127.517 E.01672
G1 X109.483 Y47.07 E3.56864
G1 X108.949 Y47.07 E.01675
G1 X189.93 Y128.051 E3.59233
G1 X189.93 Y128.584 E.01672
G1 X108.416 Y47.07 E3.61598
G1 X107.882 Y47.07 E.01675
G1 X189.93 Y129.118 E3.63966
G1 X189.93 Y129.651 E.01672
G1 X107.349 Y47.07 E3.66331
G1 X106.815 Y47.07 E.01675
M73 Q3 S295
G1 X189.93 Y130.185 E3.687
G1 X189.93 Y130.718 E.01672
G1 X106.282 Y47.07 E3.71064
G1 X105.748 Y47.07 E.01675
G1 X189.93 Y131.252 E3.73433
G1 X189.93 Y131.785 E.01672
M73 P3 R291
G1 X105.215 Y47.07 E3.75797
G1 X104.681 Y47.07 E.01675
G1 X189.93 Y132.319 E3.78166
G1 X189.93 Y132.852 E.01672
G1 X104.148 Y47.07 E3.80531
G1 X103.614 Y47.07 E.01675
G1 X189.93 Y133.386 E3.82899
G1 X189.93 Y133.919 E.01672
G1 X103.081 Y47.07 E3.85264
G1 X102.547 Y47.07 E.01675
G1 X189.93 Y134.453 E3.87633
G1 X189.93 Y134.986 E.01672
G1 X102.014 Y47.07 E3.89997
G1 X101.48 Y47.07 E.01675
M73 Q3 S294
G1 X189.93 Y135.52 E3.92366
G1 X189.93 Y136.053 E.01672
G1 X100.947 Y47.07 E3.9473
G1 X100.413 Y47.07 E.01675
M73 P3 R290
G1 X189.93 Y136.587 E3.97099
G1 X189.93 Y137.12 E.01672
G1 X99.88 Y47.07 E3.99463
G1 X99.346 Y47.07 E.01675
G1 X189.93 Y137.654 E4.01832
G1 X189.93 Y138.187 E.01672
M73 P4 R290
G1 X98.813 Y47.07 E4.04197
G1 X98.279 Y47.07 E.01675
M73 Q4 S294
G1 X189.93 Y138.721 E4.06565
G1 X189.93 Y139.254 E.01672
G1 X97.746 Y47.07 E4.0893
G1 X97.212 Y47.07 E.01675
G1 X189.93 Y139.788 E4.11299
G1 X189.93 Y140.321 E.01672
M73 Q4 S293
G1 X96.679 Y47.07 E4.13663
G1 X96.145 Y47.07 E.01675
G1 X189.93 Y140.855 E4.16032
G1 X189.93 Y141.388 E.01672
M73 P4 R289
G1 X95.612 Y47.07 E4.18396
G1 X95.079 Y47.07 E.01672
G1 X189.93 Y141.922 E4.20763
G1 X189.93 Y142.455 E.01672
G1 X94.545 Y47.07 E4.2313
G1 X94.012 Y47.07 E.01672
G1 X189.93 Y142.988 E4.25494
G1 X189.93 Y143.522 E.01675
G1 X93.478 Y47.07 E4.27863
G1 X92.945 Y47.07 E.01672
G1 X189.93 Y144.055 E4.30227
G1 X189.93 Y144.589 E.01675
G1 X92.411 Y47.07 E4.32596
G1 X91.878 Y47.07 E.01672
M73 Q4 S292
G1 X189.93 Y145.122 E4.3496
G1 X189.93 Y145.656 E.01675
G1 X91.344 Y47.07 E4.37329
G1 X90.811 Y47.07 E.01672
M73 P4 R288
G1 X189.93 Y146.189 E4.39694
G1 X189.93 Y146.723 E.01675
G1 X90.277 Y47.07 E4.42063
G1 X89.744 Y47.07 E.01672
G1 X189.93 Y147.256 E4.44427
G1 X189.93 Y147.79 E.01675
G1 X89.21 Y47.07 E4.46796
G1 X88.677 Y47.07 E.01672
G1 X189.93 Y148.323 E4.4916
G1 X189.93 Y148.857 E.01675
G1 X88.143 Y47.07 E4.51529
G1 X87.61 Y47.07 E.01672
G1 X189.93 Y149.39 E4.53893
G1 X189.93 Y149.924 E.01675
M73 Q4 S291
G1 X87.076 Y47.07 E4.56262
G1 X86.543 Y47.07 E.01672
G1 X189.93 Y150.457 E4.58627
G1 X189.93 Y150.991 E.01675
M73 P4 R287
