; generated by PrusaSlicer 2.7.4 on 2024-04-28 at 14:07:03 UTC


;
;
; 

; external perimeters extrusion width = 0.45mm
; perimeters extrusion width = 0.45mm
; infill extrusion width = 0.45mm
; solid infill extrusion width = 0.45mm
; top infill extrusion width = 0.40mm
; support material extrusion width = 0.35mm
; first layer extrusion width = 0.42mm

; external perimeters extrusion width = 0.45mm
; perimeters extrusion width = 0.45mm
; infill extrusion width = 0.45mm
; solid infill extrusion width = 0.45mm
; top infill extrusion width = 0.40mm
; support material extrusion width = 0.35mm
; first layer extrusion width = 0.42mm

M73 P0 R72
M73 Q0 S72
M201 X1000 Y1000 Z200 E5000 ; sets maximum accelerations, mm/sec^2
M203 X200 Y200 Z12 E120 ; sets maximum feedrates, mm / sec
M204 S1250 T1250 ; sets acceleration (S) and retract acceleration (R), mm/sec^2
M205 X8.00 Y8.00 Z0.40 E4.50 ; sets the jerk limits, mm/sec
M205 S0 T0 ; sets the minimum extruding and travel feed rate, mm/sec

; printing object Aufnahme_zweifach.stl id:0 copy 0
; stop printing object Aufnahme_zweifach.stl id:0 copy 0
; printing object Aufnahme_einfach.stl id:1 copy 0
; stop printing object Aufnahme_einfach.stl id:1 copy 0

;TYPE:Custom
M862.3 P "MK3" ; printer model check
M862.1 P0.4 ; nozzle diameter check
M115 U3.13.3 ; tell printer latest fw version
G90 ; use absolute coordinates
M83 ; extruder relative mode
M104 S215 ; set extruder temp
M140 S60 ; set bed temp
M190 S60 ; wait for bed temp
M109 S215 ; wait for extruder temp
G28 W ; home all without mesh bed level
G80 X100.434 Y59.4344 W49.1313 H94.8384 ; mesh bed levelling

G1 Z0.2 F720
G1 Y-3 F1000 ; go outside print area
G92 E0
G1 X60 E9 F1000 ; intro line
G1 X100 E12.5 F1000 ; intro line
M73 P0 R71

G92 E0
M221 S95

; Don't change E values below. Excessive value can damage the printer.
M907 E430 ; set extruder motor current
G21 ; set units to millimeters
G90 ; use absolute coordinates
M83 ; use relative distances for extrusion

M900 K0.05 ; Filament gcode LA 1.5
M900 K30 ; Filament gcode LA 1.0




M107
;LAYER_CHANGE
;Z:0.2
;HEIGHT:0.2
G1 E-.8 F2100
G1 Z.6 F720
G1 X101.015 Y60.693 F10800
G1 Z.2 F720
G1 E.8 F2100
M204 S800
;TYPE:Skirt/Brim
;WIDTH:0.42
G1 F1200
G1 X102.06 Y59.817 E.04275
G1 X103 Y59.623 E.03009
G1 X138.445 Y59.623 E1.11135
G1 X147 Y59.623 E.26824
G1 X148.307 Y60.015 E.04278
G1 X149.183 Y61.06 E.04275
G1 X149.377 Y62 E.03009
G1 X149.377 Y148 E2.69647
G1 X148.871 Y149.467 E.04866
G1 X145.964 Y153.174 E.14771
G1 X144.849 Y153.961 E.04279
G1 X144.093 Y154.084 E.02402
G1 X105.907 Y154.084 E1.1973
G1 X104.6 Y153.693 E.04277
G1 X104.036 Y153.174 E.02403
G1 X101.129 Y149.467 E.14771
G1 X100.623 Y148 E.04866
G1 X100.623 Y62 E2.69647
G1 X100.997 Y60.75 E.04091
M204 S1000
;WIPE_START
G1 F8640
G1 X101.015 Y60.693 E-.0138
G1 X102.06 Y59.817 E-.31486
G1 X103 Y59.623 E-.22162
G1 X104.082 Y59.623 E-.24972
;WIPE_END
G1 Z.6 F720
; printing object Aufnahme_zweifach.stl id:0 copy 0
G1 X144.093 Y102.48 F10800
G1 Z.2 F720
G1 E.8 F2100
M204 S800
;TYPE:Support material
G1 F1200
G1 X144.093 Y105.707 E.10118
G1 X135.899 Y105.707 E.25692
G1 X135.899 Y102.48 E.10118
G1 X144.036 Y102.48 E.25513
M204 S1000
G1 X144.036 Y102.48 F10800
G1 X143.435 Y105.537
M204 S800
G1 F1200
G1 X143.435 Y102.819 E.08522
G1 X143.016 Y102.819 E.01314
G1 X143.016 Y105.368 E.07992
G1 X142.597 Y105.368 E.01314
G1 X142.597 Y102.819 E.07992
G1 X142.178 Y102.819 E.01314
G1 X142.178 Y105.368 E.07992
G1 X141.759 Y105.368 E.01314
G1 X141.759 Y102.819 E.07992
G1 X141.34 Y102.819 E.01314
G1 X141.34 Y105.368 E.07992
G1 X140.921 Y105.368 E.01314
G1 X140.921 Y102.819 E.07992
G1 X140.502 Y102.819 E.01314
G1 X140.502 Y105.368 E.07992
G1 X140.083 Y105.368 E.01314
G1 X140.083 Y102.819 E.07992
G1 X139.664 Y102.819 E.01314
G1 X139.664 Y105.368 E.07992
G1 X139.245 Y105.368 E.01314
G1 X139.245 Y102.819 E.07992
G1 X138.826 Y102.819 E.01314
G1 X138.826 Y105.368 E.07992
G1 X138.407 Y105.368 E.01314
G1 X138.407 Y102.819 E.07992
G1 X137.988 Y102.819 E.01314
G1 X137.988 Y105.368 E.07992
G1 X137.569 Y105.368 E.01314
G1 X137.569 Y102.819 E.07992
G1 X137.15 Y102.819 E.01314
G1 X137.15 Y105.368 E.07992
G1 X136.731 Y105.368 E.01314
G1 X136.731 Y102.819 E.07992
G1 X136.312 Y102.819 E.01314
G1 X136.312 Y105.537 E.08522
M204 S1000
;WIPE_START
G1 F8640
G1 X136.312 Y102.819 E-.62759
G1 X136.731 Y102.819 E-.09675
G1 X136.731 Y103.147 E-.07566
;WIPE_END
G1 Z.6 F720
G1 X114.101 Y102.48 F10800
G1 Z.2 F720
G1 E.8 F2100
M204 S800
G1 F1200
G1 X114.101 Y105.707 E.10118
G1 X105.907 Y105.707 E.25692
G1 X105.907 Y102.48 E.10118
G1 X114.044 Y102.48 E.25513
M204 S1000
G1 X114.044 Y102.48 F10800
G1 X113.688 Y105.537
M204 S800
G1 F1200
G1 X113.688 Y102.819 E.08522
G1 X113.269 Y102.819 E.01314
G1 X113.269 Y105.368 E.07992
G1 X112.85 Y105.368 E.01314
G1 X112.85 Y102.819 E.07992
G1 X112.431 Y102.819 E.01314
G1 X112.431 Y105.368 E.07992
G1 X112.012 Y105.368 E.01314
G1 X112.012 Y102.819 E.07992
G1 X111.593 Y102.819 E.01314
G1 X111.593 Y105.368 E.07992
G1 X111.174 Y105.368 E.01314
G1 X111.174 Y102.819 E.07992
G1 X110.755 Y102.819 E.01314
G1 X110.755 Y105.368 E.07992
G1 X110.336 Y105.368 E.01314
G1 X110.336 Y102.819 E.07992
G1 X109.917 Y102.819 E.01314
G1 X109.917 Y105.368 E.07992
G1 X109.498 Y105.368 E.01314
G1 X109.498 Y102.819 E.07992
G1 X109.079 Y102.819 E.01314
G1 X109.079 Y105.368 E.07992
G1 X108.66 Y105.368 E.01314
G1 X108.66 Y102.819 E.07992
G1 X108.241 Y102.819 E.01314
G1 X108.241 Y105.368 E.07992
G1 X107.822 Y105.368 E.01314
G1 X107.822 Y102.819 E.07992
G1 X107.403 Y102.819 E.01314
G1 X107.403 Y105.368 E.07992
G1 X106.984 Y105.368 E.01314
G1 X106.984 Y102.819 E.07992
G1 X106.565 Y102.819 E.01314
G1 X106.565 Y105.537 E.08522
M204 S1000
;WIPE_START
G1 F8640
G1 X106.565 Y102.819 E-.62759
G1 X106.984 Y102.819 E-.09675
G1 X106.984 Y103.147 E-.07566
;WIPE_END
G1 Z.6 F720
G1 X141.901 Y84.527 F10800
G1 Z.2 F720
G1 E.8 F2100
M204 S800
;TYPE:Perimeter
;WIDTH:0.419999
G1 F1200
G1 X141.815 Y84.597 E.00348
G1 X141.494 Y84.992 E.01596
G1 X141.247 Y85.449 E.01629
G1 X141.096 Y85.934 E.01593
G1 X141.037 Y86.447 E.01619
G1 X141.083 Y86.986 E.01696
G1 X141.214 Y87.461 E.01545
G1 X141.42 Y87.887 E.01484
G1 X141.762 Y88.343 E.01787
G1 X142.128 Y88.673 E.01545
G1 X142.541 Y88.921 E.0151
G1 X143.083 Y89.129 E.0182
G1 X143.647 Y89.209 E.01786
G1 X144.236 Y89.167 E.01851
G1 X144.711 Y89.036 E.01545
G1 X145.137 Y88.83 E.01484
G1 X145.593 Y88.488 E.01787
G1 X145.836 Y88.226 E.0112
G1 X145.836 Y100.836 E.39538
G1 X104.164 Y100.836 E1.30659
G1 X104.164 Y88.226 E.39538
G1 X104.275 Y88.359 E.00543
G1 X104.64 Y88.682 E.01528
G1 X105.121 Y88.964 E.01748
G1 X105.583 Y89.129 E.01538
G1 X106.147 Y89.209 E.01786
G1 X106.736 Y89.167 E.01851
G1 X107.211 Y89.036 E.01545
G1 X107.637 Y88.83 E.01484
G1 X108.093 Y88.488 E.01787
G1 X108.481 Y88.046 E.01844
G1 X108.745 Y87.567 E.01715
G1 X108.9 Y87.072 E.01626
G1 X108.961 Y86.582 E.01548
G1 X108.926 Y86.045 E.01687
G1 X108.783 Y85.529 E.01679
G1 X108.559 Y85.074 E.0159
G1 X108.238 Y84.657 E.0165
G1 X107.872 Y84.326 E.01547
G1 X107.381 Y84.037 E.01786
G1 X106.822 Y83.85 E.01848
G1 X106.317 Y83.789 E.01595
G1 X105.762 Y83.834 E.01746
G1 X105.288 Y83.964 E.01541
G1 X104.781 Y84.222 E.01784
G1 X104.391 Y84.525 E.01548
G1 X104.164 Y84.775 E.01059
G1 X104.164 Y63.223 E.67575
G1 X104.272 Y63.348 E.00518
G1 X104.677 Y63.703 E.01689
G1 X104.9 Y63.848 E.00834
G1 X105.574 Y64.121 E.0228
G1 X106.106 Y64.203 E.01688
G1 X106.832 Y64.146 E.02283
G1 X107.088 Y64.074 E.00834
G1 X107.581 Y63.857 E.01689
G1 X107.823 Y63.703 E.00899
G1 X108.384 Y63.164 E.02439
G1 X141.616 Y63.164 E1.04196
G1 X141.772 Y63.348 E.00756
G1 X142.177 Y63.703 E.01689
G1 X142.418 Y63.857 E.00897
G1 X142.912 Y64.074 E.01692
G1 X143.168 Y64.146 E.00834
G1 X143.894 Y64.203 E.02283
G1 X144.426 Y64.121 E.01688
G1 X144.681 Y64.044 E.00835
G1 X145.324 Y63.703 E.02282
G1 X145.836 Y63.223 E.022
G1 X145.836 Y84.774 E.67572
G1 X145.725 Y84.641 E.00543
G1 X145.292 Y84.271 E.01786
G1 X144.863 Y84.027 E.01547
G1 X144.322 Y83.85 E.01785
G1 X143.817 Y83.789 E.01595
G1 X143.262 Y83.834 E.01746
G1 X142.788 Y83.964 E.01541
G1 X142.281 Y84.222 E.01784
G1 X141.948 Y84.49 E.0134
M204 S1000
G1 X141.948 Y84.49 F10800
G1 X142.098 Y84.855
M204 S800
G1 F1200
G1 X141.865 Y85.12 E.01106
G1 X141.617 Y85.55 E.01556
G1 X141.481 Y85.947 E.01316
G1 X141.416 Y86.441 E.01562
G1 X141.458 Y86.945 E.01586
G1 X141.574 Y87.348 E.01315
G1 X141.754 Y87.713 E.01276
G1 X142.056 Y88.107 E.01557
G1 X142.37 Y88.385 E.01315
G1 X142.722 Y88.59 E.01277
G1 X143.197 Y88.769 E.01592
G1 X143.688 Y88.834 E.01553
G1 X144.195 Y88.792 E.01595
G1 X144.598 Y88.676 E.01315
G1 X144.963 Y88.496 E.01276
G1 X145.357 Y88.194 E.01557
G1 X145.635 Y87.88 E.01315
G1 X145.883 Y87.45 E.01556
;WIDTH:0.460594
G1 X145.945 Y87.317 E.0051
;WIDTH:0.501188
G1 X146.007 Y87.185 E.00556
;WIDTH:0.541782
G1 X146.069 Y87.052 E.00609
;WIDTH:0.582376
G1 X146.132 Y86.92 E.00656
G1 X146.152 Y87.034 E.00519
;WIDTH:0.541782
G1 X146.172 Y87.148 E.0048
;WIDTH:0.501188
G1 X146.193 Y87.262 E.00442
;WIDTH:0.460594
G1 X146.213 Y87.377 E.00405
;WIDTH:0.419999
G1 X146.213 Y101.213 E.43382
G1 X103.787 Y101.213 E1.33024
G1 X103.787 Y87.535 E.42886
M73 P1 R71
M73 Q1 S71
;WIDTH:0.464369
G1 X103.809 Y87.4 E.00479
;WIDTH:0.508738
G1 X103.831 Y87.266 E.00526
;WIDTH:0.553107
G1 X103.854 Y87.131 E.00581
;WIDTH:0.597476
G1 X103.876 Y86.996 E.00631
G1 X103.915 Y87.074 E.00402
;WIDTH:0.55866
G1 X104.044 Y87.312 E.01161
;WIDTH:0.51244
G1 X104.173 Y87.55 E.01057
;WIDTH:0.46622
G1 X104.303 Y87.788 E.00955
;WIDTH:0.419999
G1 X104.564 Y88.116 E.01314
G1 X104.881 Y88.392 E.01318
G1 X105.301 Y88.633 E.01518
G1 X105.697 Y88.769 E.01313
G1 X106.188 Y88.834 E.01553
G1 X106.695 Y88.792 E.01595
G1 X107.098 Y88.676 E.01315
G1 X107.406 Y88.526 E.01074
G1 X107.857 Y88.194 E.01756
G1 X108.135 Y87.88 E.01315
G1 X108.383 Y87.45 E.01556
G1 X108.538 Y86.966 E.01593
G1 X108.585 Y86.549 E.01316
G1 X108.558 Y86.146 E.01266
G1 X108.43 Y85.664 E.01564
G1 X108.246 Y85.287 E.01315
G1 X107.944 Y84.893 E.01557
G1 X107.63 Y84.615 E.01315
G1 X107.2 Y84.367 E.01556
G1 X106.716 Y84.212 E.01593
G1 X106.286 Y84.165 E.01356
G1 X105.804 Y84.208 E.01517
G1 X105.402 Y84.324 E.01312
G1 X104.962 Y84.553 E.01555
G1 X104.634 Y84.814 E.01314
G1 X104.358 Y85.131 E.01318
G1 X104.117 Y85.551 E.01518
;WIDTH:0.462283
G1 X104.055 Y85.678 E.00493
;WIDTH:0.504567
G1 X103.994 Y85.805 E.00541
;WIDTH:0.546851
G1 X103.933 Y85.932 E.0059
;WIDTH:0.589134
G1 X103.872 Y86.059 E.0064
G1 X103.851 Y85.947 E.00518
;WIDTH:0.546851
G1 X103.829 Y85.835 E.00478
;WIDTH:0.504567
G1 X103.808 Y85.722 E.00441
;WIDTH:0.462283
G1 X103.787 Y85.61 E.00397
;WIDTH:0.419999
G1 X103.787 Y62.787 E.7156
G1 X104.319 Y62.787 E.01668
G1 X104.52 Y63.064 E.01073
G1 X105.059 Y63.507 E.02188
G1 X105.631 Y63.749 E.01947
G1 X106.324 Y63.832 E.02188
G1 X106.936 Y63.729 E.01946
G1 X107.575 Y63.419 E.02227
G1 X107.98 Y63.064 E.01689
G1 X108.181 Y62.787 E.01073
G1 X141.819 Y62.787 E1.05469
G1 X142.02 Y63.064 E.01073
G1 X142.57 Y63.512 E.02224
G1 X143.217 Y63.772 E.02186
G1 X143.836 Y63.831 E.0195
G1 X144.522 Y63.702 E.02189
G1 X145.075 Y63.419 E.01948
G1 X145.48 Y63.064 E.01689
G1 X145.681 Y62.787 E.01073
G1 X146.213 Y62.787 E.01668
G1 X146.213 Y63.129 E.01072
G1 X146.213 Y85.623 E.70528
;WIDTH:0.458774
G1 X146.194 Y85.752 E.00451
;WIDTH:0.497548
G1 X146.174 Y85.88 E.0049
;WIDTH:0.536322
G1 X146.155 Y86.008 E.00531
;WIDTH:0.575096
G1 X146.135 Y86.136 E.00573
G1 X146.084 Y86.018 E.00569
;WIDTH:0.536322
G1 X146.033 Y85.9 E.00527
;WIDTH:0.497548
G1 X145.981 Y85.782 E.00487
;WIDTH:0.458774
G1 X145.93 Y85.664 E.00445
;WIDTH:0.419999
G1 X145.697 Y85.212 E.01594
G1 X145.436 Y84.884 E.01314
G1 X145.056 Y84.565 E.01556
G1 X144.689 Y84.361 E.01317
G1 X144.216 Y84.212 E.01555
G1 X143.786 Y84.165 E.01356
G1 X143.304 Y84.208 E.01517
G1 X142.902 Y84.324 E.01312
G1 X142.462 Y84.553 E.01555
G1 X142.138 Y84.81 E.01297
M204 S1000
;WIPE_START
G1 F8640
G1 X142.098 Y84.855 E-.0139
G1 X141.865 Y85.12 E-.08148
G1 X141.617 Y85.55 E-.11462
G1 X141.481 Y85.947 E-.0969
G1 X141.416 Y86.441 E-.11505
G1 X141.458 Y86.945 E-.11678
G1 X141.574 Y87.348 E-.09683
G1 X141.754 Y87.713 E-.09397
G1 X141.94 Y87.955 E-.07047
;WIPE_END
G1 Z.6 F720
G1 X107.971 Y62.41 F10800
G1 Z.2 F720
G1 E.8 F2100
M204 S800
;TYPE:External perimeter
G1 F1200
G1 X142.029 Y62.41 E1.06786
G1 X142.269 Y62.781 E.01385
G1 X142.722 Y63.167 E.01866
G1 X143.267 Y63.398 E.01856
G1 X143.779 Y63.458 E.01616
G1 X144.362 Y63.36 E.01854
G1 X144.826 Y63.136 E.01615
G1 X145.231 Y62.78 E.01691
G1 X145.471 Y62.41 E.01383
G1 X146.59 Y62.41 E.03509
G1 X146.59 Y63.129 E.02254
G1 X146.59 Y101.59 E1.20592
G1 X103.41 Y101.59 E1.35388
G1 X103.41 Y62.41 E1.22846
G1 X104.529 Y62.41 E.03509
G1 X104.769 Y62.781 E.01385
G1 X105.218 Y63.165 E.01852
G1 X105.689 Y63.376 E.01618
G1 X106.274 Y63.458 E.01852
G1 X106.784 Y63.384 E.01616
G1 X107.326 Y63.136 E.01869
G1 X107.731 Y62.78 E.01691
G1 X107.939 Y62.46 E.01197
M204 S1000
;WIPE_START
G1 F8640
G1 X107.971 Y62.41 E-.01371
G1 X111.376 Y62.41 E-.78629
;WIPE_END
G1 Z.6 F720
G1 X142.376 Y85.103 F10800
G1 Z.2 F720
G1 E.8 F2100
M204 S800
G1 F1200
G1 X142.643 Y84.883 E.01085
G1 X143.015 Y84.684 E.01323
G1 X143.346 Y84.583 E.01085
G1 X143.754 Y84.541 E.01286
G1 X144.111 Y84.574 E.01124
G1 X144.515 Y84.696 E.01323
G1 X144.82 Y84.859 E.01084
G1 X145.147 Y85.126 E.01324
G1 X145.367 Y85.393 E.01085
G1 X145.568 Y85.769 E.01337
G1 X145.682 Y86.176 E.01325
G1 X145.709 Y86.516 E.01069
G1 X145.676 Y86.861 E.01087
G1 X145.552 Y87.269 E.01337
G1 X145.346 Y87.637 E.01322
G1 X145.121 Y87.9 E.01085
G1 X144.789 Y88.161 E.01324
G1 X144.485 Y88.317 E.01071
G1 X144.154 Y88.417 E.01084
G1 X143.729 Y88.459 E.01339
G1 X143.31 Y88.409 E.01323
G1 X142.903 Y88.259 E.0136
G1 X142.613 Y88.096 E.01043
G1 X142.35 Y87.871 E.01085
G1 X142.098 Y87.555 E.01267
G1 X141.933 Y87.235 E.01129
G1 X141.833 Y86.904 E.01084
G1 X141.791 Y86.479 E.01339
G1 X141.841 Y86.06 E.01323
G1 X141.948 Y85.731 E.01085
G1 X142.154 Y85.363 E.01322
G1 X142.337 Y85.148 E.00885
M204 S1000
;WIPE_START
G1 F8640
G1 X142.376 Y85.103 E-.01375
G1 X142.643 Y84.883 E-.07988
G1 X143.015 Y84.684 E-.09741
G1 X143.346 Y84.583 E-.07991
G1 X143.754 Y84.541 E-.09471
G1 X144.111 Y84.574 E-.08278
G1 X144.515 Y84.696 E-.09745
G1 X144.82 Y84.859 E-.07985
G1 X145.147 Y85.126 E-.09748
G1 X145.358 Y85.383 E-.07678
;WIPE_END
G1 Z.6 F720
G1 X146.135 Y86.136 F10800
G1 Z.2 F720
G1 E.8 F2100
M204 S800
;TYPE:Perimeter
;WIDTH:0.575098
G1 F1200
G1 X146.135 Y86.864 E.03221
;WIDTH:0.582376
G1 X146.132 Y86.92 E.00252
M204 S1000
;WIPE_START
G1 F8640
G1 X146.135 Y86.864 E-.01295
G1 X146.135 Y86.136 E-.1681
;WIPE_END
G1 E-.61895 F2100
G1 Z.6 F720
G1 X105.439 Y84.721 F10800
G1 Z.2 F720
G1 E.8 F2100
M204 S800
;TYPE:External perimeter
;WIDTH:0.419999
G1 F1200
G1 X105.481 Y84.698 E.0015
G1 X105.846 Y84.583 E.012
G1 X106.254 Y84.541 E.01286
G1 X106.611 Y84.574 E.01124
G1 X107.019 Y84.698 E.01337
G1 X107.387 Y84.904 E.01322
G1 X107.65 Y85.129 E.01085
G1 X107.911 Y85.461 E.01324
G1 X108.068 Y85.769 E.01084
G1 X108.183 Y86.179 E.01335
G1 X108.209 Y86.516 E.0106
G1 X108.176 Y86.861 E.01087
G1 X108.052 Y87.269 E.01337
G1 X107.846 Y87.637 E.01322
G1 X107.621 Y87.9 E.01085
G1 X107.232 Y88.191 E.01523
G1 X106.985 Y88.317 E.00869
G1 X106.654 Y88.417 E.01084
G1 X106.229 Y88.459 E.01339
G1 X105.81 Y88.409 E.01323
G1 X105.482 Y88.302 E.01082
G1 X105.123 Y88.102 E.01289
G1 X104.853 Y87.874 E.01108
G1 X104.633 Y87.607 E.01085
G1 X104.434 Y87.235 E.01323
G1 X104.333 Y86.904 E.01085
G1 X104.291 Y86.48 E.01336
G1 X104.338 Y86.072 E.01288
G1 X104.448 Y85.732 E.0112
G1 X104.648 Y85.373 E.01289
G1 X104.876 Y85.103 E.01108
G1 X105.143 Y84.883 E.01085
G1 X105.386 Y84.75 E.00869
M204 S1000
;WIPE_START
G1 F8640
G1 X105.439 Y84.721 E-.01395
G1 X105.481 Y84.698 E-.01106
G1 X105.846 Y84.583 E-.08836
G1 X106.254 Y84.541 E-.09471
G1 X106.611 Y84.574 E-.08278
G1 X107.019 Y84.698 E-.09846
G1 X107.387 Y84.904 E-.09738
G1 X107.65 Y85.129 E-.07992
G1 X107.911 Y85.461 E-.09751
G1 X108.068 Y85.769 E-.07982
G1 X108.133 Y86.003 E-.05605
;WIPE_END
G1 Z.6 F720
