; generated by PrusaSlicer 2.7.4 on 2024-05-09 at 10:49:23 UTC


;
;
; 

; external perimeters extrusion width = 0.45mm
; perimeters extrusion width = 0.45mm
; infill extrusion width = 0.45mm
; solid infill extrusion width = 0.45mm
; top infill extrusion width = 0.40mm
; first layer extrusion width = 0.42mm

M73 P0 R30
M73 Q0 S30
M201 X1000 Y1000 Z200 E5000 ; sets maximum accelerations, mm/sec^2
M203 X200 Y200 Z12 E120 ; sets maximum feedrates, mm / sec
M204 S1250 T1250 ; sets acceleration (S) and retract acceleration (R), mm/sec^2
M205 X8.00 Y8.00 Z0.40 E4.50 ; sets the jerk limits, mm/sec
M205 S0 T0 ; sets the minimum extruding and travel feed rate, mm/sec

; printing object Teammarker_forearm.stl id:0 copy 0
; stop printing object Teammarker_forearm.stl id:0 copy 0

;TYPE:Custom
M862.3 P "MK3S" ; printer model check
M862.1 P0.4 ; nozzle diameter check
M115 U3.13.3 ; tell printer latest fw version
G90 ; use absolute coordinates
M83 ; extruder relative mode
M104 S225 ; set extruder temp
M140 S50 ; set bed temp
M190 S50 ; wait for bed temp
M109 S225 ; wait for extruder temp
G28 W ; home all without mesh bed level
G80 X102.684 Y82.4344 W44.6312 H45.1312 ; mesh bed levelling

G1 Z0.2 F720
G1 Y-3 F1000 ; go outside print area
G92 E0
G1 X60 E9 F1000 ; intro line
G1 X100 E12.5 F1000 ; intro line

G92 E0
M221 S95

; Don't change E values below. Excessive value can damage the printer.
M907 E430 ; set extruder motor current
G21 ; set units to millimeters
G90 ; use absolute coordinates
M83 ; use relative distances for extrusion
M900 K0 ; Filament gcode
M107
;LAYER_CHANGE
;Z:0.2
;HEIGHT:0.2
G1 E-1 F2100
G1 Z.2 F720
G1 X103.265 Y83.693 F10800
G1 Z.2 F720
G1 E1 F1200
M204 S800
;TYPE:Skirt/Brim
;WIDTH:0.42
G1 X104.31 Y82.817 E.04703
G1 X105.25 Y82.623 E.0331
G1 X144.75 Y82.623 E1.36234
G1 X146.057 Y83.015 E.04706
G1 X146.933 Y84.06 E.04703
G1 X147.127 Y85 E.0331
G1 X147.127 Y123 E1.31061
G1 X147.051 Y123.811 E.02809
G1 X146.815 Y124.622 E.02913
G1 X146.413 Y125.395 E.03005
G1 X145.881 Y126.058 E.02932
G1 X145.218 Y126.615 E.02987
G1 X144.473 Y127.023 E.0293
G1 X143.647 Y127.284 E.02988
G1 X142.75 Y127.377 E.0311
G1 X107.111 Y127.375 E1.22918
G1 X106.262 Y127.264 E.02953
G1 X105.527 Y127.023 E.02668
G1 X104.855 Y126.663 E.02629
G1 X104.196 Y126.135 E.02912
G1 X103.635 Y125.468 E.03006
G1 X103.226 Y124.723 E.02931
G1 X102.968 Y123.908 E.02948
G1 X102.874 Y123.076 E.02888
G1 X102.873 Y85 E1.31323
G1 X103.247 Y83.75 E.045
M204 S1000
G1 E-1 F2100
G1 X103.247 Y83.75 F10800
; printing object Teammarker_forearm.stl id:0 copy 0
G1 X106.414 Y86.164
G1 E1 F1200
M204 S800
;TYPE:Perimeter
;WIDTH:0.419999
G1 X143.586 Y86.164 E1.28205
G1 X143.586 Y104.749 E.64099
G1 X143.574 Y115.788 E.38073
M73 P1 R30
M73 Q1 S30
G1 X143.437 Y116.285 E.01778
G1 X143.007 Y117.194 E.03468
G1 X142.81 Y117.697 E.01863
G1 X142.641 Y118.368 E.02387
G1 X142.588 Y119.003 E.02198
G1 X142.643 Y119.646 E.02226
G1 X142.802 Y120.282 E.02261
G1 X143.018 Y120.831 E.02035
G1 X143.503 Y121.927 E.04134
G1 X143.579 Y122.381 E.01588
G1 X143.585 Y122.891 E.01759
G1 X143.523 Y123.292 E.01399
G1 X143.361 Y123.547 E.01042
G1 X143.039 Y123.778 E.01367
G1 X142.695 Y123.836 E.01203
G1 X107.4 Y123.836 E1.21731
G1 X106.91 Y123.756 E.01712
G1 X106.621 Y123.54 E.01244
G1 X106.466 Y123.257 E.01113
G1 X106.416 Y122.841 E.01445
G1 X106.444 Y122.131 E.02451
G1 X106.6 Y121.638 E.01783
G1 X107.009 Y120.769 E.03313
G1 X107.236 Y120.157 E.02251
G1 X107.38 Y119.49 E.02353
G1 X107.409 Y118.846 E.02223
G1 X107.336 Y118.237 E.02115
G1 X107.207 Y117.747 E.01748
G1 X106.997 Y117.201 E.02018
G1 X106.525 Y116.187 E.03858
G1 X106.416 Y115.639 E.01927
G1 X106.414 Y86.224 E1.01451
M204 S1000
G1 X106.414 Y86.224 F10800
G1 X106.037 Y85.787
M204 S800
G1 F1200
G1 X143.963 Y85.787 E1.30806
G1 X143.963 Y104.749 E.65399
G1 X143.959 Y115.65 E.37597
G1 X143.884 Y116.155 E.01761
G1 X143.731 Y116.546 E.01448
G1 X143.174 Y117.796 E.0472
G1 X143.016 Y118.407 E.02177
G1 X142.965 Y118.979 E.01981
G1 X143.01 Y119.559 E.02006
G1 X143.154 Y120.146 E.02085
G1 X143.359 Y120.67 E.01941
G1 X143.731 Y121.456 E.02999
G1 X143.92 Y121.996 E.01973
G1 X143.954 Y122.344 E.01206
G1 X143.962 Y122.892 E.0189
G1 X143.882 Y123.419 E.01838
G1 X143.739 Y123.693 E.01066
G1 X143.531 Y123.921 E.01064
G1 X143.196 Y124.124 E.01351
G1 X142.716 Y124.213 E.01684
G1 X107.4 Y124.213 E1.21804
G1 X107.066 Y124.178 E.01158
G1 X106.691 Y124.074 E.01342
G1 X106.328 Y123.781 E.01609
G1 X106.109 Y123.378 E.01582
G1 X106.037 Y122.969 E.01432
G1 X106.044 Y122.367 E.02076
G1 X106.095 Y121.923 E.01541
G1 X106.259 Y121.477 E.01639
G1 X106.657 Y120.633 E.03218
G1 X106.869 Y120.071 E.02072
G1 X106.99 Y119.559 E.01815
G1 X107.035 Y118.979 E.02006
G1 X106.984 Y118.407 E.01981
G1 X106.855 Y117.881 E.01868
G1 X106.655 Y117.36 E.01925
G1 X106.128 Y116.17 E.04489
G1 X106.039 Y115.661 E.01782
G1 X106.037 Y85.847 E1.02828
M204 S1000
G1 X106.037 Y85.847 F10800
G1 X105.66 Y85.41
M204 S800
;TYPE:External perimeter
G1 F1200
G1 X144.34 Y85.41 E1.33406
G1 X144.34 Y104.749 E.667
G1 X144.334 Y115.695 E.37752
G1 X144.248 Y116.256 E.01957
G1 X144.071 Y116.708 E.01674
G1 X143.538 Y117.895 E.04488
G1 X143.391 Y118.445 E.01964
G1 X143.341 Y118.955 E.01767
G1 X143.377 Y119.473 E.01791
G1 X143.505 Y120.009 E.01901
G1 X143.7 Y120.509 E.01851
G1 X144.14 Y121.438 E.03545
G1 X144.291 Y121.92 E.01742
G1 X144.33 Y122.307 E.01342
G1 X144.339 Y122.893 E.02021
G1 X144.242 Y123.545 E.02273
G1 X144.051 Y123.911 E.01424
G1 X143.772 Y124.215 E.01423
G1 X143.589 Y124.326 E.00738
G1 X143.212 Y124.514 E.01453
G1 X142.736 Y124.59 E.01663
G1 X107.4 Y124.59 E1.21873
G1 X106.922 Y124.537 E.01659
M73 Q2 S30
G1 X106.516 Y124.41 E.01467
G1 X106.184 Y124.166 E.01421
G1 X105.937 Y123.87 E.0133
M73 P2 R30
G1 X105.752 Y123.499 E.0143
G1 X105.66 Y122.988 E.01791
G1 X105.667 Y122.363 E.02156
G1 X105.728 Y121.832 E.01843
G1 X105.918 Y121.316 E.01896
G1 X106.306 Y120.496 E.03129
G1 X106.502 Y119.984 E.01891
G1 X106.623 Y119.473 E.01811
G1 X106.659 Y118.955 E.01791
G1 X106.609 Y118.446 E.01764
G1 X106.503 Y118.016 E.01527
G1 X106.313 Y117.519 E.01835
G1 X105.766 Y116.276 E.04684
G1 X105.662 Y115.683 E.02076
G1 X105.66 Y85.47 E1.04204
M204 S1000
G1 X106.056 Y85.411 F10800
G1 E-1 F2100
G1 X142.651 Y86.334 F10800
G1 E1 F1200
M204 S800
;TYPE:Solid infill
;WIDTH:0.421197
G1 X143.246 Y86.929 E.02911
G1 X143.246 Y87.464 E.01851
G1 X142.286 Y86.504 E.04697
G1 X141.751 Y86.504 E.01851
G1 X143.246 Y87.999 E.07315
G1 X143.246 Y88.534 E.01851
G1 X141.216 Y86.504 E.09933
G1 X140.681 Y86.504 E.01851
G1 X143.246 Y89.069 E.12551
G1 X143.246 Y89.604 E.01851
G1 X140.146 Y86.504 E.15169
G1 X139.611 Y86.504 E.01851
G1 X143.246 Y90.139 E.17786
G1 X143.246 Y90.674 E.01851
G1 X139.076 Y86.504 E.20404
G1 X138.541 Y86.504 E.01851
G1 X143.246 Y91.209 E.23022
G1 X143.246 Y91.744 E.01851
G1 X138.006 Y86.504 E.2564
G1 X137.471 Y86.504 E.01851
M73 P2 R29
G1 X143.246 Y92.279 E.28257
G1 X143.246 Y92.814 E.01851
G1 X136.936 Y86.504 E.30875
G1 X136.401 Y86.504 E.01851
M73 Q2 S29
G1 X143.246 Y93.349 E.33493
G1 X143.246 Y93.884 E.01851
G1 X135.866 Y86.504 E.36111
G1 X135.332 Y86.504 E.01848
G1 X143.246 Y94.418 E.38724
G1 X143.246 Y94.953 E.01851
G1 X134.797 Y86.504 E.41342
G1 X134.262 Y86.504 E.01851
G1 X143.246 Y95.488 E.43959
G1 X143.246 Y96.023 E.01851
G1 X133.727 Y86.504 E.46577
G1 X133.192 Y86.504 E.01851
G1 X143.246 Y96.558 E.49195
G1 X143.246 Y97.093 E.01851
G1 X132.657 Y86.504 E.51813
G1 X132.122 Y86.504 E.01851
G1 X143.246 Y97.628 E.54431
G1 X143.246 Y98.163 E.01851
G1 X131.587 Y86.504 E.57048
G1 X131.052 Y86.504 E.01851
G1 X143.246 Y98.698 E.59666
G1 X143.246 Y99.233 E.01851
G1 X130.517 Y86.504 E.62284
G1 X129.982 Y86.504 E.01851
G1 X143.246 Y99.768 E.64902
G1 X143.246 Y100.303 E.01851
G1 X129.447 Y86.504 E.6752
G1 X128.912 Y86.504 E.01851
G1 X143.246 Y100.838 E.70137
G1 X143.246 Y101.373 E.01851
G1 X128.377 Y86.504 E.72755
G1 X127.842 Y86.504 E.01851
M73 P3 R29
M73 Q3 S29
G1 X143.246 Y101.908 E.75373
G1 X143.246 Y102.443 E.01851
G1 X127.307 Y86.504 E.77991
G1 X126.772 Y86.504 E.01851
G1 X143.246 Y102.978 E.80608
G1 X143.246 Y103.513 E.01851
G1 X126.237 Y86.504 E.83226
G1 X125.702 Y86.504 E.01851
G1 X143.246 Y104.048 E.85844
G1 X143.246 Y104.583 E.01851
G1 X125.167 Y86.504 E.88462
G1 X124.632 Y86.504 E.01851
G1 X143.246 Y105.118 E.9108
G1 X143.246 Y105.653 E.01851
G1 X124.097 Y86.504 E.93697
G1 X123.562 Y86.504 E.01851
G1 X143.246 Y106.188 E.96315
G1 X143.246 Y106.723 E.01851
G1 X123.027 Y86.504 E.98933
G1 X122.492 Y86.504 E.01851
G1 X143.246 Y107.258 E1.01551
G1 X143.246 Y107.793 E.01851
G1 X121.957 Y86.504 E1.04169
G1 X121.422 Y86.504 E.01851
G1 X143.246 Y108.328 E1.06786
G1 X143.246 Y108.863 E.01851
G1 X120.887 Y86.504 E1.09404
G1 X120.353 Y86.504 E.01848
M73 P4 R29
M73 Q4 S29
G1 X143.246 Y109.397 E1.12017
G1 X143.246 Y109.932 E.01851
G1 X119.818 Y86.504 E1.14635
G1 X119.283 Y86.504 E.01851
G1 X143.246 Y110.467 E1.17253
G1 X143.246 Y111.002 E.01851
G1 X118.748 Y86.504 E1.1987
G1 X118.213 Y86.504 E.01851
G1 X143.246 Y111.537 E1.22488
G1 X143.246 Y112.072 E.01851
G1 X117.678 Y86.504 E1.25106
G1 X117.143 Y86.504 E.01851
G1 X143.246 Y112.607 E1.27724
G1 X143.246 Y113.142 E.01851
G1 X116.608 Y86.504 E1.30342
G1 X116.073 Y86.504 E.01851
G1 X143.246 Y113.677 E1.32959
G1 X143.246 Y114.212 E.01851
G1 X115.538 Y86.504 E1.35577
G1 X115.003 Y86.504 E.01851
M73 P5 R29
M73 Q5 S29
G1 X143.246 Y114.747 E1.38195
G1 X143.246 Y115.282 E.01851
G1 X114.468 Y86.504 E1.40813
G1 X113.933 Y86.504 E.01851
G1 X143.226 Y115.796 E1.4333
G1 X143.192 Y115.962 E.00586
G1 X143.1 Y116.205 E.00899
G1 X113.398 Y86.504 E1.45332
G1 X112.863 Y86.504 E.01851
M73 P5 R28
G1 X142.928 Y116.568 E1.47108
G1 X142.756 Y116.931 E.0139
M73 Q5 S28
G1 X112.328 Y86.504 E1.48884
G1 X111.793 Y86.504 E.01851
G1 X142.598 Y117.309 E1.50731
G1 X142.457 Y117.703 E.01448
G1 X111.258 Y86.504 E1.52659
G1 X110.723 Y86.504 E.01851
M73 Q6 S28
G1 X142.345 Y118.125 E1.54726
G1 X142.278 Y118.593 E.01636
M73 P6 R28
G1 X110.188 Y86.504 E1.57016
G1 X109.653 Y86.504 E.01851
G1 X142.265 Y119.115 E1.5957
G1 X142.282 Y119.522 E.01409
G1 X142.321 Y119.706 E.00651
G1 X109.118 Y86.504 E1.62462
G1 X108.583 Y86.504 E.01851
G1 X142.501 Y120.421 E1.65961
G1 X142.676 Y120.896 E.01751
G1 X142.885 Y121.34 E.01698
G1 X108.048 Y86.504 E1.70458
G1 X107.513 Y86.504 E.01851
G1 X143.221 Y122.212 E1.74722
G1 X143.246 Y122.464 E.00876
G1 X143.246 Y122.771 E.01062
G1 X106.978 Y86.504 E1.7746
G1 X106.754 Y86.504 E.00775
M73 P7 R28
M73 Q7 S28
G1 X106.754 Y86.814 E.01073
G1 X143.172 Y123.232 E1.78196
G1 X143.074 Y123.358 E.00552
G1 X142.873 Y123.468 E.00793
G1 X106.754 Y87.349 E1.76733
G1 X106.754 Y87.884 E.01851
G1 X142.366 Y123.496 E1.74252
G1 X141.831 Y123.496 E.01851
G1 X106.754 Y88.419 E1.71634
G1 X106.754 Y88.954 E.01851
G1 X141.297 Y123.496 E1.69019
G1 X140.762 Y123.496 E.01851
G1 X106.754 Y89.489 E1.66401
G1 X106.754 Y90.024 E.01851
G1 X140.227 Y123.496 E1.63783
G1 X139.692 Y123.496 E.01851
M73 P8 R28
M73 Q8 S28
G1 X106.754 Y90.559 E1.61166
G1 X106.754 Y91.094 E.01851
G1 X139.157 Y123.496 E1.58548
G1 X138.622 Y123.496 E.01851
G1 X106.754 Y91.629 E1.5593
G1 X106.754 Y92.164 E.01851
G1 X138.087 Y123.496 E1.53312
G1 X137.552 Y123.496 E.01851
G1 X106.754 Y92.699 E1.50694
G1 X106.754 Y93.234 E.01851
G1 X137.017 Y123.496 E1.48077
G1 X136.482 Y123.496 E.01851
G1 X106.754 Y93.769 E1.45459
G1 X106.754 Y94.304 E.01851
M73 P8 R27
M73 Q8 S27
G1 X135.947 Y123.496 E1.42841
G1 X135.412 Y123.496 E.01851
G1 X106.754 Y94.839 E1.40223
G1 X106.754 Y95.374 E.01851
M73 P9 R27
M73 Q9 S27
G1 X134.877 Y123.496 E1.37605
G1 X134.342 Y123.496 E.01851
G1 X106.754 Y95.909 E1.34988
G1 X106.754 Y96.444 E.01851
G1 X133.807 Y123.496 E1.3237
G1 X133.272 Y123.496 E.01851
G1 X106.754 Y96.979 E1.29752
G1 X106.754 Y97.514 E.01851
G1 X132.737 Y123.496 E1.27134
G1 X132.202 Y123.496 E.01851
G1 X106.754 Y98.049 E1.24516
G1 X106.754 Y98.584 E.01851
G1 X131.667 Y123.496 E1.21899
G1 X131.132 Y123.496 E.01851
G1 X106.754 Y99.119 E1.19281
G1 X106.754 Y99.654 E.01851
G1 X130.597 Y123.496 E1.16663
G1 X130.062 Y123.496 E.01851
M73 P10 R27
M73 Q10 S27
G1 X106.754 Y100.189 E1.14045
G1 X106.754 Y100.723 E.01848
G1 X129.527 Y123.496 E1.1143
G1 X128.992 Y123.496 E.01851
G1 X106.754 Y101.258 E1.08812
G1 X106.754 Y101.793 E.01851
G1 X128.457 Y123.496 E1.06194
G1 X127.922 Y123.496 E.01851
G1 X106.754 Y102.328 E1.03577
G1 X106.754 Y102.863 E.01851
G1 X127.387 Y123.496 E1.00959
G1 X126.852 Y123.496 E.01851
G1 X106.754 Y103.398 E.98341
G1 X106.755 Y103.933 E.01851
G1 X126.318 Y123.496 E.95723
G1 X125.783 Y123.496 E.01851
G1 X106.755 Y104.468 E.93105
G1 X106.755 Y105.003 E.01851
G1 X125.248 Y123.496 E.90488
G1 X124.713 Y123.496 E.01851
G1 X106.755 Y105.538 E.8787
G1 X106.755 Y106.073 E.01851
G1 X124.178 Y123.496 E.85252
G1 X123.643 Y123.496 E.01851
G1 X106.755 Y106.608 E.82634
G1 X106.755 Y107.143 E.01851
M73 P11 R27
M73 Q11 S27
G1 X123.108 Y123.496 E.80016
G1 X122.573 Y123.496 E.01851
G1 X106.755 Y107.678 E.77399
G1 X106.755 Y108.213 E.01851
G1 X122.038 Y123.496 E.74781
G1 X121.503 Y123.496 E.01851
G1 X106.755 Y108.748 E.72163
G1 X106.755 Y109.283 E.01851
G1 X120.968 Y123.496 E.69545
G1 X120.433 Y123.496 E.01851
G1 X106.755 Y109.818 E.66927
G1 X106.755 Y110.353 E.01851
G1 X119.898 Y123.496 E.6431
G1 X119.363 Y123.496 E.01851
G1 X106.755 Y110.888 E.61692
G1 X106.755 Y111.423 E.01851
G1 X118.828 Y123.496 E.59074
G1 X118.293 Y123.496 E.01851
G1 X106.755 Y111.958 E.56456
G1 X106.755 Y112.493 E.01851
G1 X117.758 Y123.496 E.53838
G1 X117.223 Y123.496 E.01851
G1 X106.755 Y113.028 E.51221
G1 X106.755 Y113.563 E.01851
G1 X116.688 Y123.496 E.48603
G1 X116.153 Y123.496 E.01851
G1 X106.755 Y114.098 E.45985
G1 X106.755 Y114.633 E.01851
G1 X115.618 Y123.496 E.43367
G1 X115.083 Y123.496 E.01851
G1 X106.755 Y115.168 E.4075
G1 X106.766 Y115.715 E.01893
G1 X114.548 Y123.496 E.38075
G1 X114.013 Y123.496 E.01851
G1 X107.07 Y116.553 E.33973
G1 X107.307 Y117.063 E.01946
G1 X107.463 Y117.481 E.01544
G1 X113.478 Y123.496 E.29432
G1 X112.943 Y123.496 E.01851
G1 X107.674 Y118.227 E.25782
G1 X107.736 Y118.824 E.02077
G1 X112.408 Y123.496 E.2286
G1 X111.873 Y123.496 E.01851
G1 X107.722 Y119.345 E.20311
G1 X107.664 Y119.822 E.01663
G1 X111.339 Y123.496 E.1798
G1 X110.804 Y123.496 E.01851
M73 Q12 S27
G1 X107.561 Y120.254 E.15866
G1 X107.417 Y120.645 E.01442
M73 P12 R27
G1 X110.269 Y123.496 E.13953
G1 X109.734 Y123.496 E.01851
G1 X107.263 Y121.026 E.12088
G1 X107.092 Y121.39 E.01391
M73 P12 R26
G1 X109.199 Y123.496 E.10307
G1 X108.664 Y123.496 E.01851
G1 X106.921 Y121.753 E.08529
G1 X106.784 Y122.152 E.0146
G1 X108.129 Y123.496 E.06579
G1 X107.594 Y123.496 E.01851
G1 X106.757 Y122.66 E.04093
G1 X106.754 Y122.934 E.00948
G1 X106.773 Y123.106 E.00599
G1 X106.803 Y123.194 E.00322
G1 X106.885 Y123.323 E.00529
G1 X107.209 Y123.646 E.01583
M204 S1000
;LAYER_CHANGE
;Z:0.4
;HEIGHT:0.2
;BEFORE_LAYER_CHANGE
G92 E0.0
;0.4


G1 E-1 F2100
G1 Z.4 F720
;AFTER_LAYER_CHANGE
;0.4
; stop printing object Teammarker_forearm.stl id:0 copy 0
G1 X107.209 Y123.646 Z.4 F10800
G1 X106.729 Y127.325
G1 E1 F1200
M73 Q12 S26
;TYPE:Skirt/Brim
;WIDTH:0.42
G1 X106.262 Y127.264 E.01624
G1 X105.527 Y127.023 E.02668
G1 X104.855 Y126.663 E.02629
G1 X104.196 Y126.135 E.02912
G1 X103.635 Y125.468 E.03006
G1 X103.226 Y124.723 E.02931
G1 X102.968 Y123.908 E.02948
G1 X102.874 Y123.076 E.02888
G1 X102.873 Y85 E1.31323
G1 X103.265 Y83.693 E.04706
G1 X104.31 Y82.817 E.04703
G1 X105.25 Y82.623 E.0331
G1 X144.75 Y82.623 E1.36234
G1 X146.057 Y83.015 E.04706
G1 X146.933 Y84.06 E.04703
G1 X147.127 Y85 E.0331
G1 X147.127 Y123 E1.31061
G1 X147.051 Y123.811 E.02809
G1 X146.815 Y124.622 E.02913
G1 X146.413 Y125.395 E.03005
G1 X145.881 Y126.058 E.02932
G1 X145.218 Y126.615 E.02987
G1 X144.473 Y127.023 E.0293
G1 X143.647 Y127.284 E.02988
G1 X142.75 Y127.377 E.0311
G1 X107.111 Y127.375 E1.22918
G1 X106.788 Y127.332 E.01124
G1 E-1 F2100
G1 X106.788 Y127.332 F10800
; printing object Teammarker_forearm.stl id:0 copy 0
G1 X106.289 Y86.039
G1 E1 F1200
M204 S800
;TYPE:Perimeter
;WIDTH:0.449999
G1 X143.711 Y86.039 E1.39336
G1 X143.711 Y104.749 E.69664
