; generated by PrusaSlicer 2.7.4 on 2024-04-11 at 09:42:43 UTC


;
;
; 

; external perimeters extrusion width = 0.60mm
; perimeters extrusion width = 0.50mm
; infill extrusion width = 0.50mm
; solid infill extrusion width = 0.50mm
; top infill extrusion width = 0.45mm
; first layer extrusion width = 0.42mm

M73 P0 R203
M73 Q0 S203
M201 X1000 Y1000 Z200 E5000 ; sets maximum accelerations, mm/sec^2
M203 X200 Y200 Z12 E120 ; sets maximum feedrates, mm / sec
M204 S1250 T1250 ; sets acceleration (S) and retract acceleration (R), mm/sec^2
M205 X8.00 Y8.00 Z0.40 E4.50 ; sets the jerk limits, mm/sec
M205 S0 T0 ; sets the minimum extruding and travel feed rate, mm/sec

; printing object Teammarker - TeammarkerLowerArm.stl id:0 copy 0
; stop printing object Teammarker - TeammarkerLowerArm.stl id:0 copy 0

;TYPE:Custom
M862.3 P "MK3" ; printer model check
M862.1 P0.4 ; nozzle diameter check
M115 U3.13.3 ; tell printer latest fw version
G90 ; use absolute coordinates
M83 ; extruder relative mode
M104 S230 ; set extruder temp
M140 S60 ; set bed temp
M190 S60 ; wait for bed temp
M109 S230 ; wait for extruder temp
G28 W ; home all without mesh bed level
G80 X38.4889 Y74.5801 W172.237 H66.1292 ; mesh bed levelling

G1 Z0.2 F720
G1 Y-3 F1000 ; go outside print area
G92 E0
G1 X60 E9 F1000 ; intro line
G1 X100 E12.5 F1000 ; intro line

G92 E0
M221 S95

; Don't change E values below. Excessive value can damage the printer.

M907 E538 ; set extruder motor current
G21 ; set units to millimeters
G90 ; use absolute coordinates
M83 ; use relative distances for extrusion
M900 K0 ; Filament gcode
M107
;LAYER_CHANGE
;Z:0.2
;HEIGHT:0.2
G1 X40.115 Y84.461 F10800
G1 Z.2 F720
M204 S800
;TYPE:Skirt/Brim
;WIDTH:0.42
G1 F954.706
G1 X40.855 Y84.276 E.0275
G1 X152.045 Y74.916 E4.02341
G1 X153.497 Y74.81 E.05249
G1 X155.826 Y74.78 E.08398
G1 X159.216 Y75.018 E.12254
G1 X160.634 Y75.226 E.05168
G1 X163.335 Y75.799 E.09956
G1 X191.51 Y83.073 E1.04923
G1 X193.559 Y83.696 E.07722
G1 X196.584 Y84.982 E.11852
G1 X199.419 Y86.649 E.11859
G1 X202.013 Y88.668 E.11853
G1 X204.325 Y91.005 E.11853
G1 X205.69 Y92.721 E.07906
G1 X206.955 Y94.637 E.08279
G1 X208.413 Y97.469 E.11485
G1 X209.204 Y99.514 E.07906
G1 X209.816 Y101.619 E.07904
G1 X210.26 Y103.871 E.08276
G1 X210.535 Y107.045 E.11488
G1 X210.492 Y109.237 E.07905
G1 X210.26 Y111.417 E.07905
G1 X209.816 Y113.669 E.08276
G1 X208.867 Y116.71 E.11487
G1 X207.996 Y118.722 E.07905
G1 X206.902 Y120.74 E.08277
G1 X205.69 Y122.568 E.07908
G1 X204.325 Y124.284 E.07906
G1 X202.09 Y126.553 E.11484
G1 X199.503 Y128.582 E.11855
G1 X197.553 Y129.792 E.08275
G1 X194.681 Y131.169 E.11484
G1 X192.516 Y131.933 E.08278
G1 X162.111 Y139.779 E1.13224
G1 X159.337 Y140.255 E.10149
G1 X156.729 Y140.484 E.0944
G1 X155.272 Y140.521 E.05255
G1 X152.656 Y140.425 E.09439
G1 X151.275 Y140.29 E.05003
G1 X40.792 Y128.007 E4.00828
G1 X39.536 Y127.473 E.04921
G1 X38.781 Y126.337 E.04918
G1 X38.677 Y125.644 E.02527
G1 X38.677 Y86.644 E1.40624
G1 X39.069 Y85.337 E.0492
M73 P0 R202
G1 X40.069 Y84.499 E.04704
M204 S1000
; printing object Teammarker - TeammarkerLowerArm.stl id:0 copy 0
G1 X40.069 Y84.499 F10800
G1 X42.219 Y87.809
M204 S800
;TYPE:Perimeter
;WIDTH:0.419999
G1 F954.707
G1 X101.075 Y87.809 E2.12219
G1 X101.246 Y87.793 E.00619
G1 X149.812 Y78.801 E1.78093
G1 X151.087 Y78.594 E.04658
M73 Q0 S202
G1 X152.356 Y78.444 E.04608
G1 X153.631 Y78.349 E.0461
G1 X154.908 Y78.31 E.04607
G1 X156.186 Y78.327 E.04609
G1 X157.463 Y78.399 E.04612
G1 X158.734 Y78.527 E.04606
G1 X159.999 Y78.71 E.04609
G1 X161.255 Y78.948 E.04609
G1 X162.512 Y79.243 E.04656
G1 X190.612 Y86.499 E1.04645
G1 X191.533 Y86.758 E.0345
G1 X192.429 Y87.052 E.034
G1 X193.27 Y87.37 E.03242
G1 X194.615 Y87.965 E.05303
G1 X195.45 Y88.388 E.03375
G1 X196.271 Y88.85 E.03397
G1 X197.072 Y89.347 E.03399
G1 X197.851 Y89.878 E.03399
G1 X198.606 Y90.442 E.03398
G1 X199.337 Y91.039 E.03403
G1 X200.041 Y91.667 E.03402
G1 X200.717 Y92.324 E.03399
G1 X201.365 Y93.01 E.03403
G1 X201.982 Y93.724 E.03403
G1 X202.568 Y94.463 E.03401
G1 X203.121 Y95.227 E.03401
G1 X203.64 Y96.015 E.03402
G1 X204.126 Y96.824 E.03403
G1 X204.575 Y97.653 E.03399
G1 X204.989 Y98.501 E.03403
G1 X205.365 Y99.366 E.03401
G1 X205.704 Y100.246 E.034
G1 X206.005 Y101.141 E.03405
G1 X206.266 Y102.047 E.034
G1 X206.488 Y102.964 E.03402
G1 X206.671 Y103.89 E.03403
G1 X206.813 Y104.822 E.03399
G1 X206.914 Y105.76 E.03402
G1 X206.976 Y106.701 E.034
G1 X206.996 Y107.644 E.03401
G1 X206.996 Y108.116 E.01702
G1 X206.955 Y109.059 E.03403
G1 X206.874 Y109.999 E.03402
G1 X206.752 Y110.935 E.03404
G1 X206.589 Y111.864 E.03401
G1 X206.387 Y112.786 E.03403
G1 X206.145 Y113.698 E.03402
G1 X205.864 Y114.599 E.03403
G1 X205.544 Y115.486 E.034
G1 X205.186 Y116.359 E.03402
G1 X204.791 Y117.216 E.03403
G1 X204.359 Y118.055 E.03403
G1 X203.892 Y118.875 E.03403
G1 X203.389 Y119.673 E.03401
G1 X202.852 Y120.449 E.03403
G1 X202.283 Y121.202 E.03403
G1 X201.681 Y121.928 E.03401
G1 X201.048 Y122.629 E.03406
G1 X200.386 Y123.301 E.03401
G1 X199.696 Y123.944 E.03401
G1 X198.978 Y124.556 E.03402
G1 X198.234 Y125.137 E.03404
G1 X197.466 Y125.686 E.03404
G1 X196.675 Y126.2 E.03401
G1 X195.863 Y126.68 E.03401
G1 X195.03 Y127.124 E.03404
G1 X194.18 Y127.532 E.034
G1 X193.312 Y127.903 E.03404
G1 X192.429 Y128.236 E.03403
G1 X191.533 Y128.531 E.03401
G1 X190.612 Y128.79 E.0345
G1 X162.511 Y136.046 E1.04648
G1 X161.32 Y136.327 E.04412
G1 X160.13 Y136.557 E.0437
G1 X158.931 Y136.737 E.04372
G1 X157.726 Y136.868 E.04371
G1 X156.517 Y136.949 E.04369
G1 X155.305 Y136.98 E.04372
G1 X154.093 Y136.96 E.04371
G1 X152.883 Y136.891 E.0437
G1 X151.676 Y136.772 E.04373
G1 X150.476 Y136.603 E.0437
G1 X149.284 Y136.384 E.0437
G1 X148.09 Y136.114 E.04414
G1 X101.309 Y124.508 E1.73794
G1 X101.082 Y124.48 E.00825
G1 X42.219 Y124.48 E2.12245
G1 X42.219 Y87.869 E1.3201
M204 S1000
G1 X42.219 Y87.869 F10800
G1 X41.842 Y87.431
M204 S800
G1 F954.707
G1 X101.075 Y87.431 E2.13579
G1 X149.748 Y78.43 E1.78478
G1 X151.034 Y78.22 E.04698
G1 X152.32 Y78.068 E.04669
G1 X153.611 Y77.972 E.04668
G1 X154.905 Y77.933 E.04668
G1 X156.199 Y77.95 E.04666
G1 X157.492 Y78.023 E.0467
G1 X158.78 Y78.152 E.04667
G1 X160.061 Y78.338 E.04667
G1 X161.333 Y78.579 E.04668
G1 X162.602 Y78.877 E.047
G1 X190.71 Y86.135 E1.04674
G1 X191.643 Y86.397 E.03494
G1 X192.555 Y86.697 E.03462
G1 X193.411 Y87.02 E.03299
G1 X194.778 Y87.625 E.0539
G1 X195.628 Y88.056 E.03436
G1 X196.462 Y88.525 E.0345
G1 X197.277 Y89.03 E.03457
G1 X198.07 Y89.571 E.03461
G1 X198.839 Y90.145 E.0346
G1 X199.582 Y90.752 E.03459
G1 X200.298 Y91.391 E.0346
G1 X200.986 Y92.06 E.0346
G1 X201.644 Y92.757 E.03456
G1 X202.272 Y93.483 E.03461
G1 X202.868 Y94.236 E.03463
G1 X203.431 Y95.013 E.0346
G1 X203.96 Y95.814 E.03461
G1 X204.453 Y96.637 E.03459
G1 X204.911 Y97.48 E.03459
G1 X205.331 Y98.343 E.03461
G1 X205.714 Y99.223 E.03461
G1 X206.059 Y100.119 E.03462
G1 X206.365 Y101.028 E.03458
G1 X206.631 Y101.95 E.0346
G1 X206.857 Y102.883 E.03461
G1 X207.042 Y103.825 E.03461
G1 X207.187 Y104.773 E.03458
G1 X207.29 Y105.727 E.0346
G1 X207.352 Y106.685 E.03462
G1 X207.373 Y107.644 E.03459
G1 X207.373 Y108.124 E.01731
G1 X207.332 Y109.083 E.03461
G1 X207.249 Y110.04 E.03464
G1 X207.125 Y110.991 E.03458
G1 X206.959 Y111.937 E.03463
G1 X206.754 Y112.875 E.03462
G1 X206.508 Y113.802 E.03458
G1 X206.222 Y114.719 E.03464
G1 X205.896 Y115.622 E.03462
G1 X205.532 Y116.51 E.0346
G1 X205.13 Y117.382 E.03462
G1 X204.691 Y118.235 E.03459
G1 X204.215 Y119.069 E.03463
G1 X203.704 Y119.881 E.03459
G1 X203.158 Y120.671 E.03463
G1 X202.578 Y121.436 E.03462
G1 X201.966 Y122.175 E.0346
G1 X201.323 Y122.887 E.03459
G1 X200.649 Y123.571 E.03463
G1 X199.947 Y124.225 E.03459
G1 X199.216 Y124.848 E.03463
G1 X198.46 Y125.439 E.0346
G1 X197.679 Y125.997 E.03461
G1 X196.874 Y126.521 E.03463
G1 X196.048 Y127.009 E.03459
G1 X195.201 Y127.461 E.03462
G1 X194.335 Y127.876 E.03463
G1 X193.453 Y128.253 E.03459
G1 X192.555 Y128.592 E.03461
G1 X191.643 Y128.892 E.03462
G1 X190.71 Y129.154 E.03494
G1 X162.602 Y136.412 E1.04674
G1 X161.399 Y136.696 E.04457
G1 X160.193 Y136.929 E.04429
G1 X158.979 Y137.111 E.04426
G1 X157.759 Y137.244 E.04425
G1 X156.534 Y137.326 E.04427
G1 X155.307 Y137.357 E.04426
G1 X154.079 Y137.337 E.04428
G1 X152.853 Y137.267 E.04428
G1 X151.632 Y137.146 E.04424
G1 X150.416 Y136.975 E.04428
G1 X149.208 Y136.754 E.04428
G1 X148.003 Y136.481 E.04455
G1 X101.218 Y124.874 E1.73809
G1 X101.082 Y124.857 E.00494
G1 X41.842 Y124.857 E2.13604
G1 X41.842 Y87.491 E1.34732
M204 S1000
G1 X41.842 Y87.491 F10800
G1 X41.464 Y87.054
M204 S800
;TYPE:External perimeter
G1 F954.707
G1 X101.075 Y87.054 E2.14942
G1 X149.683 Y78.058 E1.78244
G1 X150.982 Y77.847 E.04745
G1 X152.284 Y77.693 E.04727
G1 X153.591 Y77.596 E.04726
G1 X154.902 Y77.556 E.04729
G1 X156.213 Y77.573 E.04728
G1 X157.522 Y77.647 E.04727
G1 X158.826 Y77.778 E.04726
G1 X160.124 Y77.966 E.04729
G1 X161.412 Y78.21 E.04727
G1 X162.692 Y78.511 E.04741
G1 X190.809 Y85.771 E1.04708
G1 X191.753 Y86.036 E.03535
M73 P0 R201
G1 X192.68 Y86.341 E.03519
G1 X193.551 Y86.67 E.03357
G1 X194.941 Y87.285 E.05481
G1 X195.805 Y87.723 E.03493
G1 X196.654 Y88.2 E.03511
G1 X197.483 Y88.714 E.03517
G1 X198.289 Y89.264 E.03518
G1 X199.071 Y89.848 E.03519
G1 X199.826 Y90.465 E.03516
G1 X200.555 Y91.115 E.03522
G1 X201.255 Y91.795 E.03519
G1 X201.924 Y92.505 E.03518
G1 X202.563 Y93.243 E.0352
G1 X203.169 Y94.008 E.03519
G1 X203.741 Y94.798 E.03517
G1 X204.279 Y95.613 E.03521
G1 X204.781 Y96.45 E.03519
G1 X205.246 Y97.308 E.03519
G1 X205.674 Y98.185 E.03519
G1 X206.063 Y99.08 E.03519
G1 X206.414 Y99.991 E.0352
G1 X206.725 Y100.916 E.03519
G1 X206.995 Y101.853 E.03516
G1 X207.225 Y102.802 E.03521
G1 X207.414 Y103.76 E.03521
G1 X207.561 Y104.724 E.03516
G1 X207.666 Y105.695 E.03522
G1 X207.729 Y106.669 E.03519
G1 X207.75 Y107.644 E.03516
G1 X207.75 Y108.132 E.0176
G1 X207.708 Y109.108 E.03522
G1 X207.624 Y110.08 E.03518
G1 X207.497 Y111.048 E.0352
G1 X207.33 Y112.01 E.03521
G1 X207.12 Y112.963 E.03519
G1 X206.87 Y113.907 E.03521
G1 X206.579 Y114.839 E.03521
G1 X206.248 Y115.757 E.03519
G1 X205.878 Y116.66 E.03519
G1 X205.469 Y117.547 E.03522
G1 X205.022 Y118.415 E.0352
G1 X204.539 Y119.263 E.03519
G1 X204.019 Y120.089 E.03519
G1 X203.463 Y120.892 E.03522
G1 X202.874 Y121.67 E.03519
G1 X202.251 Y122.422 E.03521
G1 X201.597 Y123.146 E.03518
G1 X200.912 Y123.842 E.03521
G1 X200.197 Y124.507 E.03521
G1 X199.455 Y125.141 E.03519
G1 X198.686 Y125.742 E.03519
G1 X197.891 Y126.309 E.03521
G1 X197.073 Y126.841 E.03518
G1 X196.232 Y127.338 E.03522
G1 X195.371 Y127.797 E.03518
G1 X194.491 Y128.22 E.03521
G1 X193.593 Y128.603 E.0352
G1 X192.68 Y128.948 E.03519
G1 X191.753 Y129.253 E.03519
G1 X190.809 Y129.518 E.03535
G1 X162.692 Y136.778 E1.04708
G1 X161.478 Y137.065 E.04498
G1 X160.257 Y137.3 E.04483
G1 X159.028 Y137.485 E.04481
G1 X157.792 Y137.619 E.04483
G1 X156.551 Y137.702 E.04485
G1 X155.308 Y137.734 E.04483
G1 X154.065 Y137.714 E.04483
G1 X152.824 Y137.643 E.04482
G1 X151.587 Y137.521 E.04482
G1 X150.356 Y137.347 E.04483
G1 X149.133 Y137.123 E.04483
M73 Q0 S201
G1 X147.916 Y136.848 E.04499
G1 X101.082 Y125.234 E1.73986
G1 X41.464 Y125.234 E2.14967
G1 X41.464 Y87.114 E1.37451
M204 S1000
G1 X41.86 Y87.055 F10800
G1 X110.765 Y108.292
M204 S800
;TYPE:Perimeter
G1 F954.707
G1 X110.713 Y108.543 E.00924
G1 X110.498 Y108.853 E.0136
G1 X110.218 Y109.038 E.0121
G1 X109.846 Y109.115 E.0137
G1 X87.526 Y109.115 E.8048
G1 X82.755 Y108.989 E.17209
G1 X83.472 Y109.803 E.03911
G1 X87.138 Y114.364 E.211
G1 X87.302 Y114.672 E.01258
G1 X87.34 Y115.057 E.01395
G1 X87.267 Y115.333 E.01029
G1 X87.084 Y115.606 E.01185
G1 X86.993 Y115.69 E.00447
G1 X81.791 Y119.862 E.24044
G1 X81.412 Y120.046 E.01519
G1 X81.038 Y120.055 E.01349
G1 X80.767 Y119.964 E.01031
G1 X80.464 Y119.714 E.01416
G1 X70.483 Y107.178 E.57779
G1 X70.318 Y106.866 E.01273
G1 X70.277 Y106.591 E.01003
G1 X70.277 Y99.656 E.25006
G1 X70.34 Y99.319 E.01236
G1 X70.528 Y99.017 E.01283
G1 X70.776 Y98.825 E.01131
G1 X71.103 Y98.721 E.01237
G1 X71.22 Y98.714 E.00423
G1 X109.846 Y98.714 E1.39275
G1 X110.145 Y98.762 E.01092
G1 X110.463 Y98.943 E.01319
G1 X110.692 Y99.241 E.01355
G1 X110.785 Y99.566 E.01219
G1 X110.789 Y108.172 E.31031
G1 X110.777 Y108.233 E.00224
M204 S1000
G1 X110.777 Y108.233 F10800
G1 X110.398 Y108.239
M204 S800
G1 F954.707
G1 X110.366 Y108.395 E.00574
G1 X110.209 Y108.606 E.00948
G1 X109.985 Y108.721 E.00908
G1 X109.846 Y108.738 E.00505
G1 X87.526 Y108.738 E.8048
G1 X82.391 Y108.602 E.18522
G1 X81.774 Y108.549 E.02233
G1 X82.163 Y108.907 E.01906
G1 X82.719 Y109.503 E.02939
G1 X83.178 Y110.039 E.02544
G1 X86.844 Y114.6 E.211
G1 X86.962 Y114.87 E.01062
G1 X86.942 Y115.127 E.00929
G1 X86.812 Y115.346 E.00918
G1 X86.757 Y115.396 E.00268
G1 X81.555 Y119.568 E.24044
G1 X81.299 Y119.684 E.01013
G1 X81.062 Y119.675 E.00855
G1 X80.838 Y119.561 E.00906
G1 X80.759 Y119.479 E.00411
G1 X70.778 Y106.943 E.57779
G1 X70.663 Y106.688 E.01009
G1 X70.654 Y106.591 E.00351
G1 X70.654 Y99.656 E.25006
G1 X70.712 Y99.409 E.00915
G1 X70.898 Y99.191 E.01033
G1 X71.15 Y99.095 E.00972
G1 X71.22 Y99.091 E.00253
G1 X109.846 Y99.091 E1.39275
G1 X110.13 Y99.167 E.0106
M73 P1 R201
M73 Q1 S201
G1 X110.335 Y99.371 E.01043
G1 X110.411 Y99.63 E.00973
G1 X110.412 Y108.172 E.308
G1 X110.41 Y108.18 E.0003
M204 S1000
G1 X110.41 Y108.18 F10800
G1 X110.035 Y108.172
M204 S800
;TYPE:External perimeter
G1 F954.707
G1 X110.02 Y108.246 E.00272
G1 X109.907 Y108.351 E.00556
G1 X109.846 Y108.361 E.00223
G1 X87.526 Y108.361 E.8048
G1 X82.401 Y108.225 E.18486
G1 X81.894 Y108.184 E.01834
G1 X81.382 Y108.097 E.01873
G1 X80.88 Y107.982 E.01857
G1 X80.447 Y107.968 E.01562
G1 X80.774 Y108.291 E.01657
G1 X81.503 Y108.817 E.03241
G1 X81.876 Y109.154 E.01813
G1 X82.444 Y109.761 E.02997
G1 X82.884 Y110.275 E.0244
G1 X86.55 Y114.836 E.211
G1 X86.587 Y114.995 E.00589
G1 X86.521 Y115.102 E.00453
G1 X81.319 Y119.274 E.24044
G1 X81.169 Y119.312 E.00558
G1 X81.054 Y119.244 E.00482
G1 X71.073 Y106.708 E.57779
G1 X71.032 Y106.591 E.00447
G1 X71.032 Y99.656 E.25006
G1 X71.096 Y99.514 E.00562
G1 X71.22 Y99.468 E.00477
G1 X109.846 Y99.468 E1.39275
G1 X109.992 Y99.537 E.00582
G1 X110.035 Y99.656 E.00456
G1 X110.035 Y108.112 E.3049
M204 S1000
G1 X109.728 Y108.369 F10800
G1 X198.465 Y90.547
M204 S800
;TYPE:Solid infill
;WIDTH:0.420596
G1 F953.198
G1 X200.801 Y92.893 E.11956
G1 X201.424 Y93.582 E.03355
G1 X202.016 Y94.298 E.03355
G1 X202.577 Y95.038 E.03354
G1 X202.926 Y95.542 E.02214
G1 X197.253 Y89.869 E.28974
G1 X196.496 Y89.377 E.03261
G1 X195.837 Y88.988 E.02764
G1 X203.817 Y96.967 E.40754
G1 X204.061 Y97.395 E.01779
G1 X204.433 Y98.117 E.02933
G1 X194.695 Y88.38 E.49733
G1 X193.704 Y87.923 E.03941
G1 X204.895 Y99.114 E.57156
G1 X205.259 Y100.012 E.03499
G1 X192.803 Y87.556 E.63617
G1 X191.973 Y87.26 E.03182
G1 X205.556 Y100.843 E.69373
G1 X205.799 Y101.62 E.0294
G1 X191.194 Y87.015 E.74593
G1 X190.453 Y86.808 E.02779
G1 X205.996 Y102.351 E.79384
G1 X206.159 Y103.049 E.02589
G1 X189.733 Y86.622 E.83896
G1 X189.013 Y86.436 E.02686
G1 X206.296 Y103.72 E.88273
G1 X206.409 Y104.367 E.02372
G1 X188.293 Y86.25 E.92527
G1 X187.573 Y86.064 E.02686
G1 X206.492 Y104.983 E.96626
G1 X206.559 Y105.584 E.02184
G1 X186.853 Y85.879 E1.00643
G1 X186.133 Y85.693 E.02686
G1 X206.609 Y106.169 E1.04578
G1 X206.637 Y106.731 E.02032
M73 P1 R200
G1 X185.413 Y85.507 E1.08399
G1 X184.693 Y85.321 E.02686
G1 X206.657 Y107.285 E1.12178
G1 X206.657 Y107.819 E.01929
G1 X183.973 Y85.135 E1.15855
G1 X183.253 Y84.949 E.02686
G1 X206.646 Y108.343 E1.19479
G1 X206.624 Y108.855 E.01851
M73 Q1 S200
G1 X182.533 Y84.763 E1.23044
G1 X181.813 Y84.577 E.02686
G1 X206.589 Y109.354 E1.26542
G1 X206.546 Y109.845 E.0178
G1 X181.093 Y84.391 E1.3
G1 X180.373 Y84.205 E.02686
G1 X206.489 Y110.322 E1.33386
G1 X206.428 Y110.795 E.01722
G1 X179.653 Y84.019 E1.36752
G1 X178.933 Y83.834 E.02685
G1 X206.352 Y111.253 E1.40039
G1 X206.272 Y111.707 E.01665
G1 X178.213 Y83.648 E1.43307
G1 X177.493 Y83.462 E.02686
G1 X206.18 Y112.149 E1.46515
G1 X206.083 Y112.587 E.0162
G1 X176.773 Y83.276 E1.49699
