; generated by PrusaSlicer 2.7.4 on 2024-05-09 at 11:09:20 UTC


;
;
; 

; external perimeters extrusion width = 0.45mm
; perimeters extrusion width = 0.45mm
; infill extrusion width = 0.45mm
; solid infill extrusion width = 0.45mm
; top infill extrusion width = 0.40mm
; first layer extrusion width = 0.42mm

M73 P0 R45
M73 Q0 S45
M201 X1000 Y1000 Z200 E5000 ; sets maximum accelerations, mm/sec^2
M203 X200 Y200 Z12 E120 ; sets maximum feedrates, mm / sec
M204 S1250 T1250 ; sets acceleration (S) and retract acceleration (R), mm/sec^2
M205 X8.00 Y8.00 Z0.40 E4.50 ; sets the jerk limits, mm/sec
M205 S0 T0 ; sets the minimum extruding and travel feed rate, mm/sec

; printing object Teammarker_forearm.stl id:0 copy 0
; stop printing object Teammarker_forearm.stl id:0 copy 0

;TYPE:Custom
M862.3 P "MK3S" ; printer model check
M862.1 P0.4 ; nozzle diameter check
M115 U3.13.3 ; tell printer latest fw version
G90 ; use absolute coordinates
M83 ; extruder relative mode
M104 S225 ; set extruder temp
M140 S50 ; set bed temp
M190 S50 ; wait for bed temp
M109 S225 ; wait for extruder temp
G28 W ; home all without mesh bed level
G80 X102.684 Y72.4344 W44.6312 H65.1312 ; mesh bed levelling

G1 Z0.2 F720
G1 Y-3 F1000 ; go outside print area
G92 E0
G1 X60 E9 F1000 ; intro line
G1 X100 E12.5 F1000 ; intro line

G92 E0
M221 S95

; Don't change E values below. Excessive value can damage the printer.
M907 E430 ; set extruder motor current
G21 ; set units to millimeters
G90 ; use absolute coordinates
M83 ; use relative distances for extrusion
M900 K0 ; Filament gcode
M107
;LAYER_CHANGE
;Z:0.2
;HEIGHT:0.2
G1 E-1 F2100
G1 Z.2 F720
G1 X103.265 Y73.693 F10800
G1 Z.2 F720
G1 E1 F1200
M204 S800
;TYPE:Skirt/Brim
;WIDTH:0.42
G1 X104.31 Y72.817 E.04703
G1 X105.25 Y72.623 E.0331
G1 X144.75 Y72.623 E1.36234
G1 X146.057 Y73.015 E.04706
G1 X146.933 Y74.06 E.04703
G1 X147.127 Y75 E.0331
G1 X147.127 Y133 E2.0004
G1 X147.051 Y133.811 E.02809
G1 X146.815 Y134.622 E.02913
G1 X146.191 Y135.705 E.04311
G1 X145.303 Y136.555 E.0424
G1 X144.198 Y137.13 E.04296
G1 X142.998 Y137.37 E.04221
G1 X107.25 Y137.377 E1.23294
G1 X106.449 Y137.303 E.02774
G1 X105.623 Y137.063 E.02967
G1 X104.545 Y136.441 E.04293
G1 X103.695 Y135.553 E.0424
G1 X103.349 Y134.984 E.02297
G1 X103.095 Y134.376 E.02273
G1 X102.876 Y133.151 E.04292
G1 X102.873 Y75 E2.00561
G1 X103.247 Y73.75 E.045
M204 S1000
G1 E-1 F2100
G1 X103.247 Y73.75 F10800
; printing object Teammarker_forearm.stl id:0 copy 0
G1 X106.414 Y76.164
G1 E1 F1200
M204 S800
;TYPE:Perimeter
;WIDTH:0.419999
G1 X143.586 Y76.164 E1.28205
G1 X143.585 Y94.75 E.64103
G1 X143.584 Y125.526 E1.06145
G1 X143.55 Y125.928 E.01391
G1 X143.405 Y126.335 E.0149
G1 X142.978 Y127.262 E.0352
G1 X142.759 Y127.855 E.0218
G1 X142.641 Y128.368 E.01816
G1 X142.588 Y129.003 E.02198
G1 X142.643 Y129.646 E.02226
G1 X142.802 Y130.282 E.02261
G1 X143.018 Y130.831 E.02035
G1 X143.439 Y131.721 E.03396
G1 X143.578 Y132.262 E.01926
G1 X143.585 Y132.895 E.02183
G1 X143.527 Y133.265 E.01292
G1 X143.36 Y133.559 E.01166
G1 X143.066 Y133.751 E.01211
G1 X142.686 Y133.836 E.01343
G1 X107.737 Y133.836 E1.20538
G1 X107.08 Y133.811 E.02268
G1 X106.779 Y133.672 E.01143
G1 X106.546 Y133.437 E.01141
G1 X106.427 Y133.11 E.012
G1 X106.417 Y132.54 E.01966
G1 X106.47 Y131.985 E.01923
G1 X106.58 Y131.697 E.01063
G1 X107.009 Y130.769 E.03526
G1 X107.236 Y130.157 E.02251
G1 X107.38 Y129.49 E.02353
G1 X107.409 Y128.846 E.02223
G1 X107.336 Y128.237 E.02115
G1 X107.207 Y127.747 E.01748
G1 X106.997 Y127.201 E.02018
G1 X106.525 Y126.187 E.03858
G1 X106.416 Y125.639 E.01927
G1 X106.414 Y76.224 E1.70431
M204 S1000
G1 X106.414 Y76.224 F10800
M73 Q1 S45
G1 X106.037 Y75.787
M204 S800
G1 F1200
G1 X143.963 Y75.787 E1.30806
G1 X143.962 Y94.75 E.65403
M73 P1 R45
G1 X143.961 Y125.526 E1.06145
G1 X143.921 Y126.003 E.01651
G1 X143.747 Y126.494 E.01797
G1 X143.33 Y127.397 E.0343
G1 X143.145 Y127.881 E.01787
G1 X143.016 Y128.407 E.01868
G1 X142.965 Y128.979 E.01981
G1 X143.01 Y129.559 E.02006
G1 X143.154 Y130.146 E.02085
G1 X143.359 Y130.67 E.01941
G1 X143.741 Y131.477 E.03079
G1 X143.905 Y131.923 E.01639
G1 X143.956 Y132.367 E.01541
G1 X143.947 Y133.11 E.02563
G1 X143.821 Y133.558 E.01605
G1 X143.641 Y133.816 E.01085
G1 X143.404 Y134.015 E.01067
G1 X143.057 Y134.168 E.01308
G1 X142.71 Y134.213 E.01207
G1 X107.737 Y134.213 E1.20621
G1 X107.141 Y134.197 E.02056
G1 X106.692 Y134.071 E.01608
G1 X106.434 Y133.891 E.01085
G1 X106.168 Y133.524 E.01563
G1 X106.051 Y133.159 E.01322
G1 X106.038 Y132.431 E.02511
G1 X106.1 Y131.906 E.01823
G1 X106.238 Y131.538 E.01356
G1 X106.657 Y130.633 E.0344
G1 X106.869 Y130.071 E.02072
G1 X106.99 Y129.559 E.01815
G1 X107.035 Y128.979 E.02006
G1 X106.984 Y128.407 E.01981
G1 X106.855 Y127.881 E.01868
G1 X106.655 Y127.36 E.01925
G1 X106.128 Y126.17 E.04489
G1 X106.039 Y125.661 E.01782
G1 X106.037 Y75.847 E1.71807
M204 S1000
G1 X106.037 Y75.847 F10800
G1 X105.66 Y75.41
M204 S800
;TYPE:External perimeter
G1 F1200
G1 X144.34 Y75.41 E1.33406
G1 X144.339 Y94.75 E.66703
G1 X144.338 Y125.526 E1.06145
G1 X144.292 Y126.079 E.01914
G1 X144.089 Y126.653 E.021
G1 X143.682 Y127.531 E.03338
G1 X143.497 Y128.016 E.0179
G1 X143.391 Y128.446 E.01527
G1 X143.341 Y128.955 E.01764
G1 X143.377 Y129.473 E.01791
G1 X143.505 Y130.009 E.01901
G1 X143.7 Y130.509 E.01851
G1 X144.215 Y131.662 E.04355
G1 X144.331 Y132.197 E.01888
G1 X144.338 Y132.856 E.02273
G1 X144.301 Y133.342 E.01681
G1 X144.159 Y133.733 E.01435
G1 X143.921 Y134.073 E.01431
G1 X143.605 Y134.338 E.01422
G1 X143.159 Y134.534 E.0168
G1 X142.735 Y134.59 E.01475
G1 X107.737 Y134.59 E1.20707
G1 X106.908 Y134.551 E.02862
G1 X106.517 Y134.409 E.01435
G1 X106.177 Y134.171 E.01431
G1 X106.044 Y134.012 E.00715
G1 X105.83 Y133.69 E.01333
G1 X105.675 Y133.208 E.01746
G1 X105.66 Y132.412 E.02746
G1 X105.73 Y131.827 E.02032
G1 X105.896 Y131.379 E.01648
G1 X106.306 Y130.496 E.03358
G1 X106.502 Y129.984 E.01891
G1 X106.623 Y129.473 E.01811
G1 X106.659 Y128.955 E.01791
G1 X106.609 Y128.446 E.01764
G1 X106.503 Y128.016 E.01527
G1 X106.313 Y127.519 E.01835
G1 X105.766 Y126.276 E.04684
G1 X105.662 Y125.683 E.02076
G1 X105.66 Y75.47 E1.73183
M204 S1000
G1 X106.056 Y75.411 F10800
M73 P1 R44
M73 Q1 S44
G1 E-1 F2100
G1 X143.416 Y77.1 F10800
G1 E1 F1200
M204 S800
;TYPE:Solid infill
;WIDTH:0.422027
G1 X142.819 Y76.504 E.02925
G1 X142.283 Y76.504 E.01859
G1 X143.246 Y77.467 E.04722
G1 X143.246 Y78.003 E.01859
G1 X141.747 Y76.504 E.07351
G1 X141.211 Y76.504 E.01859
G1 X143.246 Y78.539 E.09979
G1 X143.246 Y79.075 E.01859
G1 X140.675 Y76.504 E.12608
G1 X140.139 Y76.504 E.01859
G1 X143.246 Y79.611 E.15236
G1 X143.246 Y80.147 E.01859
G1 X139.602 Y76.504 E.17867
G1 X139.066 Y76.504 E.01859
G1 X143.246 Y80.684 E.20498
G1 X143.246 Y81.22 E.01859
G1 X138.53 Y76.504 E.23126
G1 X137.994 Y76.504 E.01859
G1 X143.246 Y81.756 E.25755
G1 X143.246 Y82.292 E.01859
G1 X137.458 Y76.504 E.28383
G1 X136.922 Y76.504 E.01859
G1 X143.246 Y82.828 E.31012
G1 X143.246 Y83.364 E.01859
G1 X136.386 Y76.504 E.3364
G1 X135.849 Y76.504 E.01862
G1 X143.246 Y83.9 E.36271
G1 X143.246 Y84.436 E.01859
G1 X135.313 Y76.504 E.38899
G1 X134.777 Y76.504 E.01859
G1 X143.246 Y84.973 E.4153
G1 X143.246 Y85.509 E.01859
G1 X134.241 Y76.504 E.44159
G1 X133.705 Y76.504 E.01859
G1 X143.246 Y86.045 E.46787
G1 X143.246 Y86.581 E.01859
G1 X133.169 Y76.504 E.49416
G1 X132.633 Y76.504 E.01859
M73 P2 R44
M73 Q2 S44
G1 X143.246 Y87.117 E.52044
G1 X143.246 Y87.653 E.01859
G1 X132.096 Y76.504 E.54675
G1 X131.56 Y76.504 E.01859
G1 X143.246 Y88.189 E.57303
G1 X143.246 Y88.725 E.01859
G1 X131.024 Y76.504 E.59932
G1 X130.488 Y76.504 E.01859
G1 X143.246 Y89.262 E.62563
G1 X143.246 Y89.798 E.01859
G1 X129.952 Y76.504 E.65191
G1 X129.416 Y76.504 E.01859
G1 X143.246 Y90.334 E.6782
G1 X143.246 Y90.87 E.01859
G1 X128.88 Y76.504 E.70448
G1 X128.344 Y76.504 E.01859
G1 X143.246 Y91.406 E.73077
G1 X143.246 Y91.942 E.01859
G1 X127.807 Y76.504 E.75707
G1 X127.271 Y76.504 E.01859
G1 X143.246 Y92.478 E.78336
G1 X143.246 Y93.014 E.01859
G1 X126.735 Y76.504 E.80964
G1 X126.199 Y76.504 E.01859
G1 X143.246 Y93.55 E.83593
G1 X143.246 Y94.087 E.01862
G1 X125.663 Y76.504 E.86224
G1 X125.127 Y76.504 E.01859
G1 X143.246 Y94.623 E.88852
G1 X143.246 Y95.159 E.01859
G1 X124.591 Y76.504 E.91481
G1 X124.054 Y76.504 E.01862
G1 X143.246 Y95.695 E.94111
G1 X143.246 Y96.231 E.01859
G1 X123.518 Y76.504 E.9674
G1 X122.982 Y76.504 E.01859
G1 X143.246 Y96.767 E.99368
G1 X143.246 Y97.303 E.01859
G1 X122.446 Y76.504 E1.01997
G1 X121.91 Y76.504 E.01859
G1 X143.246 Y97.839 E1.04625
G1 X143.246 Y98.376 E.01862
G1 X121.374 Y76.504 E1.07256
G1 X120.838 Y76.504 E.01859
G1 X143.246 Y98.912 E1.09885
G1 X143.246 Y99.448 E.01859
M73 P3 R44
M73 Q3 S44
G1 X120.301 Y76.504 E1.12515
G1 X119.765 Y76.504 E.01859
G1 X143.246 Y99.984 E1.15144
G1 X143.246 Y100.52 E.01859
G1 X119.229 Y76.504 E1.17772
G1 X118.693 Y76.504 E.01859
G1 X143.246 Y101.056 E1.20401
G1 X143.246 Y101.592 E.01859
G1 X118.157 Y76.504 E1.23029
G1 X117.621 Y76.504 E.01859
G1 X143.246 Y102.128 E1.25658
G1 X143.246 Y102.665 E.01862
G1 X117.085 Y76.504 E1.28289
G1 X116.548 Y76.504 E.01862
G1 X143.246 Y103.201 E1.30919
G1 X143.246 Y103.737 E.01859
G1 X116.012 Y76.504 E1.33548
G1 X115.476 Y76.504 E.01859
G1 X143.246 Y104.273 E1.36176
G1 X143.246 Y104.809 E.01859
G1 X114.94 Y76.504 E1.38805
G1 X114.404 Y76.504 E.01859
G1 X143.246 Y105.345 E1.41433
G1 X143.246 Y105.881 E.01859
M73 P3 R43
G1 X113.868 Y76.504 E1.44062
G1 X113.332 Y76.504 E.01859
M73 Q3 S43
G1 X143.245 Y106.417 E1.46688
G1 X143.245 Y106.954 E.01862
M73 Q4 S43
G1 X112.796 Y76.504 E1.49319
G1 X112.259 Y76.504 E.01862
M73 P4 R43
G1 X143.245 Y107.49 E1.51949
G1 X143.245 Y108.026 E.01859
G1 X111.723 Y76.504 E1.54578
G1 X111.187 Y76.504 E.01859
G1 X143.245 Y108.562 E1.57206
G1 X143.245 Y109.098 E.01859
G1 X110.651 Y76.504 E1.59835
G1 X110.115 Y76.504 E.01859
G1 X143.245 Y109.634 E1.62463
G1 X143.245 Y110.17 E.01859
G1 X109.579 Y76.504 E1.65092
G1 X109.043 Y76.504 E.01859
G1 X143.245 Y110.706 E1.6772
G1 X143.245 Y111.242 E.01859
G1 X108.506 Y76.504 E1.70351
G1 X107.97 Y76.504 E.01859
G1 X143.245 Y111.779 E1.72982
G1 X143.245 Y112.315 E.01859
G1 X107.434 Y76.504 E1.7561
G1 X106.898 Y76.504 E.01859
G1 X143.245 Y112.851 E1.78239
G1 X143.245 Y113.387 E.01859
M73 P5 R43
M73 Q5 S43
G1 X106.754 Y76.895 E1.78947
G1 X106.754 Y77.431 E.01859
G1 X143.245 Y113.923 E1.78947
G1 X143.245 Y114.459 E.01859
G1 X106.754 Y77.968 E1.78945
G1 X106.754 Y78.504 E.01859
G1 X143.245 Y114.995 E1.78945
G1 X143.245 Y115.531 E.01859
G1 X106.754 Y79.04 E1.78945
G1 X106.754 Y79.576 E.01859
G1 X143.245 Y116.068 E1.78947
G1 X143.245 Y116.604 E.01859
G1 X106.754 Y80.112 E1.78947
G1 X106.754 Y80.648 E.01859
G1 X143.245 Y117.14 E1.78947
G1 X143.245 Y117.676 E.01859
G1 X106.754 Y81.185 E1.78945
G1 X106.754 Y81.721 E.01859
G1 X143.245 Y118.212 E1.78945
G1 X143.245 Y118.748 E.01859
M73 P5 R42
M73 Q6 S43
G1 X106.754 Y82.257 E1.78945
G1 X106.754 Y82.793 E.01859
M73 P6 R42
M73 Q6 S42
G1 X143.245 Y119.284 E1.78945
G1 X143.245 Y119.82 E.01859
G1 X106.754 Y83.329 E1.78945
G1 X106.754 Y83.865 E.01859
G1 X143.245 Y120.357 E1.78947
G1 X143.245 Y120.893 E.01859
G1 X106.754 Y84.401 E1.78947
G1 X106.754 Y84.938 E.01862
G1 X143.245 Y121.429 E1.78945
G1 X143.245 Y121.965 E.01859
G1 X106.754 Y85.474 E1.78945
G1 X106.754 Y86.01 E.01859
G1 X143.245 Y122.501 E1.78945
G1 X143.245 Y123.037 E.01859
G1 X106.754 Y86.546 E1.78945
G1 X106.754 Y87.082 E.01859
G1 X143.245 Y123.573 E1.78945
G1 X143.245 Y124.109 E.01859
G1 X106.754 Y87.618 E1.78945
G1 X106.754 Y88.155 E.01862
M73 P7 R42
M73 Q7 S42
G1 X143.245 Y124.645 E1.78942
G1 X143.245 Y125.182 E.01862
G1 X106.754 Y88.691 E1.78945
G1 X106.754 Y89.227 E.01859
G1 X143.234 Y125.707 E1.78891
G1 X143.217 Y125.86 E.00534
G1 X143.125 Y126.134 E.01002
G1 X106.754 Y89.763 E1.78356
G1 X106.754 Y90.299 E.01859
G1 X142.955 Y126.5 E1.77523
G1 X142.785 Y126.866 E.01399
G1 X106.754 Y90.835 E1.76689
G1 X106.754 Y91.371 E.01859
G1 X142.626 Y127.243 E1.75909
G1 X142.48 Y127.634 E.01447
G1 X106.754 Y91.908 E1.75193
G1 X106.754 Y92.444 E.01859
G1 X142.365 Y128.055 E1.7463
G1 X142.304 Y128.326 E.00963
G1 X142.289 Y128.514 E.00654
G1 X106.754 Y92.98 E1.74254
G1 X106.754 Y93.516 E.01859
M73 Q8 S42
G1 X142.249 Y129.011 E1.74061
G1 X142.3 Y129.598 E.02043
M73 P8 R42
G1 X106.754 Y94.052 E1.74311
G1 X106.754 Y94.588 E.01859
G1 X142.456 Y130.29 E1.75076
G1 X142.709 Y130.972 E.02522
M73 P8 R41
M73 Q8 S41
G1 X142.806 Y131.176 E.00783
G1 X106.754 Y95.125 E1.7679
G1 X106.754 Y95.661 E.01859
G1 X143.21 Y132.117 E1.78773
G1 X143.239 Y132.291 E.00612
G1 X143.243 Y132.686 E.0137
G1 X106.754 Y96.197 E1.78935
G1 X106.754 Y96.733 E.01859
G1 X143.198 Y133.177 E1.78714
G1 X143.181 Y133.224 E.00173
G1 X143.108 Y133.328 E.00441
G1 X143.022 Y133.4 E.00389
G1 X142.927 Y133.442 E.0036
G1 X106.754 Y97.269 E1.77385
G1 X106.754 Y97.805 E.01859
G1 X142.445 Y133.496 E1.75022
G1 X141.909 Y133.496 E.01859
G1 X106.754 Y98.341 E1.72393
G1 X106.754 Y98.878 E.01862
G1 X141.373 Y133.496 E1.69762
G1 X140.837 Y133.496 E.01859
M73 P9 R41
M73 Q9 S41
G1 X106.754 Y99.414 E1.67134
G1 X106.754 Y99.95 E.01859
G1 X140.301 Y133.496 E1.64506
G1 X139.765 Y133.496 E.01859
G1 X106.754 Y100.486 E1.61877
G1 X106.754 Y101.022 E.01859
G1 X139.229 Y133.496 E1.59249
G1 X138.692 Y133.496 E.01862
G1 X106.754 Y101.558 E1.56618
G1 X106.754 Y102.095 E.01862
G1 X138.156 Y133.496 E1.53987
G1 X137.62 Y133.496 E.01859
G1 X106.754 Y102.631 E1.51359
G1 X106.754 Y103.167 E.01859
G1 X137.084 Y133.496 E1.4873
G1 X136.548 Y133.496 E.01859
G1 X106.754 Y103.703 E1.46102
G1 X106.754 Y104.239 E.01859
G1 X136.012 Y133.496 E1.43473
G1 X135.476 Y133.496 E.01859
G1 X106.754 Y104.775 E1.40845
G1 X106.754 Y105.312 E.01862
G1 X134.939 Y133.496 E1.38211
G1 X134.403 Y133.496 E.01859
M73 P10 R41
M73 Q10 S41
G1 X106.755 Y105.848 E1.3558
G1 X106.755 Y106.384 E.01859
G1 X133.867 Y133.496 E1.32952
G1 X133.331 Y133.496 E.01859
G1 X106.755 Y106.92 E1.30324
G1 X106.755 Y107.456 E.01859
G1 X132.795 Y133.496 E1.27695
G1 X132.259 Y133.496 E.01859
G1 X106.755 Y107.992 E1.25067
G1 X106.755 Y108.528 E.01859
G1 X131.723 Y133.496 E1.22438
G1 X131.186 Y133.496 E.01862
M73 P10 R40
G1 X106.755 Y109.065 E1.19805
G1 X106.755 Y109.601 E.01859
M73 Q10 S40
G1 X130.65 Y133.496 E1.17177
G1 X130.114 Y133.496 E.01859
G1 X106.755 Y110.137 E1.14548
G1 X106.755 Y110.673 E.01859
G1 X129.578 Y133.496 E1.1192
G1 X129.042 Y133.496 E.01859
G1 X106.755 Y111.209 E1.09291
G1 X106.755 Y111.745 E.01859
G1 X128.506 Y133.496 E1.06663
G1 X127.97 Y133.496 E.01859
G1 X106.755 Y112.282 E1.04032
G1 X106.755 Y112.818 E.01859
G1 X127.434 Y133.496 E1.01403
G1 X126.897 Y133.496 E.01862
G1 X106.755 Y113.354 E.98773
G1 X106.755 Y113.89 E.01859
G1 X126.361 Y133.496 E.96144
G1 X125.825 Y133.496 E.01859
M73 P11 R40
M73 Q11 S40
G1 X106.755 Y114.426 E.93516
G1 X106.755 Y114.962 E.01859
G1 X125.289 Y133.496 E.90887
G1 X124.753 Y133.496 E.01859
G1 X106.755 Y115.498 E.88259
G1 X106.755 Y116.035 E.01862
G1 X124.217 Y133.496 E.85628
G1 X123.681 Y133.496 E.01859
G1 X106.755 Y116.571 E.82999
G1 X106.755 Y117.107 E.01859
G1 X123.144 Y133.496 E.80369
G1 X122.608 Y133.496 E.01859
G1 X106.755 Y117.643 E.7774
G1 X106.755 Y118.179 E.01859
G1 X122.072 Y133.496 E.75112
G1 X121.536 Y133.496 E.01859
G1 X106.755 Y118.715 E.72483
G1 X106.755 Y119.252 E.01862
G1 X121 Y133.496 E.69852
G1 X120.464 Y133.496 E.01859
G1 X106.755 Y119.788 E.67224
G1 X106.755 Y120.324 E.01859
G1 X119.928 Y133.496 E.64595
G1 X119.391 Y133.496 E.01862
G1 X106.755 Y120.86 E.61965
G1 X106.755 Y121.396 E.01859
G1 X118.855 Y133.496 E.59336
G1 X118.319 Y133.496 E.01859
G1 X106.755 Y121.932 E.56708
G1 X106.755 Y122.468 E.01859
G1 X117.783 Y133.496 E.54079
G1 X117.247 Y133.496 E.01859
G1 X106.755 Y123.005 E.51448
G1 X106.755 Y123.541 E.01859
G1 X116.711 Y133.496 E.4882
G1 X116.175 Y133.496 E.01859
G1 X106.755 Y124.077 E.46191
G1 X106.755 Y124.613 E.01859
G1 X115.638 Y133.496 E.43561
G1 X115.102 Y133.496 E.01859
G1 X106.755 Y125.149 E.40932
G1 X106.764 Y125.694 E.0189
G1 X114.566 Y133.496 E.3826
G1 X114.03 Y133.496 E.01859
G1 X107.055 Y126.522 E.34202
