; generated by PrusaSlicer 2.7.4 on 2024-04-08 at 13:52:52 UTC


;
;
; 

; external perimeters extrusion width = 0.60mm
; perimeters extrusion width = 0.50mm
; infill extrusion width = 0.50mm
; solid infill extrusion width = 0.50mm
; top infill extrusion width = 0.45mm
; first layer extrusion width = 0.42mm

M73 P0 R212
M73 Q0 S212
M201 X1000 Y1000 Z200 E5000 ; sets maximum accelerations, mm/sec^2
M203 X200 Y200 Z12 E120 ; sets maximum feedrates, mm / sec
M204 S1250 T1250 ; sets acceleration (S) and retract acceleration (R), mm/sec^2
M205 X8.00 Y8.00 Z0.40 E4.50 ; sets the jerk limits, mm/sec
M205 S0 T0 ; sets the minimum extruding and travel feed rate, mm/sec

; printing object Teammarker - TeammarkerLowerArm.stl id:0 copy 0
; stop printing object Teammarker - TeammarkerLowerArm.stl id:0 copy 0

;TYPE:Custom
M862.3 P "MK3" ; printer model check
M862.1 P0.4 ; nozzle diameter check
M115 U3.13.3 ; tell printer latest fw version
G90 ; use absolute coordinates
M83 ; extruder relative mode
M104 S230 ; set extruder temp
M140 S60 ; set bed temp
M190 S60 ; wait for bed temp
M109 S230 ; wait for extruder temp
G28 W ; home all without mesh bed level
G80 X39.1889 Y74.5801 W171.537 H66.1292 ; mesh bed levelling

G1 Z0.2 F720
G1 Y-3 F1000 ; go outside print area
G92 E0
G1 X60 E9 F1000 ; intro line
G1 X100 E12.5 F1000 ; intro line

G92 E0
M221 S95

; Don't change E values below. Excessive value can damage the printer.

M907 E538 ; set extruder motor current
G21 ; set units to millimeters
G90 ; use absolute coordinates
M83 ; use relative distances for extrusion
M900 K0 ; Filament gcode
M107
;LAYER_CHANGE
;Z:0.2
;HEIGHT:0.2
G1 X40.815 Y84.461 F10800
G1 Z.2 F720
M204 S800
;TYPE:Skirt/Brim
;WIDTH:0.42
G1 F954.706
G1 X41.554 Y84.276 E.02747
G1 X152.044 Y74.916 E3.99826
G1 X153.497 Y74.81 E.05253
G1 X155.826 Y74.78 E.08398
G1 X159.216 Y75.018 E.12254
G1 X160.634 Y75.226 E.05168
G1 X163.335 Y75.799 E.09956
G1 X191.51 Y83.073 E1.04923
G1 X193.559 Y83.696 E.07722
G1 X196.584 Y84.982 E.11852
G1 X199.419 Y86.649 E.11859
G1 X202.013 Y88.668 E.11853
G1 X204.325 Y91.005 E.11853
G1 X205.69 Y92.721 E.07906
G1 X206.955 Y94.637 E.08279
G1 X208.413 Y97.469 E.11485
G1 X209.204 Y99.514 E.07906
G1 X209.816 Y101.619 E.07904
G1 X210.26 Y103.871 E.08276
G1 X210.535 Y107.045 E.11488
G1 X210.492 Y109.237 E.07905
G1 X210.26 Y111.417 E.07905
G1 X209.816 Y113.669 E.08276
G1 X208.867 Y116.71 E.11487
G1 X207.996 Y118.722 E.07905
G1 X206.902 Y120.74 E.08277
G1 X205.69 Y122.568 E.07908
G1 X204.325 Y124.284 E.07906
G1 X202.09 Y126.553 E.11484
G1 X200.312 Y128.005 E.08277
G1 X197.642 Y129.742 E.11485
G1 X194.681 Y131.169 E.11852
G1 X192.516 Y131.933 E.08278
G1 X162.111 Y139.779 E1.13224
G1 X159.337 Y140.255 E.10149
G1 X156.729 Y140.484 E.0944
G1 X155.272 Y140.521 E.05255
G1 X152.656 Y140.425 E.09439
G1 X151.274 Y140.29 E.05007
G1 X41.49 Y128.007 E3.98323
G1 X40.235 Y127.472 E.04919
G1 X39.48 Y126.335 E.04921
G1 X39.377 Y125.644 E.02519
G1 X39.377 Y86.644 E1.40624
G1 X39.769 Y85.337 E.0492
G1 X40.769 Y84.499 E.04704
M204 S1000
; printing object Teammarker - TeammarkerLowerArm.stl id:0 copy 0
G1 X40.769 Y84.499 F10800
G1 X44.019 Y124.48
M204 S800
;TYPE:Perimeter
;WIDTH:0.419999
G1 F954.707
G1 X44.019 Y87.809 E1.32226
G1 X101.075 Y87.809 E2.05729
G1 X101.246 Y87.793 E.00619
G1 X149.812 Y78.801 E1.78093
G1 X151.087 Y78.594 E.04658
M73 P0 R211
G1 X152.356 Y78.444 E.04608
G1 X153.631 Y78.349 E.0461
G1 X154.908 Y78.31 E.04607
G1 X156.186 Y78.327 E.04609
G1 X157.463 Y78.399 E.04612
G1 X158.734 Y78.527 E.04606
G1 X159.999 Y78.71 E.04609
G1 X161.255 Y78.948 E.04609
G1 X162.512 Y79.243 E.04656
G1 X190.612 Y86.499 E1.04645
G1 X191.533 Y86.758 E.0345
G1 X192.429 Y87.052 E.034
G1 X193.27 Y87.37 E.03242
G1 X194.615 Y87.965 E.05303
G1 X195.45 Y88.388 E.03375
G1 X196.271 Y88.85 E.03397
G1 X197.072 Y89.347 E.03399
G1 X197.851 Y89.878 E.03399
G1 X198.606 Y90.442 E.03398
G1 X199.337 Y91.039 E.03403
G1 X200.041 Y91.667 E.03402
G1 X200.717 Y92.324 E.03399
G1 X201.365 Y93.01 E.03403
G1 X201.982 Y93.724 E.03403
G1 X202.568 Y94.463 E.03401
G1 X203.121 Y95.227 E.03401
G1 X203.64 Y96.015 E.03402
G1 X204.126 Y96.824 E.03403
G1 X204.575 Y97.653 E.03399
G1 X204.989 Y98.501 E.03403
G1 X205.365 Y99.366 E.03401
G1 X205.704 Y100.246 E.034
G1 X206.005 Y101.141 E.03405
G1 X206.266 Y102.047 E.034
G1 X206.488 Y102.964 E.03402
G1 X206.671 Y103.89 E.03403
G1 X206.813 Y104.822 E.03399
G1 X206.914 Y105.76 E.03402
G1 X206.976 Y106.701 E.034
G1 X206.996 Y107.644 E.03401
G1 X206.996 Y108.116 E.01702
G1 X206.955 Y109.059 E.03403
G1 X206.874 Y109.999 E.03402
M73 Q0 S211
G1 X206.752 Y110.935 E.03404
G1 X206.589 Y111.864 E.03401
G1 X206.387 Y112.786 E.03403
G1 X206.145 Y113.698 E.03402
G1 X205.864 Y114.599 E.03403
G1 X205.544 Y115.486 E.034
G1 X205.186 Y116.359 E.03402
G1 X204.791 Y117.216 E.03403
G1 X204.359 Y118.055 E.03403
G1 X203.892 Y118.875 E.03403
G1 X203.389 Y119.673 E.03401
G1 X202.852 Y120.449 E.03403
G1 X202.283 Y121.202 E.03403
G1 X201.681 Y121.928 E.03401
G1 X201.048 Y122.629 E.03406
G1 X200.386 Y123.301 E.03401
G1 X199.696 Y123.944 E.03401
G1 X198.978 Y124.556 E.03402
G1 X198.234 Y125.137 E.03404
G1 X197.466 Y125.686 E.03404
G1 X196.675 Y126.2 E.03401
G1 X195.863 Y126.68 E.03401
G1 X195.03 Y127.124 E.03404
G1 X194.18 Y127.532 E.034
G1 X193.312 Y127.903 E.03404
G1 X192.429 Y128.236 E.03403
G1 X191.533 Y128.531 E.03401
G1 X190.612 Y128.79 E.0345
G1 X162.511 Y136.046 E1.04648
G1 X161.32 Y136.327 E.04412
G1 X160.13 Y136.557 E.0437
G1 X158.931 Y136.737 E.04372
G1 X157.726 Y136.868 E.04371
G1 X156.517 Y136.949 E.04369
G1 X155.305 Y136.98 E.04372
G1 X154.093 Y136.96 E.04371
G1 X152.883 Y136.891 E.0437
G1 X151.676 Y136.772 E.04373
G1 X150.476 Y136.603 E.0437
G1 X149.284 Y136.384 E.0437
G1 X148.09 Y136.114 E.04414
G1 X101.309 Y124.508 E1.73794
G1 X101.082 Y124.48 E.00825
G1 X44.079 Y124.48 E2.05538
M204 S1000
G1 X44.079 Y124.48 F10800
G1 X43.642 Y124.857
M204 S800
G1 F954.707
G1 X43.642 Y87.431 E1.34948
G1 X101.075 Y87.431 E2.07088
G1 X149.748 Y78.43 E1.78478
G1 X151.034 Y78.22 E.04698
G1 X152.32 Y78.068 E.04669
G1 X153.611 Y77.972 E.04668
G1 X154.905 Y77.933 E.04668
G1 X156.199 Y77.95 E.04666
G1 X157.492 Y78.023 E.0467
G1 X158.78 Y78.152 E.04667
G1 X160.061 Y78.338 E.04667
G1 X161.333 Y78.579 E.04668
G1 X162.602 Y78.877 E.047
G1 X190.71 Y86.135 E1.04674
G1 X191.643 Y86.397 E.03494
G1 X192.555 Y86.697 E.03462
G1 X193.411 Y87.02 E.03299
G1 X194.778 Y87.625 E.0539
G1 X195.628 Y88.056 E.03436
G1 X196.462 Y88.525 E.0345
G1 X197.277 Y89.03 E.03457
G1 X198.07 Y89.571 E.03461
G1 X198.839 Y90.145 E.0346
G1 X199.582 Y90.752 E.03459
G1 X200.298 Y91.391 E.0346
G1 X200.986 Y92.06 E.0346
G1 X201.644 Y92.757 E.03456
G1 X202.272 Y93.483 E.03461
G1 X202.868 Y94.236 E.03463
G1 X203.431 Y95.013 E.0346
G1 X203.96 Y95.814 E.03461
G1 X204.453 Y96.637 E.03459
G1 X204.911 Y97.48 E.03459
G1 X205.331 Y98.343 E.03461
G1 X205.714 Y99.223 E.03461
G1 X206.059 Y100.119 E.03462
G1 X206.365 Y101.028 E.03458
G1 X206.631 Y101.95 E.0346
G1 X206.857 Y102.883 E.03461
G1 X207.042 Y103.825 E.03461
G1 X207.187 Y104.773 E.03458
G1 X207.29 Y105.727 E.0346
G1 X207.352 Y106.685 E.03462
G1 X207.373 Y107.644 E.03459
G1 X207.373 Y108.124 E.01731
G1 X207.332 Y109.083 E.03461
G1 X207.249 Y110.04 E.03464
G1 X207.125 Y110.991 E.03458
G1 X206.959 Y111.937 E.03463
G1 X206.754 Y112.875 E.03462
G1 X206.508 Y113.802 E.03458
G1 X206.222 Y114.719 E.03464
G1 X205.896 Y115.622 E.03462
G1 X205.532 Y116.51 E.0346
G1 X205.13 Y117.382 E.03462
G1 X204.691 Y118.235 E.03459
G1 X204.215 Y119.069 E.03463
G1 X203.704 Y119.881 E.03459
G1 X203.158 Y120.671 E.03463
G1 X202.578 Y121.436 E.03462
G1 X201.966 Y122.175 E.0346
G1 X201.323 Y122.887 E.03459
G1 X200.649 Y123.571 E.03463
G1 X199.947 Y124.225 E.03459
G1 X199.216 Y124.848 E.03463
G1 X198.46 Y125.439 E.0346
G1 X197.679 Y125.997 E.03461
G1 X196.874 Y126.521 E.03463
G1 X196.048 Y127.009 E.03459
G1 X195.201 Y127.461 E.03462
G1 X194.335 Y127.876 E.03463
G1 X193.453 Y128.253 E.03459
G1 X192.555 Y128.592 E.03461
G1 X191.643 Y128.892 E.03462
G1 X190.71 Y129.154 E.03494
G1 X162.602 Y136.412 E1.04674
G1 X161.399 Y136.696 E.04457
G1 X160.193 Y136.929 E.04429
G1 X158.979 Y137.111 E.04426
G1 X157.759 Y137.244 E.04425
G1 X156.534 Y137.326 E.04427
G1 X155.307 Y137.357 E.04426
G1 X154.079 Y137.337 E.04428
G1 X152.853 Y137.267 E.04428
G1 X151.632 Y137.146 E.04424
G1 X150.416 Y136.975 E.04428
G1 X149.208 Y136.754 E.04428
G1 X148.003 Y136.481 E.04455
G1 X101.218 Y124.874 E1.73809
G1 X101.082 Y124.857 E.00494
G1 X43.702 Y124.857 E2.06897
M204 S1000
G1 X43.702 Y124.857 F10800
G1 X43.264 Y125.234
M204 S800
;TYPE:External perimeter
G1 F954.707
G1 X43.264 Y87.054 E1.37667
G1 X101.075 Y87.054 E2.08451
G1 X149.683 Y78.058 E1.78244
G1 X150.982 Y77.847 E.04745
G1 X152.284 Y77.693 E.04727
G1 X153.591 Y77.596 E.04726
G1 X154.902 Y77.556 E.04729
G1 X156.213 Y77.573 E.04728
G1 X157.522 Y77.647 E.04727
G1 X158.826 Y77.778 E.04726
G1 X160.124 Y77.966 E.04729
G1 X161.412 Y78.21 E.04727
G1 X162.692 Y78.511 E.04741
G1 X190.809 Y85.771 E1.04708
G1 X191.753 Y86.036 E.03535
G1 X192.68 Y86.341 E.03519
G1 X193.551 Y86.67 E.03357
G1 X194.941 Y87.285 E.05481
G1 X195.805 Y87.723 E.03493
G1 X196.654 Y88.2 E.03511
G1 X197.483 Y88.714 E.03517
G1 X198.289 Y89.264 E.03518
G1 X199.071 Y89.848 E.03519
G1 X199.826 Y90.465 E.03516
G1 X200.555 Y91.115 E.03522
G1 X201.255 Y91.795 E.03519
G1 X201.924 Y92.505 E.03518
G1 X202.563 Y93.243 E.0352
G1 X203.169 Y94.008 E.03519
G1 X203.741 Y94.798 E.03517
G1 X204.279 Y95.613 E.03521
G1 X204.781 Y96.45 E.03519
G1 X205.246 Y97.308 E.03519
G1 X205.674 Y98.185 E.03519
G1 X206.063 Y99.08 E.03519
G1 X206.414 Y99.991 E.0352
G1 X206.725 Y100.916 E.03519
G1 X206.995 Y101.853 E.03516
G1 X207.225 Y102.802 E.03521
G1 X207.414 Y103.76 E.03521
G1 X207.561 Y104.724 E.03516
G1 X207.666 Y105.695 E.03522
G1 X207.729 Y106.669 E.03519
G1 X207.75 Y107.644 E.03516
G1 X207.75 Y108.132 E.0176
G1 X207.708 Y109.108 E.03522
G1 X207.624 Y110.08 E.03518
G1 X207.497 Y111.048 E.0352
G1 X207.33 Y112.01 E.03521
G1 X207.12 Y112.963 E.03519
G1 X206.87 Y113.907 E.03521
G1 X206.579 Y114.839 E.03521
G1 X206.248 Y115.757 E.03519
G1 X205.878 Y116.66 E.03519
G1 X205.469 Y117.547 E.03522
G1 X205.022 Y118.415 E.0352
G1 X204.539 Y119.263 E.03519
G1 X204.019 Y120.089 E.03519
G1 X203.463 Y120.892 E.03522
G1 X202.874 Y121.67 E.03519
G1 X202.251 Y122.422 E.03521
G1 X201.597 Y123.146 E.03518
G1 X200.912 Y123.842 E.03521
G1 X200.197 Y124.507 E.03521
G1 X199.455 Y125.141 E.03519
G1 X198.686 Y125.742 E.03519
G1 X197.891 Y126.309 E.03521
G1 X197.073 Y126.841 E.03518
G1 X196.232 Y127.338 E.03522
G1 X195.371 Y127.797 E.03518
G1 X194.491 Y128.22 E.03521
G1 X193.593 Y128.603 E.0352
G1 X192.68 Y128.948 E.03519
G1 X191.753 Y129.253 E.03519
G1 X190.809 Y129.518 E.03535
G1 X162.692 Y136.778 E1.04708
G1 X161.478 Y137.065 E.04498
G1 X160.257 Y137.3 E.04483
G1 X159.028 Y137.485 E.04481
G1 X157.792 Y137.619 E.04483
G1 X156.551 Y137.702 E.04485
G1 X155.308 Y137.734 E.04483
G1 X154.065 Y137.714 E.04483
G1 X152.824 Y137.643 E.04482
G1 X151.587 Y137.521 E.04482
G1 X150.356 Y137.347 E.04483
G1 X149.133 Y137.123 E.04483
G1 X147.916 Y136.848 E.04499
G1 X101.082 Y125.234 E1.73986
G1 X43.324 Y125.234 E2.0826
M73 P0 R210
M204 S1000
G1 X43.265 Y124.839 F10800
M73 Q0 S210
G1 X202.271 Y94.353
M204 S800
;TYPE:Solid infill
;WIDTH:0.4202
G1 F954.198
G1 X200.147 Y92.229 E.10837
G1 X199.47 Y91.598 E.03339
G1 X198.763 Y90.995 E.03352
G1 X198.031 Y90.423 E.03351
G1 X197.255 Y89.871 E.03436
G1 X202.924 Y95.539 E.28921
G1 X203.601 Y96.589 E.04507
G1 X203.815 Y96.964 E.01558
G1 X195.841 Y88.99 E.40683
G1 X194.699 Y88.382 E.04667
G1 X204.43 Y98.113 E.49648
G1 X204.894 Y99.11 E.03967
G1 X193.709 Y87.925 E.57066
G1 X192.808 Y87.558 E.0351
G1 X205.257 Y100.007 E.63515
G1 X205.555 Y100.838 E.03185
G1 X191.978 Y87.261 E.6927
G1 X191.2 Y87.017 E.02942
G1 X205.797 Y101.614 E.74474
G1 X205.994 Y102.344 E.02728
G1 X190.459 Y86.81 E.79257
G1 X189.74 Y86.624 E.02679
G1 X206.158 Y103.042 E.83765
G1 X206.295 Y103.713 E.02471
G1 X189.021 Y86.438 E.88135
G1 X188.302 Y86.253 E.02678
G1 X206.408 Y104.359 E.92377
G1 X206.49 Y104.975 E.02242
G1 X187.582 Y86.067 E.96469
G1 X186.863 Y85.881 E.02679
G1 X206.558 Y105.576 E1.00484
G1 X206.609 Y106.16 E.02115
G1 X186.144 Y85.695 E1.04412
G1 X185.425 Y85.51 E.02678
M73 P1 R210
M73 Q1 S210
G1 X206.637 Y106.722 E1.08224
G1 X206.657 Y107.275 E.01996
G1 X184.705 Y85.324 E1.11997
G1 X183.986 Y85.138 E.02679
G1 X206.657 Y107.809 E1.15667
G1 X206.647 Y108.333 E.01891
G1 X183.267 Y84.953 E1.19285
G1 X182.547 Y84.767 E.02683
G1 X206.625 Y108.844 E1.22843
G1 X206.59 Y109.343 E.01805
G1 X181.828 Y84.581 E1.26336
G1 X181.109 Y84.395 E.02679
G1 X206.547 Y109.834 E1.29787
G1 X206.491 Y110.311 E.01733
G1 X180.39 Y84.21 E1.33167
G1 X179.67 Y84.024 E.02683
G1 X206.429 Y110.783 E1.36524
G1 X206.354 Y111.241 E.01674
G1 X178.951 Y83.838 E1.3981
G1 X178.232 Y83.653 E.02678
G1 X206.274 Y111.695 E1.4307
G1 X206.182 Y112.137 E.01629
G1 X177.513 Y83.467 E1.46272
G1 X176.793 Y83.281 E.02683
G1 X206.086 Y112.574 E1.49453
G1 X205.979 Y113.001 E.01588
G1 X176.074 Y83.095 E1.52578
G1 X175.355 Y82.91 E.02678
G1 X205.867 Y113.422 E1.55672
G1 X205.747 Y113.835 E.01552
M73 P1 R209
G1 X174.635 Y82.724 E1.58731
G1 X173.916 Y82.538 E.02679
G1 X205.62 Y114.242 E1.61754
M73 Q1 S209
G1 X205.487 Y114.643 E.01524
G1 X173.197 Y82.353 E1.64744
G1 X172.478 Y82.167 E.02679
G1 X205.346 Y115.035 E1.67693
G1 X205.203 Y115.425 E.01499
G1 X171.758 Y81.981 E1.70634
G1 X171.039 Y81.795 E.02679
G1 X205.047 Y115.804 E1.73511
G1 X204.892 Y116.182 E.01474
G1 X170.32 Y81.61 E1.76386
G1 X169.601 Y81.424 E.02679
G1 X204.725 Y116.549 E1.79205
G1 X204.557 Y116.914 E.0145
G1 X168.881 Y81.238 E1.82019
G1 X168.162 Y81.053 E.02678
G1 X204.381 Y117.272 E1.84789
G1 X204.2 Y117.624 E.01428
G1 X167.443 Y80.867 E1.87534
G1 X166.724 Y80.681 E.02679
G1 X204.015 Y117.973 E1.90261
G1 X203.822 Y118.313 E.0141
G1 X166.004 Y80.495 E1.92948
G1 X165.285 Y80.31 E.02678
G1 X203.628 Y118.653 E1.95626
G1 X203.423 Y118.982 E.01398
G1 X164.566 Y80.124 E1.98251
G1 X163.846 Y79.938 E.02683
G1 X203.217 Y119.309 E2.00871
G1 X203.006 Y119.631 E.01389
G1 X163.127 Y79.753 E2.0346
G1 X162.409 Y79.568 E.02675
G1 X202.787 Y119.946 E2.06009
G1 X202.569 Y120.261 E.01382
G1 X161.711 Y79.404 E2.08455
G1 X161.023 Y79.249 E.02544
M73 P1 R208
G1 X202.339 Y120.565 E2.10794
G1 X202.109 Y120.869 E.01375
M73 Q1 S208
G1 X160.365 Y79.124 E2.12981
G1 X159.719 Y79.012 E.02365
G1 X201.872 Y121.165 E2.15065
G1 X201.63 Y121.457 E.01368
G1 X159.095 Y78.922 E2.17014
G1 X158.482 Y78.842 E.0223
G1 X201.387 Y121.747 E2.18901
G1 X201.134 Y122.028 E.01364
G1 X157.889 Y78.783 E2.20636
G1 X157.302 Y78.73 E.02126
G1 X200.881 Y122.308 E2.22338
G1 X200.619 Y122.58 E.01362
G1 X156.737 Y78.698 E2.23886
G1 X156.171 Y78.666 E.02045
M73 P2 R208
M73 Q2 S208
G1 X200.355 Y122.849 E2.25424
G1 X200.087 Y123.115 E.01362
G1 X155.631 Y78.659 E2.26815
G1 X155.09 Y78.652 E.01952
G1 X199.811 Y123.373 E2.28167
G1 X199.535 Y123.63 E.01361
G1 X154.565 Y78.66 E2.29437
G1 X154.047 Y78.676 E.0187
G1 X199.249 Y123.878 E2.30621
G1 X198.962 Y124.124 E.01364
G1 X153.534 Y78.696 E2.31774
G1 X153.037 Y78.733 E.01798
G1 X198.67 Y124.366 E2.3282
G1 X198.371 Y124.6 E.0137
M73 P2 R207
G1 X152.541 Y78.77 E2.33825
G1 X152.058 Y78.821 E.01752
M73 Q2 S207
G1 X198.071 Y124.834 E2.34758
G1 X197.761 Y125.058 E.0138
G1 X151.581 Y78.877 E2.35613
G1 X151.105 Y78.935 E.0173
G1 X197.45 Y125.28 E2.36452
G1 X197.133 Y125.497 E.01386
G1 X150.646 Y79.009 E2.37179
G1 X150.187 Y79.084 E.01678
G1 X196.81 Y125.707 E2.37871
G1 X196.487 Y125.917 E.0139
G1 X149.731 Y79.161 E2.38549
G1 X149.28 Y79.245 E.01655
G1 X196.151 Y126.116 E2.39136
G1 X195.816 Y126.314 E.01404
G1 X148.83 Y79.328 E2.39723
G1 X148.38 Y79.411 E.01651
G1 X195.472 Y126.504 E2.40266
G1 X195.125 Y126.69 E.0142
G1 X147.93 Y79.495 E2.40789
G1 X147.479 Y79.578 E.01654
G1 X194.773 Y126.872 E2.41294
G1 X194.412 Y127.044 E.01443
G1 X147.029 Y79.661 E2.41748
G1 X146.579 Y79.744 E.01651
G1 X194.052 Y127.217 E2.42207
G1 X193.678 Y127.378 E.01469
M73 P2 R206
G1 X146.129 Y79.828 E2.42598
