; generated by PrusaSlicer 2.7.4 on 2024-04-28 at 14:07:35 UTC


;
;
; 

; external perimeters extrusion width = 0.45mm
; perimeters extrusion width = 0.45mm
; infill extrusion width = 0.45mm
; solid infill extrusion width = 0.45mm
; top infill extrusion width = 0.40mm
; first layer extrusion width = 0.42mm

; external perimeters extrusion width = 0.45mm
; perimeters extrusion width = 0.45mm
; infill extrusion width = 0.45mm
; solid infill extrusion width = 0.45mm
; top infill extrusion width = 0.40mm
; first layer extrusion width = 0.42mm

M73 P0 R64
M73 Q0 S64
M201 X1000 Y1000 Z200 E5000 ; sets maximum accelerations, mm/sec^2
M203 X200 Y200 Z12 E120 ; sets maximum feedrates, mm / sec
M204 S1250 T1250 ; sets acceleration (S) and retract acceleration (R), mm/sec^2
M205 X8.00 Y8.00 Z0.40 E4.50 ; sets the jerk limits, mm/sec
M205 S0 T0 ; sets the minimum extruding and travel feed rate, mm/sec

; printing object Teammarker_einfach.stl id:1 copy 0
; stop printing object Teammarker_einfach.stl id:1 copy 0
; printing object Teammarker_zweifach.stl id:0 copy 0
; stop printing object Teammarker_zweifach.stl id:0 copy 0

;TYPE:Custom
M862.3 P "MK3" ; printer model check
M862.1 P0.4 ; nozzle diameter check
M115 U3.13.3 ; tell printer latest fw version
G90 ; use absolute coordinates
M83 ; extruder relative mode
M104 S230 ; set extruder temp
M140 S50 ; set bed temp
M190 S50 ; wait for bed temp
M109 S230 ; wait for extruder temp
G28 W ; home all without mesh bed level
G80 X80.4344 Y72.4344 W89.1312 H65.1312 ; mesh bed levelling

G1 Z0.2 F720
G1 Y-3 F1000 ; go outside print area
G92 E0
G1 X60 E9 F1000 ; intro line
G1 X100 E12.5 F1000 ; intro line

G92 E0
M221 S95

; Don't change E values below. Excessive value can damage the printer.
M907 E430 ; set extruder motor current
G21 ; set units to millimeters
G90 ; use absolute coordinates
M83 ; use relative distances for extrusion
M900 K0 ; Filament gcode
M107
;LAYER_CHANGE
;Z:0.2
;HEIGHT:0.2
G1 E-1 F2100
G1 Z.2 F720
G1 X81.015 Y73.693 F10800
G1 Z.2 F720
G1 E1 F1500
M204 S800
;TYPE:Skirt/Brim
;WIDTH:0.42
G1 F1200
G1 X82.06 Y72.817 E.04703
G1 X83 Y72.623 E.0331
G1 X167 Y72.623 E2.89714
G1 X168.307 Y73.015 E.04706
G1 X169.183 Y74.06 E.04703
G1 X169.377 Y75 E.0331
G1 X169.377 Y133.5 E2.01765
G1 X169.273 Y134.39 E.0309
G1 X168.962 Y135.244 E.03135
G1 X168.436 Y136.032 E.03268
G1 X167.766 Y136.646 E.03134
G1 X166.715 Y137.182 E.04069
G1 X165.5 Y137.377 E.04244
G1 X84.5 Y137.377 E2.79367
G1 X83.619 Y137.275 E.03059
G1 X82.766 Y136.967 E.03128
G1 X81.969 Y136.436 E.03303
G1 X81.356 Y135.769 E.03124
G1 X80.822 Y134.724 E.04047
G1 X80.623 Y133.511 E.0424
G1 X80.623 Y75 E2.01803
G1 X80.997 Y73.75 E.045
M204 S1000
G1 E-1 F2100
G1 X80.997 Y73.75 F10800
; printing object Teammarker_zweifach.stl id:0 copy 0
G1 X129.164 Y76.164
G1 E1 F1500
M204 S800
;TYPE:Perimeter
;WIDTH:0.419999
G1 F1200
G1 X165.836 Y76.164 E1.26481
G1 X165.836 Y94.499 E.63237
G1 X165.824 Y106.288 E.4066
G1 X165.687 Y106.785 E.01778
G1 X165.257 Y107.694 E.03468
G1 X165.06 Y108.197 E.01863
G1 X164.891 Y108.868 E.02387
G1 X164.838 Y109.503 E.02198
G1 X164.893 Y110.146 E.02226
G1 X165.052 Y110.782 E.02261
G1 X165.265 Y111.325 E.02012
G1 X165.726 Y112.318 E.03776
G1 X165.834 Y112.847 E.01862
G1 X165.829 Y125.1 E.4226
G1 X165.803 Y126.418 E.04547
G1 X165.671 Y126.802 E.014
G1 X165.214 Y127.799 E.03783
G1 X165.009 Y128.355 E.02044
G1 X164.891 Y128.868 E.01816
G1 X164.838 Y129.503 E.02198
G1 X164.893 Y130.146 E.02226
G1 X165.052 Y130.782 E.02261
G1 X165.265 Y131.325 E.02012
G1 X165.714 Y132.292 E.03677
G1 X165.828 Y132.79 E.01762
G1 X165.833 Y133.39 E.02069
G1 X165.791 Y133.621 E.0081
G1 X165.69 Y133.753 E.00573
G1 X165.467 Y133.836 E.00821
G1 X129.575 Y133.836 E1.2379
G1 X129.304 Y133.755 E.00976
G1 X129.198 Y133.611 E.00617
G1 X129.167 Y133.391 E.00766
G1 X129.195 Y132.692 E.02413
G1 X129.337 Y132.181 E.01829
G1 X129.759 Y131.269 E.03466
G1 X129.986 Y130.657 E.02251
G1 X130.13 Y129.99 E.02353
G1 X130.159 Y129.346 E.02223
G1 X130.086 Y128.737 E.02115
G1 X129.957 Y128.247 E.01748
G1 X129.747 Y127.701 E.02018
G1 X129.275 Y126.687 E.03858
G1 X129.172 Y126.238 E.01589
G1 X129.166 Y112.959 E.45799
G1 X129.2 Y112.572 E.0134
G1 X129.339 Y112.178 E.01441
G1 X129.759 Y111.269 E.03454
G1 X129.986 Y110.657 E.02251
G1 X130.13 Y109.99 E.02353
G1 X130.159 Y109.346 E.02223
G1 X130.086 Y108.737 E.02115
G1 X129.957 Y108.247 E.01748
G1 X129.747 Y107.701 E.02018
G1 X129.275 Y106.687 E.03858
G1 X129.166 Y106.139 E.01927
G1 X129.164 Y76.224 E1.03176
M204 S1000
G1 X129.164 Y76.224 F10800
G1 X128.787 Y75.787
M204 S800
G1 F1200
G1 X166.213 Y75.787 E1.29081
G1 X166.213 Y94.499 E.64537
G1 X166.209 Y106.15 E.40184
G1 X166.134 Y106.655 E.01761
G1 X165.981 Y107.046 E.01448
G1 X165.424 Y108.296 E.0472
G1 X165.266 Y108.907 E.02177
G1 X165.215 Y109.479 E.01981
G1 X165.26 Y110.059 E.02006
G1 X165.404 Y110.646 E.02085
G1 X165.607 Y111.166 E.01925
G1 X166.124 Y112.334 E.04405
G1 X166.211 Y112.825 E.0172
G1 X166.205 Y126.091 E.45754
G1 X166.173 Y126.497 E.01405
G1 X166.013 Y126.961 E.01693
G1 X165.58 Y127.896 E.03554
G1 X165.395 Y128.381 E.0179
G1 X165.266 Y128.907 E.01868
G1 X165.215 Y129.479 E.01981
G1 X165.26 Y130.059 E.02006
G1 X165.404 Y130.646 E.02085
G1 X165.607 Y131.166 E.01925
G1 X166.005 Y132.022 E.03256
G1 X166.109 Y132.329 E.01118
G1 X166.206 Y132.888 E.01957
G1 X166.187 Y133.589 E.02419
G1 X166.077 Y133.893 E.01115
G1 X165.825 Y134.124 E.01179
G1 X165.479 Y134.213 E.01232
G1 X129.608 Y134.213 E1.23718
G1 X129.294 Y134.174 E.01091
M73 Q1 S64
G1 X129.071 Y134.059 E.00865
G1 X128.902 Y133.874 E.00864
G1 X128.789 Y133.514 E.01301
G1 X128.794 Y132.888 E.02159
G1 X128.891 Y132.329 E.01957
G1 X128.995 Y132.022 E.01118
G1 X129.407 Y131.133 E.03379
G1 X129.619 Y130.571 E.02072
M73 P1 R64
G1 X129.74 Y130.059 E.01815
G1 X129.785 Y129.479 E.02006
G1 X129.734 Y128.907 E.01981
G1 X129.605 Y128.381 E.01868
G1 X129.405 Y127.86 E.01925
G1 X128.921 Y126.82 E.03956
G1 X128.795 Y126.265 E.01963
G1 X128.789 Y112.959 E.45892
G1 X128.829 Y112.496 E.01603
G1 X128.997 Y112.019 E.01744
G1 X129.407 Y111.133 E.03367
G1 X129.619 Y110.571 E.02072
G1 X129.754 Y109.966 E.02138
G1 X129.784 Y109.384 E.0201
G1 X129.729 Y108.867 E.01793
G1 X129.605 Y108.381 E.0173
G1 X129.405 Y107.86 E.01925
G1 X128.878 Y106.67 E.04489
G1 X128.789 Y106.161 E.01782
G1 X128.787 Y75.847 E1.04552
M204 S1000
G1 X128.787 Y75.847 F10800
G1 X128.41 Y75.41
M204 S800
;TYPE:External perimeter
G1 F1200
G1 X166.59 Y75.41 E1.31682
G1 X166.59 Y94.499 E.65837
G1 X166.584 Y106.195 E.40339
G1 X166.498 Y106.756 E.01957
G1 X166.321 Y107.208 E.01674
G1 X165.788 Y108.395 E.04488
G1 X165.641 Y108.946 E.01967
G1 X165.591 Y109.455 E.01764
G1 X165.627 Y109.973 E.01791
G1 X165.755 Y110.509 E.01901
G1 X165.949 Y111.007 E.01843
G1 X166.486 Y112.228 E.046
G1 X166.588 Y112.802 E.02011
G1 X166.582 Y126.091 E.45833
G1 X166.543 Y126.576 E.01678
G1 X166.355 Y127.12 E.01985
G1 X165.932 Y128.031 E.03464
G1 X165.747 Y128.516 E.0179
G1 X165.641 Y128.946 E.01527
G1 X165.591 Y129.455 E.01764
G1 X165.627 Y129.973 E.01791
G1 X165.755 Y130.509 E.01901
G1 X165.949 Y131.007 E.01843
G1 X166.432 Y132.047 E.03955
G1 X166.581 Y132.702 E.02317
G1 X166.589 Y133.533 E.02866
G1 X166.483 Y133.963 E.01527
G1 X166.303 Y134.233 E.01119
G1 X166.002 Y134.464 E.01309
G1 X165.491 Y134.59 E.01815
G1 X129.608 Y134.59 E1.23759
G1 X129.175 Y134.538 E.01504
G1 X128.838 Y134.362 E.01311
G1 X128.582 Y134.082 E.01309
G1 X128.508 Y133.915 E.0063
G1 X128.411 Y133.542 E.01329
G1 X128.419 Y132.702 E.02897
G1 X128.523 Y132.245 E.01616
G1 X128.654 Y131.863 E.01393
G1 X129.056 Y130.996 E.03296
G1 X129.252 Y130.484 E.01891
G1 X129.373 Y129.973 E.01811
G1 X129.409 Y129.455 E.01791
G1 X129.359 Y128.946 E.01764
G1 X129.253 Y128.516 E.01527
G1 X129.063 Y128.019 E.01835
G1 X128.568 Y126.953 E.04054
G1 X128.418 Y126.291 E.02341
G1 X128.412 Y112.959 E.45982
G1 X128.458 Y112.42 E.01866
G1 X128.655 Y111.86 E.02047
G1 X129.056 Y110.996 E.03285
G1 X129.252 Y110.484 E.01891
G1 X129.377 Y109.946 E.01905
G1 X129.409 Y109.447 E.01725
G1 X129.359 Y108.946 E.01737
G1 X129.253 Y108.516 E.01527
G1 X129.063 Y108.019 E.01835
G1 X128.516 Y106.776 E.04684
G1 X128.412 Y106.183 E.02076
G1 X128.41 Y75.47 E1.05928
M204 S1000
G1 X128.806 Y75.411 F10800
M73 P1 R63
G1 E-1 F2100
G1 X164.901 Y76.334 F10800
G1 E1 F1500
M204 S800
;TYPE:Solid infill
;WIDTH:0.421143
G1 F1200
G1 X165.496 Y76.929 E.02911
G1 X165.496 Y77.464 E.01851
G1 X164.536 Y76.504 E.04697
G1 X164.001 Y76.504 E.01851
G1 X165.496 Y77.999 E.07314
G1 X165.496 Y78.534 E.01851
G1 X163.466 Y76.504 E.09932
G1 X162.932 Y76.504 E.01847
G1 X165.496 Y79.068 E.12544
G1 X165.496 Y79.603 E.01851
G1 X162.397 Y76.504 E.15161
G1 X161.862 Y76.504 E.01851
G1 X165.496 Y80.138 E.17779
G1 X165.496 Y80.673 E.01851
G1 X161.327 Y76.504 E.20396
G1 X160.792 Y76.504 E.01851
G1 X165.496 Y81.208 E.23014
G1 X165.496 Y81.743 E.01851
G1 X160.257 Y76.504 E.25631
G1 X159.722 Y76.504 E.01851
G1 X165.496 Y82.278 E.28249
G1 X165.496 Y82.813 E.01851
G1 X159.187 Y76.504 E.30866
G1 X158.652 Y76.504 E.01851
M73 Q1 S63
G1 X165.496 Y83.348 E.33483
G1 X165.496 Y83.882 E.01847
G1 X158.118 Y76.504 E.36096
G1 X157.583 Y76.504 E.01851
G1 X165.496 Y84.417 E.38713
G1 X165.496 Y84.952 E.01851
G1 X157.048 Y76.504 E.41331
G1 X156.513 Y76.504 E.01851
G1 X165.496 Y85.487 E.43948
G1 X165.496 Y86.022 E.01851
G1 X155.978 Y76.504 E.46566
G1 X155.443 Y76.504 E.01851
G1 X165.496 Y86.557 E.49183
G1 X165.496 Y87.092 E.01851
G1 X154.908 Y76.504 E.518
G1 X154.373 Y76.504 E.01851
G1 X165.496 Y87.627 E.54418
G1 X165.496 Y88.162 E.01851
G1 X153.838 Y76.504 E.57035
G1 X153.304 Y76.504 E.01847
G1 X165.496 Y88.696 E.59648
G1 X165.496 Y89.231 E.01851
G1 X152.769 Y76.504 E.62265
G1 X152.234 Y76.504 E.01851
G1 X165.496 Y89.766 E.64883
G1 X165.496 Y90.301 E.01851
G1 X151.699 Y76.504 E.675
G1 X151.164 Y76.504 E.01851
G1 X165.496 Y90.836 E.70118
G1 X165.496 Y91.371 E.01851
G1 X150.629 Y76.504 E.72735
G1 X150.094 Y76.504 E.01851
G1 X165.496 Y91.906 E.75352
G1 X165.496 Y92.441 E.01851
G1 X149.559 Y76.504 E.7797
G1 X149.025 Y76.504 E.01847
G1 X165.496 Y92.975 E.80582
G1 X165.496 Y93.51 E.01851
G1 X148.49 Y76.504 E.832
G1 X147.955 Y76.504 E.01851
G1 X165.496 Y94.045 E.85817
G1 X165.496 Y94.58 E.01851
G1 X147.42 Y76.504 E.88435
G1 X146.885 Y76.504 E.01851
G1 X165.496 Y95.115 E.91052
G1 X165.496 Y95.65 E.01851
G1 X146.35 Y76.504 E.93669
G1 X145.815 Y76.504 E.01851
M73 P2 R63
M73 Q2 S63
G1 X165.496 Y96.185 E.96287
G1 X165.496 Y96.72 E.01851
G1 X145.28 Y76.504 E.98904
G1 X144.745 Y76.504 E.01851
G1 X165.496 Y97.255 E1.01522
G1 X165.496 Y97.789 E.01847
G1 X144.211 Y76.504 E1.04134
G1 X143.676 Y76.504 E.01851
G1 X165.496 Y98.324 E1.06752
G1 X165.496 Y98.859 E.01851
G1 X143.141 Y76.504 E1.09369
G1 X142.606 Y76.504 E.01851
G1 X165.496 Y99.394 E1.11986
G1 X165.496 Y99.929 E.01851
G1 X142.071 Y76.504 E1.14604
G1 X141.536 Y76.504 E.01851
G1 X165.496 Y100.464 E1.17221
G1 X165.496 Y100.999 E.01851
G1 X141.001 Y76.504 E1.19839
G1 X140.466 Y76.504 E.01851
G1 X165.496 Y101.534 E1.22456
G1 X165.496 Y102.069 E.01851
G1 X139.931 Y76.504 E1.25074
G1 X139.397 Y76.504 E.01847
G1 X165.496 Y102.603 E1.27686
G1 X165.496 Y103.138 E.01851
G1 X138.862 Y76.504 E1.30303
G1 X138.327 Y76.504 E.01851
G1 X165.496 Y103.673 E1.32921
G1 X165.496 Y104.208 E.01851
G1 X137.792 Y76.504 E1.35538
G1 X137.257 Y76.504 E.01851
G1 X165.496 Y104.743 E1.38156
G1 X165.496 Y105.278 E.01851
G1 X136.722 Y76.504 E1.40773
G1 X136.187 Y76.504 E.01851
G1 X165.496 Y105.813 E1.43391
G1 X165.496 Y106.061 E.00858
M73 P2 R62
G1 X165.47 Y106.322 E.00907
G1 X135.652 Y76.504 E1.45881
G1 X135.117 Y76.504 E.01851
G1 X165.34 Y106.726 E1.4786
G1 X165.168 Y107.089 E.0139
M73 Q3 S62
G1 X134.583 Y76.504 E1.49633
G1 X134.048 Y76.504 E.01851
M73 P3 R62
G1 X164.996 Y107.452 E1.51409
G1 X164.839 Y107.829 E.01413
G1 X133.513 Y76.504 E1.53256
G1 X132.978 Y76.504 E.01851
G1 X164.701 Y108.227 E1.55201
G1 X164.59 Y108.65 E.01513
G1 X132.443 Y76.504 E1.57273
G1 X131.908 Y76.504 E.01851
G1 X164.527 Y109.122 E1.59582
G1 X164.497 Y109.418 E.01029
G1 X164.511 Y109.641 E.00773
G1 X131.373 Y76.504 E1.62121
G1 X130.838 Y76.504 E.01851
G1 X164.569 Y110.234 E1.65022
G1 X164.698 Y110.792 E.01981
G1 X164.763 Y110.963 E.00633
G1 X130.303 Y76.504 E1.68589
G1 X129.769 Y76.504 E.01847
G1 X165.152 Y111.887 E1.73107
G1 X165.408 Y112.438 E.02102
G1 X165.48 Y112.75 E.01108
G1 X129.504 Y76.773 E1.7601
G1 X129.504 Y77.308 E.01851
G1 X165.494 Y113.299 E1.76079
G1 X165.494 Y113.834 E.01851
G1 X129.504 Y77.843 E1.76079
G1 X129.504 Y78.378 E.01851
G1 X165.494 Y114.368 E1.76077
G1 X165.493 Y114.903 E.01851
G1 X129.504 Y78.913 E1.76074
G1 X129.504 Y79.448 E.01851
G1 X165.493 Y115.438 E1.76074
G1 X165.493 Y115.972 E.01847
M73 Q4 S62
G1 X129.504 Y79.983 E1.76072
G1 X129.504 Y80.518 E.01851
M73 P4 R62
G1 X165.493 Y116.507 E1.76072
G1 X165.493 Y117.042 E.01851
G1 X129.504 Y81.053 E1.76072
G1 X129.504 Y81.588 E.01851
G1 X165.492 Y117.576 E1.76067
G1 X165.492 Y118.111 E.01851
G1 X129.504 Y82.123 E1.76067
G1 X129.504 Y82.658 E.01851
G1 X165.492 Y118.646 E1.76067
G1 X165.492 Y119.18 E.01847
M73 P4 R61
G1 X129.504 Y83.192 E1.76067
G1 X129.504 Y83.727 E.01851
G1 X165.492 Y119.715 E1.76067
G1 X165.491 Y120.25 E.01851
M73 Q4 S61
G1 X129.504 Y84.262 E1.76064
G1 X129.504 Y84.797 E.01851
G1 X165.491 Y120.784 E1.76062
G1 X165.491 Y121.319 E.01851
G1 X129.504 Y85.332 E1.76062
G1 X129.504 Y85.867 E.01851
G1 X165.491 Y121.854 E1.76062
G1 X165.49 Y122.388 E.01847
G1 X129.504 Y86.402 E1.76057
G1 X129.504 Y86.937 E.01851
G1 X165.49 Y122.923 E1.76057
G1 X165.49 Y123.458 E.01851
G1 X129.504 Y87.472 E1.76057
G1 X129.504 Y88.007 E.01851
G1 X165.49 Y123.992 E1.76055
G1 X165.49 Y124.527 E.01851
M73 P5 R61
M73 Q5 S61
G1 X129.504 Y88.542 E1.76055
G1 X129.504 Y89.077 E.01851
G1 X165.489 Y125.062 E1.76052
G1 X165.489 Y125.596 E.01847
G1 X129.504 Y89.611 E1.76052
G1 X129.504 Y90.146 E.01851
G1 X165.489 Y126.131 E1.76052
G1 X165.471 Y126.346 E.00746
G1 X165.401 Y126.578 E.00838
G1 X129.504 Y90.681 E1.75622
G1 X129.504 Y91.216 E.01851
G1 X165.231 Y126.943 E1.7479
G1 X165.062 Y127.308 E.01391
G1 X129.504 Y91.751 E1.73961
G1 X129.504 Y92.286 E.01851
G1 X164.899 Y127.681 E1.73166
G1 X164.754 Y128.07 E.01436
G1 X129.504 Y92.821 E1.72454
G1 X129.504 Y93.356 E.01851
G1 X164.632 Y128.483 E1.71857
G1 X164.545 Y128.931 E.01579
G1 X129.504 Y93.891 E1.71431
G1 X129.505 Y94.426 E.01851
G1 X164.506 Y129.427 E1.71238
G1 X164.499 Y129.516 E.00309
G1 X164.541 Y129.997 E.0167
G1 X129.505 Y94.961 E1.71409
G1 X129.505 Y95.496 E.01851
G1 X164.664 Y130.655 E1.72011
G1 X164.97 Y131.496 E.03096
M73 P5 R60
G1 X129.505 Y96.03 E1.7351
G1 X129.505 Y96.565 E.01851
M73 P6 R60
M73 Q6 S61
G1 X165.406 Y132.467 E1.75644
G1 X165.489 Y132.83 E.01288
M73 Q6 S60
G1 X165.491 Y133.087 E.00889
G1 X129.505 Y97.1 E1.76059
G1 X129.505 Y97.635 E.01851
G1 X165.366 Y133.496 E1.75445
G1 X164.831 Y133.496 E.01851
G1 X129.505 Y98.17 E1.72828
G1 X129.505 Y98.705 E.01851
G1 X164.296 Y133.496 E1.70211
G1 X163.761 Y133.496 E.01851
G1 X129.505 Y99.24 E1.67593
G1 X129.505 Y99.775 E.01851
G1 X163.226 Y133.496 E1.64976
G1 X162.692 Y133.496 E.01847
G1 X129.505 Y100.31 E1.62361
G1 X129.505 Y100.845 E.01851
G1 X162.157 Y133.496 E1.59743
G1 X161.622 Y133.496 E.01851
G1 X129.505 Y101.38 E1.57126
G1 X129.505 Y101.915 E.01851
G1 X161.087 Y133.496 E1.54509
G1 X160.552 Y133.496 E.01851
G1 X129.505 Y102.449 E1.51894
G1 X129.505 Y102.984 E.01851
G1 X160.017 Y133.496 E1.49276
G1 X159.482 Y133.496 E.01851
G1 X129.505 Y103.519 E1.46659
G1 X129.505 Y104.054 E.01851
G1 X158.947 Y133.496 E1.44041
G1 X158.412 Y133.496 E.01851
G1 X129.505 Y104.589 E1.41424
G1 X129.505 Y105.124 E.01851
M73 P7 R60
M73 Q7 S60
G1 X157.878 Y133.496 E1.38809
G1 X157.343 Y133.496 E.01851
G1 X129.505 Y105.659 E1.36191
G1 X129.515 Y106.204 E.01886
G1 X156.808 Y133.496 E1.33525
G1 X156.273 Y133.496 E.01851
G1 X129.811 Y107.035 E1.2946
G1 X130.057 Y107.563 E.02015
G1 X130.213 Y107.971 E.01511
G1 X155.738 Y133.496 E1.24878
G1 X155.203 Y133.496 E.01851
G1 X130.43 Y108.723 E1.21199
G1 X130.494 Y109.322 E.02084
G1 X154.668 Y133.496 E1.18268
