; HEADER_BLOCK_START
; generated by OrcaSlicer 2.0.0 on 2024-06-14 at 21:07:31
; total layer number: 106
; filament_density: 1.04
; filament_diameter: 1.75
; max_z_height: 10.60
; HEADER_BLOCK_END

; THUMBNAIL_BLOCK_START

;
; THUMBNAIL_BLOCK_END

; external perimeters extrusion width = 0.45mm
; perimeters extrusion width = 0.45mm
; infill extrusion width = 0.45mm
; solid infill extrusion width = 0.45mm
; top infill extrusion width = 0.40mm
; first layer extrusion width = 0.42mm

; external perimeters extrusion width = 0.45mm
; perimeters extrusion width = 0.45mm
; infill extrusion width = 0.45mm
; solid infill extrusion width = 0.45mm
; top infill extrusion width = 0.40mm
; first layer extrusion width = 0.42mm

; EXECUTABLE_BLOCK_START
M73 P0 R118
M201 X2000 Y2000 Z300 E5000
M203 X200 Y200 Z12 E120
M204 P2000 R2500 T2000
M205 X9.00 Y9.00 Z0.20 E2.50 ; sets the jerk limits, mm/sec
;TYPE:Custom
M862.3 P "MK3S" ; printer model check
M862.1 P0.4 ; nozzle diameter check
M115 U3.13.0 ; tell printer latest fw version
G90 ; use absolute coordinates
M83 ; extruder relative mode
M104 S260 ; set extruder temp
M140 S105 ; set bed temp
M190 S105 ; wait for bed temp
M109 S260 ; wait for extruder temp
G28 W ; home all without mesh bed level
G80 ; mesh bed leveling

G1 Z0.2 F720
G1 Y-3 F1000 ; go outside print area
G92 E0
G1 X60 E9 F1000 ; intro line
G1 X100 E12.5 F1000 ; intro line

G92 E0
M221 S95
G90
G21
M83 ; use relative distances for extrusion
; Filament gcode
M900 K0.04 ; Filament gcode LA 1.5
M900 K20 ; Filament gcode LA 1.0
M106 S0
;LAYER_CHANGE
;Z:0.2
;HEIGHT:0.2
;BEFORE_LAYER_CHANGE
;0.2
G92 E0

G1 E-.8 F1800
;AFTER_LAYER_CHANGE
;0.2
;_SET_FAN_SPEED_CHANGING_LAYER
M204 S800
G1 Z.4 F720
G1 X12.345 Y29.803 F10800
G1 Z.4 F720
G1 Z.2
G1 E.8 F1800
;TYPE:Skirt
;WIDTH:0.42
G1 F3000
G1 X16.188 Y28.211 E.12131
G1 X16.788 Y28.051 E.01809
G1 X21.937 Y27.381 E.15141
G1 X111.174 Y23.145 E2.60505
G1 X223.924 Y23.062 E3.28773
G1 X228.876 Y23.714 E.14563
G1 X229.475 Y23.875 E.01809
G1 X234.089 Y25.786 E.14563
G1 X234.626 Y26.096 E.01809
G1 X238.589 Y29.137 E.14563
G1 X239.027 Y29.575 E.01809
G1 X242.068 Y33.537 E.14563
G1 X242.378 Y34.075 E.01809
G1 X244.289 Y38.689 E.14563
G1 X244.45 Y39.288 E.01809
G1 X245.122 Y44.538 E.15433
G1 X245.222 Y64.638 E.58611
G1 X244.55 Y69.912 E.15502
G1 X244.389 Y70.511 E.01809
G1 X242.478 Y75.125 E.14563
G1 X242.168 Y75.663 E.01809
G1 X239.127 Y79.625 E.14563
G1 X238.689 Y80.064 E.01809
G1 X234.726 Y83.104 E.14563
G1 X52.931 Y179.78 E6.00402
G1 X48.111 Y181.789 E.15227
G1 X47.511 Y181.949 E.01809
G1 X42.261 Y182.622 E.15433
G1 X22.161 Y182.722 E.58611
G1 X16.888 Y182.049 E.15502
G1 X16.288 Y181.889 E.01809
G1 X11.674 Y179.978 E.14563
G1 X11.137 Y179.667 E.01809
G1 X7.175 Y176.627 E.14563
G1 X6.736 Y176.188 E.01809
G1 X3.696 Y172.226 E.14563
G1 X3.385 Y171.689 E.01809
G1 X1.474 Y167.075 E.14563
G1 X1.314 Y166.475 E.01809
G1 X.641 Y161.216 E.15462
G1 X.541 Y48.889 E3.2754
G1 X1.214 Y43.625 E.15474
G1 X1.374 Y43.026 E.01809
G1 X3.285 Y38.411 E.14563
G1 X3.596 Y37.874 E.01809
G1 X6.636 Y33.912 E.14563
G1 X7.075 Y33.473 E.01809
G1 X11.037 Y30.433 E.14563
G1 X11.574 Y30.123 E.01809
G1 X12.308 Y29.819 E.02315
; printing object Holder.stl id:2816 copy 0
G1 E-.56 F1800
;WIPE_START
G1 F3000
G1 X13.232 Y29.436 E-.24
;WIPE_END
G1 Z.6 F720
G1 X22.15 Y142.273 Z.6 F10800
G1 Z.2 F720
G1 E.8 F1800
;TYPE:Brim
G1 F1200
G1 X24.86 Y142.629 E.07972
G1 X24.852 Y144.515 E.055
G1 X24.806 Y144.837 E.00946
G1 X24.684 Y145.258 E.01278
G1 X24.494 Y145.659 E.01296
G1 X22.24 Y149.567 E.13154
G1 X22.026 Y150.072 E.01601
G1 X21.901 Y150.59 E.01551
G1 X21.861 Y151.1 E.01493
G1 X21.861 Y161.113 E.29199
G1 X21.884 Y161.219 E.00314
G1 X21.974 Y161.332 E.00421
G1 X22.15 Y161.402 E.00553
G1 X42.15 Y161.402 E.58319
G1 X42.255 Y161.379 E.00314
G1 X42.368 Y161.289 E.00421
G1 X42.438 Y161.113 E.00553
G1 X42.438 Y151.099 E.292
G1 X42.398 Y150.59 E.01491
G1 X42.273 Y150.073 E.01551
G1 X42.058 Y149.566 E.01603
G1 X39.806 Y145.659 E.1315
G1 X39.615 Y145.258 E.01297
G1 X39.493 Y144.837 E.01277
G1 X39.447 Y144.516 E.00945
G1 X39.439 Y142.543 E.05755
G1 X42.25 Y142.173 E.08267
G1 X47.152 Y142.818 E.14418
G1 X51.72 Y144.71 E.14418
G1 X55.643 Y147.72 E.14418
G1 X58.653 Y151.643 E.14418
G1 X60.545 Y156.211 E.14418
G1 X61.19 Y161.113 E.14418
G1 X60.545 Y166.016 E.14418
G1 X58.653 Y170.584 E.14418
G1 X55.643 Y174.507 E.14418
G1 X51.72 Y177.517 E.14418
G1 X47.152 Y179.409 E.14418
G1 X42.25 Y180.054 E.14418
G1 X37.347 Y179.409 E.14418
G1 X32.779 Y177.517 E.14418
G1 X32.379 Y177.21 E.01469
G1 X32.25 Y177.172 E.00394
G1 X32.15 Y177.21 E.00313
G1 X31.62 Y177.617 E.01948
G1 X27.052 Y179.509 E.14418
G1 X22.15 Y180.154 E.14418
G1 X17.247 Y179.509 E.14418
G1 X12.679 Y177.617 E.14418
G1 X8.756 Y174.607 E.14418
G1 X5.746 Y170.684 E.14418
G1 X3.854 Y166.116 E.14418
G1 X3.209 Y161.213 E.14418
G1 X3.854 Y156.311 E.14418
G1 X5.746 Y151.743 E.14418
G1 X8.756 Y147.82 E.14418
G1 X12.679 Y144.81 E.14418
G1 X17.247 Y142.918 E.14418
G1 X22.11 Y142.278 E.14301
G1 X22.135 Y142.655 F10800
G1 F1200
G1 X24.383 Y142.947 E.0661
G1 X24.468 Y143.006 E.00301
G1 X24.481 Y143.06 E.00162
G1 X24.475 Y144.48 E.04143
G1 X24.434 Y144.765 E.00839
G1 X24.327 Y145.132 E.01114
G1 X24.157 Y145.488 E.0115
G1 X21.917 Y149.372 E.13076
G1 X21.658 Y149.992 E.01959
G1 X21.525 Y150.568 E.01723
G1 X21.484 Y151.104 E.01568
G1 X21.484 Y161.104 E.2916
G1 X21.514 Y161.288 E.00542
G1 X21.597 Y161.464 E.00568
G1 X21.669 Y161.555 E.0034
G1 X21.847 Y161.687 E.00645
G1 X21.999 Y161.748 E.00478
G1 X22.16 Y161.779 E.00478
G1 X42.14 Y161.779 E.58261
G1 X42.324 Y161.75 E.00542
G1 X42.5 Y161.666 E.00568
G1 X42.591 Y161.594 E.0034
G1 X42.723 Y161.416 E.00645
G1 X42.784 Y161.264 E.00478
G1 X42.815 Y161.103 E.00478
G1 X42.815 Y151.104 E.29156
G1 X42.774 Y150.568 E.01567
G1 X42.641 Y149.992 E.01723
G1 X42.381 Y149.372 E.01962
G1 X40.142 Y145.488 E.13072
G1 X39.973 Y145.132 E.01151
G1 X39.865 Y144.765 E.01114
G1 X39.824 Y144.481 E.00837
G1 X39.818 Y142.973 E.04398
G1 X39.865 Y142.881 E.00301
G1 X39.916 Y142.86 E.00162
G1 X42.264 Y142.555 E.06905
G1 X47.039 Y143.183 E.14042
G1 X51.516 Y145.034 E.14127
G1 X55.362 Y147.98 E.14127
G1 X58.329 Y151.847 E.14212
G1 X60.18 Y156.324 E.14127
G1 X60.808 Y161.128 E.14127
G1 X60.172 Y165.931 E.14127
G1 X58.329 Y170.38 E.14042
G1 X55.383 Y174.226 E.14127
G1 X51.542 Y177.178 E.14127
G1 X47.067 Y179.036 E.14127
G1 X42.264 Y179.672 E.14127
G1 X37.432 Y179.036 E.14212
G1 X32.983 Y177.193 E.14042
G1 X32.617 Y176.917 E.01336
G1 X32.375 Y176.816 E.00766
G1 X32.098 Y176.826 E.0081
G1 X32.023 Y176.855 E.00234
G1 X31.914 Y176.916 E.00363
G1 X31.416 Y177.293 E.01821
G1 X26.939 Y179.144 E.14127
G1 X22.164 Y179.772 E.14042
G1 X17.361 Y179.144 E.14127
G1 X12.857 Y177.278 E.14212
G1 X9.037 Y174.347 E.14042
G1 X6.085 Y170.506 E.14127
G1 X4.22 Y166.003 E.14212
G1 X3.591 Y161.228 E.14042
G1 X4.22 Y156.424 E.14127
G1 X6.085 Y151.921 E.14212
G1 X9.016 Y148.101 E.14042
G1 X12.857 Y145.149 E.14127
G1 X17.361 Y143.283 E.14212
G1 X22.095 Y142.66 E.13925
G1 X22.12 Y143.037 F10800
G1 F1200
G1 X24.004 Y143.278 E.05537
G1 X24.089 Y143.337 E.00301
G1 X24.103 Y143.391 E.00162
G1 X24.098 Y144.445 E.03074
G1 X24.063 Y144.693 E.0073
G1 X23.969 Y145.005 E.00949
G1 X23.821 Y145.316 E.01006
G1 X21.594 Y149.178 E.12999
G1 X21.314 Y149.838 E.02091
G1 X21.148 Y150.548 E.02124
G1 X21.107 Y151.109 E.0164
G1 X21.107 Y161.097 E.29125
G1 X21.14 Y161.337 E.00706
G1 X21.254 Y161.619 E.00888
G1 X21.37 Y161.783 E.00584
G1 X21.615 Y161.984 E.00926
G1 X21.852 Y162.095 E.00763
G1 X22.171 Y162.156 E.00946
G1 X42.133 Y162.156 E.58207
G1 X42.377 Y162.123 E.0072
G1 X42.652 Y162.011 E.00866
G1 X42.823 Y161.891 E.00608
G1 X42.896 Y161.815 E.00309
G1 X43.078 Y161.545 E.00948
G1 X43.131 Y161.412 E.00418
G1 X43.183 Y161.183 E.00686
G1 X43.192 Y151.108 E.29377
G1 X43.151 Y150.548 E.01638
G1 X42.986 Y149.838 E.02124
G1 X42.705 Y149.177 E.02093
G1 X40.478 Y145.316 E.12996
G1 X40.323 Y144.988 E.01059
G1 X40.237 Y144.693 E.00897
G1 X40.201 Y144.446 E.00728
G1 X40.196 Y143.304 E.0333
G1 X40.243 Y143.212 E.00301
G1 X40.295 Y143.191 E.00162
G1 X42.279 Y142.937 E.05832
G1 X46.954 Y143.557 E.13752
G1 X51.312 Y145.358 E.13751
M73 P0 R117
G1 X55.081 Y148.24 E.13836
G1 X57.991 Y152.025 E.13921
G1 X59.806 Y156.409 E.13836
G1 X60.426 Y161.113 E.13836
G1 X59.807 Y165.818 E.13837
G1 X57.991 Y170.202 E.13837
G1 X55.102 Y173.966 E.13837
G1 X51.337 Y176.855 E.13836
G1 X46.954 Y178.671 E.13836
G1 X42.249 Y179.29 E.13836
G1 X37.545 Y178.67 E.13836
G1 X33.185 Y176.869 E.13757
G1 X32.752 Y176.565 E.01543
G1 X32.533 Y176.473 E.00693
G1 X32.348 Y176.439 E.00547
G1 X32.095 Y176.449 E.00738
G1 X31.89 Y176.503 E.0062
G1 X31.68 Y176.62 E.007
G1 X31.214 Y176.969 E.01698
G1 X26.854 Y178.77 E.13755
G1 X22.179 Y179.39 E.13752
G1 X17.445 Y178.77 E.13921
G1 X13.061 Y176.955 E.13836
G1 X9.297 Y174.066 E.13836
G1 X6.408 Y170.301 E.13836
G1 X4.593 Y165.918 E.13836
G1 X3.973 Y161.213 E.13836
G1 X4.593 Y156.509 E.13836
G1 X6.408 Y152.125 E.13836
G1 X9.297 Y148.361 E.13836
G1 X13.062 Y145.472 E.13836
G1 X17.445 Y143.657 E.13836
G1 X22.081 Y143.042 E.13635
G1 X22.107 Y143.419 F10800
G1 F1200
G1 X23.625 Y143.61 E.04463
G1 X23.71 Y143.668 E.00301
G1 X23.724 Y143.722 E.00163
G1 X23.721 Y144.41 E.02004
G1 X23.691 Y144.62 E.00619
G1 X23.613 Y144.877 E.00783
G1 X23.485 Y145.144 E.00865
G1 X21.271 Y148.984 E.12923
G1 X20.944 Y149.762 E.0246
G1 X20.772 Y150.528 E.02291
G1 X20.73 Y151.113 E.01708
G1 X20.73 Y161.088 E.29087
G1 X20.795 Y161.488 E.01182
G1 X20.951 Y161.844 E.01134
G1 X21.139 Y162.081 E.00881
G1 X21.465 Y162.329 E.01196
G1 X21.792 Y162.467 E.01033
G1 X22.181 Y162.533 E.01151
G1 X42.124 Y162.533 E.58153
G1 X42.529 Y162.468 E.01197
G1 X42.878 Y162.313 E.01113
G1 X43.098 Y162.148 E.00802
G1 X43.212 Y162.02 E.00501
G1 X43.431 Y161.677 E.01187
G1 X43.5 Y161.489 E.00583
G1 X43.548 Y161.279 E.00628
G1 X43.569 Y151.112 E.29646
G1 X43.527 Y150.528 E.01708
G1 X43.355 Y149.762 E.02291
G1 X43.028 Y148.983 E.02462
G1 X40.815 Y145.146 E.12917
G1 X40.674 Y144.845 E.00967
G1 X40.608 Y144.621 E.00683
G1 X40.578 Y144.41 E.00619
G1 X40.575 Y143.636 E.02259
G1 X40.622 Y143.543 E.00301
G1 X40.674 Y143.523 E.00163
G1 X42.292 Y143.319 E.04758
G1 X46.841 Y143.922 E.13379
G1 X51.109 Y145.682 E.13462
G1 X54.801 Y148.5 E.13544
G1 X57.652 Y152.204 E.13629
G1 X59.433 Y156.493 E.13544
G1 X60.044 Y161.098 E.13545
G1 X59.434 Y165.733 E.13631
G1 X57.652 Y170.023 E.13546
G1 X54.821 Y173.706 E.13546
G1 X51.134 Y176.531 E.13545
G1 X46.84 Y178.305 E.13545
G1 X42.235 Y178.907 E.13545
G1 X37.658 Y178.305 E.1346
G1 X33.379 Y176.541 E.13497
G1 X32.977 Y176.262 E.01427
G1 X32.688 Y176.13 E.00925
G1 X32.323 Y176.063 E.01083
G1 X31.992 Y176.087 E.00968
G1 X31.697 Y176.179 E.00902
G1 X31.449 Y176.322 E.00834
G1 X31.013 Y176.644 E.0158
G1 X26.769 Y178.397 E.13389
G1 X22.193 Y179.008 E.13461
G1 X17.529 Y178.397 E.13716
G1 X13.24 Y176.616 E.13544
G1 X9.557 Y173.785 E.13545
G1 X6.732 Y170.098 E.13545
G1 X4.966 Y165.833 E.13459
G1 X4.355 Y161.199 E.13631
G1 X4.958 Y156.622 E.1346
G1 X6.732 Y152.329 E.13545
G1 X9.578 Y148.621 E.13631
G1 X13.266 Y145.796 E.13545
G1 X17.53 Y144.03 E.1346
G1 X22.067 Y143.425 E.13347
G1 X22.094 Y143.801 F10800
G1 F1200
G1 X23.246 Y143.942 E.03386
G1 X23.332 Y144.001 E.00301
G1 X23.345 Y144.055 E.00164
G1 X23.343 Y144.39 E.00976
G1 X23.319 Y144.546 E.00461
G1 X23.256 Y144.747 E.00615
G1 X23.149 Y144.972 E.00727
G1 X20.921 Y148.844 E.13025
G1 X20.575 Y149.688 E.0266
G1 X20.395 Y150.509 E.02452
G1 X20.353 Y151.117 E.01775
G1 X20.353 Y161.079 E.29051
G1 X20.421 Y161.536 E.01347
G1 X20.602 Y161.986 E.01415
G1 X20.837 Y162.306 E.01157
G1 X21.228 Y162.622 E.01466
G1 X21.636 Y162.81 E.01309
G1 X22.191 Y162.91 E.01645
G1 X42.115 Y162.91 E.58099
G1 X42.583 Y162.841 E.01378
G1 X43.021 Y162.662 E.01379
G1 X43.317 Y162.454 E.01056
G1 X43.536 Y162.214 E.00947
G1 X43.744 Y161.887 E.01129
G1 X43.852 Y161.624 E.00832
G1 X43.913 Y161.375 E.00747
G1 X43.945 Y151.082 E.30014
G1 X43.894 Y150.437 E.01884
G1 X43.725 Y149.688 E.0224
G1 X43.378 Y148.843 E.02663
G1 X41.152 Y144.975 E.13013
G1 X41.032 Y144.719 E.00825
G1 X40.98 Y144.548 E.00521
G1 X40.955 Y144.375 E.0051
G1 X40.953 Y143.968 E.01186
G1 X41 Y143.876 E.00301
G1 X41.052 Y143.855 E.00164
G1 X42.306 Y143.701 E.03682
G1 X46.756 Y144.295 E.13093
G1 X50.906 Y146.006 E.13088
G1 X54.521 Y148.761 E.13253
G1 X57.314 Y152.382 E.13337
G1 X59.06 Y156.578 E.13253
G1 X59.661 Y161.084 E.13254
G1 X59.068 Y165.62 E.13339
G1 X57.329 Y169.819 E.13254
G1 X54.541 Y173.446 E.1334
G1 X50.93 Y176.207 E.13254
G1 X46.728 Y177.94 E.13254
G1 X42.249 Y178.525 E.13169
G1 X37.771 Y177.94 E.1317
G1 X33.572 Y176.212 E.1324
G1 X33.199 Y175.957 E.01317
G1 X32.851 Y175.79 E.01126
G1 X32.75 Y175.758 E.00308
G1 X32.284 Y175.688 E.01377
G1 X31.976 Y175.71 E.00898
G1 X31.593 Y175.817 E.01161
G1 X31.264 Y175.993 E.01087
G1 X30.813 Y176.318 E.01621
G1 X26.684 Y178.025 E.13027
G1 X22.208 Y178.625 E.13171
G1 X17.614 Y178.024 E.13509
G1 X13.418 Y176.278 E.13252
G1 X9.817 Y173.505 E.13254
G1 X7.07 Y169.919 E.1317
G1 X5.339 Y165.749 E.13169
G1 X4.738 Y161.184 E.13425
G1 X5.331 Y156.707 E.13169
G1 X7.056 Y152.533 E.13168
G1 X9.858 Y148.881 E.13424
M73 P1 R117
G1 X13.444 Y146.134 E.13169
G1 X17.615 Y144.402 E.1317
G1 X22.054 Y143.807 E.1306
G1 X22.082 Y144.184 F10800
G1 F1200
G1 X22.861 Y144.275 E.02289
G1 X22.947 Y144.333 E.00301
G1 X22.957 Y144.417 E.00245
G1 X22.901 Y144.617 E.00605
G1 X22.817 Y144.792 E.00569
G1 X20.569 Y148.707 E.13162
G1 X20.204 Y149.616 E.02856
G1 X20.018 Y150.491 E.02608
G1 X19.976 Y151.12 E.0184
G1 X19.981 Y161.142 E.29221
G1 X20.075 Y161.687 E.01615
G1 X20.305 Y162.217 E.01684
G1 X20.609 Y162.606 E.01439
G1 X21.081 Y162.969 E.01736
G1 X21.581 Y163.183 E.01585
G1 X22.2 Y163.287 E.01833
G1 X42.106 Y163.287 E.58045
G1 X42.737 Y163.185 E.01863
G1 X43.153 Y163.016 E.01309
G1 X43.526 Y162.768 E.01306
G1 X43.81 Y162.473 E.01194
G1 X44.057 Y162.097 E.01314
G1 X44.198 Y161.773 E.0103
G1 X44.29 Y161.369 E.01208
G1 X44.322 Y151.088 E.2998
G1 X44.26 Y150.347 E.02168
G1 X44.095 Y149.614 E.02191
G1 X43.729 Y148.707 E.02852
G1 X41.489 Y144.804 E.1312
G1 X41.379 Y144.564 E.00771
G1 X41.334 Y144.322 E.00718
G1 X41.363 Y144.223 E.00301
G1 X41.431 Y144.189 E.00222
G1 X42.318 Y144.084 E.02604
G1 X46.643 Y144.66 E.12724
G1 X50.703 Y146.33 E.12799
G1 X54.24 Y149.021 E.12962
G1 X56.976 Y152.561 E.13045
G1 X58.687 Y156.664 E.12962
G1 X59.279 Y161.099 E.13048
G1 X58.695 Y165.535 E.13047
G1 X56.99 Y169.641 E.12962
G1 X54.26 Y173.186 E.13048
G1 X50.727 Y175.883 E.12963
G1 X46.615 Y177.574 E.12963
G1 X42.235 Y178.143 E.12879
G1 X37.883 Y177.574 E.12796
G1 X33.763 Y175.883 E.12987
G1 X33.418 Y175.65 E.01212
G1 X33.022 Y175.453 E.01292
G1 X32.799 Y175.384 E.00681
G1 X32.247 Y175.313 E.01623
G1 X31.867 Y175.349 E.01114
G1 X31.405 Y175.49 E.01407
G1 X31.038 Y175.691 E.0122
G1 X30.616 Y175.992 E.0151
G1 X26.599 Y177.652 E.12675
G1 X22.192 Y178.243 E.12966
G1 X17.699 Y177.651 E.13216
G1 X13.597 Y175.94 E.12959
G1 X10.077 Y173.224 E.12964
G1 X7.409 Y169.741 E.12795
G1 X5.712 Y165.664 E.12878
G1 X5.12 Y161.169 E.13219
G1 X5.704 Y156.791 E.12878
G1 X7.38 Y152.737 E.12792
G1 X10.139 Y149.141 E.13218
G1 X13.648 Y146.458 E.12878
G1 X17.7 Y144.775 E.12796
G1 X22.042 Y144.189 E.12774
G1 X22.071 Y144.566 F10800
G1 F1200
G1 X22.316 Y144.591 E.00719
G1 X22.402 Y144.648 E.00301
G1 X22.401 Y144.759 E.00323
G1 X20.217 Y148.574 E.12817
G1 X19.834 Y149.547 E.03049
G1 X19.642 Y150.473 E.02758
G1 X19.599 Y151.124 E.01903
G1 X19.611 Y161.214 E.29422
G1 X19.734 Y161.849 E.01885
G1 X19.956 Y162.361 E.01627
G1 X20.012 Y162.454 E.00316
G1 X20.389 Y162.913 E.01732
G1 X20.845 Y163.264 E.01678
G1 X21.426 Y163.527 E.01861
G1 X22.209 Y163.664 E.02318
G1 X42.097 Y163.664 E.57991
G1 X42.89 Y163.53 E.02346
G1 X43.368 Y163.325 E.01518
G1 X43.805 Y163.022 E.01549
G1 X44.13 Y162.672 E.01392
G1 X44.367 Y162.311 E.01261
G1 X44.54 Y161.931 E.01217
G1 X44.655 Y161.464 E.01404
G1 X44.699 Y151.094 E.30239
G1 X44.636 Y150.323 E.02256
G1 X44.464 Y149.539 E.02338
G1 X44.082 Y148.573 E.03031
G1 X41.851 Y144.677 E.13091
