; HEADER_BLOCK_START
; generated by OrcaSlicer 2.0.0 on 2024-06-17 at 20:14:23
; total layer number: 106
; filament_density: 1.04
; filament_diameter: 1.75
; max_z_height: 10.60
; HEADER_BLOCK_END

; THUMBNAIL_BLOCK_START

;
; THUMBNAIL_BLOCK_END

; external perimeters extrusion width = 0.45mm
; perimeters extrusion width = 0.45mm
; infill extrusion width = 0.45mm
; solid infill extrusion width = 0.45mm
; top infill extrusion width = 0.40mm
; first layer extrusion width = 0.42mm

; external perimeters extrusion width = 0.45mm
; perimeters extrusion width = 0.45mm
; infill extrusion width = 0.45mm
; solid infill extrusion width = 0.45mm
; top infill extrusion width = 0.40mm
; first layer extrusion width = 0.42mm

; EXECUTABLE_BLOCK_START
M73 P0 R111
M201 X2000 Y2000 Z300 E5000
M203 X200 Y200 Z12 E120
M204 P2000 R2500 T2000
M205 X9.00 Y9.00 Z0.20 E2.50 ; sets the jerk limits, mm/sec
;TYPE:Custom
M862.3 P "MK3S" ; printer model check
M862.1 P0.4 ; nozzle diameter check
M115 U3.13.0 ; tell printer latest fw version
G90 ; use absolute coordinates
M83 ; extruder relative mode
M104 S260 ; set extruder temp
M140 S105 ; set bed temp
M190 S105 ; wait for bed temp
M109 S260 ; wait for extruder temp
G28 W ; home all without mesh bed level
G80 ; mesh bed leveling

G1 Z0.2 F720
G1 Y-3 F1000 ; go outside print area
G92 E0
G1 X60 E9 F1000 ; intro line
G1 X100 E12.5 F1000 ; intro line

G92 E0
M221 S95
G90
G21
M83 ; use relative distances for extrusion
; Filament gcode
M900 K0.04 ; Filament gcode LA 1.5
M900 K20 ; Filament gcode LA 1.0
M106 S0
;LAYER_CHANGE
;Z:0.2
;HEIGHT:0.2
;BEFORE_LAYER_CHANGE
;0.2
G92 E0

G1 E-.8 F1800
;AFTER_LAYER_CHANGE
;0.2
;_SET_FAN_SPEED_CHANGING_LAYER
M204 S800
G1 Z.4 F720
G1 X50.333 Y35.672 F10800
G1 Z.4 F720
G1 Z.2
G1 E.8 F1800
;TYPE:Skirt
;WIDTH:0.42
G1 F3000
G1 X53.373 Y31.71 E.14563
G1 X53.812 Y31.271 E.01809
G1 X57.774 Y28.231 E.14563
G1 X58.311 Y27.921 E.01809
G1 X62.925 Y26.01 E.14563
G1 X63.525 Y25.849 E.01809
G1 X68.784 Y25.177 E.15462
G1 X181.424 Y25.097 E3.2845
G1 X186.375 Y25.749 E.14563
G1 X186.974 Y25.91 E.01809
G1 X191.589 Y27.821 E.14563
G1 X192.126 Y28.131 E.01809
G1 X196.088 Y31.171 E.14563
G1 X196.527 Y31.61 E.01809
G1 X199.567 Y35.572 E.14563
G1 X199.877 Y36.11 E.01809
G1 X201.789 Y40.724 E.14563
G1 X201.949 Y41.323 E.01809
G1 X202.601 Y46.275 E.14563
G1 X202.721 Y66.685 E.59516
G1 X202.721 Y163.315 E2.81768
G1 X202.049 Y168.577 E.15468
G1 X201.889 Y169.176 E.01809
G1 X199.977 Y173.79 E.14563
G1 X199.667 Y174.328 E.01809
G1 X196.627 Y178.29 E.14563
G1 X196.188 Y178.729 E.01809
G1 X192.226 Y181.769 E.14563
G1 X191.689 Y182.079 E.01809
G1 X187.075 Y183.99 E.14563
G1 X186.475 Y184.151 E.01809
G1 X181.215 Y184.823 E.15462
G1 X68.889 Y184.923 E3.2754
G1 X63.625 Y184.251 E.15474
G1 X63.025 Y184.09 E.01809
G1 X58.411 Y182.179 E.14563
G1 X57.874 Y181.869 E.01809
G1 X53.912 Y178.829 E.14563
G1 X53.473 Y178.39 E.01809
G1 X50.433 Y174.428 E.14563
G1 X50.122 Y173.89 E.01809
G1 X48.211 Y169.276 E.14563
G1 X48.051 Y168.677 E.01809
G1 X47.378 Y163.427 E.15433
G1 X47.278 Y143.327 E.58611
G1 X47.278 Y46.685 E2.81803
G1 X47.951 Y41.423 E.15468
M73 P0 R110
G1 X48.111 Y40.824 E.01809
G1 X50.022 Y36.21 E.14563
G1 X50.313 Y35.707 E.01693
; printing object Holder.stl id:0 copy 0
G1 E-.56 F1800
;WIPE_START
G1 F3000
G1 X50.921 Y34.913 E-.24
;WIPE_END
G1 Z.6 F720
G1 X63.884 Y125.02 Z.6 F10800
G1 Z.2 F720
G1 E.8 F1800
;TYPE:Brim
G1 F1200
G1 X68.787 Y124.374 E.14418
G1 X73.689 Y125.02 E.14418
G1 X78.257 Y126.912 E.14418
G1 X82.18 Y129.922 E.14418
G1 X85.19 Y133.845 E.14418
G1 X87.082 Y138.413 E.14418
G1 X87.727 Y143.315 E.14418
G1 X87.37 Y146.026 E.07975
G1 X85.488 Y146.018 E.0549
G1 X85.161 Y145.971 E.00961
G1 X84.845 Y145.887 E.00955
G1 X84.543 Y145.765 E.00951
G1 X80.436 Y143.408 E.13807
G1 X79.928 Y143.192 E.01611
G1 X79.414 Y143.068 E.0154
G1 X78.9 Y143.026 E.01505
G1 X68.887 Y143.026 E.29199
G1 X68.781 Y143.049 E.00314
G1 X68.668 Y143.139 E.00421
G1 X68.598 Y143.315 E.00553
G1 X68.598 Y163.315 E.58319
G1 X68.621 Y163.42 E.00314
G1 X68.711 Y163.533 E.00421
G1 X68.887 Y163.604 E.00553
G1 X78.901 Y163.604 E.292
G1 X79.41 Y163.563 E.01491
G1 X79.927 Y163.438 E.01551
G1 X80.434 Y163.224 E.01603
G1 X84.341 Y160.971 E.1315
G1 X84.742 Y160.78 E.01297
G1 X85.163 Y160.658 E.01277
G1 X85.484 Y160.613 E.00945
G1 X87.457 Y160.604 E.05755
G1 X87.827 Y163.415 E.08267
G1 X87.182 Y168.317 E.14418
G1 X85.29 Y172.885 E.14418
G1 X82.28 Y176.808 E.14418
G1 X78.357 Y179.818 E.14418
G1 X73.789 Y181.71 E.14418
G1 X68.887 Y182.356 E.14418
G1 X63.984 Y181.71 E.14418
G1 X59.416 Y179.818 E.14418
G1 X55.493 Y176.808 E.14418
G1 X52.483 Y172.885 E.14418
G1 X50.591 Y168.317 E.14418
G1 X49.946 Y163.415 E.14418
G1 X50.591 Y158.513 E.14418
G1 X52.483 Y153.945 E.14418
G1 X52.79 Y153.545 E.01469
G1 X52.828 Y153.415 E.00394
G1 X52.79 Y153.315 E.00313
G1 X52.383 Y152.785 E.01948
G1 X50.491 Y148.217 E.14418
G1 X49.846 Y143.315 E.14418
G1 X50.491 Y138.413 E.14418
G1 X52.383 Y133.845 E.14418
G1 X55.393 Y129.922 E.14418
G1 X59.316 Y126.912 E.14418
G1 X63.847 Y125.035 E.14301
G1 X63.969 Y125.393 F10800
G1 F1200
G1 X68.772 Y124.756 E.14127
G1 X73.576 Y125.385 E.14127
G1 X78.079 Y127.25 E.14212
G1 X81.899 Y130.182 E.14042
G1 X84.851 Y134.023 E.14127
G1 X86.717 Y138.526 E.14212
G1 X87.345 Y143.3 E.14042
G1 X87.053 Y145.549 E.06612
G1 X86.994 Y145.634 E.00301
G1 X86.94 Y145.647 E.00162
G1 X85.523 Y145.641 E.04133
G1 X85.244 Y145.602 E.00821
G1 X84.959 Y145.526 E.00861
G1 X84.701 Y145.421 E.00811
G1 X80.63 Y143.084 E.13687
G1 X80.008 Y142.823 E.01966
G1 X79.436 Y142.691 E.01711
G1 X78.896 Y142.649 E.01581
G1 X68.896 Y142.649 E.2916
G1 X68.712 Y142.679 E.00542
G1 X68.536 Y142.762 E.00568
G1 X68.445 Y142.835 E.0034
G1 X68.313 Y143.013 E.00645
G1 X68.252 Y143.165 E.00478
G1 X68.221 Y143.326 E.00478
G1 X68.221 Y163.306 E.58261
G1 X68.25 Y163.489 E.00542
G1 X68.334 Y163.665 E.00568
G1 X68.406 Y163.757 E.0034
G1 X68.584 Y163.889 E.00645
G1 X68.736 Y163.95 E.00478
G1 X68.897 Y163.981 E.00478
G1 X78.896 Y163.981 E.29156
G1 X79.432 Y163.94 E.01567
G1 X80.008 Y163.807 E.01724
G1 X80.575 Y163.573 E.01788
G1 X84.512 Y161.308 E.13246
G1 X84.868 Y161.138 E.0115
G1 X85.235 Y161.03 E.01114
G1 X85.519 Y160.99 E.00837
G1 X87.027 Y160.983 E.04398
G1 X87.119 Y161.03 E.00301
G1 X87.14 Y161.082 E.00162
G1 X87.445 Y163.43 E.06905
G1 X86.809 Y168.233 E.14127
G1 X84.966 Y172.682 E.14042
G1 X81.999 Y176.548 E.14212
G1 X78.153 Y179.495 E.14127
G1 X73.704 Y181.337 E.14042
G1 X68.872 Y181.974 E.14212
G1 X64.069 Y181.337 E.14127
G1 X59.594 Y179.48 E.14127
G1 X55.753 Y176.527 E.14127
G1 X52.807 Y172.682 E.14127
G1 X50.956 Y168.204 E.14127
G1 X50.328 Y163.4 E.14127
G1 X50.964 Y158.597 E.14127
G1 X52.807 Y154.148 E.14042
G1 X53.083 Y153.783 E.01336
G1 X53.154 Y153.642 E.0046
G1 X53.185 Y153.541 E.00309
G1 X53.174 Y153.268 E.00796
G1 X53.082 Y153.077 E.00619
G1 X52.707 Y152.582 E.01811
G1 X50.864 Y148.133 E.14042
G1 X50.228 Y143.3 E.14212
G1 X50.864 Y138.497 E.14127
G1 X52.707 Y134.048 E.14042
G1 X55.674 Y130.182 E.14212
G1 X59.52 Y127.235 E.14127
G1 X63.932 Y125.408 E.13925
G1 X64.077 Y125.76 F10800
G1 F1200
G1 X64.082 Y125.758 E.00015
G1 X68.787 Y125.139 E.13837
G1 X73.462 Y125.75 E.1375
G1 X77.9 Y127.589 E.14007
G1 X81.639 Y130.462 E.13751
G1 X84.513 Y134.201 E.13751
G1 X86.351 Y138.639 E.14007
G1 X86.963 Y143.286 E.13667
G1 X86.722 Y145.17 E.05539
G1 X86.663 Y145.255 E.00301
G1 X86.609 Y145.269 E.00162
G1 X85.557 Y145.264 E.03068
G1 X85.312 Y145.23 E.00722
G1 X85.072 Y145.165 E.00724
G1 X84.86 Y145.077 E.0067
G1 X80.824 Y142.76 E.13571
G1 X80.162 Y142.479 E.02095
G1 X79.457 Y142.314 E.02112
G1 X78.891 Y142.272 E.01653
G1 X68.903 Y142.272 E.29125
G1 X68.659 Y142.306 E.0072
G1 X68.544 Y142.342 E.00352
G1 X68.384 Y142.417 E.00516
G1 X68.213 Y142.538 E.00608
G1 X68.14 Y142.614 E.00309
G1 X67.959 Y142.882 E.00942
G1 X67.881 Y143.1 E.00677
G1 X67.844 Y143.335 E.00692
G1 X67.844 Y163.298 E.58213
G1 X67.877 Y163.543 E.0072
G1 X67.913 Y163.658 E.00352
G1 X67.989 Y163.818 E.00516
G1 X68.107 Y163.984 E.00594
G1 X68.352 Y164.186 E.00926
G1 X68.589 Y164.296 E.00763
G1 X68.908 Y164.358 E.00946
G1 X78.892 Y164.358 E.29113
G1 X79.453 Y164.316 E.0164
G1 X80.085 Y164.176 E.01887
G1 X80.712 Y163.925 E.0197
G1 X84.684 Y161.644 E.13355
G1 X85.012 Y161.489 E.01059
G1 X85.307 Y161.402 E.00897
G1 X85.554 Y161.367 E.00728
G1 X86.696 Y161.362 E.0333
G1 X86.788 Y161.409 E.00301
G1 X86.809 Y161.46 E.00162
G1 X87.063 Y163.444 E.05832
G1 X86.444 Y168.119 E.13752
G1 X84.642 Y172.478 E.13751
G1 X81.718 Y176.288 E.14007
G1 X77.975 Y179.156 E.13751
G1 X73.619 Y180.964 E.13751
G1 X68.857 Y181.591 E.14007
G1 X64.154 Y180.964 E.13836
G1 X59.773 Y179.142 E.13836
G1 X56.013 Y176.247 E.13836
G1 X53.131 Y172.478 E.13836
G1 X51.322 Y168.091 E.13836
G1 X50.71 Y163.386 E.13836
G1 X51.337 Y158.682 E.13836
G1 X53.131 Y154.35 E.13672
G1 X53.379 Y154.016 E.01213
G1 X53.487 Y153.819 E.00656
G1 X53.544 Y153.654 E.00507
G1 X53.561 Y153.517 E.00405
G1 X53.551 Y153.265 E.00735
G1 X53.509 Y153.094 E.00513
G1 X53.426 Y152.923 E.00554
G1 X53.031 Y152.379 E.0196
G1 X51.237 Y148.048 E.1367
G1 X50.61 Y143.286 E.14007
G1 X51.229 Y138.611 E.13751
G1 X53.031 Y134.252 E.13751
G1 X55.955 Y130.442 E.14007
G1 X59.724 Y127.559 E.13836
G1 X64.041 Y125.775 E.1362
G1 X64.167 Y126.131 F10800
G1 F1200
G1 X68.772 Y125.521 E.13547
G1 X73.349 Y126.116 E.13459
G1 X77.722 Y127.927 E.138
G1 X81.379 Y130.743 E.1346
G1 X84.175 Y134.38 E.13375
G1 X85.986 Y138.752 E.13801
G1 X86.581 Y143.272 E.13293
G1 X86.39 Y144.791 E.04465
G1 X86.332 Y144.877 E.00301
G1 X86.277 Y144.89 E.00163
G1 X85.591 Y144.887 E.02001
G1 X85.374 Y144.856 E.00641
G1 X85.04 Y144.744 E.01026
G1 X81.017 Y142.437 E.13522
G1 X80.239 Y142.11 E.02461
G1 X79.477 Y141.938 E.02279
G1 X78.887 Y141.895 E.01723
G1 X68.91 Y141.895 E.29093
G1 X68.616 Y141.931 E.00865
G1 X68.376 Y142.004 E.0073
G1 X68.16 Y142.114 E.00706
G1 X67.938 Y142.281 E.00811
G1 X67.824 Y142.408 E.00499
G1 X67.601 Y142.764 E.01223
G1 X67.507 Y143.05 E.00878
G1 X67.467 Y143.342 E.00861
G1 X67.467 Y163.291 E.5817
G1 X67.503 Y163.587 E.0087
G1 X67.552 Y163.765 E.00537
G1 X67.645 Y163.973 E.00664
G1 X67.792 Y164.192 E.00772
G1 X68.106 Y164.471 E.01223
G1 X68.426 Y164.636 E.01049
G1 X68.918 Y164.735 E.01464
G1 X78.888 Y164.735 E.29073
G1 X79.473 Y164.693 E.0171
G1 X80.158 Y164.546 E.02044
G1 X80.845 Y164.277 E.0215
G1 X84.854 Y161.981 E.13473
G1 X85.155 Y161.84 E.00967
G1 X85.379 Y161.774 E.00683
G1 X85.59 Y161.744 E.00619
G1 X86.364 Y161.74 E.02259
G1 X86.457 Y161.787 E.00301
G1 X86.477 Y161.839 E.00163
G1 X86.681 Y163.458 E.04757
G1 X86.078 Y168.006 E.13379
G1 X84.319 Y172.274 E.1346
G1 X81.438 Y176.028 E.138
G1 X77.796 Y178.818 E.13375
G1 X73.535 Y180.591 E.1346
G1 X68.843 Y181.209 E.138
G1 X64.239 Y180.591 E.13543
G1 X59.952 Y178.803 E.13545
G1 X56.274 Y175.967 E.13545
G1 X53.455 Y172.274 E.13545
G1 X51.688 Y167.979 E.13545
G1 X51.093 Y163.372 E.13545
G1 X51.71 Y158.767 E.13546
G1 X53.457 Y154.55 E.13309
G1 X53.712 Y154.193 E.01282
G1 X53.847 Y153.933 E.00852
G1 X53.897 Y153.785 E.00456
G1 X53.934 Y153.569 E.00639
G1 X53.928 Y153.258 E.00906
G1 X53.876 Y153.01 E.00739
G1 X53.769 Y152.766 E.00777
G1 X53.357 Y152.181 E.02087
G1 X51.61 Y147.963 E.13312
G1 X50.993 Y143.271 E.13801
G1 X51.602 Y138.695 E.1346
G1 X53.354 Y134.456 E.13375
G1 X56.235 Y130.702 E.138
G1 X59.902 Y127.898 E.13459
G1 X64.13 Y126.146 E.13345
G1 X64.275 Y126.498 F10800
G1 F1200
G1 X64.28 Y126.496 E.00015
G1 X68.758 Y125.903 E.13171
G1 X73.236 Y126.482 E.13167
G1 X77.543 Y128.265 E.13593
G1 X81.099 Y131.003 E.13084
G1 X83.836 Y134.558 E.13084
G1 X85.62 Y138.866 E.13595
G1 X86.199 Y143.259 E.12921
G1 X86.058 Y144.412 E.03389
G1 X85.999 Y144.498 E.00301
G1 X85.945 Y144.511 E.00164
G1 X85.627 Y144.51 E.00928
G1 X85.451 Y144.484 E.00516
G1 X85.206 Y144.402 E.00755
G1 X81.157 Y142.087 E.136
G1 X80.313 Y141.74 E.02661
G1 X79.496 Y141.561 E.0244
G1 X78.883 Y141.518 E.0179
G1 X68.918 Y141.518 E.2906
G1 X68.499 Y141.573 E.01232
G1 X68.199 Y141.671 E.0092
G1 X67.928 Y141.817 E.00895
G1 X67.652 Y142.036 E.01029
G1 X67.501 Y142.214 E.00681
G1 X67.24 Y142.656 E.01497
G1 X67.132 Y143.007 E.01069
G1 X67.09 Y143.349 E.01007
G1 X67.09 Y163.285 E.58131
G1 X67.128 Y163.627 E.01002
G1 X67.187 Y163.858 E.00697
G1 X67.298 Y164.12 E.00831
G1 X67.473 Y164.392 E.00942
G1 X67.848 Y164.745 E.01502
G1 X68.247 Y164.968 E.01332
G1 X68.359 Y165.007 E.00345
G1 X68.832 Y165.102 E.01408
G1 X78.884 Y165.112 E.2931
G1 X79.56 Y165.06 E.01977
G1 X80.229 Y164.916 E.01996
G1 X80.975 Y164.631 E.02329
G1 X85.025 Y162.318 E.136
G1 X85.281 Y162.197 E.00826
G1 X85.452 Y162.146 E.00521
G1 X85.625 Y162.121 E.0051
G1 X86.032 Y162.119 E.01186
G1 X86.124 Y162.166 E.00301
G1 X86.145 Y162.218 E.00164
G1 X86.299 Y163.471 E.03682
G1 X85.705 Y167.922 E.13092
G1 X83.995 Y172.07 E.13084
G1 X81.157 Y175.768 E.13594
G1 X77.593 Y178.494 E.13084
G1 X73.45 Y180.218 E.13084
G1 X68.828 Y180.827 E.13593
G1 X64.325 Y180.219 E.13251
G1 X60.131 Y178.465 E.13254
G1 X56.534 Y175.686 E.13254
M73 P1 R110
G1 X53.779 Y172.071 E.13254
G1 X52.053 Y167.866 E.13254
G1 X51.475 Y163.358 E.13254
G1 X52.083 Y158.853 E.13256
G1 X53.784 Y154.746 E.1296
G1 X54.05 Y154.36 E.01367
G1 X54.205 Y154.05 E.01013
G1 X54.27 Y153.841 E.00638
G1 X54.304 Y153.641 E.0059
G1 X54.305 Y153.261 E.0111
G1 X54.217 Y152.85 E.01225
G1 X54.072 Y152.541 E.00996
G1 X53.685 Y151.987 E.01972
G1 X51.983 Y147.879 E.12966
G1 X51.375 Y143.256 E.13594
G1 X51.968 Y138.809 E.13084
G1 X53.678 Y134.66 E.13085
G1 X56.516 Y130.962 E.13593
G1 X60.105 Y128.222 E.13167
G1 X64.238 Y126.514 E.1304
G1 X64.365 Y126.869 F10800
G1 F1200
G1 X68.744 Y126.285 E.12882
G1 X73.123 Y126.847 E.12875
G1 X77.365 Y128.604 E.13386
G1 X80.818 Y131.263 E.12709
G1 X83.498 Y134.737 E.12794
G1 X85.255 Y138.979 E.13388
G1 X85.817 Y143.246 E.12551
G1 X85.725 Y144.026 E.02289
G1 X85.667 Y144.112 E.00301
G1 X85.581 Y144.121 E.00253
G1 X85.352 Y144.05 E.00698
G1 X81.294 Y141.735 E.13623
G1 X80.385 Y141.37 E.02857
G1 X79.514 Y141.184 E.02595
G1 X78.88 Y141.141 E.01856
G1 X68.924 Y141.141 E.29029
G1 X68.459 Y141.198 E.01369
G1 X68.09 Y141.31 E.01125
G1 X67.688 Y141.527 E.01331
G1 X67.358 Y141.799 E.01248
G1 X67.173 Y142.029 E.0086
G1 X66.877 Y142.556 E.01764
G1 X66.757 Y142.968 E.01251
G1 X66.713 Y143.356 E.01137
G1 X66.713 Y163.279 E.58095
G1 X66.752 Y163.661 E.0112
G1 X66.843 Y164.013 E.0106
G1 X66.985 Y164.331 E.01016
G1 X67.149 Y164.586 E.00881
G1 X67.586 Y165.016 E.01789
G1 X68.13 Y165.326 E.01825
G1 X68.291 Y165.378 E.00494
G1 X68.747 Y165.47 E.01357
G1 X78.879 Y165.489 E.29545
G1 X79.581 Y165.436 E.02054
G1 X80.3 Y165.287 E.02141
G1 X81.102 Y164.987 E.02495
G1 X85.195 Y162.655 E.13736
G1 X85.436 Y162.545 E.00773
G1 X85.678 Y162.499 E.00718
G1 X85.777 Y162.529 E.00301
G1 X85.811 Y162.597 E.00222
G1 X85.916 Y163.483 E.02604
G1 X85.34 Y167.809 E.12724
G1 X83.671 Y171.866 E.12793
G1 X80.876 Y175.508 E.13387
G1 X77.389 Y178.171 E.12794
G1 X73.365 Y179.845 E.12709
G1 X68.814 Y180.444 E.13385
G1 X64.411 Y179.846 E.12957
G1 X60.311 Y178.127 E.12963
G1 X56.795 Y175.407 E.12963
G1 X54.103 Y171.868 E.12963
G1 X52.419 Y167.754 E.12963
G1 X51.857 Y163.344 E.12963
G1 X52.456 Y158.938 E.12966
G1 X54.112 Y154.939 E.12623
G1 X54.39 Y154.523 E.01456
G1 X54.568 Y154.154 E.01195
G1 X54.628 Y153.96 E.00595
G1 X54.675 Y153.712 E.00735
G1 X54.682 Y153.272 E.01284
G1 X54.556 Y152.685 E.01751
G1 X54.376 Y152.318 E.0119
G1 X54.013 Y151.793 E.01862
G1 X52.356 Y147.794 E.12622
G1 X51.757 Y143.242 E.13388
G1 X52.333 Y138.922 E.12709
M73 P1 R109
G1 X54.002 Y134.864 E.12794
G1 X56.797 Y131.222 E.13386
G1 X60.309 Y128.546 E.12875
G1 X64.328 Y126.885 E.12681
G1 X64.473 Y127.237 F10800
G1 F1200
G1 X64.478 Y127.235 E.00016
G1 X68.73 Y126.668 E.12509
G1 X73.011 Y127.213 E.12582
G1 X77.186 Y128.942 E.13178
G1 X80.558 Y131.543 E.12419
G1 X83.159 Y134.916 E.12418
G1 X84.889 Y139.092 E.13182
G1 X85.435 Y143.235 E.12185
G1 X85.411 Y143.469 E.00685
G1 X85.353 Y143.555 E.00301
G1 X85.243 Y143.554 E.00323
G1 X81.428 Y141.383 E.12799
G1 X80.455 Y140.999 E.0305
G1 X79.533 Y140.808 E.02746
G1 X78.876 Y140.764 E.0192
