; HEADER_BLOCK_START
; generated by OrcaSlicer 2.0.0 on 2024-06-17 at 21:29:07
; total layer number: 84
; filament_density: 1.04
; filament_diameter: 1.75
; max_z_height: 10.50
; HEADER_BLOCK_END

; THUMBNAIL_BLOCK_START

;
; THUMBNAIL_BLOCK_END

; external perimeters extrusion width = 0.45mm
; perimeters extrusion width = 0.45mm
; infill extrusion width = 0.45mm
; solid infill extrusion width = 0.45mm
; top infill extrusion width = 0.40mm
; first layer extrusion width = 0.42mm

; external perimeters extrusion width = 0.45mm
; perimeters extrusion width = 0.45mm
; infill extrusion width = 0.45mm
; solid infill extrusion width = 0.45mm
; top infill extrusion width = 0.40mm
; first layer extrusion width = 0.42mm

; EXECUTABLE_BLOCK_START
M73 P0 R110
M201 X2000 Y2000 Z300 E5000
M203 X200 Y200 Z12 E120
M204 P2000 R2500 T2000
M205 X9.00 Y9.00 Z0.20 E2.50 ; sets the jerk limits, mm/sec
;TYPE:Custom
M862.3 P "MK3S" ; printer model check
M862.1 P0.4 ; nozzle diameter check
M115 U3.13.0 ; tell printer latest fw version
G90 ; use absolute coordinates
M83 ; extruder relative mode
M104 S260 ; set extruder temp
M140 S105 ; set bed temp
M190 S105 ; wait for bed temp
M109 S260 ; wait for extruder temp
G28 W ; home all without mesh bed level
G80 ; mesh bed leveling

G1 Z0.2 F720
G1 Y-3 F1000 ; go outside print area
G92 E0
G1 X60 E9 F1000 ; intro line
G1 X100 E12.5 F1000 ; intro line

G92 E0
M221 S95
G90
G21
M83 ; use relative distances for extrusion
; Filament gcode
M900 K0.04 ; Filament gcode LA 1.5
M900 K20 ; Filament gcode LA 1.0
M106 S0
;LAYER_CHANGE
;Z:0.25
;HEIGHT:0.25
;BEFORE_LAYER_CHANGE
;0.25
G92 E0

G1 E-.8 F1800
;AFTER_LAYER_CHANGE
;0.25
;_SET_FAN_SPEED_CHANGING_LAYER
M204 S800
G1 Z.4 F720
G1 X50.056 Y35.586 F10800
G1 Z.4 F720
G1 Z.25
G1 E.8 F1800
;TYPE:Skirt
;WIDTH:0.42
G1 F3000
G1 X53.126 Y31.586 E.17857
G1 X53.562 Y31.149 E.02188
G1 X57.563 Y28.079 E.17857
G1 X58.098 Y27.77 E.02188
G1 X62.757 Y25.84 E.17857
G1 X63.353 Y25.681 E.02188
G1 X68.66 Y25.002 E.18944
G1 X181.547 Y24.922 E3.9976
G1 X186.547 Y25.581 E.17857
G1 X187.144 Y25.74 E.02188
G1 X191.802 Y27.67 E.17857
G1 X192.337 Y27.979 E.02188
G1 X196.338 Y31.049 E.17857
G1 X196.775 Y31.486 E.02188
G1 X199.844 Y35.486 E.17857
G1 X200.153 Y36.021 E.02188
G1 X202.083 Y40.68 E.17857
G1 X202.243 Y41.277 E.02188
G1 X202.901 Y46.276 E.17857
G1 X203.021 Y66.685 E.72274
G1 X203.021 Y163.315 E3.42188
G1 X202.343 Y168.623 E.18951
G1 X202.183 Y169.22 E.02188
G1 X200.253 Y173.879 E.17857
G1 X199.944 Y174.414 E.02188
G1 X196.875 Y178.414 E.17857
G1 X196.438 Y178.851 E.02188
G1 X192.437 Y181.921 E.17857
G1 X191.902 Y182.23 E.02188
G1 X187.244 Y184.16 E.17857
G1 X186.647 Y184.319 E.02188
G1 X181.341 Y184.998 E.18944
G1 X68.764 Y185.098 E3.98659
G1 X63.453 Y184.419 E.18958
G1 X62.857 Y184.26 E.02188
G1 X58.198 Y182.33 E.17857
G1 X57.663 Y182.021 E.02188
G1 X53.662 Y178.951 E.17857
G1 X53.226 Y178.514 E.02188
G1 X50.156 Y174.514 E.17857
G1 X49.847 Y173.979 E.02188
G1 X47.917 Y169.32 E.17857
G1 X47.757 Y168.723 E.02188
G1 X47.079 Y163.427 E.1891
G1 X46.979 Y143.327 E.71179
G1 X46.979 Y46.685 E3.4223
G1 X47.657 Y41.377 E.18951
G1 X47.817 Y40.78 E.02188
G1 X49.747 Y36.121 E.17857
G1 X50.036 Y35.621 E.02046
; printing object Holder.stl id:2816 copy 0
G1 E-.56 F1800
;WIPE_START
G1 F3000
G1 X50.644 Y34.827 E-.24
;WIPE_END
G1 Z.65 F720
G1 X63.71 Y124.835 Z.65 F10800
G1 Z.25 F720
G1 E.8 F1800
;TYPE:Brim
G1 F1200
G1 X68.662 Y124.183 E.17686
G1 X73.613 Y124.835 E.17686
G1 X78.228 Y126.746 E.17686
G1 X82.19 Y129.787 E.17686
G1 X85.23 Y133.749 E.17686
G1 X87.142 Y138.363 E.17686
G1 X87.794 Y143.315 E.17686
G1 X87.436 Y146.032 E.09704
G1 X85.487 Y146.023 E.06902
G1 X85.16 Y145.977 E.01169
G1 X84.843 Y145.892 E.01161
G1 X84.54 Y145.77 E.01157
G1 X80.434 Y143.412 E.16769
G1 X79.926 Y143.197 E.01951
G1 X79.414 Y143.073 E.01867
G1 X78.9 Y143.032 E.01826
G1 X68.762 Y143.032 E.35902
G1 X68.658 Y143.054 E.00376
G1 X68.548 Y143.142 E.00496
G1 X68.479 Y143.315 E.00662
G1 X68.479 Y163.315 E.70824
G1 X68.501 Y163.419 E.00376
G1 X68.588 Y163.528 E.00496
G1 X68.762 Y163.598 E.00662
G1 X78.901 Y163.598 E.35904
G1 X79.41 Y163.558 E.01809
G1 X79.926 Y163.433 E.01881
G1 X80.431 Y163.219 E.01941
G1 X84.338 Y160.966 E.15971
G1 X84.74 Y160.775 E.01576
G1 X85.162 Y160.653 E.01554
G1 X85.483 Y160.608 E.0115
G1 X87.523 Y160.599 E.07222
G1 X87.894 Y163.415 E.10059
G1 X87.242 Y168.367 E.17686
G1 X85.33 Y172.981 E.17686
G1 X82.29 Y176.943 E.17686
G1 X78.328 Y179.984 E.17686
G1 X73.713 Y181.895 E.17686
G1 X68.762 Y182.547 E.17686
G1 X63.81 Y181.895 E.17686
G1 X59.196 Y179.984 E.17686
G1 X55.234 Y176.943 E.17686
G1 X52.193 Y172.981 E.17686
M73 P0 R109
G1 X50.282 Y168.367 E.17686
G1 X49.63 Y163.415 E.17686
G1 X50.282 Y158.463 E.17686
G1 X52.193 Y153.849 E.17686
G1 X52.429 Y153.542 E.01372
G1 X52.466 Y153.414 E.00471
G1 X52.429 Y153.319 E.00362
G1 X52.093 Y152.881 E.01954
G1 X50.182 Y148.267 E.17686
G1 X49.53 Y143.315 E.17686
G1 X50.182 Y138.363 E.17686
G1 X52.093 Y133.749 E.17686
G1 X55.134 Y129.787 E.17686
G1 X59.096 Y126.746 E.17686
G1 X63.673 Y124.85 E.17545
G1 X63.815 Y125.192 F10800
G1 F1200
G1 X63.82 Y125.19 E.0002
G1 X68.647 Y124.555 E.17242
G1 X73.503 Y125.19 E.17343
G1 X78.054 Y127.075 E.17444
G1 X81.917 Y130.039 E.17242
G1 X84.902 Y133.922 E.17343
G1 X86.787 Y138.473 E.17444
G1 X87.422 Y143.301 E.17242
G1 X87.127 Y145.568 E.08097
G1 X87.018 Y145.664 E.00515
G1 X85.521 Y145.657 E.053
G1 X85.24 Y145.618 E.01005
G1 X84.954 Y145.541 E.01051
G1 X84.694 Y145.435 E.00992
G1 X80.622 Y143.098 E.16628
G1 X80.005 Y142.839 E.0237
G1 X79.435 Y142.707 E.02069
G1 X78.896 Y142.665 E.01916
G1 X68.771 Y142.665 E.35855
G1 X68.59 Y142.695 E.00646
G1 X68.42 Y142.776 E.00669
G1 X68.331 Y142.846 E.00401
G1 X68.203 Y143.018 E.00759
G1 X68.143 Y143.168 E.00574
G1 X68.112 Y143.326 E.00567
G1 X68.112 Y163.306 E.70756
G1 X68.141 Y163.486 E.00646
G1 X68.222 Y163.657 E.00669
G1 X68.293 Y163.746 E.00401
G1 X68.465 Y163.874 E.00759
G1 X68.615 Y163.934 E.00574
G1 X68.772 Y163.965 E.00567
G1 X78.896 Y163.965 E.35851
G1 X79.431 Y163.924 E.01899
G1 X80.004 Y163.791 E.02085
G1 X80.568 Y163.559 E.02159
G1 X84.505 Y161.293 E.16084
G1 X84.863 Y161.123 E.01404
G1 X85.231 Y161.014 E.01361
G1 X85.518 Y160.974 E.01023
G1 X87.105 Y160.967 E.05621
G1 X87.214 Y161.063 E.00514
G1 X87.522 Y163.429 E.08452
G1 X86.879 Y168.284 E.17343
G1 X85.016 Y172.783 E.17242
G1 X82.017 Y176.691 E.17444
G1 X78.13 Y179.669 E.17343
G1 X73.631 Y181.532 E.17242
G1 X68.747 Y182.175 E.17444
G1 X63.892 Y181.532 E.17343
G1 X59.369 Y179.655 E.17343
G1 X55.486 Y176.67 E.17343
G1 X52.508 Y172.783 E.17343
G1 X50.637 Y168.257 E.17343
G1 X50.001 Y163.401 E.17343
G1 X50.644 Y158.546 E.17343
G1 X52.508 Y154.047 E.17242
G1 X52.714 Y153.773 E.01215
G1 X52.784 Y153.634 E.00551
G1 X52.813 Y153.534 E.00371
G1 X52.801 Y153.269 E.0094
G1 X52.713 Y153.087 E.00716
G1 X52.408 Y152.683 E.01793
G1 X50.544 Y148.184 E.17242
G1 X49.901 Y143.301 E.17444
G1 X50.544 Y138.446 E.17343
G1 X52.408 Y133.947 E.17242
G1 X55.386 Y130.06 E.17343
G1 X59.269 Y127.075 E.17343
G1 X63.778 Y125.208 E.17282
G1 X63.919 Y125.55 F10800
G1 F1200
G1 X63.93 Y125.545 E.00041
G1 X68.662 Y124.926 E.16899
G1 X73.394 Y125.545 E.16899
G1 X77.881 Y127.404 E.17201
G1 X81.665 Y130.312 E.16899
G1 X84.573 Y134.096 E.16899
G1 X86.432 Y138.583 E.17201
G1 X87.051 Y143.287 E.16799
G1 X86.806 Y145.2 E.06831
G1 X86.747 Y145.283 E.00361
G1 X86.696 Y145.296 E.00186
G1 X85.555 Y145.291 E.04043
G1 X85.306 Y145.256 E.00887
G1 X85.064 Y145.191 E.00889
G1 X84.849 Y145.102 E.00825
G1 X80.81 Y142.783 E.16491
G1 X80.154 Y142.505 E.02523
G1 X79.455 Y142.341 E.02543
G1 X78.892 Y142.299 E.02001
G1 X68.778 Y142.299 E.35814
G1 X68.538 Y142.332 E.00858
G1 X68.427 Y142.367 E.00414
G1 X68.272 Y142.441 E.00607
G1 X68.11 Y142.555 E.00701
G1 X67.912 Y142.796 E.01104
G1 X67.862 Y142.886 E.00367
G1 X67.782 Y143.106 E.00826
G1 X67.746 Y143.334 E.0082
G1 X67.746 Y163.299 E.70698
G1 X67.779 Y163.539 E.00858
G1 X67.814 Y163.65 E.00414
G1 X67.887 Y163.805 E.00607
G1 X68.002 Y163.967 E.00701
G1 X68.239 Y164.162 E.01089
G1 X68.472 Y164.271 E.00909
G1 X68.783 Y164.331 E.01122
G1 X78.892 Y164.331 E.358
G1 X79.451 Y164.289 E.01985
G1 X80.079 Y164.15 E.02278
G1 X80.702 Y163.9 E.02374
G1 X84.671 Y161.62 E.16212
G1 X85.002 Y161.464 E.01295
G1 X85.302 Y161.376 E.01105
G1 X85.552 Y161.34 E.00895
G1 X86.783 Y161.335 E.04361
G1 X86.874 Y161.381 E.00361
G1 X87.151 Y163.443 E.07367
G1 X86.524 Y168.174 E.169
G1 X84.701 Y172.585 E.16899
G1 X81.744 Y176.438 E.17201
G1 X77.956 Y179.34 E.16899
G1 X73.549 Y181.17 E.16899
G1 X68.733 Y181.804 E.17201
G1 X63.975 Y181.17 E.16999
G1 X59.543 Y179.326 E.17
G1 X55.739 Y176.398 E.17
G1 X52.822 Y172.585 E.17
G1 X50.992 Y168.147 E.17
G1 X50.373 Y163.387 E.17
G1 X51.007 Y158.628 E.17
G1 X52.823 Y154.243 E.16808
G1 X53.002 Y153.999 E.01071
G1 X53.108 Y153.805 E.00782
G1 X53.163 Y153.642 E.00609
G1 X53.179 Y153.508 E.00477
G1 X53.168 Y153.264 E.00868
G1 X53.126 Y153.099 E.00603
G1 X53.047 Y152.936 E.00641
G1 X52.723 Y152.486 E.01962
G1 X50.907 Y148.102 E.16804
G1 X50.273 Y143.286 E.17201
G1 X50.907 Y138.528 E.16999
G1 X52.737 Y134.12 E.169
G1 X55.639 Y130.332 E.16899
G1 X59.443 Y127.404 E.16999
G1 X63.883 Y125.565 E.17018
G1 X64.012 Y125.908 F10800
G1 F1200
G1 X68.676 Y125.297 E.16657
G1 X73.311 Y125.908 E.16556
G1 X77.683 Y127.718 E.16755
G1 X81.392 Y130.565 E.16557
G1 X84.258 Y134.294 E.16657
G1 X86.069 Y138.666 E.16756
G1 X86.68 Y143.302 E.16559
G1 X86.484 Y144.832 E.05464
G1 X86.425 Y144.915 E.00361
G1 X86.374 Y144.928 E.00187
G1 X85.588 Y144.924 E.02785
G1 X85.367 Y144.893 E.00791
G1 X85.004 Y144.769 E.01357
G1 X80.998 Y142.469 E.16357
G1 X80.229 Y142.146 E.02954
G1 X79.474 Y141.975 E.0274
G1 X78.888 Y141.933 E.02083
G1 X68.785 Y141.933 E.35776
G1 X68.496 Y141.968 E.01031
G1 X68.264 Y142.039 E.0086
G1 X68.056 Y142.145 E.00826
G1 X67.819 Y142.332 E.01067
G1 X67.635 Y142.556 E.01028
G1 X67.515 Y142.769 E.00865
G1 X67.419 Y143.056 E.01074
G1 X67.38 Y143.342 E.0102
G1 X67.38 Y163.292 E.70648
G1 X67.415 Y163.582 E.01036
G1 X67.463 Y163.754 E.00633
G1 X67.553 Y163.956 E.00782
G1 X67.696 Y164.169 E.0091
G1 X68 Y164.439 E.01438
G1 X68.312 Y164.6 E.01245
G1 X68.792 Y164.697 E.01734
G1 X78.888 Y164.697 E.35753
G1 X79.471 Y164.655 E.02068
G1 X80.151 Y164.509 E.02463
G1 X80.831 Y164.243 E.02587
G1 X84.837 Y161.947 E.16351
G1 X85.141 Y161.805 E.01187
G1 X85.372 Y161.737 E.00852
G1 X85.586 Y161.706 E.00766
G1 X86.451 Y161.703 E.03061
G1 X86.56 Y161.798 E.00514
G1 X86.779 Y163.429 E.05829
G1 X86.169 Y168.064 E.16557
G1 X84.387 Y172.387 E.16556
G1 X81.472 Y176.186 E.16957
G1 X77.758 Y179.026 E.16556
G1 X73.467 Y180.807 E.16456
G1 X68.748 Y181.432 E.16856
G1 X64.085 Y180.815 E.16655
G1 X59.741 Y179.012 E.16656
G1 X56.012 Y176.146 E.16656
G1 X53.137 Y172.387 E.16757
G1 X51.347 Y168.038 E.16656
G1 X50.744 Y163.373 E.16656
G1 X51.369 Y158.711 E.16657
G1 X53.14 Y154.436 E.16384
G1 X53.326 Y154.17 E.01151
G1 X53.457 Y153.914 E.01017
G1 X53.507 Y153.768 E.00548
G1 X53.541 Y153.557 E.00755
G1 X53.534 Y153.255 E.0107
G1 X53.482 Y153.016 E.00868
G1 X53.379 Y152.782 E.00905
G1 X53.04 Y152.295 E.02102
G1 X51.269 Y148.02 E.16386
G1 X50.644 Y143.301 E.16856
G1 X51.269 Y138.611 E.16756
G1 X53.065 Y134.294 E.16558
G1 X55.912 Y130.584 E.16558
G1 X59.641 Y127.718 E.16655
G1 X63.975 Y125.923 E.16613
G1 X64.094 Y126.27 F10800
G1 F1200
G1 X68.69 Y125.669 E.16414
G1 X73.229 Y126.27 E.16214
G1 X77.485 Y128.033 E.16311
G1 X81.14 Y130.837 E.16315
G1 X83.944 Y134.492 E.16314
G1 X85.707 Y138.748 E.16311
G1 X86.308 Y143.316 E.16318
G1 X86.161 Y144.464 E.04098
G1 X86.103 Y144.548 E.00361
G1 X86.052 Y144.56 E.00187
G1 X85.622 Y144.558 E.01522
G1 X85.443 Y144.532 E.00642
G1 X85.147 Y144.428 E.0111
G1 X81.186 Y142.155 E.16172
G1 X80.38 Y141.812 E.03104
G1 X79.493 Y141.609 E.03221
G1 X78.884 Y141.566 E.02162
G1 X68.792 Y141.566 E.35737
G1 X68.382 Y141.62 E.01465
G1 X68.091 Y141.716 E.01083
G1 X67.823 Y141.862 E.01084
G1 X67.53 Y142.107 E.01349
G1 X67.313 Y142.382 E.01241
G1 X67.165 Y142.661 E.01119
G1 X67.055 Y143.014 E.01311
G1 X67.013 Y143.349 E.01193
G1 X67.013 Y163.286 E.70602
G1 X67.051 Y163.621 E.01194
G1 X67.108 Y163.846 E.00822
G1 X67.217 Y164.1 E.00978
G1 X67.386 Y164.364 E.01111
G1 X67.749 Y164.705 E.01766
G1 X68.139 Y164.923 E.0158
G1 X68.247 Y164.961 E.00407
G1 X68.709 Y165.054 E.01668
G1 X78.884 Y165.064 E.36033
G1 X79.555 Y165.012 E.02383
G1 X80.22 Y164.869 E.02407
G1 X80.958 Y164.587 E.02798
G1 X85.003 Y162.275 E.165
G1 X85.279 Y162.146 E.0108
G1 X85.458 Y162.095 E.00658
G1 X85.621 Y162.072 E.00582
G1 X86.13 Y162.07 E.01805
G1 X86.24 Y162.165 E.00514
G1 X86.408 Y163.444 E.04566
G1 X85.807 Y167.982 E.16212
G1 X84.072 Y172.189 E.16112
G1 X81.199 Y175.933 E.16713
G1 X77.585 Y178.697 E.16112
G1 X73.384 Y180.445 E.16114
M73 P1 R109
G1 X68.762 Y181.061 E.16511
G1 X64.196 Y180.46 E.16311
G1 X59.915 Y178.683 E.16414
G1 X56.265 Y175.873 E.16312
G1 X53.452 Y172.19 E.16413
G1 X51.703 Y167.928 E.16312
G1 X51.116 Y163.359 E.16313
G1 X51.731 Y158.793 E.16315
G1 X53.458 Y154.624 E.1598
G1 X53.654 Y154.332 E.01246
G1 X53.806 Y154.026 E.01211
G1 X53.87 Y153.82 E.00763
G1 X53.901 Y153.626 E.00696
G1 X53.9 Y153.256 E.0131
G1 X53.813 Y152.859 E.01439
G1 X53.675 Y152.565 E.0115
G1 X53.359 Y152.107 E.0197
G1 X51.632 Y147.937 E.15982
G1 X51.016 Y143.316 E.16511
G1 X51.631 Y138.694 E.16513
G1 X53.394 Y134.467 E.16215
G1 X56.185 Y130.837 E.16216
G1 X59.839 Y128.033 E.16312
G1 X64.057 Y126.286 E.16168
G1 X64.176 Y126.633 F10800
G1 F1200
G1 X68.704 Y126.04 E.16171
G1 X73.147 Y126.633 E.15871
G1 X77.287 Y128.347 E.15868
G1 X80.887 Y131.11 E.16072
G1 X83.615 Y134.666 E.15869
G1 X85.344 Y138.83 E.15968
G1 X85.937 Y143.331 E.16077
G1 X85.839 Y144.096 E.02732
G1 X85.781 Y144.18 E.00361
G1 X85.72 Y144.192 E.00218
G1 X85.521 Y144.171 E.00711
G1 X85.291 Y144.089 E.00864
G1 X81.324 Y141.815 E.16192
G1 X80.452 Y141.453 E.03342
G1 X79.51 Y141.243 E.03417
G1 X78.88 Y141.2 E.02238
G1 X68.799 Y141.2 E.357
G1 X68.344 Y141.256 E.01623
G1 X67.908 Y141.399 E.01623
G1 X67.582 Y141.587 E.01335
G1 X67.237 Y141.887 E.01618
G1 X66.986 Y142.217 E.01468
G1 X66.813 Y142.56 E.01363
G1 X66.691 Y142.977 E.01538
G1 X66.647 Y143.355 E.01348
G1 X66.647 Y163.28 E.70559
G1 X66.686 Y163.655 E.01334
G1 X66.774 Y163.996 E.01249
G1 X66.913 Y164.304 E.01197
G1 X67.071 Y164.551 E.01039
G1 X67.494 Y164.968 E.02103
G1 X67.576 Y165.028 E.0036
G1 X68.024 Y165.27 E.01803
G1 X68.181 Y165.321 E.00583
G1 X68.626 Y165.411 E.01607
G1 X78.88 Y165.43 E.36312
G1 X79.576 Y165.378 E.02474
G1 X80.289 Y165.229 E.02579
G1 X81.081 Y164.932 E.02994
G1 X85.167 Y162.602 E.16656
G1 X85.423 Y162.486 E.00996
G1 X85.631 Y162.441 E.00752
G1 X85.809 Y162.438 E.00632
G1 X85.919 Y162.534 E.00515
G1 X86.036 Y163.429 E.032
G1 X85.452 Y167.873 E.1587
G1 X83.758 Y171.991 E.15768
G1 X80.947 Y175.66 E.16368
G1 X77.412 Y178.368 E.15771
G1 X73.301 Y180.083 E.15772
G1 X68.776 Y180.69 E.16166
G1 X64.278 Y180.098 E.16067
G1 X60.088 Y178.355 E.16069
G1 X56.518 Y175.601 E.15968
G1 X53.767 Y171.992 E.16068
G1 X52.058 Y167.82 E.15968
G1 X51.487 Y163.346 E.1597
G1 X52.094 Y158.876 E.15973
G1 X53.779 Y154.808 E.15594
G1 X53.985 Y154.49 E.01343
G1 X54.159 Y154.126 E.01429
G1 X54.218 Y153.934 E.00711
G1 X54.262 Y153.692 E.00868
G1 X54.266 Y153.266 E.01512
G1 X54.139 Y152.692 E.02081
G1 X53.972 Y152.351 E.01346
G1 X53.678 Y151.92 E.01845
G1 X51.994 Y147.855 E.15583
G1 X51.387 Y143.33 E.16166
G1 X51.994 Y138.777 E.16268
G1 X53.722 Y134.641 E.15872
G1 X56.457 Y131.089 E.15875
G1 X60.037 Y128.347 E.1597
G1 X64.139 Y126.648 E.15723
G1 X64.258 Y126.995 F10800
G1 F1200
G1 X68.718 Y126.412 E.15928
G1 X73.037 Y126.988 E.15427
G1 X77.088 Y128.662 E.15525
G1 X80.635 Y131.383 E.15829
G1 X83.301 Y134.864 E.15526
G1 X84.982 Y138.913 E.15524
G1 X85.566 Y143.346 E.15836
G1 X85.53 Y143.628 E.01006
G1 X85.472 Y143.711 E.00361
G1 X85.366 Y143.709 E.00373
G1 X81.458 Y141.474 E.15941
G1 X80.523 Y141.093 E.03577
G1 X79.528 Y140.877 E.03607
G1 X78.876 Y140.834 E.02311
G1 X68.748 Y140.837 E.35865
G1 X68.221 Y140.911 E.01884
G1 X67.718 Y141.086 E.01889
G1 X67.334 Y141.316 E.01584
