; HEADER_BLOCK_START
; generated by OrcaSlicer 2.1.1 on 2024-07-12 at 11:21:17
; total layer number: 47
; filament_density: 1.24
; filament_diameter: 1.75
; max_z_height: 14.00
; HEADER_BLOCK_END

; THUMBNAIL_BLOCK_START

;
; THUMBNAIL_BLOCK_END

; external perimeters extrusion width = 0.60mm
; perimeters extrusion width = 0.50mm
; infill extrusion width = 0.50mm
; solid infill extrusion width = 0.50mm
; top infill extrusion width = 0.45mm
; first layer extrusion width = 0.42mm

; external perimeters extrusion width = 0.60mm
; perimeters extrusion width = 0.50mm
; infill extrusion width = 0.50mm
; solid infill extrusion width = 0.50mm
; top infill extrusion width = 0.45mm
; first layer extrusion width = 0.42mm

; EXECUTABLE_BLOCK_START
M73 P0 R69
M201 X2000 Y2000 Z300 E5000
M203 X200 Y200 Z12 E120
M204 P2000 R2500 T2000
M205 X9.00 Y9.00 Z0.20 E2.50 ; sets the jerk limits, mm/sec
;TYPE:Custom
M862.3 P "MK3S" ; printer model check
M862.1 P0.4 ; nozzle diameter check
M115 U3.13.0 ; tell printer latest fw version
G90 ; use absolute coordinates
M83 ; extruder relative mode
M104 S220 ; set extruder temp
M140 S60 ; set bed temp
M190 S60 ; wait for bed temp
M109 S220 ; wait for extruder temp
G28 W ; home all without mesh bed level
G80 ; mesh bed leveling

G1 Z0.2 F720
G1 Y-3 F1000 ; go outside print area
G92 E0
G1 X60 E9 F1000 ; intro line
G1 X100 E12.5 F1000 ; intro line

G92 E0
M221 S95
G90
G21
M83 ; use relative distances for extrusion
; filament start gcode
M900 K0.05 ; Filament gcode LA 1.5
M900 K30 ; Filament gcode LA 1.0
M106 S0
;LAYER_CHANGE
;Z:0.2
;HEIGHT:0.2
;BEFORE_LAYER_CHANGE
;0.2
G92 E0

G1 E-.8 F1800
;AFTER_LAYER_CHANGE
;0.2
;_SET_FAN_SPEED_CHANGING_LAYER
M204 S800
G1 X82.515 Y54.913 F10800
G1 Z.4 F720
G1 Z.2
G1 E.8 F1800
;TYPE:Skirt
;WIDTH:0.42
G1 F3000
G1 X83.56 Y54.037 E.04193
G1 X84.5 Y53.843 E.02948
G1 X165.5 Y53.843 E2.4889
G1 X166.807 Y54.235 E.04193
G1 X167.683 Y55.28 E.04193
G1 X167.877 Y56.22 E.02948
G1 X167.877 Y153.78 E2.99775
G1 X167.485 Y155.087 E.04193
G1 X166.44 Y155.963 E.04193
G1 X165.5 Y156.157 E.02948
G1 X84.5 Y156.157 E2.4889
G1 X83.193 Y155.765 E.04193
G1 X82.317 Y154.72 E.04193
G1 X82.123 Y153.78 E.02948
G1 X82.123 Y56.22 E2.99775
G1 X82.503 Y54.951 E.0407
; printing object battery_cage_holder.stl id:22 copy 0
G1 E-.56 F1800
;WIPE_START
G1 F3000
G1 X83.259 Y54.297 E-.24
;WIPE_END
G1 X83.417 Y61.928 Z.6 F10800
G1 X85.262 Y150.949 Z.6
G1 Z.2 F720
G1 E.8 F1800
;TYPE:Outer wall
;WIDTH:0.419999
G1 F1200
G1 X85.332 Y150.801 E.00502
G1 X85.332 Y149.79 E.03108
G1 X157.585 Y149.79 E2.22012
G1 X164.668 Y150.802 E.21984
G1 X164.747 Y150.955 E.00532
G1 X164.856 Y150.99 E.00351
G1 X165.29 Y150.99 E.01333
G1 X165.29 Y153.57 E.07928
G1 X84.71 Y153.57 E2.47599
G1 X84.71 Y150.99 E.07928
G1 X85.144 Y150.99 E.01333
G1 X85.224 Y150.962 E.00261
G1 X85.524 Y151.21 F10800
;TYPE:Inner wall
G1 F1200
G1 X85.657 Y151.041 E.00661
G1 X85.71 Y150.801 E.00752
G1 X85.71 Y150.167 E.01949
G1 X157.558 Y150.167 E2.20771
G1 X164.474 Y151.155 E.21465
G1 X164.53 Y151.263 E.00375
G1 X164.913 Y151.367 E.0122
G1 X164.913 Y153.193 E.0561
G1 X85.087 Y153.193 E2.45282
G1 X85.087 Y151.367 E.0561
G1 X85.498 Y151.243 E.01318
G1 X85.499 Y151.241 E.00007
G1 X85.784 Y151.472 F10800
G1 F1200
G1 X85.998 Y151.2 E.01063
G1 X86.087 Y150.801 E.01254
G1 X86.087 Y150.544 E.00791
G1 X157.531 Y150.544 E2.1953
G1 X164.279 Y151.508 E.20945
G1 X164.312 Y151.571 E.00219
G1 X164.536 Y151.642 E.00721
G1 X164.536 Y152.816 E.03605
G1 X85.464 Y152.816 E2.42965
G1 X85.464 Y151.632 E.03639
G1 X85.733 Y151.537 E.00877
G1 X85.76 Y151.504 E.00132
G1 E-.56 F1800
;WIPE_START
G1 F1200
G1 X85.998 Y151.2 E-.09266
G1 X86.087 Y150.801 E-.09795
G1 X86.087 Y150.596 E-.04939
;WIPE_END
G1 X93.717 Y150.78 Z.6 F10800
G1 X164.423 Y152.488 Z.6
G1 Z.2 F720
G1 E.8 F1800
;TYPE:Bottom surface
;WIDTH:0.422112
G1 F3600
G1 X163.637 Y151.702 E.03433
G1 X163.011 Y151.613 E.01953
G1 X163.932 Y152.533 E.04022
G1 X163.396 Y152.533 E.01657
G1 X162.386 Y151.523 E.04412
G1 X161.76 Y151.434 E.01953
G1 X162.859 Y152.533 E.04803
G1 X162.323 Y152.533 E.01657
G1 X161.134 Y151.345 E.05194
G1 X160.509 Y151.255 E.01953
M73 P1 R69
G1 X161.787 Y152.533 E.05584
G1 X161.25 Y152.533 E.01657
G1 X159.883 Y151.166 E.05975
G1 X159.258 Y151.076 E.01953
G1 X160.714 Y152.533 E.06365
G1 X160.178 Y152.533 E.01657
G1 X158.632 Y150.987 E.06756
G1 X158.006 Y150.898 E.01953
G1 X159.642 Y152.533 E.07146
G1 X159.105 Y152.533 E.01657
G1 X157.399 Y150.827 E.07455
G1 X156.863 Y150.827 E.01657
G1 X158.569 Y152.533 E.07455
G1 X158.033 Y152.533 E.01657
G1 X156.327 Y150.827 E.07455
G1 X155.791 Y150.827 E.01657
G1 X157.497 Y152.533 E.07455
G1 X156.96 Y152.533 E.01657
G1 X155.254 Y150.827 E.07455
G1 X154.718 Y150.827 E.01657
G1 X156.424 Y152.533 E.07455
G1 X155.888 Y152.533 E.01657
G1 X154.182 Y150.827 E.07455
G1 X153.646 Y150.827 E.01657
G1 X155.352 Y152.533 E.07455
G1 X154.815 Y152.533 E.01657
G1 X153.109 Y150.827 E.07455
G1 X152.573 Y150.827 E.01657
G1 X154.279 Y152.533 E.07455
G1 X153.743 Y152.533 E.01657
G1 X152.037 Y150.827 E.07455
G1 X151.501 Y150.827 E.01657
G1 X153.207 Y152.533 E.07455
G1 X152.67 Y152.533 E.01657
G1 X150.964 Y150.827 E.07455
G1 X150.428 Y150.827 E.01657
G1 X152.134 Y152.533 E.07455
G1 X151.598 Y152.533 E.01657
G1 X149.892 Y150.827 E.07455
G1 X149.355 Y150.827 E.01657
G1 X151.062 Y152.533 E.07455
G1 X150.525 Y152.533 E.01657
G1 X148.819 Y150.827 E.07455
G1 X148.283 Y150.827 E.01657
G1 X149.989 Y152.533 E.07455
G1 X149.453 Y152.533 E.01657
G1 X147.747 Y150.827 E.07455
G1 X147.21 Y150.827 E.01657
G1 X148.917 Y152.533 E.07455
G1 X148.38 Y152.533 E.01657
G1 X146.674 Y150.827 E.07455
G1 X146.138 Y150.827 E.01657
G1 X147.844 Y152.533 E.07455
G1 X147.308 Y152.533 E.01657
G1 X145.602 Y150.827 E.07455
G1 X145.065 Y150.827 E.01657
G1 X146.771 Y152.533 E.07455
G1 X146.235 Y152.533 E.01657
G1 X144.529 Y150.827 E.07455
G1 X143.993 Y150.827 E.01657
G1 X145.699 Y152.533 E.07455
G1 X145.163 Y152.533 E.01657
G1 X143.457 Y150.827 E.07455
G1 X142.92 Y150.827 E.01657
G1 X144.626 Y152.533 E.07455
G1 X144.09 Y152.533 E.01657
G1 X142.384 Y150.827 E.07455
G1 X141.848 Y150.827 E.01657
G1 X143.554 Y152.533 E.07455
G1 X143.018 Y152.533 E.01657
G1 X141.312 Y150.827 E.07455
G1 X140.775 Y150.827 E.01657
G1 X142.481 Y152.533 E.07455
G1 X141.945 Y152.533 E.01657
G1 X140.239 Y150.827 E.07455
G1 X139.703 Y150.827 E.01657
G1 X141.409 Y152.533 E.07455
G1 X140.873 Y152.533 E.01657
G1 X139.167 Y150.827 E.07455
G1 X138.63 Y150.827 E.01657
G1 X140.336 Y152.533 E.07455
G1 X139.8 Y152.533 E.01657
G1 X138.094 Y150.827 E.07455
G1 X137.558 Y150.827 E.01657
G1 X139.264 Y152.533 E.07455
G1 X138.728 Y152.533 E.01657
G1 X137.022 Y150.827 E.07455
G1 X136.485 Y150.827 E.01657
G1 X138.191 Y152.533 E.07455
G1 X137.655 Y152.533 E.01657
G1 X135.949 Y150.827 E.07455
G1 X135.413 Y150.827 E.01657
G1 X137.119 Y152.533 E.07455
G1 X136.583 Y152.533 E.01657
G1 X134.876 Y150.827 E.07455
G1 X134.34 Y150.827 E.01657
G1 X136.046 Y152.533 E.07455
G1 X135.51 Y152.533 E.01657
G1 X133.804 Y150.827 E.07455
G1 X133.268 Y150.827 E.01657
G1 X134.974 Y152.533 E.07455
G1 X134.438 Y152.533 E.01657
G1 X132.731 Y150.827 E.07455
G1 X132.195 Y150.827 E.01657
G1 X133.901 Y152.533 E.07455
G1 X133.365 Y152.533 E.01657
G1 X131.659 Y150.827 E.07455
G1 X131.123 Y150.827 E.01657
G1 X132.829 Y152.533 E.07455
G1 X132.293 Y152.533 E.01657
G1 X130.586 Y150.827 E.07455
G1 X130.05 Y150.827 E.01657
G1 X131.756 Y152.533 E.07455
G1 X131.22 Y152.533 E.01657
G1 X129.514 Y150.827 E.07455
G1 X128.978 Y150.827 E.01657
G1 X130.684 Y152.533 E.07455
G1 X130.147 Y152.533 E.01657
G1 X128.441 Y150.827 E.07455
G1 X127.905 Y150.827 E.01657
G1 X129.611 Y152.533 E.07455
G1 X129.075 Y152.533 E.01657
G1 X127.369 Y150.827 E.07455
G1 X126.833 Y150.827 E.01657
G1 X128.539 Y152.533 E.07455
G1 X128.002 Y152.533 E.01657
G1 X126.296 Y150.827 E.07455
G1 X125.76 Y150.827 E.01657
G1 X127.466 Y152.533 E.07455
G1 X126.93 Y152.533 E.01657
G1 X125.224 Y150.827 E.07455
G1 X124.688 Y150.827 E.01657
G1 X126.394 Y152.533 E.07455
G1 X125.857 Y152.533 E.01657
G1 X124.151 Y150.827 E.07455
G1 X123.615 Y150.827 E.01657
G1 X125.321 Y152.533 E.07455
G1 X124.785 Y152.533 E.01657
G1 X123.079 Y150.827 E.07455
G1 X122.543 Y150.827 E.01657
G1 X124.249 Y152.533 E.07455
G1 X123.712 Y152.533 E.01657
G1 X122.006 Y150.827 E.07455
G1 X121.47 Y150.827 E.01657
G1 X123.176 Y152.533 E.07455
G1 X122.64 Y152.533 E.01657
G1 X120.934 Y150.827 E.07455
G1 X120.398 Y150.827 E.01657
G1 X122.104 Y152.533 E.07455
G1 X121.567 Y152.533 E.01657
G1 X119.861 Y150.827 E.07455
G1 X119.325 Y150.827 E.01657
G1 X121.031 Y152.533 E.07455
G1 X120.495 Y152.533 E.01657
G1 X118.789 Y150.827 E.07455
G1 X118.252 Y150.827 E.01657
G1 X119.959 Y152.533 E.07455
G1 X119.422 Y152.533 E.01657
G1 X117.716 Y150.827 E.07455
G1 X117.18 Y150.827 E.01657
G1 X118.886 Y152.533 E.07455
G1 X118.35 Y152.533 E.01657
G1 X116.644 Y150.827 E.07455
G1 X116.107 Y150.827 E.01657
G1 X117.814 Y152.533 E.07455
G1 X117.277 Y152.533 E.01657
G1 X115.571 Y150.827 E.07455
G1 X115.035 Y150.827 E.01657
G1 X116.741 Y152.533 E.07455
G1 X116.205 Y152.533 E.01657
G1 X114.499 Y150.827 E.07455
G1 X113.962 Y150.827 E.01657
G1 X115.669 Y152.533 E.07455
G1 X115.132 Y152.533 E.01657
G1 X113.426 Y150.827 E.07455
G1 X112.89 Y150.827 E.01657
G1 X114.596 Y152.533 E.07455
G1 X114.06 Y152.533 E.01657
G1 X112.354 Y150.827 E.07455
G1 X111.817 Y150.827 E.01657
G1 X113.523 Y152.533 E.07455
G1 X112.987 Y152.533 E.01657
G1 X111.281 Y150.827 E.07455
G1 X110.745 Y150.827 E.01657
G1 X112.451 Y152.533 E.07455
G1 X111.915 Y152.533 E.01657
G1 X110.209 Y150.827 E.07455
G1 X109.672 Y150.827 E.01657
G1 X111.378 Y152.533 E.07455
G1 X110.842 Y152.533 E.01657
G1 X109.136 Y150.827 E.07455
G1 X108.6 Y150.827 E.01657
G1 X110.306 Y152.533 E.07455
G1 X109.77 Y152.533 E.01657
G1 X108.064 Y150.827 E.07455
G1 X107.527 Y150.827 E.01657
G1 X109.233 Y152.533 E.07455
G1 X108.697 Y152.533 E.01657
G1 X106.991 Y150.827 E.07455
G1 X106.455 Y150.827 E.01657
G1 X108.161 Y152.533 E.07455
G1 X107.625 Y152.533 E.01657
G1 X105.919 Y150.827 E.07455
G1 X105.382 Y150.827 E.01657
G1 X107.088 Y152.533 E.07455
G1 X106.552 Y152.533 E.01657
G1 X104.846 Y150.827 E.07455
G1 X104.31 Y150.827 E.01657
G1 X106.016 Y152.533 E.07455
G1 X105.48 Y152.533 E.01657
G1 X103.774 Y150.827 E.07455
G1 X103.237 Y150.827 E.01657
G1 X104.943 Y152.533 E.07455
G1 X104.407 Y152.533 E.01657
G1 X102.701 Y150.827 E.07455
G1 X102.165 Y150.827 E.01657
G1 X103.871 Y152.533 E.07455
G1 X103.335 Y152.533 E.01657
G1 X101.628 Y150.827 E.07455
G1 X101.092 Y150.827 E.01657
G1 X102.798 Y152.533 E.07455
G1 X102.262 Y152.533 E.01657
G1 X100.556 Y150.827 E.07455
G1 X100.02 Y150.827 E.01657
G1 X101.726 Y152.533 E.07455
G1 X101.19 Y152.533 E.01657
G1 X99.483 Y150.827 E.07455
G1 X98.947 Y150.827 E.01657
G1 X100.653 Y152.533 E.07455
G1 X100.117 Y152.533 E.01657
G1 X98.411 Y150.827 E.07455
G1 X97.875 Y150.827 E.01657
G1 X99.581 Y152.533 E.07455
G1 X99.044 Y152.533 E.01657
G1 X97.338 Y150.827 E.07455
G1 X96.802 Y150.827 E.01657
G1 X98.508 Y152.533 E.07455
G1 X97.972 Y152.533 E.01657
G1 X96.266 Y150.827 E.07455
G1 X95.73 Y150.827 E.01657
G1 X97.436 Y152.533 E.07455
G1 X96.899 Y152.533 E.01657
G1 X95.193 Y150.827 E.07455
G1 X94.657 Y150.827 E.01657
G1 X96.363 Y152.533 E.07455
G1 X95.827 Y152.533 E.01657
G1 X94.121 Y150.827 E.07455
G1 X93.585 Y150.827 E.01657
G1 X95.291 Y152.533 E.07455
G1 X94.754 Y152.533 E.01657
G1 X93.048 Y150.827 E.07455
G1 X92.512 Y150.827 E.01657
G1 X94.218 Y152.533 E.07455
G1 X93.682 Y152.533 E.01657
G1 X91.976 Y150.827 E.07455
G1 X91.44 Y150.827 E.01657
G1 X93.146 Y152.533 E.07455
G1 X92.609 Y152.533 E.01657
G1 X90.903 Y150.827 E.07455
G1 X90.367 Y150.827 E.01657
G1 X92.073 Y152.533 E.07455
G1 X91.537 Y152.533 E.01657
G1 X89.831 Y150.827 E.07455
G1 X89.295 Y150.827 E.01657
G1 X91.001 Y152.533 E.07455
G1 X90.464 Y152.533 E.01657
G1 X88.758 Y150.827 E.07455
G1 X88.222 Y150.827 E.01657
G1 X89.928 Y152.533 E.07455
G1 X89.392 Y152.533 E.01657
G1 X87.686 Y150.827 E.07455
G1 X87.149 Y150.827 E.01657
G1 X88.856 Y152.533 E.07455
G1 X88.319 Y152.533 E.01657
G1 X86.613 Y150.827 E.07455
G1 X86.366 Y150.827 E.00764
G1 X86.314 Y151.064 E.00749
G1 X87.783 Y152.533 E.06421
G1 X87.247 Y152.533 E.01657
G1 X86.159 Y151.445 E.04754
G1 X85.923 Y151.745 E.0118
G1 X86.711 Y152.533 E.03441
G1 X86.174 Y152.533 E.01657
G1 X85.577 Y151.936 E.02609
G1 E-.56 F1800
;WIPE_START
G1 F3600
G1 X86.174 Y152.533 E-.20263
G1 X86.33 Y152.533 E-.03737
;WIPE_END
G1 X93.925 Y151.777 Z.6 F10800
G1 X165.29 Y144.669 Z.6
G1 Z.2 F720
G1 E.8 F1800
;TYPE:Outer wall
;WIDTH:0.419999
G1 F1200
G1 X157.585 Y145.77 E.23915
G1 X85.344 Y145.77 E2.21977
M73 P1 R68
G1 X85.244 Y145.599 E.0061
G1 X84.71 Y145.57 E.01642
G1 X84.71 Y128.79 E.5156
G1 X157.585 Y128.79 E2.23924
G1 X165.29 Y129.891 E.23915
G1 X165.29 Y144.629 E.45288
G1 X164.913 Y144.342 F10800
;TYPE:Inner wall
G1 F1200
G1 X157.558 Y145.393 E.22828
G1 X85.507 Y145.393 E2.21394
G1 X85.443 Y145.279 E.00402
G1 X85.087 Y145.193 E.01125
G1 X85.087 Y129.167 E.49243
G1 X157.558 Y129.167 E2.22683
G1 X164.913 Y130.218 E.22828
G1 X164.913 Y144.302 E.43278
G1 X164.536 Y144.015 F10800
G1 F1200
G1 X157.531 Y145.016 E.21741
G1 X85.674 Y145.016 E2.20796
G1 X85.643 Y144.959 E.00201
G1 X85.464 Y144.907 E.0057
G1 X85.464 Y129.544 E.47207
G1 X157.531 Y129.544 E2.21442
G1 X164.536 Y130.545 E.21741
M73 P2 R68
G1 X164.536 Y143.975 E.41268
G1 E-.56 F1800
;WIPE_START
G1 F1200
G1 X163.547 Y144.122 E-.24
;WIPE_END
G1 X164.071 Y136.508 Z.6 F10800
G1 X164.423 Y131.41 Z.6
G1 Z.2 F720
G1 E.8 F1800
;TYPE:Bottom surface
;WIDTH:0.421265
G1 F3600
G1 X163.727 Y130.715 E.03032
G1 X163.103 Y130.626 E.01944
G1 X164.253 Y131.776 E.05014
G1 X164.253 Y132.311 E.0165
G1 X162.479 Y130.537 E.07736
G1 X161.855 Y130.447 E.01944
G1 X164.253 Y132.846 E.10457
G1 X164.253 Y133.381 E.0165
G1 X161.23 Y130.358 E.13179
G1 X160.606 Y130.269 E.01944
G1 X164.253 Y133.916 E.15901
G1 X164.253 Y134.451 E.0165
G1 X159.982 Y130.18 E.18622
G1 X159.358 Y130.091 E.01944
G1 X164.253 Y134.986 E.21344
G1 X164.253 Y135.521 E.0165
G1 X158.733 Y130.002 E.24066
G1 X158.109 Y129.912 E.01944
G1 X164.253 Y136.056 E.26788
G1 X164.253 Y136.591 E.0165
G1 X157.489 Y129.827 E.29493
G1 X156.954 Y129.827 E.0165
G1 X164.253 Y137.126 E.31826
G1 X164.253 Y137.661 E.0165
G1 X156.419 Y129.827 E.34159
G1 X155.884 Y129.827 E.0165
G1 X164.253 Y138.196 E.36492
G1 X164.253 Y138.732 E.0165
G1 X155.348 Y129.827 E.38824
G1 X154.813 Y129.827 E.0165
G1 X164.253 Y139.267 E.41157
G1 X164.253 Y139.802 E.0165
G1 X154.278 Y129.827 E.4349
G1 X153.743 Y129.827 E.0165
G1 X164.253 Y140.337 E.45823
G1 X164.253 Y140.872 E.0165
G1 X153.208 Y129.827 E.48156
G1 X152.673 Y129.827 E.0165
G1 X164.253 Y141.407 E.50489
G1 X164.253 Y141.942 E.0165
G1 X152.138 Y129.827 E.52822
G1 X151.603 Y129.827 E.0165
G1 X164.253 Y142.477 E.55155
G1 X164.253 Y143.012 E.0165
G1 X151.068 Y129.827 E.57488
G1 X150.533 Y129.827 E.0165
G1 X164.253 Y143.547 E.59821
G1 X164.253 Y143.77 E.00687
G1 X163.98 Y143.809 E.00851
G1 X149.998 Y129.827 E.60963
G1 X149.463 Y129.827 E.0165
G1 X163.512 Y143.876 E.61254
G1 X163.044 Y143.943 E.01458
G1 X148.928 Y129.827 E.61546
G1 X148.393 Y129.827 E.0165
G1 X162.575 Y144.01 E.61837
G1 X162.107 Y144.076 E.01458
G1 X147.858 Y129.827 E.62129
G1 X147.323 Y129.827 E.0165
G1 X161.639 Y144.143 E.62421
G1 X161.171 Y144.21 E.01458
G1 X146.788 Y129.827 E.62712
G1 X146.252 Y129.827 E.0165
G1 X160.703 Y144.277 E.63004
G1 X160.234 Y144.344 E.01458
G1 X145.717 Y129.827 E.63295
G1 X145.182 Y129.827 E.0165
G1 X159.766 Y144.411 E.63587
G1 X159.298 Y144.478 E.01458
G1 X144.647 Y129.827 E.63879
G1 X144.112 Y129.827 E.0165
G1 X158.83 Y144.545 E.6417
G1 X158.362 Y144.612 E.01458
G1 X143.577 Y129.827 E.64462
G1 X143.042 Y129.827 E.0165
G1 X157.894 Y144.678 E.64753
G1 X157.511 Y144.733 E.0119
G1 X157.413 Y144.733 E.00303
G1 X142.507 Y129.827 E.64992
G1 X141.972 Y129.827 E.0165
G1 X156.878 Y144.733 E.64992
G1 X156.343 Y144.733 E.0165
G1 X141.437 Y129.827 E.64992
G1 X140.902 Y129.827 E.0165
G1 X155.808 Y144.733 E.64992
G1 X155.273 Y144.733 E.0165
G1 X140.367 Y129.827 E.64992
