; HEADER_BLOCK_START
; generated by OrcaSlicer 2.0.0 on 2024-06-24 at 20:10:31
; total layer number: 4
; filament_density: 1.24
; filament_diameter: 1.75
; max_z_height: 0.80
; HEADER_BLOCK_END

; THUMBNAIL_BLOCK_START

;
; THUMBNAIL_BLOCK_END

; external perimeters extrusion width = 0.60mm
; perimeters extrusion width = 0.66mm
; infill extrusion width = 0.66mm
; solid infill extrusion width = 0.72mm
; top infill extrusion width = 0.56mm
; first layer extrusion width = 0.72mm

; EXECUTABLE_BLOCK_START
M73 P0 R12
M201 X2500 Y2500 Z400 E5000
M203 X180 Y180 Z12 E80
M204 P1250 R5000 T3000 ; sets acceleration (P, T) and retract acceleration (R), mm/sec^2
M205 X8.00 Y8.00 Z0.20 E10.00 ; sets the jerk limits, mm/sec
;TYPE:Custom
M862.3 P "MINI" ; printer model check
G90 ; use absolute coordinates
M83 ; extruder relative mode
M104 S170 ; set extruder temp for bed leveling
M140 S60 ; set bed temp
M109 R170 ; wait for bed leveling temp
M190 S60 ; wait for bed temp
M204 T1250 ; set travel acceleration
G28 ; home all without mesh bed level
G29 ; mesh bed leveling 
M204 T3000 ; restore travel acceleration
M104 S210 ; set extruder temp
G92 E0
G1 Y-2 X179 F2400
G1 Z3 F720
M109 S210 ; wait for extruder temp

; intro line
G1 X170 F1000
G1 Z0.2 F720
G1 X110 E8 F900
G1 X40 E10 F700
G92 E0

M221 S95 ; set flow
G90
G21
M83 ; use relative distances for extrusion
; filament start gcode
M900 K0.12 ; Filament gcode LA 1.5
; ; Filament gcode LA 1.0
M106 S0
;LAYER_CHANGE
;Z:0.2
;HEIGHT:0.2
;BEFORE_LAYER_CHANGE
;0.2
G92 E0

M73 P1 R12
G1 E-3.2 F4200
;AFTER_LAYER_CHANGE
;0.2
;_SET_FAN_SPEED_CHANGING_LAYER
M204 P700
M205 X8 Y8
; printing object battery_cage2 - Cover.stl id:2816 copy 0
M204 T700
M73 P2 R12
G1 Z.4 F9000
G1 X32.992 Y72.449
G1 Z.4
G1 Z.2
G1 E3.2 F1800
;TYPE:Inner wall
;WIDTH:0.719999
G1 F1200
G1 X33.098 Y72.282 E.01087
G1 X33.38 Y72.214 E.01604
G1 X146.819 Y72.216 E6.25879
G1 X146.99 Y72.368 E.01265
G1 X147.036 Y72.615 E.01387
G1 X147.034 Y107.337 E1.91573
G1 X147.008 Y107.551 E.01188
M73 P3 R12
G1 X146.902 Y107.718 E.01087
G1 X146.62 Y107.786 E.01604
G1 X33.415 Y107.786 E6.24591
G1 X33.21 Y107.76 E.01139
M73 P3 R11
G1 X33.043 Y107.674 E.01036
G1 X32.964 Y107.37 E.01733
G1 X32.966 Y72.663 E1.91492
G1 X32.985 Y72.508 E.00857
M73 P4 R11
G1 X32.356 Y72.175 F9000
G1 F1200
G1 X32.496 Y71.921 E.01597
G1 X32.705 Y71.721 E.01597
G1 X32.964 Y71.593 E.01595
G1 X33.328 Y71.537 E.02034
G1 X146.819 Y71.539 E6.26165
G1 X147.182 Y71.648 E.02092
G1 X147.482 Y71.886 E.02112
G1 X147.661 Y72.213 E.02057
G1 X147.713 Y72.615 E.0224
G1 X147.711 Y107.337 E1.91573
G1 X147.644 Y107.825 E.02716
M73 P5 R11
G1 X147.504 Y108.079 E.01596
G1 X147.295 Y108.279 E.01597
G1 X147.036 Y108.407 E.01596
G1 X146.672 Y108.463 E.02034
G1 X33.415 Y108.463 E6.24877
G1 X32.931 Y108.402 E.02692
G1 X32.55 Y108.152 E.02508
M73 P6 R11
G1 X32.343 Y107.786 E.02322
G1 X32.287 Y107.422 E.02035
G1 X32.289 Y72.663 E1.91778
G1 X32.348 Y72.234 E.02385
G1 X31.713 Y71.941 F9000
;TYPE:Outer wall
G1 F1200
G1 X31.952 Y71.504 E.02747
G1 X32.312 Y71.16 E.02747
G1 X32.758 Y70.94 E.02745
G1 X33.277 Y70.86 E.02895
G1 X146.636 Y70.862 E6.25444
G1 X147.105 Y70.9 E.02596
M73 P7 R11
G1 X147.495 Y71.047 E.02296
G1 X147.911 Y71.344 E.02823
G1 X148.157 Y71.679 E.02289
G1 X148.349 Y72.142 E.02764
G1 X148.39 Y72.615 E.02625
G1 X148.388 Y107.552 E1.92759
G1 X148.287 Y108.059 E.02851
G1 X148.048 Y108.496 E.02746
G1 X147.688 Y108.84 E.02747
G1 X147.242 Y109.06 E.02746
G1 X146.723 Y109.14 E.02895
G1 X33.238 Y109.14 E6.26139
G1 X32.625 Y109.008 E.03456
M73 P8 R11
G1 X32.191 Y108.728 E.02853
G1 X31.915 Y108.448 E.02167
G1 X31.69 Y107.992 E.02807
G1 X31.61 Y107.473 E.02896
G1 X31.612 Y72.448 E1.9325
G1 X31.701 Y72 E.0252
G1 E-2.24 F4200
;WIPE_START
G1 F1200
G1 X31.952 Y71.504 E-.53321
G1 X32.273 Y71.197 E-.42679
;WIPE_END
G1 Z.6 F9000
G1 X145.453 Y72.419 Z.6
G1 Z.2
G1 E3.2 F1800
;TYPE:Bottom surface
;WIDTH:0.722465
G1 F1500
G1 X146.522 Y73.488 E.08372
G1 X146.521 Y74.449 E.05321
G1 X144.796 Y72.724 E.13511
G1 X143.835 Y72.724 E.05322
G1 X146.521 Y75.41 E.21036
G1 X146.521 Y76.371 E.05321
G1 X142.874 Y72.724 E.28561
G1 X141.913 Y72.724 E.05322
G1 X146.521 Y77.332 E.36086
G1 X146.521 Y78.292 E.05321
G1 X140.952 Y72.724 E.4361
G1 X139.991 Y72.724 E.05322
G1 X146.521 Y79.253 E.51135
G1 X146.521 Y80.214 E.05321
G1 X139.03 Y72.724 E.5866
G1 X138.069 Y72.724 E.05322
G1 X146.52 Y81.175 E.66185
G1 X146.52 Y82.136 E.05321
G1 X137.108 Y72.723 E.7371
G1 X136.147 Y72.723 E.05322
G1 X146.52 Y83.097 E.81235
G1 X146.52 Y84.058 E.05321
M73 P9 R11
G1 X135.186 Y72.723 E.8876
G1 X134.225 Y72.723 E.05322
G1 X146.52 Y85.019 E.96285
G1 X146.52 Y85.98 E.05321
G1 X133.264 Y72.723 E1.0381
G1 X132.303 Y72.723 E.05322
G1 X146.52 Y86.94 E1.11335
G1 X146.52 Y87.901 E.05321
G1 X131.342 Y72.723 E1.1886
G1 X130.381 Y72.723 E.05322
G1 X146.519 Y88.862 E1.26384
G1 X146.519 Y89.823 E.05321
G1 X129.42 Y72.723 E1.33909
G1 X128.459 Y72.723 E.05322
G1 X146.519 Y90.784 E1.41434
G1 X146.519 Y91.745 E.05321
G1 X127.498 Y72.723 E1.48959
M73 P10 R11
G1 X126.536 Y72.723 E.05322
G1 X146.519 Y92.706 E1.56484
G1 X146.519 Y93.667 E.05321
G1 X125.575 Y72.723 E1.64009
G1 X124.614 Y72.723 E.05322
G1 X146.519 Y94.627 E1.71534
G1 X146.518 Y95.588 E.05321
G1 X123.653 Y72.723 E1.79059
G1 X122.692 Y72.723 E.05322
G1 X146.518 Y96.549 E1.86584
G1 X146.518 Y97.51 E.05321
M73 P11 R11
G1 X121.731 Y72.723 E1.94109
G1 X120.77 Y72.723 E.05322
G1 X146.518 Y98.471 E2.01633
G1 X146.518 Y99.432 E.05321
G1 X119.809 Y72.723 E2.09158
G1 X118.848 Y72.723 E.05322
G1 X146.518 Y100.393 E2.16683
G1 X146.518 Y101.354 E.05321
M73 P11 R10
G1 X117.887 Y72.723 E2.24208
G1 X116.926 Y72.723 E.05322
M73 P12 R10
G1 X146.517 Y102.315 E2.31733
G1 X146.517 Y103.275 E.05321
G1 X115.965 Y72.723 E2.39258
G1 X115.004 Y72.723 E.05322
G1 X146.517 Y104.236 E2.46783
G1 X146.517 Y105.197 E.05321
G1 X114.043 Y72.723 E2.54308
G1 X113.082 Y72.723 E.05322
M73 P13 R10
G1 X146.517 Y106.158 E2.61833
G1 X146.517 Y107.119 E.05321
G1 X112.121 Y72.723 E2.69358
G1 X111.16 Y72.723 E.05322
G1 X145.715 Y107.278 E2.70603
G1 X144.754 Y107.278 E.05322
G1 X110.199 Y72.723 E2.70603
G1 X109.238 Y72.723 E.05322
M73 P14 R10
G1 X143.793 Y107.278 E2.70604
G1 X142.832 Y107.278 E.05322
G1 X108.277 Y72.723 E2.70604
G1 X107.316 Y72.723 E.05322
G1 X141.871 Y107.278 E2.70604
G1 X140.91 Y107.278 E.05322
G1 X106.355 Y72.723 E2.70604
G1 X105.394 Y72.723 E.05322
M73 P15 R10
G1 X139.949 Y107.278 E2.70604
G1 X138.988 Y107.278 E.05322
G1 X104.433 Y72.723 E2.70604
G1 X103.472 Y72.723 E.05322
G1 X138.027 Y107.278 E2.70604
G1 X137.066 Y107.278 E.05322
M73 P16 R10
G1 X102.511 Y72.723 E2.70604
G1 X101.55 Y72.723 E.05322
G1 X136.105 Y107.278 E2.70604
G1 X135.144 Y107.278 E.05322
G1 X100.589 Y72.723 E2.70605
G1 X99.627 Y72.723 E.05322
G1 X134.183 Y107.278 E2.70605
G1 X133.222 Y107.278 E.05322
M73 P17 R10
G1 X98.666 Y72.723 E2.70605
G1 X97.705 Y72.723 E.05322
G1 X132.261 Y107.278 E2.70605
G1 X131.3 Y107.278 E.05322
G1 X96.744 Y72.723 E2.70605
G1 X95.783 Y72.723 E.05322
G1 X130.338 Y107.278 E2.70605
G1 X129.377 Y107.278 E.05322
M73 P18 R10
G1 X94.822 Y72.723 E2.70605
G1 X93.861 Y72.723 E.05322
G1 X128.416 Y107.278 E2.70605
G1 X127.455 Y107.278 E.05322
G1 X92.9 Y72.723 E2.70605
G1 X91.939 Y72.723 E.05322
G1 X126.494 Y107.278 E2.70606
G1 X125.533 Y107.278 E.05322
M73 P19 R10
G1 X90.978 Y72.723 E2.70606
G1 X90.017 Y72.723 E.05322
G1 X124.572 Y107.278 E2.70606
G1 X123.611 Y107.278 E.05322
M73 P19 R9
G1 X89.056 Y72.723 E2.70606
G1 X88.095 Y72.723 E.05322
M73 P20 R9
G1 X122.65 Y107.278 E2.70606
G1 X121.689 Y107.278 E.05322
G1 X87.134 Y72.723 E2.70606
G1 X86.173 Y72.723 E.05322
G1 X120.728 Y107.278 E2.70606
G1 X119.767 Y107.278 E.05322
G1 X85.212 Y72.723 E2.70606
G1 X84.251 Y72.723 E.05322
M73 P21 R9
G1 X118.806 Y107.278 E2.70606
G1 X117.845 Y107.278 E.05322
G1 X83.29 Y72.723 E2.70607
G1 X82.329 Y72.723 E.05322
G1 X116.884 Y107.278 E2.70607
G1 X115.923 Y107.278 E.05322
G1 X81.368 Y72.723 E2.70607
G1 X80.407 Y72.723 E.05322
M73 P22 R9
G1 X114.962 Y107.278 E2.70607
G1 X114.001 Y107.278 E.05322
G1 X79.446 Y72.723 E2.70607
G1 X78.485 Y72.723 E.05322
G1 X113.04 Y107.278 E2.70607
G1 X112.079 Y107.278 E.05322
M73 P23 R9
G1 X77.524 Y72.723 E2.70607
G1 X76.563 Y72.723 E.05322
G1 X111.118 Y107.278 E2.70607
G1 X110.157 Y107.278 E.05322
G1 X75.602 Y72.723 E2.70607
G1 X74.641 Y72.723 E.05322
G1 X109.196 Y107.278 E2.70608
G1 X108.235 Y107.278 E.05322
M73 P24 R9
G1 X73.68 Y72.723 E2.70608
G1 X72.718 Y72.723 E.05322
G1 X107.274 Y107.278 E2.70608
G1 X106.313 Y107.278 E.05322
G1 X71.757 Y72.723 E2.70608
G1 X70.796 Y72.723 E.05322
G1 X105.352 Y107.278 E2.70608
G1 X104.391 Y107.278 E.05322
M73 P25 R9
G1 X69.835 Y72.723 E2.70608
G1 X68.874 Y72.722 E.05322
G1 X103.43 Y107.278 E2.70608
G1 X102.469 Y107.278 E.05322
G1 X67.913 Y72.722 E2.70608
G1 X66.952 Y72.722 E.05322
M73 P26 R9
G1 X101.508 Y107.278 E2.70608
G1 X100.547 Y107.278 E.05322
G1 X65.991 Y72.722 E2.70609
G1 X65.03 Y72.722 E.05322
G1 X99.586 Y107.278 E2.70609
G1 X98.625 Y107.278 E.05322
G1 X64.069 Y72.722 E2.70609
G1 X63.108 Y72.722 E.05322
M73 P27 R9
G1 X97.664 Y107.278 E2.70609
G1 X96.703 Y107.278 E.05322
G1 X62.147 Y72.722 E2.70609
G1 X61.186 Y72.722 E.05322
G1 X95.742 Y107.278 E2.70609
G1 X94.781 Y107.278 E.05322
M73 P27 R8
G1 X60.225 Y72.722 E2.70609
G1 X59.264 Y72.722 E.05322
M73 P28 R8
G1 X93.82 Y107.278 E2.70609
G1 X92.859 Y107.278 E.05322
G1 X58.303 Y72.722 E2.70609
G1 X57.342 Y72.722 E.05322
G1 X91.898 Y107.278 E2.7061
G1 X90.937 Y107.278 E.05322
G1 X56.381 Y72.722 E2.7061
M73 P29 R8
G1 X55.42 Y72.722 E.05322
G1 X89.976 Y107.278 E2.7061
G1 X89.015 Y107.278 E.05322
G1 X54.459 Y72.722 E2.7061
G1 X53.498 Y72.722 E.05322
G1 X88.054 Y107.278 E2.7061
G1 X87.093 Y107.278 E.05322
M73 P30 R8
G1 X52.537 Y72.722 E2.7061
G1 X51.576 Y72.722 E.05322
G1 X86.131 Y107.278 E2.7061
G1 X85.17 Y107.278 E.05322
G1 X50.615 Y72.722 E2.7061
G1 X49.654 Y72.722 E.05322
G1 X84.209 Y107.278 E2.7061
G1 X83.248 Y107.278 E.05322
M73 P31 R8
G1 X48.693 Y72.722 E2.70611
G1 X47.732 Y72.722 E.05322
G1 X82.287 Y107.278 E2.70611
G1 X81.326 Y107.278 E.05322
G1 X46.771 Y72.722 E2.70611
G1 X45.809 Y72.722 E.05322
G1 X80.365 Y107.278 E2.70611
G1 X79.404 Y107.278 E.05322
M73 P32 R8
G1 X44.848 Y72.722 E2.70611
G1 X43.887 Y72.722 E.05322
G1 X78.443 Y107.278 E2.70611
G1 X77.482 Y107.278 E.05322
G1 X42.926 Y72.722 E2.70611
G1 X41.965 Y72.722 E.05322
M73 P33 R8
G1 X76.521 Y107.278 E2.70611
G1 X75.56 Y107.278 E.05322
G1 X41.004 Y72.722 E2.70611
G1 X40.043 Y72.722 E.05322
G1 X74.599 Y107.278 E2.70612
G1 X73.638 Y107.278 E.05322
G1 X39.082 Y72.722 E2.70612
G1 X38.121 Y72.722 E.05322
M73 P34 R8
G1 X72.677 Y107.278 E2.70612
G1 X71.716 Y107.278 E.05322
G1 X37.16 Y72.722 E2.70612
G1 X36.199 Y72.722 E.05322
G1 X70.755 Y107.278 E2.70612
G1 X69.794 Y107.278 E.05322
G1 X35.238 Y72.722 E2.70612
G1 X34.277 Y72.722 E.05322
M73 P35 R8
G1 X68.833 Y107.278 E2.70612
G1 X67.872 Y107.278 E.05322
G1 X33.483 Y72.889 E2.69303
G1 X33.483 Y73.85 E.0532
G1 X66.911 Y107.278 E2.6178
G1 X65.95 Y107.278 E.05322
M73 P36 R7
G1 X33.483 Y74.811 E2.54257
G1 X33.482 Y75.771 E.0532
G1 X64.989 Y107.278 E2.46733
G1 X64.028 Y107.278 E.05322
G1 X33.482 Y76.732 E2.3921
G1 X33.482 Y77.693 E.0532
G1 X63.067 Y107.278 E2.31686
G1 X62.106 Y107.278 E.05322
G1 X33.481 Y78.653 E2.24163
G1 X33.481 Y79.614 E.0532
M73 P37 R7
G1 X61.145 Y107.278 E2.16639
G1 X60.184 Y107.278 E.05322
G1 X33.481 Y80.575 E2.09116
G1 X33.48 Y81.536 E.0532
G1 X59.223 Y107.278 E2.01593
G1 X58.262 Y107.278 E.05322
G1 X33.48 Y82.496 E1.94069
G1 X33.48 Y83.457 E.0532
M73 P38 R7
G1 X57.301 Y107.278 E1.86546
G1 X56.34 Y107.278 E.05322
G1 X33.479 Y84.418 E1.79022
G1 X33.479 Y85.378 E.0532
G1 X55.379 Y107.278 E1.71499
G1 X54.418 Y107.278 E.05322
G1 X33.479 Y86.339 E1.63975
G1 X33.478 Y87.3 E.0532
G1 X53.457 Y107.278 E1.56452
G1 X52.496 Y107.278 E.05322
G1 X33.478 Y88.26 E1.48929
G1 X33.478 Y89.221 E.0532
M73 P39 R7
G1 X51.535 Y107.278 E1.41405
G1 X50.574 Y107.278 E.05322
G1 X33.478 Y90.182 E1.33882
G1 X33.477 Y91.143 E.0532
G1 X49.613 Y107.278 E1.26358
G1 X48.652 Y107.278 E.05322
G1 X33.477 Y92.103 E1.18835
G1 X33.477 Y93.064 E.0532
G1 X47.691 Y107.278 E1.11311
G1 X46.73 Y107.278 E.05322
G1 X33.476 Y94.025 E1.03788
G1 X33.476 Y94.985 E.0532
G1 X45.769 Y107.278 E.96265
G1 X44.808 Y107.278 E.05322
G1 X33.476 Y95.946 E.88741
G1 X33.475 Y96.907 E.0532
M73 P40 R7
G1 X43.847 Y107.278 E.81218
G1 X42.886 Y107.278 E.05322
G1 X33.475 Y97.868 E.73694
G1 X33.475 Y98.828 E.0532
G1 X41.924 Y107.278 E.66171
G1 X40.963 Y107.278 E.05322
G1 X33.474 Y99.789 E.58647
G1 X33.474 Y100.75 E.0532
G1 X40.002 Y107.278 E.51124
G1 X39.041 Y107.278 E.05322
G1 X33.474 Y101.71 E.43601
G1 X33.473 Y102.671 E.0532
G1 X38.08 Y107.278 E.36077
G1 X37.119 Y107.278 E.05322
G1 X33.473 Y103.632 E.28554
G1 X33.473 Y104.593 E.0532
G1 X36.158 Y107.278 E.2103
G1 X35.197 Y107.278 E.05322
G1 X33.473 Y105.553 E.13507
G1 X33.472 Y106.514 E.0532
G1 X34.541 Y107.583 E.0837
; stop printing object battery_cage2 - Cover.stl id:2816 copy 0
M106 S255
;LAYER_CHANGE
;Z:0.4
;HEIGHT:0.2
;BEFORE_LAYER_CHANGE
;0.4
G92 E0

G1 E-2.24 F4200
;WIPE_START
G1 F1500
G1 X33.834 Y106.876 E-.96
;WIPE_END
;AFTER_LAYER_CHANGE
;0.4
;_SET_FAN_SPEED_CHANGING_LAYER
M204 P1000
; printing object battery_cage2 - Cover.stl id:2816 copy 0
M204 T1000
G1 Z.6 F9000
G1 X32.827 Y72.332 Z.6
G1 Z.4
G1 E3.2 F1800
;TYPE:Inner wall
;WIDTH:0.659999
G1 F3000
G1 X32.871 Y72.209 E.00654
G1 X33.041 Y72.076 E.01086
G1 X33.364 Y72.004 E.01665
G1 X146.793 Y72.005 E5.70365
G1 X147.033 Y72.107 E.01313
G1 X147.195 Y72.305 E.01288
G1 X147.246 Y72.615 E.0158
G1 X147.244 Y107.465 E1.7524
M73 P41 R7
G1 X147.13 Y107.791 E.01736
G1 X146.959 Y107.924 E.01087
G1 X146.636 Y107.996 E.01665
G1 X33.415 Y107.996 E5.69323
G1 X33.064 Y107.95 E.0178
G1 X32.877 Y107.813 E.01163
G1 X32.826 Y107.709 E.00581
G1 X32.754 Y107.386 E.01666
G1 X32.756 Y72.535 E1.75246
G1 X32.807 Y72.388 E.0078
G1 X32.214 Y72.123 F9000
G1 F3000
G1 X32.375 Y71.829 E.01688
G1 X32.618 Y71.597 E.01688
G1 X32.918 Y71.448 E.01686
G1 X33.317 Y71.387 E.02028
G1 X146.636 Y71.388 E5.69814
G1 X146.994 Y71.418 E.01808
G1 X147.337 Y71.56 E.01868
G1 X147.653 Y71.856 E.02175
G1 X147.804 Y72.168 E.01742
G1 X147.863 Y72.615 E.02271
G1 X147.861 Y107.38 E1.7481
G1 X147.786 Y107.877 E.02527
G1 X147.625 Y108.171 E.01687
G1 X147.382 Y108.403 E.01688
G1 X147.082 Y108.552 E.01687
G1 X146.683 Y108.613 E.02028
G1 X33.415 Y108.613 E5.6956
G1 X32.89 Y108.547 E.02659
M73 P42 R7
G1 X32.447 Y108.263 E.02646
G1 X32.198 Y107.832 E.02502
G1 X32.137 Y107.433 E.02028
G1 X32.139 Y72.62 E1.75054
G1 X32.205 Y72.182 E.02226
G1 X31.656 Y71.92 F9000
M204 P700
;TYPE:Outer wall
;WIDTH:0.599999
G1 F2400
G1 X31.904 Y71.467 E.02344
G1 X32.277 Y71.11 E.02344
G1 X32.74 Y70.882 E.02343
G1 X33.272 Y70.8 E.02444
G1 X146.636 Y70.801 E5.14613
G1 X147.119 Y70.842 E.02201
G1 X147.522 Y70.994 E.01957
G1 X147.953 Y71.301 E.02403
G1 X148.23 Y71.688 E.02158
G1 X148.408 Y72.129 E.02159
G1 X148.45 Y72.615 E.02216
G1 X148.448 Y107.558 E1.58623
G1 X148.344 Y108.08 E.02415
G1 X148.096 Y108.533 E.02343
G1 X147.723 Y108.89 E.02344
G1 X147.26 Y109.118 E.02344
G1 X146.728 Y109.2 E.02444
G1 X33.231 Y109.2 E5.15218
G1 X32.602 Y109.064 E.0292
M73 P43 R7
G1 X32.155 Y108.777 E.02412
G1 X31.864 Y108.481 E.01881
G1 X31.632 Y108.01 E.02385
G1 X31.55 Y107.478 E.02445
G1 X31.552 Y72.442 E1.59047
G1 X31.644 Y71.979 E.02142
G1 E-2.24 F4200
;WIPE_START
G1 F2400
G1 X31.904 Y71.467 E-.55096
G1 X32.212 Y71.173 E-.40904
;WIPE_END
G1 Z.8 F9000
G1 X33.48 Y72.602 Z.8
G1 Z.4
G1 E3.2 F1800
M204 P1000
;TYPE:Internal solid infill
;WIDTH:0.780598
G1 F4880.178
G1 X33.387 Y72.602 E.00554
G1 X33.341 Y72.682 E.00554
G1 X33.387 Y72.761 E.00554
G1 X33.48 Y72.761 E.00554
G1 X33.496 Y72.733 E.00194
G1 X147.056 Y106.3 F9000
;WIDTH:0.723665
G1 F5288.324
G1 X145.853 Y107.503 E.0944
G1 X144.89 Y107.503 E.0534
G1 X146.751 Y105.642 E.14603
G1 X146.751 Y104.679 E.05341
G1 X143.927 Y107.503 E.22156
G1 X142.964 Y107.503 E.0534
G1 X146.751 Y103.716 E.29708
G1 X146.751 Y102.753 E.05341
G1 X142.002 Y107.503 E.37261
G1 X141.039 Y107.503 E.0534
G1 X146.751 Y101.791 E.44814
