; HEADER_BLOCK_START
; generated by OrcaSlicer 2.2.0 on 2025-03-12 at 16:09:41
; total layer number: 85
; filament_density: 1.24
; filament_diameter: 1.75
; max_z_height: 17.00
; HEADER_BLOCK_END

; THUMBNAIL_BLOCK_START

;
; THUMBNAIL_BLOCK_END

; THUMBNAIL_BLOCK_START

;
; THUMBNAIL_BLOCK_END

; THUMBNAIL_BLOCK_START

;
; THUMBNAIL_BLOCK_END

; THUMBNAIL_BLOCK_START

;
; THUMBNAIL_BLOCK_END

; external perimeters extrusion width = 0.45mm
; perimeters extrusion width = 0.45mm
; infill extrusion width = 0.45mm
; solid infill extrusion width = 0.45mm
; top infill extrusion width = 0.42mm
; support material extrusion width = 0.36mm
; first layer extrusion width = 0.50mm

; EXECUTABLE_BLOCK_START
M486 S0
M486 Abaseplate_core_constant_voltage_-_baseplate_core_constant_voltage.stl_id_0_copy_0
M486 S-1
M73 P0 R78
M201 X4000 Y4000 Z400 E5000
M203 X400 Y400 Z12 E80
M204 P4000 R1250 T4000 ; sets acceleration (P, T) and retract acceleration (R), mm/sec^2
M205 X8.00 Y8.00 Z2.00 E10.00 ; sets the jerk limits, mm/sec
;TYPE:Custom
M862.3 P "MINI" ; printer model check
M862.1 P0.4 ; nozzle diameter check
M862.5 P2 ; g-code level check
M862.6 P"Input shaper" ; FW feature check
M115 U6.0.3+14902
G90 ; use absolute coordinates
M83 ; extruder relative mode
G28 ; home all without mesh bed level
M104 S170 ; set extruder temp for bed leveling
M140 S60 ; set bed temp
M109 R170 ; wait for bed leveling temp
M190 S60 ; wait for bed temp
M569 S1 X Y ; set stealthchop for X Y
M204 T1250 ; set travel acceleration
G29 ; mesh bed leveling 
M104 S220 ; set extruder temp
G92 E0

G1 X0 Y-2 Z3 F2400

M109 S220 ; wait for extruder temp

; intro line
G1 X10 Z0.2 F1000
G1 X70 E8 F900
G1 X140 E10 F700
G92 E0

M569 S0 X Y ; set spreadcycle for X Y
M204 T4000 ; restore travel acceleration
M572 W0.06 ; set smooth time
M221 S95 ; set flow
G90
G21
M83 ; use relative distances for extrusion
; filament start gcode
M900 K0.27; Override pressure advance value
M106 S0
;LAYER_CHANGE
;Z:0.2
;HEIGHT:0.2
;BEFORE_LAYER_CHANGE
G92 E0.0
;0.2
M201 X4000 Y4000
G1 E-2.5 F4200
M73 P0 R77
;AFTER_LAYER_CHANGE
;0.2
M74 W-0.00745637

;_SET_FAN_SPEED_CHANGING_LAYER
M204 P500
M205 X7 Y7
; printing object baseplate_core_constant_voltage - baseplate_core_constant_voltage.stl id:0 copy 0
M204 T500
M486 S0
M73 P0 R77
G1 X19.9 Y136.499 F24000
G1 Z.4
G1 Z.2
G1 E2.5 F2400
;TYPE:Support
;WIDTH:0.5
G1 F1800
G1 X20.251 Y136.85 E.01889
G1 X29.4 Y136.85 E.3477
G1 X29.4 Y145.999 E.3477
G1 X29.751 Y146.35 E.01889
G1 X30.599 Y146.35 E.0322
G3 X26.435 Y150.36 I-4.485 J-.49 E.23847
G1 X25.927 Y150.574 E.02097
G3 X22.681 Y149.255 I.465 J-5.799 E.13526
G3 X17.509 Y142.027 I-1.538 J-4.363 E.45321
G3 X16.542 Y137.502 I3.129 J-3.034 E.18541
G3 X19.9 Y135.407 I3.391 J1.697 E.15825
G1 X19.9 Y136.43 E.03888
G1 X30.072 Y147.493 F24000
G1 F1800
G1 X30.072 Y146.761 E.0278
G1 X29.564 Y146.744 E.01931
G1 X29.564 Y148.058 E.04994
G3 X29.056 Y148.708 I-3.968 J-2.578 E.03139
G1 X28.989 Y137.261 E.43506
G1 X28.548 Y137.261 E.01674
G1 X28.548 Y149.188 E.45327
G3 X28.04 Y149.523 I-1.509 J-1.733 E.0232
G1 X28.04 Y137.261 E.46602
G1 X27.532 Y137.261 E.0193
G1 X27.532 Y149.782 E.47587
G3 X27.025 Y149.902 I-.439 J-.724 E.02016
G1 X27.025 Y137.261 E.48042
G1 X26.517 Y137.261 E.0193
G1 X26.517 Y149.945 E.48205
G2 X26.009 Y150.093 I-.052 J.764 E.02053
G1 X26.009 Y137.261 E.48769
G1 X25.501 Y137.261 E.0193
G1 X25.501 Y150.087 E.48747
G1 X24.993 Y150.004 E.01956
G1 X24.993 Y137.261 E.48431
G1 X24.485 Y137.261 E.0193
G1 X24.485 Y149.866 E.47907
G3 X23.977 Y149.664 I1.554 J-4.637 E.02079
G1 X23.977 Y137.261 E.47137
G1 X23.47 Y137.261 E.0193
G1 X23.47 Y149.364 E.45999
G3 X22.962 Y148.955 I1.126 J-1.916 E.02489
G1 X22.962 Y137.261 E.44442
G1 X22.454 Y137.261 E.0193
G1 X22.454 Y148.894 E.44212
G3 X21.946 Y149.031 I-1.918 J-6.099 E.02
G1 X21.946 Y137.261 E.44732
G1 X21.438 Y137.261 E.0193
G1 X21.438 Y149.086 E.44942
G3 X20.93 Y149.106 I-.302 J-1.241 E.01945
G1 X20.93 Y137.261 E.45016
G1 X20.422 Y137.261 E.0193
G1 X20.422 Y149.039 E.44761
G3 X19.914 Y148.917 I.046 J-1.312 E.01998
G1 X19.914 Y137.095 E.44931
G3 X19.489 Y135.832 I.418 J-.844 E.05624
G1 X19.407 Y148.742 E.49066
G3 X18.899 Y148.451 I.463 J-1.397 E.02239
G1 X18.899 Y135.97 E.47434
G2 X18.391 Y136.17 I.232 J1.335 E.02088
G1 X18.391 Y148.087 E.45291
G3 X17.883 Y147.565 I3.872 J-4.278 E.02769
G1 X17.883 Y136.477 E.42141
G2 X17.375 Y136.97 I.909 J1.445 E.02709
G1 X17.375 Y141.18 E.16
G3 X16.867 Y140.345 I4.257 J-3.162 E.03719
G1 X16.867 Y137.365 E.11327
G1 E-1.75 F4200
;WIPE_START
G1 F1800
G1 X16.867 Y138.365 E-.75
;WIPE_END
G1 X17.086 Y142.175 Z.4 F24000
G1 X17.375 Y147.212 Z.4
G1 Z.2
G1 E2.5 F2400
G1 F1800
G1 X17.375 Y142.579 E.17609
G1 E-1.75 F4200
;WIPE_START
G1 F1800
G1 X17.375 Y143.579 E-.75
;WIPE_END
G1 X21.185 Y143.36 Z.4 F24000
G1 X160.284 Y135.353 Z.4
G1 Z.2
G1 E2.5 F2400
G1 F1800
G3 X162.673 Y138.626 I-1.974 J3.95 E.15998
G3 X163.017 Y144.976 I-3.423 J3.37 E.26418
G3 X155.63 Y148.764 I-4.653 J.023 E.38973
G3 X151.906 Y148.909 I-2.805 J-24.094 E.14177
G3 X148.99 Y146.35 I1.009 J-4.091 E.15323
G1 X150.249 Y146.35 E.04784
G1 X150.6 Y145.999 E.01889
G1 X150.6 Y136.85 E.3477
G1 X159.749 Y136.85 E.3477
G1 X160.1 Y136.499 E.01889
G1 X160.1 Y135.289 E.04597
G1 X160.219 Y135.331 E.0048
G1 X163.641 Y143.305 F24000
G1 F1800
G2 X163.133 Y139.939 I-6.619 J-.723 E.13084
G1 X163.133 Y143.967 E.15311
G3 X162.625 Y144.7 I-2.059 J-.885 E.03411
G1 X162.625 Y139.206 E.20882
G3 X162.117 Y138.263 I.653 J-.96 E.04231
G1 X162.117 Y146.955 E.33035
G3 X161.609 Y147.71 I-2.217 J-.942 E.03481
G1 X161.609 Y137.094 E.40348
G2 X161.101 Y136.461 I-1.641 J.796 E.0311
G1 X161.101 Y148.229 E.44723
G3 X160.593 Y148.616 I-1.28 J-1.151 E.02442
G1 X160.511 Y135.982 E.48018
G3 X160.086 Y137.095 I-.769 J.343 E.0503
G1 X160.086 Y148.888 E.44824
G3 X159.578 Y149.07 I-.71 J-1.188 E.02062
G1 X159.578 Y137.261 E.44879
G1 X159.07 Y137.261 E.0193
G1 X159.07 Y149.213 E.45425
G1 X158.562 Y149.245 E.01934
G1 X158.562 Y137.261 E.45545
G1 X158.054 Y137.261 E.0193
G1 X158.054 Y149.24 E.45526
G1 X157.546 Y149.167 E.0195
G1 X157.546 Y137.261 E.45249
G1 X157.038 Y137.261 E.0193
G1 X157.038 Y149.022 E.44699
G3 X156.53 Y148.836 I.194 J-1.315 E.0207
G1 X156.53 Y137.261 E.4399
G1 X156.023 Y137.261 E.0193
G1 X156.023 Y148.523 E.428
G2 X155.515 Y148.359 I-.368 J.273 E.02164
G1 X155.515 Y137.261 E.42179
G1 X155.007 Y137.261 E.0193
G1 X155.007 Y148.394 E.42313
G3 X154.499 Y148.387 I-.202 J-3.65 E.01932
G1 X154.499 Y137.261 E.42285
G1 X153.991 Y137.261 E.0193
G1 X153.991 Y148.416 E.42393
G3 X153.483 Y148.524 I-8.568 J-38.703 E.01974
G1 X153.483 Y137.261 E.42807
G1 X152.975 Y137.261 E.0193
G1 X152.975 Y148.582 E.43024
G3 X152.468 Y148.558 I-.203 J-1.124 E.01949
G1 X152.468 Y137.261 E.42936
G1 X151.96 Y137.261 E.0193
G1 X151.96 Y148.492 E.42684
G1 X151.452 Y148.314 E.02045
G1 X151.452 Y137.261 E.42008
G1 X151.011 Y137.261 E.01674
G1 X150.944 Y148.062 E.4105
G3 X150.436 Y147.716 I.503 J-1.285 E.02355
G1 X150.436 Y146.744 E.03694
G1 X149.928 Y146.761 E.01931
G1 X149.928 Y147.499 E.02804
G1 E-1.75 F4200
;WIPE_START
G1 F1800
G1 X149.928 Y146.761 E-.55337
G1 X150.19 Y146.753 E-.19663
;WIPE_END
G1 X150.464 Y142.946 Z.4 F24000
G1 X157.657 Y42.934 Z.4
G1 Z.2
G1 E2.5 F2400
;TYPE:Inner wall
;WIDTH:0.499999
G1 F1800
G1 X157.657 Y134.407 E3.47658
G1 X149.575 Y134.407 E.30719
G1 X149.128 Y134.536 E.01766
G1 X148.744 Y134.769 E.01707
G1 X148.433 Y135.11 E.01754
G1 X148.227 Y135.541 E.01818
G1 X148.157 Y136.007 E.0179
G1 X148.157 Y143.907 E.30026
G1 X123.431 Y143.907 E.93974
M73 P1 R77
M73 P1 R77
G1 X123.47 Y143.858 E.00236
G1 X123.593 Y143.243 E.02385
G1 X123.593 Y138.257 E.18949
G1 X123.565 Y137.958 E.0114
G1 X123.421 Y137.537 E.01691
G1 X123.192 Y137.198 E.01558
G1 X122.841 Y136.901 E.01747
G1 X122.453 Y136.725 E.01617
G1 X121.993 Y136.657 E.01769
G1 X117.007 Y136.657 E.18949
G1 X116.811 Y136.689 E.00756
G1 X116.843 Y136.493 E.00756
G1 X116.843 Y111.007 E.96862
G1 X116.811 Y110.811 E.00756
G1 X117.007 Y110.843 E.00756
G1 X121.993 Y110.843 E.18949
G2 X123.023 Y110.467 I-.07 J-1.791 E.04237
G1 X123.339 Y110.108 E.01816
G1 X123.529 Y109.691 E.01739
G1 X123.593 Y109.243 E.01722
G1 X123.593 Y104.057 E.19709
G1 X123.47 Y103.642 E.01646
G1 X123.273 Y103.297 E.01508
G1 X122.953 Y102.977 E.0172
G1 X122.512 Y102.744 E.01897
G1 X121.993 Y102.657 E.01999
G1 X116.815 Y102.657 E.19678
G1 X116.413 Y102.772 E.01588
G1 X115.935 Y103.07 E.02144
G1 X115.622 Y103.457 E.01891
G1 X115.452 Y103.881 E.01738
G1 X115.407 Y104.257 E.01438
G1 X115.407 Y109.243 E.18949
G1 X115.439 Y109.439 E.00756
G1 X115.243 Y109.407 E.00756
G1 X64.757 Y109.407 E1.91878
G1 X64.561 Y109.439 E.00756
G1 X64.593 Y109.243 E.00756
G1 X64.593 Y104.257 E.18949
G1 X64.558 Y103.928 E.01258
G1 X64.41 Y103.515 E.01668
G1 X64.163 Y103.166 E.01624
G1 X63.859 Y102.912 E.01505
G1 X63.446 Y102.723 E.01727
G1 X62.993 Y102.657 E.01739
G1 X58.766 Y102.657 E.16066
G1 X57.702 Y102.687 E.04044
G1 X57.228 Y102.86 E.01918
G1 X56.905 Y103.097 E.01523
G1 X56.641 Y103.424 E.01597
G1 X56.488 Y103.756 E.01392
G1 X56.407 Y104.257 E.01927
G1 X56.407 Y108.412 E.15791
G1 X56.426 Y109.485 E.0408
G1 X56.576 Y109.958 E.01883
G1 X56.84 Y110.337 E.01756
G1 X57.173 Y110.608 E.01634
G1 X57.557 Y110.778 E.01595
G1 X58.007 Y110.843 E.01729
G1 X62.993 Y110.843 E.18949
G1 X63.189 Y110.811 E.00756
G1 X63.157 Y111.007 E.00756
G1 X63.157 Y136.493 E.96862
G1 X63.189 Y136.689 E.00756
G1 X62.993 Y136.657 E.00756
G1 X58.007 Y136.657 E.18949
G2 X56.944 Y137.062 I.071 J1.787 E.04401
G1 X56.661 Y137.392 E.0165
G1 X56.465 Y137.833 E.01836
G1 X56.407 Y138.257 E.01626
G1 X56.407 Y143.243 E.18949
G1 X56.53 Y143.858 E.02385
G1 X56.569 Y143.907 E.00236
G1 X31.843 Y143.907 E.93974
G1 X31.843 Y135.817 E.30749
G1 X31.684 Y135.312 E.02009
G1 X31.441 Y134.947 E.01668
G1 X31.1 Y134.656 E.01703
G1 X30.677 Y134.467 E.0176
G1 X30.243 Y134.407 E.01667
G1 X22.343 Y134.407 E.30026
G1 X22.343 Y116.093 E.69607
G1 X35.946 Y116.08 E.51701
G1 X36.419 Y115.943 E.01871
G1 X36.809 Y115.686 E.01776
G1 X37.102 Y115.337 E.01731
G1 X37.276 Y114.95 E.01613
G1 X37.343 Y114.493 E.01756
G1 X37.343 Y54.791 E2.26905
G1 X37.313 Y53.699 E.04154
G1 X37.175 Y53.294 E.01623
G1 X36.935 Y52.94 E.01628
G1 X36.58 Y52.644 E.01754
G1 X36.141 Y52.458 E.01814
G1 X35.743 Y52.407 E.01525
G1 X22.343 Y52.407 E.50929
G1 X22.343 Y42.936 E.35995
G1 X22.422 Y43.088 E.00649
G2 X23.718 Y44.364 I3.139 J-1.894 E.06986
G1 X24.473 Y44.685 E.0312
G2 X26.125 Y44.843 I1.349 J-5.409 E.06329
G1 X32.613 Y44.843 E.24657
G1 X33.236 Y44.759 E.0239
G2 X35.157 Y43.661 I-.807 J-3.642 E.08539
G1 X35.523 Y43.192 E.0226
G1 X35.809 Y42.635 E.02378
G1 X35.936 Y42.275 E.01453
G1 X36.08 Y41.551 E.02805
G1 X36.075 Y40.951 E.02281
G1 X35.925 Y40.183 E.02971
G2 X34.673 Y38.396 I-3.574 J1.171 E.08417
G1 X33.999 Y37.991 E.0299
G1 X33.223 Y37.738 E.03101
G1 X32.505 Y37.657 E.02744
G1 X25.389 Y37.657 E.27046
G1 X24.774 Y37.739 E.02359
G2 X23.119 Y38.569 I.728 J3.514 E.07117
G1 X22.572 Y39.177 E.03106
G1 X22.343 Y39.56 E.01697
G1 X22.343 Y36.093 E.13176
G1 X41.069 Y36.093 E.7117
G1 X41.03 Y36.142 E.00236
G1 X40.907 Y36.757 E.02385
G2 X40.911 Y41.854 I343.309 J2.288 E.19372
G1 X41.027 Y42.349 E.01932
G1 X41.298 Y42.791 E.01971
G1 X41.66 Y43.1 E.01808
G1 X42.095 Y43.289 E.01804
G1 X42.507 Y43.343 E.01578
G1 X46.662 Y43.343 E.15791
G1 X47.752 Y43.322 E.04142
G1 X48.176 Y43.19 E.01687
G1 X48.547 Y42.946 E.01689
G1 X48.83 Y42.621 E.01637
G1 X49.033 Y42.176 E.0186
G1 X49.093 Y41.743 E.01662
G1 X49.093 Y36.757 E.18949
G1 X48.97 Y36.142 E.02385
G1 X48.931 Y36.093 E.00236
G1 X77.657 Y36.093 E1.09176
G1 X77.657 Y99.493 E2.40961
G1 X77.715 Y99.92 E.01637
G1 X77.903 Y100.345 E.01768
G1 X78.126 Y100.624 E.01358
G1 X78.436 Y100.866 E.01495
G1 X78.824 Y101.033 E.01603
G1 X79.257 Y101.093 E.01663
G1 X109.895 Y101.093 E1.16443
G1 X110.38 Y100.96 E.01912
G1 X110.708 Y100.769 E.0144
G1 X111.077 Y100.375 E.02052
G1 X111.262 Y99.995 E.01606
G1 X111.343 Y99.493 E.01934
G1 X111.343 Y54.007 E1.72875
G1 X111.263 Y53.509 E.01917
M73 P1 R76
M73 P1 R76
G1 X111.081 Y53.13 E.01597
G1 X110.884 Y52.886 E.01194
G1 X110.576 Y52.642 E.01492
G1 X110.21 Y52.477 E.01527
G1 X109.743 Y52.407 E.01794
G1 X96.343 Y52.407 E.50929
G1 X96.343 Y36.093 E.62006
G1 X119.069 Y36.093 E.86372
G1 X119.03 Y36.142 E.00236
G1 X118.907 Y36.757 E.02385
G1 X118.907 Y41.743 E.18949
G1 X118.962 Y42.159 E.01596
G1 X119.15 Y42.59 E.01785
G1 X119.44 Y42.935 E.01714
G1 X119.742 Y43.148 E.01402
G1 X120.106 Y43.292 E.01489
G1 X120.507 Y43.343 E.01537
G1 X125.493 Y43.343 E.18949
G1 X125.896 Y43.291 E.01546
G1 X126.262 Y43.145 E.01497
G1 X126.565 Y42.931 E.01409
G1 X126.878 Y42.544 E.0189
G1 X127.039 Y42.154 E.01605
G1 X127.093 Y41.743 E.01576
G1 X127.093 Y36.757 E.18949
G1 X126.97 Y36.142 E.02385
G1 X126.931 Y36.093 E.00236
G1 X157.657 Y36.093 E1.16777
G1 X157.657 Y39.556 E.13164
G2 X155.999 Y37.991 I-3.245 J1.776 E.08812
G1 X155.223 Y37.738 E.03101
G1 X154.505 Y37.657 E.02744
G1 X147.389 Y37.657 E.27046
G1 X146.774 Y37.739 E.02359
G2 X144.846 Y38.836 I.799 J3.646 E.08561
G1 X144.369 Y39.503 E.03115
G2 X144.051 Y42.229 I3.131 J1.747 E.10702
G1 X144.302 Y42.888 E.02682
G1 X144.646 Y43.423 E.02417
G2 X147.495 Y44.843 I2.923 J-2.297 E.12501
G1 X154.623 Y44.843 E.27094
G1 X155.48 Y44.699 E.03301
G1 X155.971 Y44.519 E.01988
G1 X156.678 Y44.1 E.03125
G1 X157.241 Y43.565 E.02951
G1 X157.635 Y42.967 E.02723
G1 X157.323 Y42.546 F24000
G1 F1800
G1 X157.072 Y43.033 E.0208
G1 X156.613 Y43.561 E.0266
G1 X156.06 Y43.965 E.02605
G1 X155.323 Y44.269 E.03029
G1 X154.587 Y44.386 E.02833
G1 X147.495 Y44.386 E.26955
G3 X145.203 Y43.376 I.061 J-3.243 E.0977
G1 X144.783 Y42.806 E.02691
G1 X144.48 Y42.072 E.03017
G3 X144.37 Y41.263 I3.019 J-.822 E.03114
G1 X144.474 Y40.452 E.03105
G3 X144.783 Y39.696 I3.026 J.798 E.03114
G1 X145.202 Y39.123 E.02698
G1 X145.808 Y38.617 E.03
G1 X146.547 Y38.269 E.03103
G1 X146.834 Y38.192 E.0113
G1 X147.419 Y38.114 E.02244
G1 X154.505 Y38.114 E.26932
G1 X155.163 Y38.191 E.02516
G1 X155.834 Y38.417 E.02689
G1 X156.502 Y38.844 E.03016
G1 X157.055 Y39.442 E.03093
G1 X157.397 Y40.062 E.02692
;WIDTH:0.539468
G1 X157.605 Y40.714 E.02824
G1 X157.628 Y41.51 E.03291
;WIDTH:0.520406
G1 X157.589 Y41.809 E.01198
G1 X157.444 Y42.312 E.02076
;WIDTH:0.499999
G1 X157.341 Y42.511 E.00851
G1 X156.92 Y42.348 F24000
G1 F1800
G1 X156.677 Y42.804 E.01964
G1 X156.283 Y43.245 E.02249
G1 X155.805 Y43.586 E.02229
G1 X155.166 Y43.84 E.02612
G1 X154.552 Y43.929 E.0236
G1 X147.495 Y43.929 E.26822
G3 X146.502 Y43.731 I.236 J-3.78 E.03859
G1 X146.04 Y43.491 E.01978
G1 X145.512 Y43.039 E.02642
G1 X145.162 Y42.552 E.02278
G1 X144.91 Y41.916 E.02601
G1 X144.826 Y41.223 E.02653
G1 X144.924 Y40.532 E.02653
G1 X145.198 Y39.889 E.02653
G1 X145.558 Y39.409 E.02282
G1 X146.086 Y38.98 E.02587
G1 X146.722 Y38.691 E.02652
G1 X147.44 Y38.571 E.02768
G1 X154.505 Y38.571 E.26852
G1 X155.103 Y38.644 E.02289
G1 X155.668 Y38.843 E.02276
G1 X156.24 Y39.219 E.026
G1 X156.705 Y39.736 E.02642
G1 X156.988 Y40.264 E.02278
G1 X157.142 Y40.827 E.02217
G1 X157.162 Y41.51 E.02598
G1 X157.003 Y42.193 E.02664
G1 X156.939 Y42.313 E.00516
G1 X156.506 Y42.131 F24000
;TYPE:Outer wall
G1 F1800
G1 X156.262 Y42.565 E.01892
G1 X155.902 Y42.944 E.01989
G1 X155.494 Y43.211 E.01853
G1 X155.002 Y43.39 E.01988
G1 X154.505 Y43.45 E.01903
G1 X147.495 Y43.45 E.26645
G1 X146.774 Y43.325 E.02781
G1 X146.261 Y43.066 E.02182
G1 X145.835 Y42.686 E.02171
G1 X145.547 Y42.263 E.01943
G1 X145.36 Y41.752 E.02069
G1 X145.302 Y41.181 E.02181
G1 X145.395 Y40.615 E.02181
G1 X145.631 Y40.092 E.02181
G1 X145.967 Y39.675 E.02034
G1 X146.377 Y39.36 E.01968
G1 X146.905 Y39.133 E.02181
G1 X147.48 Y39.05 E.02208
G1 X154.505 Y39.05 E.26701
G1 X155.04 Y39.119 E.0205
G1 X155.514 Y39.298 E.01925
G1 X155.965 Y39.611 E.02087
G1 X156.338 Y40.044 E.02171
G1 X156.574 Y40.519 E.02017
G1 X156.683 Y40.99 E.01837
G1 X156.683 Y41.51 E.01978
G1 X156.54 Y42.069 E.02191
G1 X156.525 Y42.096 E.00117
G1 E-1.75 F4200
;WIPE_START
G1 F1800
G1 X156.262 Y42.565 E-.40341
G1 X155.944 Y42.9 E-.3466
;WIPE_END
G1 X155.297 Y46.661 Z.4 F24000
G1 X146.059 Y100.346 Z.4
G1 Z.2
G1 E2.5 F2400
