; generated by PrusaSlicer 2.7.4 on 2024-06-26 at 07:50:14 UTC


;
;
; 

; external perimeters extrusion width = 0.45mm
; perimeters extrusion width = 0.45mm
; infill extrusion width = 0.45mm
; solid infill extrusion width = 0.45mm
; top infill extrusion width = 0.40mm
; first layer extrusion width = 0.42mm

; external perimeters extrusion width = 0.45mm
; perimeters extrusion width = 0.45mm
; infill extrusion width = 0.45mm
; solid infill extrusion width = 0.45mm
; top infill extrusion width = 0.40mm
; first layer extrusion width = 0.42mm

; external perimeters extrusion width = 0.45mm
; perimeters extrusion width = 0.45mm
; infill extrusion width = 0.45mm
; solid infill extrusion width = 0.45mm
; top infill extrusion width = 0.40mm
; first layer extrusion width = 0.42mm

M73 P0 R200
M73 Q0 S200
M201 X1000 Y1000 Z200 E5000 ; sets maximum accelerations, mm/sec^2
M203 X200 Y200 Z12 E120 ; sets maximum feedrates, mm / sec
M204 S1250 T1250 ; sets acceleration (S) and retract acceleration (R), mm/sec^2
M205 X8.00 Y8.00 Z0.40 E4.50 ; sets the jerk limits, mm/sec
M205 S0 T0 ; sets the minimum extruding and travel feed rate, mm/sec

; printing object marker - marker_upper_arm.stl id:2 copy 0
; stop printing object marker - marker_upper_arm.stl id:2 copy 0
; printing object marker - marker_upper_arm.stl id:0 copy 0
; stop printing object marker - marker_upper_arm.stl id:0 copy 0
; printing object marker - marker_upper_arm.stl id:1 copy 0
; stop printing object marker - marker_upper_arm.stl id:1 copy 0

;TYPE:Custom
M862.3 P "MK3S" ; printer model check
M862.1 P0.4 ; nozzle diameter check
M115 U3.13.3 ; tell printer latest fw version
G90 ; use absolute coordinates
M83 ; extruder relative mode
M104 S230 ; set extruder temp
M140 S60 ; set bed temp
M190 S60 ; wait for bed temp
M109 S230 ; wait for extruder temp
G28 W ; home all without mesh bed level
G80 X63.2166 Y38.5919 W123.567 H132.817 ; mesh bed levelling

G1 Z0.2 F720
G1 Y-3 F1000 ; go outside print area
G92 E0
G1 X60 E9 F1000 ; intro line
G1 X100 E12.5 F1000 ; intro line

G92 E0
M221 S95

; Don't change E values below. Excessive value can damage the printer.
M907 E430 ; set extruder motor current
G21 ; set units to millimeters
G90 ; use absolute coordinates
M83 ; use relative distances for extrusion
M900 K0 ; Filament gcode
M107
;LAYER_CHANGE
;Z:0.3
;HEIGHT:0.3
G1 X67.118 Y47.253 F10800
G1 Z.3 F720
M204 S800
;TYPE:Skirt/Brim
;WIDTH:0.42
G1 F900
G1 X67.581 Y46.595 E.03926
G1 X68.712 Y45.255 E.08555
G1 X70.537 Y43.507 E.1233
G1 X72.01 Y42.377 E.09058
G1 X74.171 Y41.066 E.12332
G1 X75.759 Y40.32 E.0856
G1 X77.503 Y39.685 E.09056
G1 X79.958 Y39.085 E.12331
G1 X81.799 Y38.842 E.0906
G1 X83.5 Y38.77 E.08307
G1 X166.551 Y38.77 E4.05208
G1 X168.303 Y38.851 E.08557
G1 X170.042 Y39.085 E.08561
G1 X171.753 Y39.469 E.08556
G1 X173.425 Y40 E.08559
G1 X175.043 Y40.676 E.08556
G1 X177.259 Y41.891 E.1233
G1 X178.698 Y42.894 E.08558
G1 X180.045 Y44.018 E.0856
G1 X181.288 Y45.255 E.08556
G1 X182.419 Y46.595 E.08555
G1 X183.429 Y48.03 E.08562
G1 X184.31 Y49.546 E.08555
G1 X185.055 Y51.134 E.08558
G1 X185.659 Y52.781 E.08559
G1 X186.117 Y54.474 E.08557
G1 X186.426 Y56.2 E.08555
G1 X186.606 Y58.875 E.13081
G1 X186.606 Y166.875 E5.26935
G1 X186.548 Y167.581 E.03456
G1 X186.36 Y168.317 E.03706
G1 X186.089 Y168.932 E.03279
G1 X185.674 Y169.567 E.03701
G1 X185.01 Y170.245 E.0463
G1 X184.137 Y170.801 E.0505
G1 X183.243 Y171.116 E.04625
G1 X182.25 Y171.231 E.04877
G1 X67.75 Y171.231 E5.58649
G1 X67.044 Y171.173 E.03456
M73 P0 R199
G1 X66.309 Y170.985 E.03702
G1 X65.617 Y170.673 E.03704
G1 X65.058 Y170.299 E.03282
G1 X64.392 Y169.649 E.04541
G1 X63.863 Y168.841 E.04712
G1 X63.53 Y167.953 E.04627
G1 X63.395 Y166.946 E.04957
G1 X63.395 Y58.824 E5.2753
G1 X63.467 Y57.174 E.08058
G1 X63.691 Y55.435 E.08555
G1 X64.067 Y53.721 E.08562
G1 X64.59 Y52.047 E.08557
G1 X65.69 Y49.546 E.13331
G1 X66.571 Y48.03 E.08555
M73 Q0 S199
G1 X67.084 Y47.302 E.04345
M204 S1000
; printing object marker - marker_upper_arm.stl id:1 copy 0
G1 X67.084 Y47.302 F10800
G1 X100.026 Y167.279
M204 S800
;TYPE:Perimeter
;WIDTH:0.42
G1 F900
G1 X99.841 Y167.521 E.01486
G1 X99.585 Y167.684 E.01481
G1 X99.268 Y167.752 E.01582
G1 X67.656 Y167.746 E1.54236
G1 X67.312 Y167.633 E.01767
G1 X67.08 Y167.438 E.01479
G1 X66.928 Y167.175 E.01482
G1 X66.893 Y166.85 E.01595
G1 X66.902 Y165.994 E.04177
G1 X67.061 Y165.495 E.02555
G1 X67.469 Y164.629 E.04671
G1 X67.69 Y164.042 E.0306
G1 X67.812 Y163.531 E.02563
G1 X67.869 Y162.882 E.03179
G1 X67.815 Y162.243 E.03129
G1 X67.599 Y161.447 E.04024
G1 X66.96 Y160.007 E.07686
G1 X66.871 Y159.438 E.0281
G1 X66.871 Y58.888 E4.90586
G1 X66.887 Y58.15 E.03602
G1 X66.935 Y57.426 E.0354
G1 X67.014 Y56.705 E.03539
G1 X67.124 Y55.988 E.03539
G1 X67.266 Y55.276 E.03542
G1 X67.438 Y54.572 E.03536
G1 X67.641 Y53.875 E.03542
G1 X67.874 Y53.188 E.03539
G1 X68.137 Y52.512 E.03539
G1 X68.429 Y51.848 E.03539
G1 X68.75 Y51.197 E.03541
G1 X69.099 Y50.561 E.0354
G1 X69.476 Y49.941 E.0354
G1 X69.879 Y49.338 E.03539
G1 X70.308 Y48.753 E.03539
G1 X70.762 Y48.187 E.0354
G1 X71.24 Y47.641 E.03541
G1 X71.742 Y47.117 E.03541
G1 X72.214 Y46.665 E.03189
G1 X72.813 Y46.136 E.03899
G1 X73.377 Y45.683 E.03529
G1 X73.962 Y45.254 E.03539
G1 X74.566 Y44.851 E.03543
G1 X75.186 Y44.475 E.03538
G1 X75.822 Y44.126 E.0354
G1 X76.473 Y43.805 E.03541
G1 X77.137 Y43.513 E.03539
G1 X77.813 Y43.25 E.03539
G1 X78.5 Y43.016 E.03541
G1 X79.196 Y42.813 E.03537
G1 X79.901 Y42.641 E.03541
G1 X80.612 Y42.5 E.03537
G1 X81.33 Y42.389 E.03545
G1 X82.051 Y42.31 E.03539
G1 X82.768 Y42.263 E.03506
G1 X83.825 Y42.254 E.05157
G1 X84.543 Y42.29 E.03508
G1 X85.367 Y42.356 E.04033
G1 X86.052 Y42.448 E.03372
G1 X86.756 Y42.573 E.03489
G1 X87.459 Y42.729 E.03513
G1 X88.157 Y42.916 E.03526
G1 X88.848 Y43.134 E.03535
G1 X89.528 Y43.382 E.03531
G1 X90.198 Y43.66 E.03539
G1 X90.855 Y43.966 E.03536
G1 X91.498 Y44.301 E.03537
G1 X92.125 Y44.664 E.03535
G1 X92.737 Y45.053 E.03538
G1 X93.331 Y45.469 E.03538
G1 X93.906 Y45.911 E.03539
G1 X94.462 Y46.377 E.0354
G1 X94.997 Y46.867 E.0354
G1 X95.509 Y47.38 E.03536
G1 X95.999 Y47.914 E.03536
G1 X96.465 Y48.47 E.0354
G1 X96.907 Y49.046 E.03542
G1 X97.323 Y49.639 E.03534
G1 X97.713 Y50.251 E.03541
G1 X98.075 Y50.879 E.03537
G1 X98.41 Y51.523 E.03542
G1 X98.717 Y52.18 E.03538
G1 X98.994 Y52.85 E.03537
G1 X99.242 Y53.532 E.03541
G1 X99.46 Y54.224 E.0354
G1 X99.648 Y54.924 E.03536
G1 X99.805 Y55.632 E.03538
G1 X99.931 Y56.347 E.03542
G1 X100.026 Y57.066 E.03539
G1 X100.089 Y57.788 E.03536
G1 X100.129 Y59.069 E.06253
G1 X100.129 Y158.378 E4.84531
G1 X100.105 Y159.744 E.06666
G1 X99.945 Y160.208 E.02395
G1 X99.513 Y161.166 E.05127
G1 X99.254 Y161.907 E.0383
G1 X99.16 Y162.405 E.02473
G1 X99.134 Y163.032 E.03062
G1 X99.211 Y163.658 E.03077
G1 X99.342 Y164.142 E.02446
G1 X99.557 Y164.688 E.02863
G1 X99.969 Y165.558 E.04697
G1 X100.11 Y166.075 E.02615
G1 X100.113 Y167.011 E.04567
G1 X100.045 Y167.222 E.01082
M204 S1000
G1 X100.045 Y167.222 F10800
G1 X100.343 Y167.444
M204 S800
G1 F900
G1 X100.082 Y167.784 E.02091
G1 X99.722 Y168.014 E.02084
G1 X99.291 Y168.108 E.02152
G1 X67.812 Y168.11 E1.53587
G1 X67.323 Y168.031 E.02417
G1 X66.958 Y167.819 E.02059
G1 X66.683 Y167.491 E.02088
G1 X66.542 Y167.108 E.01991
G1 X66.528 Y166.269 E.04094
G1 X66.575 Y165.794 E.02329
G1 X66.74 Y165.343 E.02343
G1 X67.137 Y164.501 E.04542
G1 X67.326 Y164.013 E.02553
G1 X67.458 Y163.493 E.02618
G1 X67.514 Y162.904 E.02887
G1 X67.47 Y162.33 E.02809
G1 X67.276 Y161.595 E.03709
G1 X66.76 Y160.463 E.0607
G1 X66.585 Y159.972 E.02543
G1 X66.516 Y159.452 E.02559
G1 X66.516 Y58.884 E4.90674
G1 X66.532 Y58.135 E.03655
G1 X66.58 Y57.395 E.03618
G1 X66.661 Y56.658 E.03617
G1 X66.774 Y55.926 E.03614
G1 X66.918 Y55.199 E.03616
G1 X67.095 Y54.48 E.03613
G1 X67.302 Y53.768 E.03618
G1 X67.54 Y53.066 E.03617
G1 X67.809 Y52.376 E.03613
G1 X68.107 Y51.698 E.03613
G1 X68.435 Y51.033 E.03618
G1 X68.791 Y50.383 E.03616
G1 X69.176 Y49.75 E.03615
G1 X69.587 Y49.134 E.03613
G1 X70.026 Y48.536 E.03619
G1 X70.489 Y47.958 E.03613
G1 X70.978 Y47.401 E.03616
G1 X71.49 Y46.866 E.03613
G1 X71.974 Y46.403 E.03268
G1 X72.584 Y45.864 E.03972
G1 X73.161 Y45.401 E.03609
G1 X73.758 Y44.963 E.03613
G1 X74.374 Y44.551 E.03616
G1 X75.008 Y44.167 E.03616
G1 X75.658 Y43.81 E.03618
G1 X76.322 Y43.482 E.03613
G1 X77 Y43.184 E.03613
G1 X77.691 Y42.915 E.03618
G1 X78.393 Y42.677 E.03617
G1 X79.104 Y42.47 E.03613
G1 X79.824 Y42.294 E.03616
G1 X80.551 Y42.149 E.03617
G1 X81.283 Y42.036 E.03614
G1 X82.02 Y41.956 E.03617
G1 X82.755 Y41.908 E.03594
G1 X83.832 Y41.899 E.05255
G1 X84.561 Y41.935 E.03561
G1 X85.406 Y42.002 E.04136
G1 X86.106 Y42.096 E.03446
G1 X86.825 Y42.224 E.03563
G1 X87.544 Y42.384 E.03594
G1 X88.257 Y42.575 E.03601
G1 X88.962 Y42.798 E.03608
G1 X89.657 Y43.051 E.03609
G1 X90.341 Y43.334 E.03612
G1 X91.012 Y43.647 E.03612
G1 X91.669 Y43.989 E.03614
G1 X92.31 Y44.359 E.03611
G1 X92.935 Y44.758 E.03618
G1 X93.541 Y45.182 E.03609
G1 X94.129 Y45.633 E.03616
G1 X94.696 Y46.109 E.03612
G1 X95.242 Y46.61 E.03615
G1 X95.766 Y47.134 E.03616
G1 X96.267 Y47.68 E.03615
G1 X96.743 Y48.247 E.03612
G1 X97.194 Y48.835 E.03616
G1 X97.619 Y49.442 E.03615
G1 X98.017 Y50.067 E.03615
G1 X98.387 Y50.708 E.03611
G1 X98.729 Y51.365 E.03614
G1 X99.042 Y52.037 E.03617
G1 X99.326 Y52.721 E.03613
G1 X99.579 Y53.418 E.03618
G1 X99.802 Y54.124 E.03612
G1 X99.994 Y54.84 E.03617
G1 X100.154 Y55.563 E.03613
G1 X100.283 Y56.293 E.03617
G1 X100.379 Y57.027 E.03612
G1 X100.444 Y57.765 E.03615
G1 X100.484 Y59.069 E.06365
G1 X100.484 Y159.359 E4.89317
G1 X100.422 Y159.944 E.0287
G1 X100.269 Y160.355 E.0214
G1 X99.848 Y161.285 E.04981
G1 X99.623 Y161.906 E.03223
G1 X99.515 Y162.427 E.02596
G1 X99.488 Y162.994 E.0277
G1 X99.542 Y163.493 E.02449
G1 X99.674 Y164.013 E.02618
G1 X99.878 Y164.536 E.02739
G1 X100.303 Y165.434 E.04847
G1 X100.465 Y166.026 E.02995
G1 X100.469 Y167.049 E.04991
G1 X100.361 Y167.387 E.01731
M204 S1000
G1 X100.361 Y167.387 F10800
G1 X100.66 Y167.609
M204 S800
;TYPE:External perimeter
G1 F900
G1 X100.324 Y168.047 E.02693
G1 X99.858 Y168.344 E.02696
G1 X99.315 Y168.464 E.02713
G1 X68.399 Y168.465 E1.5084
G1 X67.706 Y168.462 E.03381
G1 X67.204 Y168.368 E.02492
G1 X66.729 Y168.093 E.02678
G1 X66.374 Y167.67 E.02694
G1 X66.187 Y167.157 E.02664
G1 X66.172 Y166.262 E.04367
G1 X66.228 Y165.708 E.02717
G1 X66.418 Y165.191 E.02687
G1 X66.806 Y164.372 E.04422
G1 X66.995 Y163.884 E.02553
G1 X67.105 Y163.455 E.02161
G1 X67.159 Y162.926 E.02594
G1 X67.125 Y162.416 E.02494
G1 X66.952 Y161.742 E.03395
G1 X66.404 Y160.531 E.06485
G1 X66.24 Y160.057 E.02447
G1 X66.16 Y159.466 E.0291
G1 X66.16 Y58.88 E4.90761
G1 X66.177 Y58.119 E.03714
M73 P0 R198
G1 X66.226 Y57.364 E.03691
G1 X66.308 Y56.612 E.03691
G1 X66.424 Y55.864 E.03693
G1 X66.571 Y55.122 E.03691
G1 X66.751 Y54.387 E.03692
G1 X66.963 Y53.661 E.0369
G1 X67.206 Y52.945 E.03689
G1 X67.48 Y52.24 E.0369
G1 X67.785 Y51.547 E.03694
G1 X68.119 Y50.869 E.03688
G1 X68.483 Y50.205 E.03695
G1 X68.876 Y49.559 E.03689
G1 X69.296 Y48.93 E.0369
G1 X69.743 Y48.319 E.03694
G1 X70.217 Y47.729 E.03693
G1 X70.716 Y47.161 E.03689
G1 X71.239 Y46.614 E.03692
G1 X71.733 Y46.141 E.03337
G1 X72.354 Y45.592 E.04044
G1 X72.944 Y45.119 E.03689
G1 X73.554 Y44.671 E.03693
G1 X74.183 Y44.251 E.0369
G1 X74.83 Y43.859 E.03691
G1 X75.493 Y43.495 E.0369
G1 X76.172 Y43.16 E.03694
G1 X76.864 Y42.855 E.0369
G1 X77.569 Y42.581 E.0369
G1 X78.286 Y42.338 E.03694
G1 X79.012 Y42.126 E.0369
G1 X79.747 Y41.946 E.03692
G1 X80.489 Y41.799 E.03691
G1 X81.237 Y41.684 E.03692
G1 X81.989 Y41.601 E.03691
G1 X82.742 Y41.552 E.03682
G1 X83.84 Y41.543 E.05357
G1 X84.579 Y41.58 E.0361
G1 X85.445 Y41.649 E.04239
G1 X86.16 Y41.745 E.0352
G1 X86.894 Y41.875 E.03637
G1 X87.628 Y42.038 E.03668
G1 X88.356 Y42.234 E.03678
G1 X89.076 Y42.461 E.03683
G1 X89.786 Y42.719 E.03686
G1 X90.484 Y43.009 E.03688
G1 X91.169 Y43.328 E.03687
G1 X91.84 Y43.677 E.0369
G1 X92.494 Y44.055 E.03686
G1 X93.132 Y44.462 E.03692
G1 X93.752 Y44.896 E.03692
G1 X94.352 Y45.356 E.03689
G1 X94.931 Y45.842 E.03688
G1 X95.488 Y46.353 E.03688
G1 X96.023 Y46.888 E.03691
G1 X96.534 Y47.445 E.03688
G1 X97.02 Y48.025 E.03692
G1 X97.481 Y48.625 E.03692
G1 X97.914 Y49.244 E.03686
G1 X98.321 Y49.882 E.03692
G1 X98.699 Y50.537 E.0369
G1 X99.048 Y51.208 E.0369
G1 X99.368 Y51.894 E.03693
G1 X99.657 Y52.592 E.03686
G1 X99.916 Y53.303 E.03692
G1 X100.143 Y54.025 E.03693
G1 X100.339 Y54.755 E.03688
G1 X100.503 Y55.494 E.03693
G1 X100.634 Y56.238 E.03686
G1 X100.733 Y56.988 E.03691
G1 X100.799 Y57.742 E.03693
G1 X100.84 Y59.069 E.06478
G1 X100.84 Y159.466 E4.89839
G1 X100.767 Y160.03 E.02775
M73 Q0 S198
G1 X100.593 Y160.502 E.02454
G1 X100.182 Y161.408 E.04854
G1 X99.958 Y162.027 E.03212
G1 X99.87 Y162.449 E.02103
G1 X99.842 Y162.956 E.02477
G1 X99.895 Y163.455 E.02448
G1 X100.005 Y163.884 E.02161
G1 X100.199 Y164.384 E.02617
G1 X100.638 Y165.31 E.05
G1 X100.821 Y165.978 E.03379
G1 X100.825 Y167.087 E.05411
G1 X100.678 Y167.552 E.02379
M204 S1000
G1 X100.449 Y167.88 F10800
G1 X93.422 Y45.734
M204 S800
;TYPE:Solid infill
;WIDTH:0.420573
G1 F900
G1 X95.524 Y47.858 E.14603
G1 X95.993 Y48.393 E.03477
G1 X96.438 Y48.947 E.03473
G1 X96.859 Y49.521 E.03479
G1 X97.169 Y49.985 E.02727
G1 X92.391 Y45.207 E.33021
G1 X91.654 Y44.752 E.04233
G1 X91.162 Y44.482 E.02743
G1 X97.893 Y51.213 E.46519
G1 X98.375 Y52.199 E.05363
G1 X90.177 Y44 E.56661
G1 X89.316 Y43.643 E.04555
G1 X98.732 Y53.059 E.65075
G1 X99.009 Y53.84 E.0405
G1 X88.535 Y43.366 E.72387
G1 X87.816 Y43.15 E.03669
G1 X99.225 Y54.56 E.78852
G1 X99.394 Y55.233 E.03391
G1 X87.143 Y42.981 E.84671
G1 X86.508 Y42.85 E.03169
G1 X99.526 Y55.868 E.89969
G1 X99.627 Y56.472 E.02993
G1 X85.903 Y42.749 E.94844
G1 X85.324 Y42.673 E.02854
G1 X99.702 Y57.052 E.99371
G1 X99.757 Y57.61 E.0274
G1 X84.769 Y42.622 E1.03584
G1 X84.238 Y42.595 E.02598
G1 X99.792 Y58.149 E1.07495
G1 X99.804 Y58.665 E.02522
G1 X83.715 Y42.575 E1.11196
G1 X83.215 Y42.579 E.02444
G1 X99.809 Y59.173 E1.14683
G1 X99.809 Y59.677 E.02463
G1 X82.719 Y42.587 E1.18111
G1 X82.246 Y42.618 E.02316
M73 P1 R198
M73 Q1 S198
G1 X99.809 Y60.181 E1.2138
G1 X99.809 Y60.684 E.02458
G1 X81.785 Y42.661 E1.24562
G1 X81.333 Y42.712 E.02223
G1 X99.809 Y61.188 E1.27689
G1 X99.809 Y61.692 E.02463
G1 X80.896 Y42.78 E1.30706
G1 X80.468 Y42.855 E.02123
G1 X99.809 Y62.196 E1.33668
G1 X99.809 Y62.699 E.02458
G1 X80.048 Y42.938 E1.3657
G1 X79.64 Y43.034 E.02048
G1 X99.809 Y63.203 E1.3939
G1 X99.809 Y63.707 E.02463
G1 X79.237 Y43.135 E1.42175
G1 X78.847 Y43.249 E.01986
G1 X99.809 Y64.211 E1.4487
G1 X99.809 Y64.714 E.02458
G1 X78.462 Y43.367 E1.47531
G1 X78.086 Y43.495 E.01941
G1 X99.809 Y65.218 E1.5013
G1 X99.809 Y65.722 E.02463
G1 X77.717 Y43.63 E1.5268
G1 X77.355 Y43.771 E.01899
G1 X99.809 Y66.225 E1.55182
G1 X99.809 Y66.729 E.02463
G1 X77.001 Y43.922 E1.57625
G1 X76.652 Y44.076 E.01864
G1 X99.809 Y67.233 E1.6004
G1 X99.809 Y67.737 E.02463
M73 P1 R197
G1 X76.313 Y44.241 E1.62383
G1 X75.975 Y44.407 E.0184
G1 X99.809 Y68.24 E1.64716
G1 X99.809 Y68.744 E.02463
G1 X75.65 Y44.585 E1.66965
G1 X75.325 Y44.764 E.01813
G1 X99.809 Y69.248 E1.69211
G1 X99.809 Y69.752 E.02463
M73 Q1 S197
G1 X75.012 Y44.955 E1.71375
G1 X74.7 Y45.146 E.01788
G1 X99.809 Y70.255 E1.73531
G1 X99.809 Y70.759 E.02463
G1 X74.398 Y45.348 E1.75618
G1 X74.098 Y45.552 E.01773
G1 X99.809 Y71.263 E1.77691
G1 X99.809 Y71.767 E.02463
G1 X73.807 Y45.765 E1.79702
G1 X73.519 Y45.98 E.01756
G1 X99.809 Y72.27 E1.81693
G1 X99.809 Y72.774 E.02463
G1 X73.239 Y46.204 E1.83628
G1 X72.962 Y46.431 E.0175
G1 X99.809 Y73.278 E1.85542
G1 X99.809 Y73.781 E.02458
G1 X72.695 Y46.668 E1.87384
G1 X72.428 Y46.904 E.01741
G1 X99.809 Y74.285 E1.89233
G1 X99.809 Y74.789 E.02463
G1 X72.17 Y47.15 E1.91016
G1 X71.915 Y47.399 E.01742
G1 X99.809 Y75.293 E1.92778
G1 X99.809 Y75.796 E.02458
G1 X71.669 Y47.656 E1.94478
G1 X71.425 Y47.916 E.01742
G1 X99.809 Y76.3 E1.96165
G1 X99.809 Y76.804 E.02463
G1 X71.189 Y48.185 E1.97792
G1 X70.957 Y48.455 E.0174
G1 X99.809 Y77.308 E1.99402
G1 X99.809 Y77.811 E.02458
G1 X70.732 Y48.735 E2.00951
G1 X70.511 Y49.017 E.01751
