; generated by PrusaSlicer 2.7.4 on 2024-06-19 at 10:52:54 UTC


;
;
; 

; external perimeters extrusion width = 0.45mm
; perimeters extrusion width = 0.45mm
; infill extrusion width = 0.45mm
; solid infill extrusion width = 0.45mm
; top infill extrusion width = 0.40mm
; first layer extrusion width = 0.42mm

; external perimeters extrusion width = 0.45mm
; perimeters extrusion width = 0.45mm
; infill extrusion width = 0.45mm
; solid infill extrusion width = 0.45mm
; top infill extrusion width = 0.40mm
; first layer extrusion width = 0.42mm

; external perimeters extrusion width = 0.45mm
; perimeters extrusion width = 0.45mm
; infill extrusion width = 0.45mm
; solid infill extrusion width = 0.45mm
; top infill extrusion width = 0.40mm
; first layer extrusion width = 0.42mm

M73 P0 R238
M73 Q0 S238
M201 X1000 Y1000 Z200 E5000 ; sets maximum accelerations, mm/sec^2
M203 X200 Y200 Z12 E120 ; sets maximum feedrates, mm / sec
M204 S1250 T1250 ; sets acceleration (S) and retract acceleration (R), mm/sec^2
M205 X8.00 Y8.00 Z0.40 E4.50 ; sets the jerk limits, mm/sec
M205 S0 T0 ; sets the minimum extruding and travel feed rate, mm/sec

; printing object marker - marker_upper_arm.stl id:0 copy 0
; stop printing object marker - marker_upper_arm.stl id:0 copy 0
; printing object marker - marker_upper_arm.stl id:2 copy 0
; stop printing object marker - marker_upper_arm.stl id:2 copy 0
; printing object marker - marker_upper_arm.stl id:1 copy 0
; stop printing object marker - marker_upper_arm.stl id:1 copy 0

;TYPE:Custom
M862.3 P "MK3S" ; printer model check
M862.1 P0.4 ; nozzle diameter check
M115 U3.13.3 ; tell printer latest fw version
G90 ; use absolute coordinates
M83 ; extruder relative mode
M104 S230 ; set extruder temp
M140 S60 ; set bed temp
M190 S60 ; wait for bed temp
M109 S230 ; wait for extruder temp
G28 W ; home all without mesh bed level
G80 X58.5919 Y43.2166 W132.817 H123.567 ; mesh bed levelling

G1 Z0.2 F720
G1 Y-3 F1000 ; go outside print area
G92 E0
G1 X60 E9 F1000 ; intro line
G1 X100 E12.5 F1000 ; intro line

G92 E0
M221 S95

; Don't change E values below. Excessive value can damage the printer.
M907 E430 ; set extruder motor current
G21 ; set units to millimeters
G90 ; use absolute coordinates
M83 ; use relative distances for extrusion
M900 K0 ; Filament gcode
M107
;LAYER_CHANGE
;Z:0.3
;HEIGHT:0.3
G1 X63.507 Y50.537 F10800
G1 Z.3 F720
M204 S800
;TYPE:Skirt/Brim
;WIDTH:0.42
G1 F900
G1 X65.255 Y48.712 E.1233
G1 X66.595 Y47.581 E.08555
G1 X68.03 Y46.571 E.08562
G1 X69.546 Y45.69 E.08555
G1 X71.134 Y44.945 E.08558
G1 X72.781 Y44.341 E.08559
G1 X74.474 Y43.883 E.08557
G1 X76.2 Y43.574 E.08555
G1 X77.947 Y43.416 E.08558
G1 X186.927 Y43.395 E5.31717
G1 X187.682 Y43.47 E.03702
G1 X188.494 Y43.707 E.04127
G1 X189.259 Y44.105 E.04207
G1 X189.907 Y44.623 E.04048
G1 X190.413 Y45.21 E.03781
G1 X190.844 Y45.956 E.04204
G1 X191.116 Y46.757 E.04127
G1 X191.229 Y47.611 E.04203
G1 X191.23 Y162.301 E5.59576
G1 X191.138 Y163.142 E.04128
G1 X190.879 Y163.964 E.04205
G1 X190.422 Y164.778 E.04555
G1 X189.861 Y165.421 E.04163
G1 X189.259 Y165.895 E.03738
G1 X188.494 Y166.293 E.04207
G1 X187.682 Y166.53 E.04127
G1 X186.875 Y166.606 E.03955
G1 X78.05 Y166.588 E5.3096
G1 X76.302 Y166.44 E.08559
G1 X74.474 Y166.117 E.09057
G1 X72.108 Y165.431 E.12019
G1 X70.425 Y164.743 E.08871
G1 X68.867 Y163.937 E.08558
G1 X67.301 Y162.94 E.09058
G1 X65.913 Y161.868 E.08557
G1 X64.087 Y160.121 E.1233
G1 X62.956 Y158.78 E.08559
G1 X61.947 Y157.346 E.08555
G1 X61.066 Y155.829 E.08559
G1 X60.32 Y154.241 E.0856
G1 X59.716 Y152.595 E.08555
G1 X59.258 Y150.902 E.08557
G1 X58.949 Y149.175 E.0856
G1 X58.792 Y147.428 E.08558
G1 X58.77 Y63.5 E4.09487
G1 X58.851 Y61.697 E.08806
M73 P0 R237
G1 X59.236 Y59.199 E.12332
G1 X59.685 Y57.503 E.0856
G1 X60.32 Y55.759 E.09056
G1 X61.283 Y53.775 E.1076
G1 X62.377 Y52.01 E.10132
G1 X63.47 Y50.585 E.08762
M204 S1000
; printing object marker - marker_upper_arm.stl id:0 copy 0
G1 X63.47 Y50.585 F10800
G1 X187.183 Y163.067
M204 S800
;TYPE:Perimeter
;WIDTH:0.42
G1 F900
G1 X186.826 Y163.127 E.01766
G1 X185.939 Y163.091 E.04331
G1 X185.475 Y162.929 E.02398
G1 X184.629 Y162.531 E.04562
G1 X184.042 Y162.31 E.0306
G1 X183.531 Y162.188 E.02563
G1 X182.882 Y162.131 E.03179
G1 X182.243 Y162.185 E.03129
G1 X181.447 Y162.401 E.04024
G1 X180.007 Y163.04 E.07686
G1 X179.438 Y163.129 E.0281
G1 X78.888 Y163.129 E4.90586
G1 X78.15 Y163.113 E.03602
M73 Q0 S237
G1 X77.426 Y163.065 E.0354
G1 X76.705 Y162.986 E.03539
G1 X75.988 Y162.876 E.03539
G1 X75.276 Y162.734 E.03542
G1 X74.572 Y162.562 E.03536
G1 X73.875 Y162.359 E.03542
G1 X73.188 Y162.126 E.03539
G1 X72.512 Y161.863 E.03539
G1 X71.848 Y161.571 E.03539
G1 X71.197 Y161.25 E.03541
G1 X70.561 Y160.901 E.0354
G1 X69.941 Y160.524 E.0354
G1 X69.338 Y160.121 E.03539
G1 X68.753 Y159.692 E.03539
G1 X68.187 Y159.238 E.0354
G1 X67.641 Y158.76 E.03541
G1 X67.117 Y158.258 E.03541
G1 X66.616 Y157.734 E.03537
G1 X66.137 Y157.189 E.0354
G1 X65.683 Y156.623 E.0354
G1 X65.254 Y156.038 E.03539
G1 X64.851 Y155.435 E.03539
G1 X64.475 Y154.814 E.03542
G1 X64.126 Y154.178 E.0354
G1 X63.805 Y153.527 E.03541
G1 X63.513 Y152.863 E.03539
G1 X63.25 Y152.187 E.03539
G1 X63.016 Y151.5 E.03541
G1 X62.813 Y150.804 E.03537
G1 X62.641 Y150.099 E.03541
G1 X62.499 Y149.388 E.03537
G1 X62.389 Y148.67 E.03544
G1 X62.31 Y147.949 E.03539
G1 X62.263 Y147.225 E.0354
G1 X62.247 Y146.5 E.03538
G1 X62.263 Y145.775 E.03538
G1 X62.31 Y145.051 E.0354
G1 X62.389 Y144.33 E.03539
G1 X62.491 Y143.671 E.03254
G1 X62.641 Y142.9 E.03832
G1 X62.813 Y142.196 E.03536
G1 X63.016 Y141.5 E.03537
G1 X63.248 Y140.819 E.0351
G1 X63.659 Y139.805 E.05338
G1 X64.129 Y138.816 E.05343
G1 X64.475 Y138.186 E.03507
G1 X64.851 Y137.566 E.03538
G1 X65.254 Y136.962 E.03543
G1 X65.683 Y136.377 E.03539
G1 X66.137 Y135.811 E.0354
G1 X66.616 Y135.266 E.0354
G1 X67.117 Y134.742 E.03537
G1 X67.599 Y134.281 E.03254
G1 X68.188 Y133.761 E.03833
G1 X68.753 Y133.308 E.03533
G1 X69.338 Y132.879 E.03539
G1 X69.941 Y132.476 E.03539
G1 X70.561 Y132.099 E.0354
G1 X71.197 Y131.75 E.0354
G1 X71.848 Y131.429 E.03541
G1 X72.512 Y131.137 E.03539
G1 X73.188 Y130.874 E.03539
G1 X73.875 Y130.641 E.03539
G1 X74.572 Y130.438 E.03542
G1 X75.276 Y130.266 E.03536
G1 X75.988 Y130.124 E.03542
G1 X76.705 Y130.014 E.03539
G1 X77.426 Y129.935 E.03539
G1 X78.15 Y129.887 E.0354
G1 X78.888 Y129.871 E.03602
G1 X179.398 Y129.873 E4.90391
G1 X179.812 Y129.908 E.02027
G1 X180.232 Y130.057 E.02174
G1 X181.152 Y130.482 E.04945
G1 X181.74 Y130.699 E.03058
G1 X182.247 Y130.817 E.0254
G1 X182.875 Y130.869 E.03075
G1 X183.51 Y130.815 E.03109
G1 X184.141 Y130.658 E.03173
G1 X184.688 Y130.443 E.02868
G1 X185.475 Y130.071 E.04247
G1 X185.939 Y129.909 E.02398
G1 X186.39 Y129.872 E.02208
G1 X186.999 Y129.895 E.02973
G1 X187.373 Y130.039 E.01955
G1 X187.564 Y130.222 E.01291
G1 X187.694 Y130.458 E.01315
G1 X187.754 Y130.856 E.01964
G1 X187.752 Y161.762 E1.50791
G1 X187.73 Y162.439 E.03305
G1 X187.525 Y162.833 E.02167
G1 X187.232 Y163.033 E.01731
M204 S1000
G1 X187.232 Y163.033 F10800
G1 X187.358 Y163.375
M204 S800
G1 F900
G1 X187.33 Y163.394 E.00165
G1 X186.916 Y163.483 E.02066
G1 X186.391 Y163.484 E.02561
G1 X185.867 Y163.441 E.02565
G1 X185.323 Y163.251 E.02811
G1 X184.501 Y162.863 E.04435
G1 X184.013 Y162.674 E.02553
G1 X183.493 Y162.542 E.02618
G1 X182.904 Y162.486 E.02887
G1 X182.33 Y162.53 E.02809
G1 X181.595 Y162.724 E.03709
G1 X180.463 Y163.24 E.0607
G1 X179.972 Y163.415 E.02543
G1 X179.452 Y163.484 E.02559
G1 X78.884 Y163.484 E4.90674
G1 X78.135 Y163.468 E.03655
G1 X77.395 Y163.42 E.03618
G1 X76.658 Y163.339 E.03617
G1 X75.926 Y163.226 E.03614
G1 X75.199 Y163.082 E.03616
G1 X74.48 Y162.905 E.03613
G1 X73.768 Y162.698 E.03618
G1 X73.066 Y162.46 E.03617
G1 X72.376 Y162.191 E.03613
G1 X71.698 Y161.893 E.03613
G1 X71.033 Y161.565 E.03618
G1 X70.383 Y161.209 E.03616
G1 X69.75 Y160.824 E.03615
G1 X69.134 Y160.413 E.03613
G1 X68.536 Y159.974 E.03619
G1 X67.958 Y159.511 E.03613
G1 X67.401 Y159.022 E.03616
G1 X66.866 Y158.51 E.03613
G1 X66.353 Y157.974 E.0362
G1 X65.865 Y157.417 E.03613
G1 X65.401 Y156.839 E.03616
G1 X64.963 Y156.242 E.03613
G1 X64.551 Y155.626 E.03616
G1 X64.167 Y154.992 E.03616
G1 X63.81 Y154.342 E.03618
G1 X63.482 Y153.678 E.03613
G1 X63.184 Y153 E.03613
G1 X62.915 Y152.309 E.03618
G1 X62.677 Y151.607 E.03617
G1 X62.47 Y150.896 E.03613
G1 X62.294 Y150.176 E.03616
G1 X62.149 Y149.449 E.03617
G1 X62.036 Y148.717 E.03614
G1 X61.956 Y147.98 E.03617
G1 X61.907 Y147.241 E.03614
G1 X61.891 Y146.5 E.03616
G1 X61.907 Y145.759 E.03616
G1 X61.956 Y145.02 E.03614
G1 X62.036 Y144.283 E.03617
G1 X62.14 Y143.609 E.03327
G1 X62.294 Y142.823 E.03908
G1 X62.47 Y142.104 E.03612
G1 X62.677 Y141.393 E.03613
G1 X62.914 Y140.695 E.03597
G1 X63.333 Y139.661 E.05443
G1 X63.812 Y138.654 E.05441
G1 X64.167 Y138.008 E.03596
G1 X64.551 Y137.374 E.03616
G1 X64.963 Y136.758 E.03616
G1 X65.401 Y136.161 E.03613
G1 X65.865 Y135.583 E.03616
G1 X66.353 Y135.026 E.03613
G1 X66.866 Y134.49 E.0362
G1 X67.358 Y134.019 E.03323
G1 X67.959 Y133.489 E.0391
G1 X68.536 Y133.026 E.03609
G1 X69.134 Y132.587 E.03619
G1 X69.75 Y132.176 E.03613
G1 X70.383 Y131.791 E.03615
G1 X71.033 Y131.435 E.03616
G1 X71.698 Y131.107 E.03618
G1 X72.376 Y130.809 E.03613
G1 X73.066 Y130.54 E.03613
G1 X73.768 Y130.302 E.03617
G1 X74.48 Y130.095 E.03618
G1 X75.199 Y129.918 E.03613
G1 X75.926 Y129.774 E.03616
G1 X76.658 Y129.661 E.03614
G1 X77.395 Y129.58 E.03617
G1 X78.135 Y129.532 E.03618
G1 X78.884 Y129.516 E.03655
G1 X179.398 Y129.517 E4.9041
G1 X179.883 Y129.558 E.02375
G1 X180.382 Y129.735 E.02583
G1 X181.279 Y130.15 E.04822
G1 X181.765 Y130.335 E.02537
G1 X182.284 Y130.463 E.02608
G1 X182.852 Y130.514 E.02782
G1 X183.429 Y130.469 E.02824
G1 X184.013 Y130.326 E.02934
G1 X184.536 Y130.122 E.02739
G1 X185.323 Y129.749 E.04249
G1 X185.867 Y129.559 E.02811
G1 X186.217 Y129.524 E.01716
G1 X186.775 Y129.517 E.02723
G1 X187.239 Y129.576 E.02282
G1 X187.579 Y129.744 E.0185
G1 X187.85 Y130.003 E.01829
G1 X188.04 Y130.349 E.01926
G1 X188.11 Y130.856 E.02497
G1 X188.108 Y162.291 E1.53372
G1 X188.019 Y162.705 E.02066
G1 X187.743 Y163.118 E.02424
G1 X187.408 Y163.342 E.01966
M204 S1000
G1 X187.408 Y163.342 F10800
G1 X187.554 Y163.669
M204 S800
;TYPE:External perimeter
G1 F900
G1 X187.478 Y163.72 E.00447
G1 X186.94 Y163.838 E.02687
G1 X186.392 Y163.84 E.02674
G1 X185.795 Y163.791 E.02923
G1 X185.171 Y163.572 E.03227
G1 X184.372 Y163.194 E.04313
G1 X183.884 Y163.005 E.02553
G1 X183.455 Y162.895 E.02161
G1 X182.926 Y162.841 E.02594
G1 X182.416 Y162.875 E.02494
G1 X181.742 Y163.048 E.03395
G1 X180.531 Y163.596 E.06485
G1 X180.057 Y163.76 E.02447
G1 X179.466 Y163.84 E.0291
G1 X78.88 Y163.84 E4.90761
G1 X78.119 Y163.823 E.03714
G1 X77.364 Y163.774 E.03691
G1 X76.612 Y163.692 E.03691
G1 X75.864 Y163.576 E.03693
G1 X75.122 Y163.429 E.03691
G1 X74.387 Y163.249 E.03692
G1 X73.661 Y163.037 E.0369
G1 X72.945 Y162.794 E.03689
G1 X72.24 Y162.52 E.0369
G1 X71.547 Y162.215 E.03694
G1 X70.869 Y161.881 E.03688
G1 X70.205 Y161.517 E.03695
G1 X69.559 Y161.124 E.03689
G1 X68.93 Y160.704 E.0369
G1 X68.319 Y160.257 E.03694
G1 X67.729 Y159.783 E.03693
G1 X67.161 Y159.284 E.03689
G1 X66.614 Y158.761 E.03692
G1 X66.091 Y158.215 E.03689
G1 X65.592 Y157.646 E.03692
G1 X65.119 Y157.056 E.03689
G1 X64.671 Y156.446 E.03693
G1 X64.251 Y155.817 E.0369
G1 X63.859 Y155.17 E.03691
G1 X63.495 Y154.507 E.0369
G1 X63.16 Y153.828 E.03694
G1 X62.855 Y153.136 E.0369
G1 X62.581 Y152.431 E.0369
G1 X62.338 Y151.714 E.03694
G1 X62.126 Y150.988 E.0369
G1 X61.946 Y150.253 E.03692
G1 X61.799 Y149.511 E.03691
G1 X61.684 Y148.763 E.03692
G1 X61.601 Y148.011 E.03691
G1 X61.552 Y147.256 E.03691
G1 X61.535 Y146.5 E.03689
G1 X61.552 Y145.744 E.03689
G1 X61.601 Y144.989 E.03691
G1 X61.684 Y144.237 E.03691
G1 X61.79 Y143.548 E.03401
G1 X61.947 Y142.747 E.03982
G1 X62.126 Y142.012 E.03691
G1 X62.338 Y141.286 E.0369
G1 X62.581 Y140.571 E.03684
G1 X63.008 Y139.518 E.05544
G1 X63.495 Y138.492 E.05541
G1 X63.859 Y137.83 E.03686
G1 X64.251 Y137.183 E.03691
G1 X64.671 Y136.554 E.0369
G1 X65.119 Y135.944 E.03693
G1 X65.592 Y135.354 E.03689
G1 X66.091 Y134.785 E.03692
G1 X66.614 Y134.239 E.03689
G1 X67.117 Y133.757 E.03399
G1 X67.73 Y133.217 E.03986
G1 X68.319 Y132.743 E.03689
G1 X68.93 Y132.296 E.03694
G1 X69.559 Y131.876 E.0369
G1 X70.205 Y131.483 E.03689
G1 X70.869 Y131.119 E.03695
G1 X71.547 Y130.785 E.03688
G1 X72.24 Y130.48 E.03694
G1 X72.945 Y130.206 E.0369
G1 X73.661 Y129.963 E.03689
G1 X74.387 Y129.751 E.0369
G1 X75.122 Y129.571 E.03692
G1 X75.864 Y129.424 E.03691
G1 X76.612 Y129.308 E.03693
G1 X77.364 Y129.226 E.03691
G1 X78.119 Y129.177 E.03691
G1 X78.88 Y129.16 E.03714
G1 X179.398 Y129.162 E4.9043
G1 X179.954 Y129.208 E.02722
M73 P0 R236
G1 X180.532 Y129.412 E.02991
G1 X181.406 Y129.818 E.04702
G1 X181.892 Y130.003 E.02537
G1 X182.32 Y130.109 E.02151
G1 X182.829 Y130.159 E.02495
G1 X183.347 Y130.123 E.02533
G1 X183.884 Y129.995 E.02693
G1 X184.384 Y129.801 E.02617
G1 X185.314 Y129.36 E.05022
G1 X185.795 Y129.209 E.0246
G1 X186.286 Y129.16 E.02408
G1 X186.792 Y129.161 E.02469
G1 X187.351 Y129.235 E.02751
G1 X187.786 Y129.449 E.02365
G1 X188.135 Y129.783 E.02357
G1 X188.401 Y130.317 E.02911
G1 X188.465 Y130.856 E.02648
G1 X188.464 Y161.762 E1.50791
G1 X188.427 Y162.594 E.04063
G1 X188.264 Y162.987 E.02076
G1 X187.995 Y163.369 E.0228
G1 X187.603 Y163.635 E.02311
M204 S1000
G1 X187.226 Y163.769 F10800
G1 X187.594 Y131.209
M204 S800
;TYPE:Solid infill
;WIDTH:0.420533
G1 F900
G1 X186.577 Y130.192 E.07028
G1 X186.097 Y130.215 E.02348
G1 X187.434 Y131.552 E.09239
G1 X187.434 Y132.056 E.02463
G1 X185.698 Y130.32 E.11996
G1 X185.356 Y130.481 E.01847
G1 X187.434 Y132.56 E.14363
G1 X187.434 Y133.063 E.02458
G1 X185.014 Y130.643 E.16723
G1 X184.663 Y130.797 E.01873
G1 X187.434 Y133.567 E.19145
G1 X187.434 Y134.071 E.02463
G1 X184.302 Y130.939 E.21643
G1 X183.906 Y131.046 E.02004
G1 X187.434 Y134.574 E.2438
G1 X187.434 Y135.078 E.02463
G1 X183.492 Y131.136 E.2724
G1 X183.029 Y131.177 E.02271
G1 X187.434 Y135.582 E.3044
G1 X187.434 Y136.085 E.02458
M73 Q0 S236
G1 X182.507 Y131.159 E.34044
G1 X182.207 Y131.135 E.01471
G1 X181.912 Y131.067 E.01479
G1 X187.434 Y136.589 E.38159
G1 X187.434 Y137.093 E.02463
G1 X181.167 Y130.826 E.43307
G1 X180.965 Y130.75 E.01055
G1 X180.261 Y130.423 E.03793
G1 X187.434 Y137.596 E.49568
G1 X187.434 Y138.1 E.02463
G1 X179.531 Y130.197 E.54612
G1 X179.023 Y130.193 E.02482
G1 X187.434 Y138.604 E.58123
G1 X187.434 Y139.107 E.02458
G1 X178.519 Y130.193 E.61602
G1 X178.016 Y130.193 E.02458
G1 X187.434 Y139.611 E.65081
G1 X187.434 Y140.114 E.02458
G1 X177.512 Y130.193 E.68561
G1 X177.008 Y130.193 E.02463
G1 X187.434 Y140.618 E.72044
G1 X187.433 Y141.122 E.02463
G1 X176.505 Y130.193 E.75519
G1 X176.001 Y130.193 E.02463
G1 X187.433 Y141.625 E.78999
G1 X187.433 Y142.129 E.02463
G1 X175.497 Y130.193 E.82482
G1 X174.993 Y130.193 E.02463
G1 X187.433 Y142.633 E.85964
G1 X187.433 Y143.136 E.02458
G1 X174.49 Y130.193 E.8944
G1 X173.986 Y130.193 E.02463
G1 X187.433 Y143.64 E.92923
G1 X187.433 Y144.144 E.02463
G1 X173.482 Y130.193 E.96406
G1 X172.979 Y130.193 E.02458
G1 X187.433 Y144.647 E.99882
G1 X187.433 Y145.151 E.02463
G1 X172.475 Y130.193 E1.03365
G1 X171.971 Y130.193 E.02463
G1 X187.433 Y145.655 E1.06847
G1 X187.433 Y146.158 E.02458
G1 X171.468 Y130.193 E1.10323
G1 X170.964 Y130.193 E.02463
G1 X187.433 Y146.662 E1.13806
G1 X187.433 Y147.166 E.02463
G1 X170.46 Y130.193 E1.17289
G1 X169.957 Y130.193 E.02458
G1 X187.433 Y147.669 E1.20765
G1 X187.433 Y148.173 E.02463
G1 X169.453 Y130.193 E1.24248
G1 X168.949 Y130.193 E.02463
G1 X187.433 Y148.676 E1.27727
G1 X187.433 Y149.18 E.02463
G1 X168.446 Y130.193 E1.31206
G1 X167.942 Y130.193 E.02463
G1 X187.433 Y149.684 E1.34689
G1 X187.433 Y150.187 E.02458
G1 X167.438 Y130.193 E1.38168
G1 X166.935 Y130.193 E.02458
G1 X187.433 Y150.691 E1.41648
G1 X187.433 Y151.195 E.02463
M73 Q1 S236
G1 X166.431 Y130.193 E1.45131
M73 P1 R236
G1 X165.927 Y130.193 E.02463
G1 X187.433 Y151.698 E1.4861
G1 X187.433 Y152.202 E.02463
G1 X165.423 Y130.193 E1.52093
