; generated by PrusaSlicer 2.7.4 on 2024-05-19 at 14:08:42 UTC


;
;
; 

; external perimeters extrusion width = 0.45mm
; perimeters extrusion width = 0.45mm
; infill extrusion width = 0.45mm
; solid infill extrusion width = 0.45mm
; top infill extrusion width = 0.40mm
; support material extrusion width = 0.35mm
; first layer extrusion width = 0.42mm

M73 P0 R59
M73 Q0 S60
M201 X1000 Y1000 Z200 E5000 ; sets maximum accelerations, mm/sec^2
M203 X200 Y200 Z12 E120 ; sets maximum feedrates, mm / sec
M204 S1250 T1250 ; sets acceleration (S) and retract acceleration (R), mm/sec^2
M205 X8.00 Y8.00 Z0.40 E4.50 ; sets the jerk limits, mm/sec
M205 S0 T0 ; sets the minimum extruding and travel feed rate, mm/sec

; printing object frame - frame_upper_arm.stl id:0 copy 0
; stop printing object frame - frame_upper_arm.stl id:0 copy 0

;TYPE:Custom
M862.3 P "MK3S" ; printer model check
M862.1 P0.4 ; nozzle diameter check
M115 U3.13.3 ; tell printer latest fw version
G90 ; use absolute coordinates
M83 ; extruder relative mode
M104 S215 ; set extruder temp
M140 S60 ; set bed temp
M190 S60 ; wait for bed temp
M109 S215 ; wait for extruder temp
G28 W ; home all without mesh bed level
G80 X101.034 Y60.2706 W47.9314 H85.345 ; mesh bed levelling

G1 Z0.2 F720
G1 Y-3 F1000 ; go outside print area
G92 E0
G1 X60 E9 F1000 ; intro line
G1 X100 E12.5 F1000 ; intro line
M73 P0 R58
M73 Q0 S59

G92 E0
M221 S95

; Don't change E values below. Excessive value can damage the printer.

M907 E538 ; set extruder motor current
G21 ; set units to millimeters
G90 ; use absolute coordinates
M83 ; use relative distances for extrusion

M900 K0.05 ; Filament gcode LA 1.5
M900 K30 ; Filament gcode LA 1.0




M107
;LAYER_CHANGE
;Z:0.2
;HEIGHT:0.2
G1 E-.8 F2100
G1 Z.6 F720
G1 X101.614 Y61.529 F10800
G1 Z.2 F720
G1 E.8 F2100
M204 S800
;TYPE:Skirt/Brim
;WIDTH:0.42
G1 F1200
G1 X102.66 Y60.653 E.04278
G1 X103.6 Y60.459 E.03009
G1 X146.4 Y60.459 E1.34196
G1 X147.707 Y60.851 E.04278
G1 X148.584 Y61.896 E.04277
G1 X148.777 Y62.836 E.03009
G1 X148.777 Y68.334 E.17239
G1 X147.376 Y142.145 E2.31471
G1 X147.275 Y142.874 E.02308
G1 X147.019 Y143.563 E.02305
G1 X146.456 Y144.368 E.0308
G1 X145.771 Y144.926 E.0277
G1 X144.966 Y145.286 E.02765
G1 X144.095 Y145.426 E.02766
G1 X106 Y145.427 E1.19444
G1 X105.218 Y145.335 E.02469
G1 X104.491 Y145.071 E.02425
G1 X103.757 Y144.574 E.02779
G1 X103.18 Y143.908 E.02763
G1 X102.767 Y143.026 E.03054
G1 X102.625 Y142.148 E.02789
G1 X101.223 Y68.376 E2.31349
G1 X101.223 Y62.836 E.1737
G1 X101.597 Y61.587 E.04088
M204 S1000
;WIPE_START
G1 F8640
G1 X101.614 Y61.529 E-.01396
G1 X102.66 Y60.653 E-.31504
G1 X103.6 Y60.459 E-.22162
G1 X104.68 Y60.459 E-.24938
;WIPE_END
G1 Z.6 F720
; printing object frame - frame_upper_arm.stl id:0 copy 0
G1 X110.088 Y106.532 F10800
G1 Z.2 F720
G1 E.8 F2100
M204 S800
;TYPE:Support material
G1 F1200
G1 X110.933 Y106.758 E.02743
G1 X111.298 Y107.003 E.01378
G1 X111.655 Y107.391 E.01653
G1 X111.989 Y108.199 E.02741
G1 X112.012 Y108.726 E.01654
G1 X111.926 Y109.157 E.01378
G1 X111.602 Y109.78 E.02202
G1 X111.09 Y110.251 E.02181
G1 X108.91 Y110.251 E.06835
G1 X108.398 Y109.78 E.02181
G1 X108.102 Y109.241 E.01928
G1 X107.982 Y108.638 E.01928
G1 X108.074 Y107.943 E.02198
G1 X108.398 Y107.32 E.02202
G1 X108.841 Y106.895 E.01925
G1 X109.393 Y106.624 E.01928
G1 X110.032 Y106.531 E.02025
M204 S1000
G1 X110.032 Y106.531 F10800
G1 X111.593 Y109.491
M204 S800
G1 F1200
G1 X111.593 Y108.015 E.04628
G1 X111.174 Y107.348 E.0247
G1 X111.174 Y109.752 E.07538
G1 X110.985 Y109.911 E.00774
G1 X110.755 Y109.911 E.00721
G1 X110.755 Y107.049 E.08974
G1 X110.336 Y106.904 E.0139
G1 X110.336 Y109.911 E.09428
G1 X109.917 Y109.911 E.01314
G1 X109.917 Y106.872 E.09529
G1 X109.781 Y106.884 E.00428
G1 X109.498 Y106.946 E.00908
G1 X109.498 Y109.911 E.09297
G1 X109.079 Y109.911 E.01314
G1 X109.079 Y107.145 E.08673
G1 X108.66 Y107.536 E.01797
G1 X108.66 Y109.825 E.07177
M204 S1000
;WIPE_START
G1 F8640
G1 X108.66 Y107.536 E-.52854
G1 X109.079 Y107.145 E-.13233
G1 X109.079 Y107.748 E-.13913
;WIPE_END
G1 Z.6 F720
G1 X111.887 Y92.829 F10800
G1 Z.2 F720
G1 E.8 F2100
M204 S800
G1 F1200
G1 X112.02 Y93.55 E.02299
G1 X111.866 Y94.323 E.02471
G1 X111.428 Y94.978 E.02471
G1 X110.773 Y95.416 E.02471
G1 X110 Y95.57 E.02471
G1 X109.227 Y95.416 E.02471
G1 X108.572 Y94.978 E.02471
G1 X108.134 Y94.323 E.02471
G1 X107.98 Y93.55 E.02471
G1 X108.114 Y92.829 E.02299
G1 X111.83 Y92.829 E.11651
M204 S1000
G1 X111.83 Y92.829 F10800
G1 X111.593 Y94.491
M204 S800
G1 F1200
G1 X111.593 Y93.169 E.04145
G1 X111.174 Y93.169 E.01314
G1 X111.174 Y94.752 E.04963
G1 X110.755 Y95.051 E.01614
G1 X110.755 Y93.169 E.05901
G1 X110.336 Y93.169 E.01314
G1 X110.336 Y95.196 E.06356
G1 X109.917 Y95.228 E.01318
G1 X109.917 Y93.169 E.06456
G1 X109.498 Y93.169 E.01314
G1 X109.498 Y95.154 E.06224
G1 X109.29 Y95.073 E.007
G1 X109.079 Y94.955 E.00758
G1 X109.079 Y93.169 E.056
G1 X108.66 Y93.169 E.01314
G1 X108.66 Y94.825 E.05192
M204 S1000
;WIPE_START
G1 F8640
G1 X108.66 Y93.169 E-.38238
G1 X109.079 Y93.169 E-.09675
G1 X109.079 Y94.559 E-.32087
;WIPE_END
G1 Z.6 F720
G1 X110.046 Y77.481 F10800
G1 Z.2 F720
G1 E.8 F2100
M204 S800
G1 F1200
G1 X110.409 Y77.561 E.01165
G1 X110.756 Y77.793 E.01309
G1 X110.988 Y78.14 E.01309
G1 X111.07 Y78.549 E.01308
G1 X110.989 Y78.959 E.0131
G1 X110.757 Y79.306 E.01309
G1 X110.41 Y79.538 E.01309
G1 X110.001 Y79.62 E.01308
G1 X109.591 Y79.539 E.0131
G1 X109.244 Y79.307 E.01309
G1 X109.012 Y78.96 E.01309
G1 X108.93 Y78.551 E.01308
G1 X109.011 Y78.141 E.0131
G1 X109.243 Y77.794 E.01309
G1 X109.59 Y77.562 E.01309
G1 X109.989 Y77.48 E.01277
M204 S1000
G1 X109.989 Y77.48 F10800
G1 X110.336 Y79.385
M204 S800
G1 F1200
G1 X110.336 Y77.901 E.04653
G1 X109.917 Y77.825 E.01335
G1 X109.905 Y79.274 E.04543
G1 X109.498 Y79.08 E.01414
G1 X109.498 Y77.803 E.04004
M204 S1000
;WIPE_START
G1 F8640
G1 X109.498 Y79.08 E-.29486
G1 X109.905 Y79.274 E-.10411
G1 X109.917 Y77.825 E-.33459
G1 X110.2 Y77.877 E-.06644
;WIPE_END
G1 Z.6 F720
G1 X116.408 Y66.47 F10800
G1 Z.2 F720
G1 E.8 F2100
M204 S800
G1 F1200
G1 X105.806 Y66.483 E.33242
G1 X105.219 Y66.693 E.01955
G1 X104.742 Y67.17 E.02115
G1 X104.54 Y67.706 E.01796
G1 X104.52 Y68.57 E.0271
G1 X103.6 Y68.331 E.0298
G1 X103.6 Y62.836 E.17229
G1 X116.408 Y62.836 E.40159
G1 X116.408 Y66.413 E.11215
M204 S1000
G1 X116.408 Y66.413 F10800
G1 X115.783 Y66.3
M204 S800
G1 F1200
G1 X115.783 Y63.176 E.09795
G1 X115.364 Y63.176 E.01314
G1 X115.364 Y66.131 E.09265
G1 X114.945 Y66.131 E.01314
G1 X114.945 Y63.176 E.09265
G1 X114.526 Y63.176 E.01314
G1 X114.526 Y66.131 E.09265
G1 X114.107 Y66.131 E.01314
G1 X114.107 Y63.176 E.09265
G1 X113.688 Y63.176 E.01314
G1 X113.688 Y66.131 E.09265
G1 X113.269 Y66.131 E.01314
G1 X113.269 Y63.176 E.09265
G1 X112.85 Y63.176 E.01314
G1 X112.85 Y66.131 E.09265
G1 X112.431 Y66.131 E.01314
G1 X112.431 Y63.176 E.09265
G1 X112.012 Y63.176 E.01314
G1 X112.012 Y66.131 E.09265
G1 X111.593 Y66.131 E.01314
G1 X111.593 Y63.176 E.09265
G1 X111.174 Y63.176 E.01314
G1 X111.174 Y66.131 E.09265
G1 X110.755 Y66.131 E.01314
G1 X110.755 Y63.176 E.09265
G1 X110.336 Y63.176 E.01314
G1 X110.336 Y66.131 E.09265
G1 X109.917 Y66.131 E.01314
G1 X109.917 Y63.176 E.09265
G1 X109.498 Y63.176 E.01314
G1 X109.498 Y66.131 E.09265
G1 X109.079 Y66.131 E.01314
G1 X109.079 Y63.176 E.09265
G1 X108.66 Y63.176 E.01314
G1 X108.66 Y66.131 E.09265
G1 X108.241 Y66.131 E.01314
G1 X108.241 Y63.176 E.09265
G1 X107.822 Y63.176 E.01314
G1 X107.822 Y66.131 E.09265
G1 X107.403 Y66.131 E.01314
G1 X107.403 Y63.176 E.09265
G1 X106.984 Y63.176 E.01314
G1 X106.984 Y66.131 E.09265
G1 X106.565 Y66.131 E.01314
G1 X106.565 Y63.176 E.09265
G1 X106.146 Y63.176 E.01314
G1 X106.146 Y66.131 E.09265
G1 X105.727 Y66.151 E.01315
G1 X105.727 Y63.176 E.09328
G1 X105.308 Y63.176 E.01314
G1 X105.308 Y66.267 E.09692
G1 X104.889 Y66.509 E.01517
G1 X104.889 Y63.176 E.1045
G1 X104.47 Y63.176 E.01314
G1 X104.47 Y66.966 E.11883
G1 X104.237 Y67.501 E.0183
G1 X104.181 Y68.131 E.01983
G1 X104.051 Y68.098 E.00421
G1 X104.051 Y63.006 E.15966
M204 S1000
;WIPE_START
G1 F8640
G1 X104.051 Y66.47 E-.8
;WIPE_END
G1 Z.6 F720
G1 X140.046 Y77.481 F10800
G1 Z.2 F720
G1 E.8 F2100
M204 S800
G1 F1200
G1 X140.409 Y77.561 E.01165
G1 X140.756 Y77.793 E.01309
G1 X140.988 Y78.14 E.01309
G1 X141.07 Y78.549 E.01308
G1 X140.989 Y78.959 E.0131
G1 X140.757 Y79.306 E.01309
G1 X140.41 Y79.538 E.01309
G1 X140.001 Y79.62 E.01308
G1 X139.591 Y79.539 E.0131
G1 X139.244 Y79.307 E.01309
G1 X139.012 Y78.96 E.01309
G1 X138.93 Y78.551 E.01308
G1 X139.011 Y78.141 E.0131
G1 X139.243 Y77.794 E.01309
G1 X139.59 Y77.562 E.01309
G1 X139.989 Y77.48 E.01277
M204 S1000
G1 X139.989 Y77.48 F10800
G1 X140.502 Y79.297
M204 S800
G1 F1200
G1 X140.502 Y78.02 E.04004
G1 X140.095 Y77.826 E.01414
M73 P1 R58
G1 X140.083 Y79.275 E.04543
G1 X139.664 Y79.199 E.01335
M73 Q1 S59
G1 X139.664 Y77.715 E.04653
M204 S1000
;WIPE_START
G1 F8640
G1 X139.664 Y79.199 E-.34266
G1 X140.083 Y79.275 E-.09833
G1 X140.095 Y77.826 E-.33459
G1 X140.191 Y77.871 E-.02442
;WIPE_END
G1 Z.6 F720
G1 X146.4 Y68.334 F10800
G1 Z.2 F720
G1 E.8 F2100
M204 S800
G1 F1200
G1 X145.48 Y68.57 E.02978
G1 X145.458 Y67.697 E.02738
G1 X145.251 Y67.158 E.0181
G1 X144.799 Y66.704 E.02009
G1 X144.197 Y66.483 E.02011
G1 X133.592 Y66.47 E.33251
G1 X133.592 Y62.836 E.11394
G1 X146.4 Y62.836 E.40159
G1 X146.4 Y68.278 E.17063
M204 S1000
G1 X146.4 Y68.278 F10800
G1 X145.949 Y68.275
M204 S800
G1 F1200
G1 X145.949 Y63.176 E.15988
G1 X145.53 Y63.176 E.01314
G1 X145.53 Y66.965 E.1188
G1 X145.111 Y66.509 E.01942
G1 X145.111 Y63.176 E.1045
G1 X144.692 Y63.176 E.01314
G1 X144.692 Y66.267 E.09692
G1 X144.273 Y66.151 E.01363
G1 X144.273 Y63.176 E.09328
G1 X143.854 Y63.176 E.01314
G1 X143.854 Y66.131 E.09265
G1 X143.435 Y66.131 E.01314
G1 X143.435 Y63.176 E.09265
G1 X143.016 Y63.176 E.01314
G1 X143.016 Y66.131 E.09265
G1 X142.597 Y66.131 E.01314
G1 X142.597 Y63.176 E.09265
G1 X142.178 Y63.176 E.01314
G1 X142.178 Y66.131 E.09265
G1 X141.759 Y66.131 E.01314
G1 X141.759 Y63.176 E.09265
G1 X141.34 Y63.176 E.01314
G1 X141.34 Y66.131 E.09265
G1 X140.921 Y66.131 E.01314
G1 X140.921 Y63.176 E.09265
G1 X140.502 Y63.176 E.01314
G1 X140.502 Y66.131 E.09265
G1 X140.083 Y66.131 E.01314
G1 X140.083 Y63.176 E.09265
G1 X139.664 Y63.176 E.01314
G1 X139.664 Y66.131 E.09265
G1 X139.245 Y66.131 E.01314
G1 X139.245 Y63.176 E.09265
G1 X138.826 Y63.176 E.01314
G1 X138.826 Y66.131 E.09265
G1 X138.407 Y66.131 E.01314
G1 X138.407 Y63.176 E.09265
G1 X137.988 Y63.176 E.01314
G1 X137.988 Y66.131 E.09265
G1 X137.569 Y66.131 E.01314
G1 X137.569 Y63.176 E.09265
G1 X137.15 Y63.176 E.01314
G1 X137.15 Y66.131 E.09265
G1 X136.731 Y66.131 E.01314
G1 X136.731 Y63.176 E.09265
G1 X136.312 Y63.176 E.01314
G1 X136.312 Y66.131 E.09265
G1 X135.893 Y66.131 E.01314
G1 X135.893 Y63.176 E.09265
G1 X135.474 Y63.176 E.01314
G1 X135.474 Y66.131 E.09265
G1 X135.055 Y66.131 E.01314
G1 X135.055 Y63.176 E.09265
G1 X134.636 Y63.176 E.01314
G1 X134.636 Y66.131 E.09265
G1 X134.217 Y66.131 E.01314
G1 X134.217 Y63.006 E.09798
M204 S1000
;WIPE_START
G1 F8640
G1 X134.217 Y66.131 E-.72157
G1 X134.557 Y66.131 E-.07843
;WIPE_END
G1 Z.6 F720
G1 X141.898 Y92.859 F10800
G1 Z.2 F720
G1 E.8 F2100
M204 S800
G1 F1200
G1 X142.018 Y93.638 E.02471
G1 X141.831 Y94.404 E.02472
G1 X141.365 Y95.039 E.0247
G1 X140.691 Y95.448 E.02472
G1 X139.912 Y95.568 E.02471
G1 X139.146 Y95.381 E.02472
G1 X138.511 Y94.915 E.0247
G1 X138.102 Y94.241 E.02472
G1 X137.98 Y93.55 E.022
G1 X138.113 Y92.829 E.02299
G1 X141.862 Y92.829 E.11755
M204 S1000
G1 X141.862 Y92.829 F10800
G1 X141.34 Y94.825
M204 S800
G1 F1200
G1 X141.34 Y93.169 E.05192
G1 X140.921 Y93.169 E.01314
G1 X140.921 Y94.955 E.056
G1 X140.71 Y95.073 E.00758
G1 X140.502 Y95.154 E.007
G1 X140.502 Y93.169 E.06224
G1 X140.083 Y93.169 E.01314
G1 X140.083 Y95.228 E.06456
G1 X139.664 Y95.196 E.01318
G1 X139.664 Y93.169 E.06356
G1 X139.245 Y93.169 E.01314
G1 X139.245 Y95.051 E.05901
G1 X138.826 Y94.752 E.01614
G1 X138.826 Y93.169 E.04963
G1 X138.407 Y93.169 E.01314
G1 X138.407 Y94.491 E.04145
M204 S1000
;WIPE_START
G1 F8640
G1 X138.407 Y93.169 E-.30525
G1 X138.826 Y93.169 E-.09675
G1 X138.826 Y94.752 E-.36552
G1 X138.941 Y94.834 E-.03248
;WIPE_END
G1 Z.6 F720
G1 X140.088 Y106.532 F10800
G1 Z.2 F720
G1 E.8 F2100
M204 S800
G1 F1200
G1 X140.933 Y106.758 E.02743
G1 X141.298 Y107.003 E.01378
G1 X141.655 Y107.391 E.01653
G1 X141.989 Y108.199 E.02741
G1 X142.012 Y108.726 E.01654
G1 X141.926 Y109.157 E.01378
G1 X141.602 Y109.78 E.02202
G1 X141.09 Y110.251 E.02181
G1 X138.91 Y110.251 E.06835
G1 X138.398 Y109.78 E.02181
G1 X138.102 Y109.241 E.01928
G1 X137.98 Y108.55 E.022
G1 X138.074 Y107.943 E.01926
G1 X138.345 Y107.391 E.01928
G1 X138.841 Y106.895 E.02199
G1 X139.393 Y106.624 E.01928
G1 X140.032 Y106.531 E.02025
M204 S1000
G1 X140.032 Y106.531 F10800
G1 X141.34 Y109.825
M204 S800
G1 F1200
G1 X141.34 Y107.536 E.07177
G1 X140.921 Y107.145 E.01797
G1 X140.921 Y109.911 E.08673
G1 X140.502 Y109.911 E.01314
G1 X140.502 Y106.946 E.09297
G1 X140.219 Y106.884 E.00908
G1 X140.083 Y106.872 E.00428
G1 X140.083 Y109.911 E.09529
G1 X139.664 Y109.911 E.01314
G1 X139.664 Y106.904 E.09428
G1 X139.245 Y107.049 E.0139
G1 X139.245 Y109.911 E.08974
G1 X139.015 Y109.911 E.00721
G1 X138.826 Y109.752 E.00774
G1 X138.826 Y107.348 E.07538
G1 X138.407 Y108.015 E.0247
G1 X138.407 Y109.491 E.04628
M204 S1000
;WIPE_START
G1 F8640
G1 X138.407 Y108.015 E-.34081
G1 X138.826 Y107.348 E-.18188
G1 X138.826 Y108.549 E-.27731
;WIPE_END
G1 Z.6 F720
G1 X108.982 Y81.056 F10800
G1 Z.2 F720
G1 E.8 F2100
M204 S800
;TYPE:Perimeter
;WIDTH:0.419999
G1 F1200
G1 X108.887 Y81.023 E.00315
G1 X108.458 Y80.779 E.01547
G1 X108.012 Y80.393 E.01849
G1 X107.67 Y79.937 E.01787
G1 X107.458 Y79.492 E.01546
G1 X107.316 Y78.94 E.01787
G1 X107.291 Y78.45 E.01538
G1 X107.368 Y77.898 E.01748
G1 X107.536 Y77.421 E.01586
G1 X107.818 Y76.94 E.01748
G1 X108.157 Y76.562 E.01592
G1 X108.613 Y76.22 E.01787
G1 X109.039 Y76.014 E.01484
G1 X109.512 Y75.884 E.01538
G1 X110.067 Y75.839 E.01746
G1 X110.572 Y75.9 E.01595
G1 X111.113 Y76.077 E.01785
G1 X111.542 Y76.321 E.01547
G1 X111.988 Y76.707 E.01849
G1 X112.33 Y77.163 E.01787
G1 X112.541 Y77.606 E.01539
G1 X112.681 Y78.145 E.01746
G1 X112.711 Y78.632 E.0153
G1 X112.65 Y79.122 E.01548
G1 X112.503 Y79.601 E.01571
G1 X112.259 Y80.052 E.01608
G1 X111.944 Y80.444 E.01577
G1 X111.542 Y80.779 E.01641
G1 X110.961 Y81.086 E.0206
G1 X110.486 Y81.217 E.01545
G1 X109.897 Y81.259 E.01851
G1 X109.333 Y81.179 E.01786
G1 X109.039 Y81.076 E.00977
M204 S1000
;WIPE_START
G1 F8640
G1 X108.982 Y81.056 E-.01395
G1 X108.887 Y81.023 E-.02322
G1 X108.458 Y80.779 E-.11396
G1 X108.012 Y80.393 E-.1362
G1 X107.67 Y79.937 E-.13161
G1 X107.458 Y79.492 E-.11382
G1 X107.316 Y78.94 E-.13161
G1 X107.291 Y78.45 E-.11329
G1 X107.304 Y78.354 E-.02234
;WIPE_END
G1 Z.6 F720
G1 X108.239 Y80.07 F10800
G1 Z.2 F720
G1 E.8 F2100
M204 S800
G1 F1200
G1 X108.004 Y79.763 E.01212
G1 X107.82 Y79.386 E.01315
G1 X107.692 Y78.907 E.01555
G1 X107.666 Y78.49 E.0131
G1 X107.728 Y78.01 E.01518
G1 X107.867 Y77.601 E.01354
G1 X108.108 Y77.181 E.01518
G1 X108.393 Y76.856 E.01355
G1 X108.787 Y76.554 E.01557
G1 X109.152 Y76.374 E.01276
G1 X109.554 Y76.258 E.01312
G1 X110.036 Y76.215 E.01517
G1 X110.466 Y76.262 E.01356
G1 X110.939 Y76.411 E.01555
G1 X111.306 Y76.615 E.01317
G1 X111.694 Y76.943 E.01593
G1 X111.996 Y77.337 E.01557
G1 X112.179 Y77.713 E.01311
G1 X112.306 Y78.18 E.01517
G1 X112.335 Y78.599 E.01317
G1 X112.288 Y79.016 E.01316
G1 X112.133 Y79.5 E.01593
G1 X111.885 Y79.93 E.01556
G1 X111.59 Y80.258 E.01383
G1 X111.137 Y80.586 E.01754
G1 X110.848 Y80.726 E.01007
G1 X110.445 Y80.842 E.01315
G1 X109.938 Y80.884 E.01595
G1 X109.447 Y80.819 E.01553
G1 X109.061 Y80.688 E.01278
G1 X108.694 Y80.485 E.01315
G1 X108.306 Y80.157 E.01593
G1 X108.276 Y80.117 E.00157
M204 S1000
G1 X108.276 Y80.117 F10800
G1 X108.538 Y79.842
M204 S800
;TYPE:External perimeter
G1 F1200
G1 X108.339 Y79.589 E.01009
G1 X108.182 Y79.28 E.01087
G1 X108.068 Y78.874 E.01322
G1 X108.041 Y78.53 E.01082
G1 X108.088 Y78.122 E.01288
G1 X108.198 Y77.782 E.0112
