; generated by PrusaSlicer 2.7.4 on 2024-05-16 at 09:32:31 UTC


;
;
; 

; external perimeters extrusion width = 0.45mm
; perimeters extrusion width = 0.45mm
; infill extrusion width = 0.45mm
; solid infill extrusion width = 0.45mm
; top infill extrusion width = 0.40mm
; support material extrusion width = 0.35mm
; first layer extrusion width = 0.42mm

M73 P0 R71
M73 Q0 S73
M201 X1000 Y1000 Z200 E5000 ; sets maximum accelerations, mm/sec^2
M203 X200 Y200 Z12 E120 ; sets maximum feedrates, mm / sec
M204 S1250 T1250 ; sets acceleration (S) and retract acceleration (R), mm/sec^2
M205 X8.00 Y8.00 Z0.40 E4.50 ; sets the jerk limits, mm/sec
M205 S0 T0 ; sets the minimum extruding and travel feed rate, mm/sec

; printing object frame - frame_upper_arm.stl id:0 copy 0
; stop printing object frame - frame_upper_arm.stl id:0 copy 0

;TYPE:Custom
M862.3 P "MK3S" ; printer model check
M862.1 P0.4 ; nozzle diameter check
M115 U3.13.3 ; tell printer latest fw version
G90 ; use absolute coordinates
M83 ; extruder relative mode
M104 S215 ; set extruder temp
M140 S60 ; set bed temp
M190 S60 ; wait for bed temp
M109 S215 ; wait for extruder temp
G28 W ; home all without mesh bed level
G80 X101.034 Y60.2706 W47.9314 H85.345 ; mesh bed levelling

G1 Z0.2 F720
G1 Y-3 F1000 ; go outside print area
G92 E0
G1 X60 E9 F1000 ; intro line
G1 X100 E12.5 F1000 ; intro line

G92 E0
M221 S95

; Don't change E values below. Excessive value can damage the printer.

M907 E538 ; set extruder motor current
G21 ; set units to millimeters
G90 ; use absolute coordinates
M83 ; use relative distances for extrusion

M900 K0.05 ; Filament gcode LA 1.5
M900 K30 ; Filament gcode LA 1.0




M107
;LAYER_CHANGE
;Z:0.2
;HEIGHT:0.2
G1 E-.8 F2100
G1 Z.6 F720
G1 X101.614 Y61.529 F10800
G1 Z.2 F720
G1 E.8 F2100
M204 S800
;TYPE:Skirt/Brim
;WIDTH:0.42
G1 F1200
G1 X102.66 Y60.653 E.04278
G1 X103.6 Y60.459 E.03009
G1 X146.4 Y60.459 E1.34196
G1 X147.707 Y60.851 E.04278
G1 X148.584 Y61.896 E.04277
G1 X148.777 Y62.836 E.03009
G1 X148.777 Y68.331 E.17229
G1 X147.376 Y142.146 E2.31483
G1 X147.275 Y142.874 E.02304
M73 Q0 S72
G1 X147.019 Y143.563 E.02305
G1 X146.454 Y144.369 E.03086
G1 X145.771 Y144.926 E.02763
G1 X144.966 Y145.286 E.02765
G1 X144.097 Y145.426 E.0276
G1 X106 Y145.427 E1.1945
G1 X105.218 Y145.335 E.02469
G1 X104.487 Y145.069 E.02439
G1 X103.76 Y144.577 E.02752
G1 X103.129 Y143.828 E.03071
G1 X102.764 Y143.016 E.02791
G1 X102.624 Y142.145 E.02766
G1 X101.223 Y68.377 E2.31336
G1 X101.223 Y62.836 E.17373
G1 X101.597 Y61.587 E.04088
M204 S1000
;WIPE_START
G1 F8640
G1 X101.614 Y61.529 E-.01396
G1 X102.66 Y60.653 E-.31504
G1 X103.6 Y60.459 E-.22162
G1 X104.68 Y60.459 E-.24938
;WIPE_END
G1 Z.6 F720
; printing object frame - frame_upper_arm.stl id:0 copy 0
G1 X110.088 Y106.532 F10800
G1 Z.2 F720
G1 E.8 F2100
M204 S800
;TYPE:Support material
G1 F1200
G1 X110.933 Y106.758 E.02743
G1 X111.298 Y107.003 E.01378
G1 X111.655 Y107.391 E.01653
G1 X111.989 Y108.199 E.02741
G1 X112.018 Y108.638 E.01379
G1 X111.926 Y109.157 E.01653
G1 X111.602 Y109.78 E.02202
G1 X111.09 Y110.251 E.02181
G1 X108.91 Y110.251 E.06835
G1 X108.398 Y109.78 E.02181
G1 X108.102 Y109.241 E.01928
G1 X107.982 Y108.638 E.01928
G1 X108.074 Y107.943 E.02198
G1 X108.345 Y107.391 E.01928
G1 X108.841 Y106.895 E.02199
G1 X109.393 Y106.624 E.01928
G1 X110.032 Y106.531 E.02025
M204 S1000
G1 X110.032 Y106.531 F10800
G1 X111.593 Y109.491
M204 S800
G1 F1200
G1 X111.593 Y108.015 E.04628
G1 X111.174 Y107.348 E.0247
G1 X111.174 Y109.752 E.07538
G1 X110.985 Y109.911 E.00774
G1 X110.755 Y109.911 E.00721
G1 X110.755 Y107.049 E.08974
G1 X110.336 Y106.904 E.0139
G1 X110.336 Y109.911 E.09428
G1 X109.917 Y109.911 E.01314
G1 X109.917 Y106.872 E.09529
G1 X109.781 Y106.884 E.00428
G1 X109.498 Y106.946 E.00908
G1 X109.498 Y109.911 E.09297
G1 X109.079 Y109.911 E.01314
G1 X109.079 Y107.145 E.08673
G1 X108.66 Y107.536 E.01797
G1 X108.66 Y109.825 E.07177
M204 S1000
;WIPE_START
G1 F8640
G1 X108.66 Y107.536 E-.52854
G1 X109.079 Y107.145 E-.13233
G1 X109.079 Y107.748 E-.13913
;WIPE_END
G1 Z.6 F720
G1 X111.887 Y92.829 F10800
G1 Z.2 F720
G1 E.8 F2100
M204 S800
G1 F1200
G1 X112.02 Y93.55 E.02299
G1 X111.866 Y94.323 E.02471
G1 X111.428 Y94.978 E.02471
G1 X110.773 Y95.416 E.02471
G1 X110 Y95.57 E.02471
G1 X109.227 Y95.416 E.02471
G1 X108.572 Y94.978 E.02471
G1 X108.134 Y94.323 E.02471
G1 X107.98 Y93.55 E.02471
G1 X108.113 Y92.829 E.02299
G1 X111.83 Y92.829 E.11654
M204 S1000
G1 X111.83 Y92.829 F10800
G1 X111.593 Y94.491
M204 S800
G1 F1200
G1 X111.593 Y93.169 E.04145
G1 X111.174 Y93.169 E.01314
G1 X111.174 Y94.752 E.04963
G1 X110.755 Y95.051 E.01614
G1 X110.755 Y93.169 E.05901
G1 X110.336 Y93.169 E.01314
G1 X110.336 Y95.196 E.06356
G1 X109.917 Y95.228 E.01318
G1 X109.917 Y93.169 E.06456
G1 X109.498 Y93.169 E.01314
G1 X109.498 Y95.154 E.06224
G1 X109.29 Y95.073 E.007
G1 X109.079 Y94.955 E.00758
G1 X109.079 Y93.169 E.056
G1 X108.66 Y93.169 E.01314
G1 X108.66 Y94.825 E.05192
M204 S1000
;WIPE_START
G1 F8640
G1 X108.66 Y93.169 E-.38238
G1 X109.079 Y93.169 E-.09675
G1 X109.079 Y94.559 E-.32087
;WIPE_END
G1 Z.6 F720
G1 X110.047 Y77.481 F10800
G1 Z.2 F720
G1 E.8 F2100
M204 S800
G1 F1200
G1 X110.452 Y77.58 E.01307
G1 X110.789 Y77.827 E.0131
G1 X111.005 Y78.184 E.01308
G1 X111.069 Y78.597 E.0131
G1 X110.97 Y79.002 E.01307
G1 X110.723 Y79.339 E.0131
G1 X110.409 Y79.538 E.01166
G1 X110 Y79.62 E.01308
G1 X109.591 Y79.538 E.01308
G1 X109.243 Y79.307 E.0131
G1 X109.012 Y78.959 E.0131
G1 X108.93 Y78.55 E.01308
G1 X109.012 Y78.141 E.01308
G1 X109.243 Y77.793 E.0131
G1 X109.591 Y77.562 E.0131
G1 X109.99 Y77.48 E.01277
M204 S1000
G1 X109.99 Y77.48 F10800
G1 X110.336 Y79.385
M204 S800
G1 F1200
G1 X110.336 Y77.901 E.04653
G1 X109.917 Y77.824 E.01336
G1 X109.905 Y79.274 E.04547
G1 X109.498 Y79.08 E.01414
G1 X109.498 Y77.803 E.04004
M204 S1000
;WIPE_START
G1 F8640
G1 X109.498 Y79.08 E-.29486
G1 X109.905 Y79.274 E-.10411
G1 X109.917 Y77.824 E-.33482
G1 X110.199 Y77.876 E-.06621
;WIPE_END
G1 Z.6 F720
G1 X116.408 Y66.47 F10800
G1 Z.2 F720
G1 E.8 F2100
M204 S800
G1 F1200
G1 X105.806 Y66.483 E.33242
G1 X105.219 Y66.693 E.01955
G1 X104.742 Y67.17 E.02115
G1 X104.54 Y67.706 E.01796
G1 X104.52 Y68.569 E.02707
G1 X103.6 Y68.332 E.02979
G1 X103.6 Y62.836 E.17232
G1 X116.408 Y62.836 E.40159
G1 X116.408 Y66.413 E.11215
M204 S1000
G1 X116.408 Y66.413 F10800
G1 X115.783 Y66.3
M204 S800
G1 F1200
G1 X115.783 Y63.176 E.09795
G1 X115.364 Y63.176 E.01314
G1 X115.364 Y66.131 E.09265
G1 X114.945 Y66.131 E.01314
G1 X114.945 Y63.176 E.09265
G1 X114.526 Y63.176 E.01314
G1 X114.526 Y66.131 E.09265
G1 X114.107 Y66.131 E.01314
G1 X114.107 Y63.176 E.09265
G1 X113.688 Y63.176 E.01314
G1 X113.688 Y66.131 E.09265
G1 X113.269 Y66.131 E.01314
G1 X113.269 Y63.176 E.09265
G1 X112.85 Y63.176 E.01314
G1 X112.85 Y66.131 E.09265
G1 X112.431 Y66.131 E.01314
G1 X112.431 Y63.176 E.09265
G1 X112.012 Y63.176 E.01314
G1 X112.012 Y66.131 E.09265
G1 X111.593 Y66.131 E.01314
G1 X111.593 Y63.176 E.09265
G1 X111.174 Y63.176 E.01314
G1 X111.174 Y66.131 E.09265
G1 X110.755 Y66.131 E.01314
G1 X110.755 Y63.176 E.09265
G1 X110.336 Y63.176 E.01314
G1 X110.336 Y66.131 E.09265
G1 X109.917 Y66.131 E.01314
G1 X109.917 Y63.176 E.09265
G1 X109.498 Y63.176 E.01314
G1 X109.498 Y66.131 E.09265
G1 X109.079 Y66.131 E.01314
G1 X109.079 Y63.176 E.09265
G1 X108.66 Y63.176 E.01314
G1 X108.66 Y66.131 E.09265
G1 X108.241 Y66.131 E.01314
G1 X108.241 Y63.176 E.09265
G1 X107.822 Y63.176 E.01314
G1 X107.822 Y66.131 E.09265
G1 X107.403 Y66.131 E.01314
G1 X107.403 Y63.176 E.09265
G1 X106.984 Y63.176 E.01314
G1 X106.984 Y66.131 E.09265
G1 X106.565 Y66.131 E.01314
G1 X106.565 Y63.176 E.09265
G1 X106.146 Y63.176 E.01314
G1 X106.146 Y66.131 E.09265
G1 X105.727 Y66.151 E.01315
G1 X105.727 Y63.176 E.09328
G1 X105.308 Y63.176 E.01314
G1 X105.308 Y66.267 E.09692
G1 X104.889 Y66.509 E.01517
G1 X104.889 Y63.176 E.1045
G1 X104.47 Y63.176 E.01314
G1 X104.47 Y66.966 E.11883
G1 X104.237 Y67.501 E.0183
G1 X104.181 Y68.131 E.01983
G1 X104.051 Y68.098 E.00421
G1 X104.051 Y63.006 E.15966
M204 S1000
;WIPE_START
G1 F8640
G1 X104.051 Y66.47 E-.8
;WIPE_END
G1 Z.6 F720
G1 X140.047 Y77.481 F10800
G1 Z.2 F720
G1 E.8 F2100
M204 S800
G1 F1200
G1 X140.452 Y77.58 E.01307
G1 X140.757 Y77.793 E.01166
G1 X140.988 Y78.141 E.0131
G1 X141.07 Y78.55 E.01308
G1 X140.988 Y78.959 E.01308
G1 X140.757 Y79.307 E.0131
G1 X140.409 Y79.538 E.0131
G1 X140 Y79.62 E.01308
G1 X139.591 Y79.538 E.01308
G1 X139.243 Y79.307 E.0131
G1 X139.012 Y78.959 E.0131
G1 X138.93 Y78.55 E.01308
G1 X139.012 Y78.141 E.01308
G1 X139.243 Y77.793 E.0131
G1 X139.591 Y77.562 E.0131
G1 X139.99 Y77.48 E.01277
M204 S1000
G1 X139.99 Y77.48 F10800
G1 X140.502 Y79.297
M204 S800
G1 F1200
G1 X140.502 Y78.02 E.04004
G1 X140.095 Y77.826 E.01414
G1 X140.083 Y79.276 E.04547
G1 X139.664 Y79.199 E.01336
G1 X139.664 Y77.715 E.04653
M204 S1000
;WIPE_START
G1 F8640
G1 X139.664 Y79.199 E-.34266
G1 X140.083 Y79.276 E-.09837
G1 X140.095 Y77.826 E-.33482
G1 X140.189 Y77.871 E-.02415
;WIPE_END
G1 Z.6 F720
G1 X146.4 Y68.331 F10800
G1 Z.2 F720
G1 E.8 F2100
M204 S800
G1 F1200
G1 X145.48 Y68.57 E.0298
G1 X145.459 Y67.704 E.02716
G1 X145.257 Y67.169 E.01793
G1 X144.78 Y66.692 E.02115
G1 X144.192 Y66.483 E.01957
G1 X133.592 Y66.47 E.33236
G1 X133.592 Y62.836 E.11394
G1 X146.4 Y62.836 E.40159
G1 X146.4 Y68.275 E.17054
M204 S1000
G1 X146.4 Y68.275 F10800
G1 X145.949 Y68.273
M204 S800
G1 F1200
G1 X145.949 Y63.176 E.15981
G1 X145.53 Y63.176 E.01314
G1 X145.53 Y66.966 E.11883
G1 X145.111 Y66.509 E.01944
G1 X145.111 Y63.176 E.1045
G1 X144.692 Y63.176 E.01314
G1 X144.692 Y66.267 E.09692
G1 X144.273 Y66.151 E.01363
G1 X144.273 Y63.176 E.09328
G1 X143.854 Y63.176 E.01314
G1 X143.854 Y66.131 E.09265
G1 X143.435 Y66.131 E.01314
G1 X143.435 Y63.176 E.09265
G1 X143.016 Y63.176 E.01314
G1 X143.016 Y66.131 E.09265
G1 X142.597 Y66.131 E.01314
G1 X142.597 Y63.176 E.09265
G1 X142.178 Y63.176 E.01314
G1 X142.178 Y66.131 E.09265
G1 X141.759 Y66.131 E.01314
G1 X141.759 Y63.176 E.09265
G1 X141.34 Y63.176 E.01314
G1 X141.34 Y66.131 E.09265
G1 X140.921 Y66.131 E.01314
G1 X140.921 Y63.176 E.09265
G1 X140.502 Y63.176 E.01314
G1 X140.502 Y66.131 E.09265
G1 X140.083 Y66.131 E.01314
G1 X140.083 Y63.176 E.09265
G1 X139.664 Y63.176 E.01314
G1 X139.664 Y66.131 E.09265
G1 X139.245 Y66.131 E.01314
G1 X139.245 Y63.176 E.09265
G1 X138.826 Y63.176 E.01314
G1 X138.826 Y66.131 E.09265
G1 X138.407 Y66.131 E.01314
G1 X138.407 Y63.176 E.09265
G1 X137.988 Y63.176 E.01314
G1 X137.988 Y66.131 E.09265
G1 X137.569 Y66.131 E.01314
G1 X137.569 Y63.176 E.09265
G1 X137.15 Y63.176 E.01314
G1 X137.15 Y66.131 E.09265
G1 X136.731 Y66.131 E.01314
G1 X136.731 Y63.176 E.09265
G1 X136.312 Y63.176 E.01314
G1 X136.312 Y66.131 E.09265
G1 X135.893 Y66.131 E.01314
G1 X135.893 Y63.176 E.09265
G1 X135.474 Y63.176 E.01314
G1 X135.474 Y66.131 E.09265
G1 X135.055 Y66.131 E.01314
M73 P1 R71
G1 X135.055 Y63.176 E.09265
G1 X134.636 Y63.176 E.01314
G1 X134.636 Y66.131 E.09265
G1 X134.217 Y66.131 E.01314
M73 Q1 S72
G1 X134.217 Y63.006 E.09798
M204 S1000
;WIPE_START
G1 F8640
G1 X134.217 Y66.131 E-.72157
G1 X134.557 Y66.131 E-.07843
;WIPE_END
G1 Z.6 F720
G1 X141.898 Y92.859 F10800
G1 Z.2 F720
G1 E.8 F2100
M204 S800
G1 F1200
G1 X142.018 Y93.638 E.02471
G1 X141.831 Y94.404 E.02472
G1 X141.365 Y95.039 E.0247
G1 X140.691 Y95.448 E.02472
G1 X139.912 Y95.568 E.02471
G1 X139.146 Y95.381 E.02472
G1 X138.511 Y94.915 E.0247
G1 X138.102 Y94.241 E.02472
G1 X137.98 Y93.55 E.022
G1 X138.113 Y92.829 E.02299
G1 X141.862 Y92.829 E.11755
M204 S1000
G1 X141.862 Y92.829 F10800
G1 X141.34 Y94.825
M204 S800
G1 F1200
G1 X141.34 Y93.169 E.05192
G1 X140.921 Y93.169 E.01314
G1 X140.921 Y94.955 E.056
G1 X140.71 Y95.073 E.00758
G1 X140.502 Y95.154 E.007
G1 X140.502 Y93.169 E.06224
G1 X140.083 Y93.169 E.01314
G1 X140.083 Y95.228 E.06456
G1 X139.664 Y95.196 E.01318
G1 X139.664 Y93.169 E.06356
G1 X139.245 Y93.169 E.01314
G1 X139.245 Y95.051 E.05901
G1 X138.826 Y94.752 E.01614
G1 X138.826 Y93.169 E.04963
G1 X138.407 Y93.169 E.01314
G1 X138.407 Y94.491 E.04145
M204 S1000
;WIPE_START
G1 F8640
G1 X138.407 Y93.169 E-.30525
G1 X138.826 Y93.169 E-.09675
G1 X138.826 Y94.752 E-.36552
G1 X138.941 Y94.834 E-.03248
;WIPE_END
G1 Z.6 F720
G1 X140.088 Y106.532 F10800
G1 Z.2 F720
G1 E.8 F2100
M204 S800
G1 F1200
G1 X140.523 Y106.599 E.0138
G1 X141.01 Y106.801 E.01653
G1 X141.655 Y107.391 E.02741
G1 X141.866 Y107.777 E.01379
G1 X142.003 Y108.286 E.01653
G1 X141.926 Y109.157 E.02742
G1 X141.602 Y109.78 E.02202
G1 X141.09 Y110.251 E.02181
G1 X138.91 Y110.251 E.06835
G1 X138.398 Y109.78 E.02181
G1 X138.102 Y109.241 E.01928
G1 X137.982 Y108.638 E.01928
G1 X138.074 Y107.943 E.02198
G1 X138.345 Y107.391 E.01928
G1 X138.841 Y106.895 E.02199
G1 X139.393 Y106.624 E.01928
G1 X140.032 Y106.531 E.02025
M204 S1000
G1 X140.032 Y106.531 F10800
G1 X141.34 Y109.825
M204 S800
G1 F1200
G1 X141.34 Y107.536 E.07177
G1 X140.921 Y107.145 E.01797
G1 X140.921 Y109.911 E.08673
G1 X140.502 Y109.911 E.01314
G1 X140.502 Y106.946 E.09297
G1 X140.219 Y106.884 E.00908
G1 X140.083 Y106.872 E.00428
G1 X140.083 Y109.911 E.09529
G1 X139.664 Y109.911 E.01314
G1 X139.664 Y106.904 E.09428
G1 X139.245 Y107.049 E.0139
G1 X139.245 Y109.911 E.08974
G1 X139.015 Y109.911 E.00721
M73 P1 R70
G1 X138.826 Y109.752 E.00774
G1 X138.826 Y107.348 E.07538
G1 X138.407 Y108.015 E.0247
G1 X138.407 Y109.491 E.04628
M204 S1000
;WIPE_START
G1 F8640
G1 X138.407 Y108.015 E-.34081
G1 X138.826 Y107.348 E-.18188
G1 X138.826 Y108.549 E-.27731
;WIPE_END
G1 Z.6 F720
G1 X107.8 Y80.12 F10800
G1 Z.2 F720
G1 E.8 F2100
M204 S800
;TYPE:Perimeter
;WIDTH:0.419999
G1 F1200
G1 X107.733 Y80.038 E.00332
G1 X107.509 Y79.621 E.01484
G1 X107.357 Y79.152 E.01546
G1 X107.287 Y78.627 E.01661
G1 X107.328 Y78.094 E.01676
G1 X107.481 Y77.546 E.01784
G1 X107.705 Y77.107 E.01545
G1 X108.055 Y76.66 E.0178
G1 X108.433 Y76.338 E.01557
G1 X108.929 Y76.059 E.01784
G1 X109.398 Y75.907 E.01546
G1 X109.943 Y75.838 E.01722
G1 X110.455 Y75.878 E.0161
G1 X111.001 Y76.03 E.01777
G1 X111.443 Y76.256 E.01557
G1 X111.906 Y76.622 E.0185
G1 X112.267 Y77.062 E.01784
G1 X112.491 Y77.479 E.01484
G1 X112.643 Y77.948 E.01546
G1 X112.713 Y78.471 E.01654
G1 X112.68 Y78.976 E.01587
G1 X112.554 Y79.469 E.01595
G1 X112.334 Y79.93 E.01602
G1 X112.041 Y80.337 E.01572
G1 X111.655 Y80.701 E.01664
G1 X111.212 Y80.977 E.01637
G1 X111.052 Y81.048 E.00549
G1 X110.562 Y81.205 E.01613
G1 X110.015 Y81.261 E.01724
G1 X109.449 Y81.205 E.01783
G1 X108.977 Y81.06 E.01548
G1 X108.474 Y80.792 E.01787
G1 X108.094 Y80.478 E.01546
G1 X107.838 Y80.166 E.01265
M204 S1000
G1 X107.838 Y80.166 F10800
G1 X108.092 Y79.888
M204 S800
G1 F1200
G1 X108.059 Y79.849 E.0016
G1 X107.863 Y79.492 E.01277
G1 X107.73 Y79.094 E.01316
G1 X107.665 Y78.603 E.01553
G1 X107.694 Y78.184 E.01317
G1 X107.823 Y77.705 E.01555
G1 X108.01 Y77.33 E.01314
G1 X108.31 Y76.938 E.01548
G1 X108.628 Y76.661 E.01322
G1 X109.058 Y76.413 E.01556
G1 X109.456 Y76.28 E.01316
G1 X109.947 Y76.215 E.01553
G1 X110.366 Y76.244 E.01317
G1 X110.842 Y76.372 E.01545
G1 X111.22 Y76.56 E.01324
G1 X111.622 Y76.871 E.01594
G1 X111.941 Y77.251 E.01556
G1 X112.137 Y77.608 E.01277
G1 X112.27 Y78.006 E.01316
G1 X112.334 Y78.51 E.01593
G1 X112.291 Y79.004 E.01555
G1 X112.172 Y79.406 E.01315
G1 X111.943 Y79.846 E.01555
G1 X111.688 Y80.164 E.01278
G1 X111.372 Y80.439 E.01313
G1 X110.931 Y80.691 E.01593
G1 X110.458 Y80.84 E.01555
G1 X110.04 Y80.884 E.01318
G1 X109.546 Y80.841 E.01555
G1 X109.144 Y80.722 E.01315
G1 X108.704 Y80.493 E.01555
G1 X108.378 Y80.229 E.01315
G1 X108.13 Y79.934 E.01208
M204 S1000
G1 X108.13 Y79.934 F10800
G1 X108.485 Y79.776
M204 S800
;TYPE:External perimeter
G1 F1200
G1 X108.386 Y79.661 E.00476
G1 X108.217 Y79.363 E.01074
G1 X108.102 Y79.037 E.01084
G1 X108.042 Y78.619 E.01324
G1 X108.06 Y78.274 E.01083
G1 X108.164 Y77.865 E.01323
G1 X108.314 Y77.553 E.01085
G1 X108.565 Y77.216 E.01318
G1 X108.824 Y76.983 E.01092
G1 X109.187 Y76.767 E.01324
G1 X109.513 Y76.652 E.01084
G1 X109.931 Y76.592 E.01324
G1 X110.276 Y76.61 E.01083
G1 X110.683 Y76.714 E.01317
G1 X110.997 Y76.864 E.01091
G1 X111.339 Y77.12 E.01339
