; generated by PrusaSlicer 2.7.4 on 2024-05-30 at 09:23:17 UTC


;
;
; 

; external perimeters extrusion width = 0.45mm
; perimeters extrusion width = 0.45mm
; infill extrusion width = 0.45mm
; solid infill extrusion width = 0.45mm
; top infill extrusion width = 0.40mm
; support material extrusion width = 0.35mm
; first layer extrusion width = 0.42mm

M73 P0 R60
M73 Q0 S61
M201 X1000 Y1000 Z200 E5000 ; sets maximum accelerations, mm/sec^2
M203 X200 Y200 Z12 E120 ; sets maximum feedrates, mm / sec
M204 S1250 T1250 ; sets acceleration (S) and retract acceleration (R), mm/sec^2
M205 X8.00 Y8.00 Z0.40 E4.50 ; sets the jerk limits, mm/sec
M205 S0 T0 ; sets the minimum extruding and travel feed rate, mm/sec

; printing object frame - frame_upper_arm.stl id:0 copy 0
; stop printing object frame - frame_upper_arm.stl id:0 copy 0

;TYPE:Custom
M862.3 P "MK3S" ; printer model check
M862.1 P0.4 ; nozzle diameter check
M115 U3.13.3 ; tell printer latest fw version
G90 ; use absolute coordinates
M83 ; extruder relative mode
M104 S215 ; set extruder temp
M140 S60 ; set bed temp
M190 S60 ; wait for bed temp
M109 S215 ; wait for extruder temp
G28 W ; home all without mesh bed level
G80 X97.5344 Y59.4844 W54.9312 H91.0312 ; mesh bed levelling

G1 Z0.2 F720
G1 Y-3 F1000 ; go outside print area
G92 E0
G1 X60 E9 F1000 ; intro line
G1 X100 E12.5 F1000 ; intro line

G92 E0
M221 S95

; Don't change E values below. Excessive value can damage the printer.

M907 E538 ; set extruder motor current
G21 ; set units to millimeters
G90 ; use absolute coordinates
M83 ; use relative distances for extrusion

M900 K0.05 ; Filament gcode LA 1.5
M900 K30 ; Filament gcode LA 1.0




M107
;LAYER_CHANGE
;Z:0.2
;HEIGHT:0.2
G1 E-.8 F2100
M73 P0 R59
M73 Q0 S60
G1 Z.6 F720
G1 X99.072 Y64.132 F10800
G1 Z.2 F720
G1 E.8 F2100
M204 S800
;TYPE:Skirt/Brim
;WIDTH:0.42
G1 F1200
G1 X99.746 Y63.166 E.03693
G1 X100.542 Y62.29 E.03711
G1 X101.44 Y61.523 E.03703
G1 X102.426 Y60.879 E.03693
G1 X103.491 Y60.362 E.03712
G1 X104.715 Y59.959 E.0404
G1 X105.875 Y59.741 E.03701
G1 X106.975 Y59.673 E.03456
G1 X143.052 Y59.673 E1.13117
G1 X144.666 Y59.824 E.05083
G1 X146.274 Y60.27 E.05232
G1 X147.894 Y61.069 E.05664
G1 X149.224 Y62.071 E.05221
G1 X150.394 Y63.347 E.05428
G1 X151.276 Y64.757 E.05215
G1 X151.879 Y66.263 E.05086
G1 X152.232 Y68.034 E.05662
G1 X152.277 Y141.102 E2.291
G1 X152.069 Y143.004 E.05999
G1 X151.815 Y143.942 E.03047
G1 X151.453 Y144.873 E.03132
G1 X150.854 Y145.988 E.03969
G1 X150.142 Y146.97 E.03803
G1 X149.311 Y147.85 E.03795
G1 X148.367 Y148.617 E.03814
G1 X147.333 Y149.253 E.03806
G1 X146.225 Y149.749 E.03806
G1 X145.062 Y150.095 E.03804
G1 X143.864 Y150.287 E.03804
G1 X106.867 Y150.326 E1.16002
G1 X105.896 Y150.261 E.03051
G1 X104.938 Y150.095 E.03049
G1 X103.177 Y149.503 E.05825
G1 X102.062 Y148.904 E.03969
G1 X101.08 Y148.192 E.03803
G1 X100.198 Y147.358 E.03806
G1 X99.371 Y146.329 E.04139
G1 X98.747 Y145.288 E.03805
G1 X98.246 Y144.122 E.03979
G1 X97.883 Y142.767 E.04398
G1 X97.737 Y141.562 E.03806
G1 X97.723 Y68.9 E2.27827
G1 X97.919 Y67.051 E.0583
G1 X98.159 Y66.138 E.0296
G1 X98.523 Y65.181 E.0321
G1 X99.044 Y64.185 E.03524
M204 S1000
;WIPE_START
G1 F8640
G1 X99.072 Y64.132 E-.01384
G1 X99.746 Y63.166 E-.27198
G1 X100.542 Y62.29 E-.2733
G1 X101.335 Y61.613 E-.24088
;WIPE_END
G1 Z.6 F720
G1 X101.383 Y65.47 F10800
G1 Z.2 F720
G1 E.8 F2100
M204 S800
G1 F1200
G1 X101.428 Y65.388 E.00293
G1 X101.965 Y64.663 E.02829
G1 X102.58 Y64.031 E.02765
G1 X103.275 Y63.486 E.02769
G1 X104.034 Y63.039 E.02762
G1 X104.862 Y62.692 E.02815
G1 X105.729 Y62.46 E.02814
G1 X106.6 Y62.349 E.02753
G1 X143.333 Y62.349 E1.15174
G1 X144.525 Y62.516 E.03774
G1 X145.702 Y62.914 E.03896
G1 X146.763 Y63.512 E.03819
G1 X147.701 Y64.299 E.03839
G1 X148.461 Y65.22 E.03744
G1 X149.055 Y66.292 E.03843
G1 X149.446 Y67.473 E.03901
G1 X149.608 Y68.669 E.03784
G1 X149.613 Y141.188 E2.27378
G1 X149.427 Y142.606 E.04484
G1 X148.955 Y143.929 E.04404
G1 X148.508 Y144.711 E.02824
G1 X147.976 Y145.406 E.02744
G1 X147.344 Y146.036 E.02798
G1 X146.652 Y146.563 E.02727
G1 X145.876 Y147.005 E.028
G1 X145.06 Y147.334 E.02759
G1 X144.18 Y147.557 E.02846
G1 X143.322 Y147.655 E.02708
G1 X106.862 Y147.664 E1.14318
G1 X105.446 Y147.478 E.04478
G1 X104.116 Y147.002 E.04429
G1 X103.313 Y146.539 E.02906
G1 X102.6 Y145.987 E.02827
G1 X101.969 Y145.342 E.02829
G1 X101.42 Y144.599 E.02897
G1 X100.977 Y143.78 E.0292
G1 X100.66 Y142.932 E.02839
G1 X100.463 Y142.052 E.02827
G1 X100.387 Y141.138 E.02876
G1 X100.387 Y68.819 E2.26751
G1 X100.565 Y67.409 E.04456
G1 X101 Y66.166 E.04129
G1 X101.354 Y65.523 E.02301
M204 S1000
G1 X101.354 Y65.523 F10800
G1 X101.684 Y65.705
M204 S800
G1 F1200
G1 X101.752 Y65.582 E.00441
G1 X102.26 Y64.898 E.02671
G1 X102.841 Y64.303 E.02607
G1 X103.497 Y63.791 E.02609
G1 X104.214 Y63.371 E.02605
G1 X104.995 Y63.045 E.02654
G1 X105.813 Y62.828 E.02653
G1 X106.635 Y62.725 E.02597
G1 X143.295 Y62.724 E1.14945
G1 X144.422 Y62.879 E.03567
M73 P1 R59
G1 X145.534 Y63.251 E.03677
G1 X146.535 Y63.813 E.03599
G1 X147.421 Y64.553 E.03619
G1 X148.159 Y65.447 E.03635
M73 Q1 S60
G1 X148.716 Y66.458 E.03619
G1 X149.082 Y67.573 E.0368
G1 X149.233 Y68.707 E.03587
G1 X149.236 Y141.176 E2.27221
G1 X149.056 Y142.537 E.04304
G1 X148.606 Y143.785 E.0416
G1 X148.187 Y144.511 E.02628
G1 X147.685 Y145.166 E.02587
G1 X147.088 Y145.759 E.02638
G1 X146.435 Y146.255 E.02571
G1 X145.702 Y146.67 E.02641
G1 X144.932 Y146.98 E.02603
G1 X144.1 Y147.188 E.02689
G1 X143.291 Y147.279 E.02553
G1 X106.874 Y147.286 E1.14183
G1 X105.553 Y147.116 E.04176
G1 X104.289 Y146.667 E.04206
G1 X103.512 Y146.219 E.02812
G1 X102.842 Y145.697 E.02663
G1 X102.248 Y145.088 E.02667
G1 X101.745 Y144.408 E.02652
G1 X101.325 Y143.635 E.02758
G1 X101.025 Y142.836 E.02676
G1 X100.838 Y142.007 E.02665
G1 X100.764 Y141.13 E.0276
G1 X100.764 Y68.83 E2.26692
G1 X100.931 Y67.502 E.04197
G1 X101.346 Y66.318 E.03934
G1 X101.655 Y65.757 E.02008
M204 S1000
G1 X101.985 Y65.94 F10800
M204 S800
G1 F1200
G1 X102.075 Y65.776 E.00587
G1 X102.554 Y65.134 E.02511
G1 X103.101 Y64.577 E.02448
G1 X103.718 Y64.097 E.02451
G1 X104.393 Y63.703 E.02451
G1 X105.127 Y63.398 E.02492
G1 X105.897 Y63.196 E.02496
G1 X106.669 Y63.101 E.02439
G1 X143.281 Y63.101 E1.14794
G1 X144.353 Y63.25 E.03393
G1 X145.396 Y63.603 E.03452
G1 X146.334 Y64.133 E.03378
G1 X147.165 Y64.83 E.03401
G1 X147.856 Y65.672 E.03415
G1 X148.377 Y66.623 E.034
G1 X148.718 Y67.673 E.03461
G1 X148.858 Y68.743 E.03384
G1 X148.859 Y141.164 E2.27071
G1 X148.694 Y142.429 E.04
G1 X148.271 Y143.612 E.03939
G1 X147.867 Y144.312 E.02534
G1 X147.394 Y144.925 E.02428
G1 X146.832 Y145.482 E.02481
G1 X146.218 Y145.946 E.02413
G1 X145.528 Y146.336 E.02485
G1 X144.804 Y146.624 E.02443
G1 X144.022 Y146.819 E.02527
G1 X143.26 Y146.903 E.02404
G1 X106.887 Y146.909 E1.14045
G1 X105.622 Y146.744 E.04
G1 X104.433 Y146.318 E.0396
G1 X103.713 Y145.9 E.0261
G1 X103.084 Y145.408 E.02504
G1 X102.527 Y144.835 E.02506
G1 X102.056 Y144.195 E.02492
G1 X101.663 Y143.467 E.02594
G1 X101.383 Y142.716 E.02513
G1 X101.209 Y141.938 E.025
G1 X101.141 Y141.122 E.02567
G1 X101.141 Y68.842 E2.26629
G1 X101.297 Y67.594 E.03943
G1 X101.691 Y66.47 E.03734
G1 X101.956 Y65.992 E.01714
M204 S1000
G1 X101.956 Y65.992 F10800
G1 X102.285 Y66.175
M204 S800
G1 F1200
G1 X102.398 Y65.971 E.00731
G1 X102.848 Y65.371 E.02352
G1 X103.939 Y64.403 E.04573
G1 X105.258 Y63.752 E.04612
G1 X106.703 Y63.476 E.04613
G1 X143.244 Y63.476 E1.14572
G1 X144.25 Y63.613 E.03183
G1 X145.227 Y63.941 E.03231
G1 X146.107 Y64.434 E.03163
G1 X146.886 Y65.084 E.03181
G1 X147.534 Y65.87 E.03194
G1 X148.024 Y66.758 E.0318
G1 X148.347 Y67.74 E.03241
G1 X148.48 Y68.755 E.0321
G1 X148.482 Y141.151 E2.26993
G1 X148.323 Y142.359 E.0382
M73 P1 R58
M73 Q1 S59
G1 X147.922 Y143.467 E.03695
G1 X147.104 Y144.684 E.04598
G1 X146.001 Y145.637 E.0457
G1 X144.677 Y146.269 E.046
G1 X143.229 Y146.527 E.04612
G1 X106.898 Y146.532 E1.13913
G1 X105.729 Y146.382 E.03695
G1 X104.607 Y145.983 E.03734
G1 X103.914 Y145.581 E.02512
G1 X103.328 Y145.12 E.02338
G1 X102.808 Y144.582 E.02346
G1 X102.368 Y143.983 E.0233
G1 X102.012 Y143.323 E.02351
G1 X101.748 Y142.62 E.02355
G1 X101.583 Y141.893 E.02337
G1 X101.518 Y141.114 E.02451
G1 X101.518 Y68.854 E2.26566
G1 X101.663 Y67.686 E.0369
G1 X102.036 Y66.623 E.03532
G1 X102.256 Y66.227 E.0142
M204 S1000
G1 X102.256 Y66.227 F10800
G1 X102.594 Y66.447
M204 S800
G1 F1200
G1 X103.126 Y65.625 E.0307
G1 X104.16 Y64.709 E.04331
M73 P2 R58
G1 X105.389 Y64.106 E.04292
G1 X106.736 Y63.852 E.04298
G1 X143.207 Y63.852 E1.14352
G1 X144.149 Y63.977 E.02979
M73 Q2 S59
G1 X145.06 Y64.279 E.03009
G1 X145.88 Y64.736 E.02943
G1 X146.607 Y65.339 E.02962
G1 X147.213 Y66.069 E.02975
G1 X147.672 Y66.894 E.0296
G1 X147.975 Y67.808 E.03019
G1 X148.103 Y68.768 E.03037
G1 X148.105 Y141.139 E2.26914
G1 X147.961 Y142.251 E.03516
G1 X147.587 Y143.293 E.03471
G1 X146.814 Y144.442 E.04342
G1 X145.786 Y145.328 E.04255
G1 X144.551 Y145.913 E.04285
G1 X143.2 Y146.151 E.04301
G1 X106.911 Y146.155 E1.13782
G1 X105.798 Y146.011 E.03519
G1 X104.752 Y145.635 E.03485
G1 X103.572 Y144.832 E.04475
G1 X102.681 Y143.771 E.04344
G1 X102.106 Y142.501 E.04371
G1 X101.895 Y141.106 E.04424
G1 X101.895 Y68.865 E2.26507
G1 X102.029 Y67.778 E.03434
G1 X102.381 Y66.776 E.0333
G1 X102.561 Y66.497 E.01041
M204 S1000
G1 X102.561 Y66.497 F10800
G1 X102.874 Y66.701
M204 S800
G1 F1200
G1 X103.42 Y65.862 E.03139
G1 X104.379 Y65.015 E.04012
G1 X105.519 Y64.46 E.03975
G1 X106.769 Y64.228 E.03986
G1 X143.171 Y64.227 E1.14136
G1 X144.049 Y64.341 E.02776
G1 X144.893 Y64.618 E.02785
G1 X145.654 Y65.038 E.02725
G1 X146.329 Y65.593 E.0274
G1 X146.912 Y66.295 E.02861
G1 X147.333 Y67.06 E.02738
G1 X147.611 Y67.908 E.02798
G1 X147.726 Y68.78 E.02758
G1 X147.728 Y141.127 E2.26839
G1 X147.59 Y142.181 E.03333
G1 X147.239 Y143.147 E.03223
G1 X146.525 Y144.2 E.03989
G1 X145.571 Y145.018 E.0394
G1 X144.426 Y145.557 E.03968
G1 X143.171 Y145.775 E.03994
G1 X106.923 Y145.778 E1.13653
G1 X105.868 Y145.64 E.03336
G1 X104.898 Y145.287 E.03237
G1 X103.817 Y144.545 E.04111
G1 X102.994 Y143.561 E.04022
G1 X102.464 Y142.383 E.0405
G1 X102.272 Y141.099 E.04071
G1 X102.272 Y68.877 E2.26447
G1 X102.395 Y67.87 E.03181
G1 X102.725 Y66.929 E.03127
G1 X102.841 Y66.751 E.00666
M204 S1000
G1 X102.841 Y66.751 F10800
G1 X103.154 Y66.955
M204 S800
G1 F1200
G1 X103.713 Y66.1 E.03203
G1 X104.598 Y65.323 E.03693
G1 X105.648 Y64.815 E.03657
G1 X106.8 Y64.604 E.03672
G1 X143.136 Y64.603 E1.13929
G1 X143.95 Y64.705 E.02572
G1 X144.728 Y64.957 E.02564
G1 X145.43 Y65.342 E.0251
G1 X146.052 Y65.85 E.02518
G1 X146.591 Y66.495 E.02636
G1 X146.981 Y67.196 E.02515
G1 X147.24 Y67.976 E.02577
G1 X147.349 Y68.793 E.02584
G1 X147.351 Y141.115 E2.26761
G1 X147.228 Y142.073 E.03028
G1 X146.905 Y142.972 E.02995
G1 X146.252 Y143.94 E.03661
G1 X145.356 Y144.708 E.037
G1 X144.302 Y145.201 E.03648
G1 X143.143 Y145.399 E.03687
G1 X106.935 Y145.401 E1.13528
G1 X105.976 Y145.278 E.03032
G1 X105.074 Y144.952 E.03007
G1 X104.079 Y144.274 E.03775
G1 X103.32 Y143.37 E.03701
G1 X102.829 Y142.287 E.03728
G1 X102.649 Y141.091 E.03792
G1 X102.649 Y68.888 E2.26387
G1 X102.762 Y67.961 E.02928
M73 P3 R58
G1 X103.07 Y67.083 E.02917
G1 X103.121 Y67.005 E.00292
M204 S1000
G1 X103.121 Y67.005 F10800
G1 X103.476 Y67.18
M204 S800
G1 F1200
G1 X103.676 Y66.773 E.01422
G1 X104.006 Y66.338 E.01712
G1 X104.377 Y65.965 E.0165
G1 X105.274 Y65.371 E.03373
G1 X105.776 Y65.17 E.01695
G1 X106.831 Y64.98 E.03361
G1 X143.124 Y64.98 E1.13794
G1 X143.852 Y65.07 E.023
M73 Q3 S59
G1 X144.595 Y65.31 E.02448
G1 X145.231 Y65.663 E.02281
G1 X145.798 Y66.129 E.02301
G1 X146.289 Y66.721 E.02412
G1 X146.642 Y67.362 E.02294
G1 X146.876 Y68.077 E.02359
G1 X146.972 Y68.805 E.02302
G1 X146.974 Y141.104 E2.26688
G1 X146.866 Y141.967 E.02727
G1 X146.57 Y142.798 E.02766
G1 X146.298 Y143.267 E.017
G1 X145.594 Y144.059 E.03322
G1 X144.69 Y144.646 E.0338
G1 X143.665 Y144.968 E.03369
G1 X143.133 Y145.022 E.01677
G1 X106.946 Y145.024 E1.13462
G1 X106.083 Y144.916 E.02727
G1 X105.248 Y144.618 E.0278
G1 X104.766 Y144.336 E.01751
G1 X103.964 Y143.613 E.03386
G1 X103.376 Y142.68 E.03458
G1 X103.071 Y141.642 E.03392
G1 X103.026 Y141.084 E.01755
G1 X103.026 Y68.899 E2.26331
G1 X103.246 Y67.647 E.03986
G1 X103.449 Y67.234 E.01443
M204 S1000
G1 X103.449 Y67.234 F10800
G1 X103.758 Y67.393
M204 S800
G1 F1200
G1 X104.297 Y66.577 E.03066
G1 X105.033 Y65.939 E.03054
G1 X105.902 Y65.525 E.03018
G1 X106.861 Y65.356 E.03053
G1 X143.091 Y65.356 E1.13597
G1 X143.755 Y65.435 E.02097
G1 X144.43 Y65.65 E.02221
G1 X145.007 Y65.966 E.02063
G1 X145.521 Y66.385 E.02079
G1 X145.969 Y66.921 E.0219
G1 X146.29 Y67.498 E.0207
G1 X146.505 Y68.145 E.02138
G1 X146.595 Y68.818 E.02129
G1 X146.597 Y141.092 E2.2661
G1 X146.494 Y141.899 E.02551
M73 P3 R57
M73 Q3 S58
G1 X146.234 Y142.625 E.02418
G1 X145.703 Y143.423 E.03005
G1 X144.965 Y144.062 E.03061
G1 X144.098 Y144.475 E.03011
G1 X143.123 Y144.645 E.03103
G1 X106.958 Y144.647 E1.13393
G1 X106.151 Y144.544 E.02551
G1 X105.423 Y144.283 E.02425
G1 X104.601 Y143.729 E.03108
G1 X103.958 Y142.968 E.03124
G1 X103.546 Y142.051 E.03152
G1 X103.403 Y141.077 E.03087
G1 X103.403 Y68.91 E2.26275
G1 X103.494 Y68.142 E.02425
G1 X103.738 Y67.449 E.02304
M204 S1000
G1 X103.738 Y67.449 F10800
G1 X104.09 Y67.625
M204 S800
G1 F1200
G1 X104.318 Y67.169 E.01599
G1 X104.588 Y66.818 E.01388
G1 X104.889 Y66.519 E.0133
G1 X105.62 Y66.041 E.02739
G1 X106.028 Y65.881 E.01374
G1 X106.89 Y65.732 E.02743
G1 X143.081 Y65.733 E1.13474
G1 X143.658 Y65.8 E.01821
G1 X144.297 Y66.003 E.02102
G1 X144.808 Y66.287 E.01833
G1 X145.266 Y66.664 E.0186
G1 X145.666 Y67.147 E.01966
G1 X145.951 Y67.664 E.01851
G1 X146.141 Y68.245 E.01917
G1 X146.218 Y68.83 E.0185
G1 X146.22 Y141.08 E2.26535
G1 X146.132 Y141.793 E.02253
G1 X145.683 Y142.829 E.0354
G1 X145.119 Y143.474 E.02686
G1 X144.368 Y143.964 E.02812
G1 X143.56 Y144.22 E.02658
G1 X143.113 Y144.268 E.0141
G1 X106.97 Y144.27 E1.13324
G1 X106.257 Y144.182 E.02253
G1 X105.207 Y143.724 E.03592
G1 X104.554 Y143.144 E.02738
G1 X104.074 Y142.392 E.02797
G1 X103.911 Y141.956 E.01459
G1 X103.78 Y141.069 E.02811
G1 X103.78 Y68.921 E2.26215
G1 X103.964 Y67.879 E.03318
M73 P4 R57
G1 X104.064 Y67.679 E.00701
M204 S1000
G1 X104.064 Y67.679 F10800
G1 X104.411 Y67.801
M204 S800
G1 F1200
G1 X104.445 Y67.705 E.00319
G1 X104.878 Y67.059 E.02438
G1 X105.464 Y66.559 E.02415
G1 X106.153 Y66.237 E.02385
G1 X106.9 Y66.109 E.02376
G1 X143.071 Y66.11 E1.13412
G1 X143.564 Y66.165 E.01555
M73 Q4 S58
G1 X144.133 Y66.343 E.01869
G1 X144.99 Y66.921 E.03241
G1 X145.346 Y67.347 E.01741
G1 X145.599 Y67.801 E.0163
G1 X145.77 Y68.313 E.01693
G1 X145.841 Y68.843 E.01677
G1 X145.843 Y141.07 E2.26463
G1 X145.769 Y141.689 E.01955
G1 X145.562 Y142.282 E.01969
G1 X145.15 Y142.91 E.02355
G1 X144.552 Y143.431 E.02487
G1 X143.847 Y143.763 E.02443
G1 X143.103 Y143.891 E.02367
G1 X106.98 Y143.893 E1.13261
G1 X106.361 Y143.819 E.01955
G1 X105.767 Y143.611 E.01973
G1 X105.102 Y143.166 E.02509
G1 X104.595 Y142.564 E.02468
G1 X104.269 Y141.838 E.02495
G1 X104.157 Y141.062 E.02458
G1 X104.157 Y68.931 E2.26162
G1 X104.228 Y68.321 E.01926
G1 X104.391 Y67.858 E.01539
M204 S1000
G1 X104.391 Y67.858 F10800
G1 X104.745 Y67.983
M204 S800
G1 F1200
G1 X104.787 Y67.863 E.00399
G1 X105.167 Y67.302 E.02125
G1 X105.677 Y66.87 E.02096
G1 X106.275 Y66.594 E.02065
G1 X106.91 Y66.486 E.0202
G1 X143.042 Y66.486 E1.13289
G1 X143.971 Y66.684 E.02978
G1 X144.737 Y67.201 E.02898
G1 X145.26 Y67.967 E.02908
G1 X145.464 Y68.856 E.0286
G1 X145.466 Y141.058 E2.26384
G1 X145.397 Y141.623 E.01785
G1 X145.225 Y142.112 E.01625
G1 X144.871 Y142.655 E.02032
G1 X144.354 Y143.11 E.02159
G1 X143.744 Y143.4 E.02118
G1 X143.092 Y143.514 E.02075
G1 X106.992 Y143.516 E1.13189
G1 X106.427 Y143.447 E.01785
G1 X105.938 Y143.275 E.01625
G1 X105.361 Y142.891 E.02173
G1 X104.92 Y142.373 E.02133
G1 X104.628 Y141.722 E.02237
G1 X104.534 Y141.055 E.02112
G1 X104.534 Y68.942 E2.26105
G1 X104.594 Y68.41 E.01679
G1 X104.725 Y68.039 E.01234
M204 S1000
G1 X104.725 Y68.039 F10800
G1 X105.079 Y68.165
