; generated by PrusaSlicer 2.7.4 on 2024-06-27 at 07:53:09 UTC


;
;
; 

; external perimeters extrusion width = 0.45mm
; perimeters extrusion width = 0.45mm
; infill extrusion width = 0.45mm
; solid infill extrusion width = 0.45mm
; top infill extrusion width = 0.40mm
; support material extrusion width = 0.35mm
; first layer extrusion width = 0.42mm

M73 P0 R71
M73 Q0 S73
M201 X1000 Y1000 Z200 E5000 ; sets maximum accelerations, mm/sec^2
M203 X200 Y200 Z12 E120 ; sets maximum feedrates, mm / sec
M204 S1250 T1250 ; sets acceleration (S) and retract acceleration (R), mm/sec^2
M205 X8.00 Y8.00 Z0.40 E4.50 ; sets the jerk limits, mm/sec
M205 S0 T0 ; sets the minimum extruding and travel feed rate, mm/sec

; printing object frame - frame_upper_arm.stl id:0 copy 0
; stop printing object frame - frame_upper_arm.stl id:0 copy 0

;TYPE:Custom
M862.3 P "MK3S" ; printer model check
M862.1 P0.4 ; nozzle diameter check
M115 U3.13.3 ; tell printer latest fw version
G90 ; use absolute coordinates
M83 ; extruder relative mode
M104 S215 ; set extruder temp
M140 S60 ; set bed temp
M190 S60 ; wait for bed temp
M109 S215 ; wait for extruder temp
G28 W ; home all without mesh bed level
G80 X97.4575 Y59.4844 W55.0851 H91.0312 ; mesh bed levelling

G1 Z0.2 F720
G1 Y-3 F1000 ; go outside print area
G92 E0
G1 X60 E9 F1000 ; intro line
G1 X100 E12.5 F1000 ; intro line

G92 E0
M221 S95

; Don't change E values below. Excessive value can damage the printer.

M907 E538 ; set extruder motor current
G21 ; set units to millimeters
G90 ; use absolute coordinates
M83 ; use relative distances for extrusion

M900 K0.05 ; Filament gcode LA 1.5
M900 K30 ; Filament gcode LA 1.0




M107
;LAYER_CHANGE
;Z:0.2
;HEIGHT:0.2
G1 E-.8 F2100
G1 Z.6 F720
G1 X98.342 Y63.357 F10800
G1 Z.2 F720
G1 E.8 F2100
M204 S800
;TYPE:Skirt/Brim
;WIDTH:0.42
G1 F1200
G1 X101.33 Y60.369 E.13249
G1 X103.011 Y59.673 E.05705
G1 X146.989 Y59.673 E1.3789
G1 X148.67 Y60.369 E.05705
G1 X151.658 Y63.357 E.13249
G1 X152.354 Y65.038 E.05705
G1 X152.354 Y144.962 E2.50596
G1 X151.658 Y146.643 E.05705
G1 X148.67 Y149.631 E.13249
G1 X146.989 Y150.327 E.05705
G1 X103.011 Y150.327 E1.3789
G1 X101.33 Y149.631 E.05705
M73 Q0 S72
G1 X98.342 Y146.643 E.13249
G1 X97.646 Y144.962 E.05705
G1 X97.646 Y65.038 E2.50596
G1 X98.319 Y63.412 E.05518
M204 S1000
;WIPE_START
G1 F8640
G1 X98.342 Y63.357 E-.01377
G1 X100.75 Y60.949 E-.78623
;WIPE_END
G1 Z.6 F720
G1 X100.905 Y64.787 F10800
G1 Z.2 F720
G1 E.8 F2100
M204 S800
G1 F1200
G1 X101.443 Y64.046 E.02871
G1 X102.473 Y63.109 E.04366
G1 X103.393 Y62.651 E.03222
G1 X104.706 Y62.336 E.04234
G1 X145.266 Y62.34 E1.27173
G1 X146.286 Y62.534 E.03255
G1 X147.265 Y62.95 E.03335
G1 X148.389 Y63.846 E.04507
G1 X149.282 Y65.184 E.05044
G1 X149.69 Y66.729 E.0501
G1 X149.69 Y143.297 E2.40074
G1 X149.095 Y145.213 E.0629
G1 X148.557 Y145.954 E.02871
G1 X147.527 Y146.891 E.04366
G1 X146.607 Y147.349 E.03222
G1 X145.295 Y147.663 E.0423
G1 X104.676 Y147.663 E1.27358
G1 X102.76 Y147.068 E.0629
G1 X102.019 Y146.531 E.02869
G1 X101.082 Y145.5 E.04368
G1 X100.624 Y144.58 E.03222
G1 X100.31 Y143.268 E.0423
G1 X100.31 Y66.703 E2.40064
G1 X100.888 Y64.845 E.06101
M204 S1000
G1 X100.888 Y64.845 F10800
G1 X101.23 Y64.982
M204 S800
G1 F1200
G1 X101.712 Y64.31 E.02593
G1 X102.667 Y63.434 E.04063
G1 X103.504 Y63.012 E.02939
G1 X104.728 Y62.714 E.0395
G1 X145.248 Y62.717 E1.27048
G1 X146.194 Y62.9 E.03021
G1 X147.092 Y63.286 E.03065
G1 X148.13 Y64.121 E.04177
G1 X148.926 Y65.312 E.04492
G1 X149.313 Y66.754 E.04681
G1 X149.313 Y143.269 E2.39907
G1 X148.77 Y145.018 E.05742
G1 X148.288 Y145.69 E.02593
G1 X147.333 Y146.566 E.04063
G1 X146.496 Y146.988 E.02939
G1 X145.272 Y147.286 E.0395
G1 X104.704 Y147.286 E1.27198
G1 X102.955 Y146.743 E.05742
M73 P1 R71
G1 X102.283 Y146.261 E.02593
G1 X101.407 Y145.307 E.04061
G1 X100.985 Y144.469 E.02942
G1 X100.687 Y143.245 E.0395
G1 X100.687 Y66.731 E2.39904
G1 X101.212 Y65.039 E.05555
M73 Q1 S72
M204 S1000
G1 X101.212 Y65.039 F10800
G1 X101.571 Y65.153
M204 S800
G1 F1200
G1 X101.58 Y65.126 E.00089
G1 X101.982 Y64.574 E.02141
G1 X102.862 Y63.757 E.03765
G1 X103.617 Y63.373 E.02656
G1 X104.752 Y63.091 E.03667
G1 X145.229 Y63.094 E1.26913
G1 X146.101 Y63.266 E.02787
G1 X146.917 Y63.621 E.0279
G1 X147.869 Y64.395 E.03847
G1 X148.594 Y65.493 E.04125
G1 X148.936 Y66.778 E.04169
G1 X148.936 Y143.239 E2.39738
G1 X148.42 Y144.874 E.05376
M73 P1 R70
G1 X148.018 Y145.426 E.02141
G1 X147.138 Y146.243 E.03765
G1 X146.383 Y146.627 E.02656
G1 X145.248 Y146.909 E.03667
G1 X104.734 Y146.909 E1.27029
G1 X103.099 Y146.394 E.05375
G1 X102.547 Y145.991 E.02143
G1 X101.731 Y145.111 E.03763
G1 X101.346 Y144.356 E.02657
G1 X101.064 Y143.221 E.03667
G1 X101.064 Y66.761 E2.39735
G1 X101.553 Y65.21 E.05099
M204 S1000
G1 X101.903 Y65.322 F10800
M204 S800
G1 F1200
G1 X102.254 Y64.836 E.0188
G1 X103.059 Y64.08 E.03463
G1 X103.731 Y63.733 E.02371
G1 X104.776 Y63.468 E.0338
G1 X145.21 Y63.471 E1.26778
G1 X146.006 Y63.631 E.02546
G1 X146.741 Y63.955 E.02519
G1 X147.607 Y64.667 E.03515
G1 X148.262 Y65.673 E.03764
G1 X148.559 Y66.802 E.0366
G1 X148.559 Y143.211 E2.39575
G1 X148.097 Y144.678 E.04822
G1 X147.746 Y145.164 E.0188
G1 X146.941 Y145.92 E.03463
G1 X146.269 Y146.267 E.02371
G1 X145.224 Y146.532 E.0338
G1 X104.762 Y146.532 E1.26866
G1 X103.295 Y146.07 E.04822
G1 X102.809 Y145.719 E.0188
G1 X102.053 Y144.914 E.03463
G1 X101.706 Y144.242 E.02371
G1 X101.441 Y143.198 E.03377
G1 X101.441 Y66.789 E2.39575
G1 X101.885 Y65.379 E.04635
M204 S1000
G1 X101.885 Y65.379 F10800
G1 X102.227 Y65.516
M204 S800
G1 F1200
G1 X102.527 Y65.096 E.01618
G1 X103.258 Y64.401 E.03163
G1 X103.848 Y64.092 E.02088
G1 X104.8 Y63.845 E.03084
G1 X145.191 Y63.848 E1.26643
G1 X145.873 Y63.985 E.02181
M73 Q1 S71
G1 X146.564 Y64.289 E.02367
G1 X147.344 Y64.938 E.03181
G1 X147.905 Y65.8 E.03225
G1 X148.182 Y66.828 E.03338
G1 X148.182 Y143.182 E2.39403
G1 X147.773 Y144.484 E.04279
G1 X147.473 Y144.904 E.01618
G1 X146.742 Y145.599 E.03163
G1 X146.152 Y145.908 E.02088
G1 X145.2 Y146.155 E.03084
G1 X104.791 Y146.155 E1.267
G1 X103.489 Y145.746 E.04279
G1 X103.069 Y145.446 E.01618
G1 X102.374 Y144.715 E.03163
G1 X102.065 Y144.125 E.02088
G1 X101.818 Y143.173 E.03084
G1 X101.818 Y66.818 E2.39406
G1 X102.209 Y65.573 E.04092
M204 S1000
G1 X102.209 Y65.573 F10800
G1 X102.553 Y65.709
M204 S800
G1 F1200
G1 X102.803 Y65.354 E.01361
G1 X103.46 Y64.721 E.02861
G1 X103.967 Y64.45 E.01803
G1 X104.825 Y64.222 E.02784
G1 X145.172 Y64.226 E1.26505
G1 X145.775 Y64.35 E.0193
M73 P2 R70
M73 Q2 S71
G1 X146.385 Y64.622 E.02094
G1 X147.078 Y65.207 E.02844
G1 X147.572 Y65.978 E.02871
G1 X147.805 Y66.852 E.02836
G1 X147.805 Y143.153 E2.39236
G1 X147.447 Y144.291 E.03741
G1 X147.197 Y144.646 E.01361
G1 X146.54 Y145.279 E.02861
G1 X146.033 Y145.55 E.01803
G1 X145.175 Y145.778 E.02784
G1 X104.82 Y145.778 E1.2653
G1 X103.682 Y145.42 E.03741
G1 X103.327 Y145.17 E.01361
G1 X102.694 Y144.513 E.02861
G1 X102.423 Y144.006 E.01803
G1 X102.195 Y143.148 E.02784
G1 X102.195 Y66.847 E2.39236
G1 X102.535 Y65.766 E.03553
M204 S1000
G1 X102.535 Y65.766 F10800
G1 X102.879 Y65.9
M204 S800
G1 F1200
G1 X103.664 Y65.038 E.03656
G1 X104.089 Y64.808 E.01515
G1 X104.851 Y64.599 E.02477
G1 X145.151 Y64.603 E1.26358
G1 X145.676 Y64.714 E.01682
G1 X146.204 Y64.954 E.01819
G1 X146.811 Y65.475 E.02508
G1 X147.216 Y66.106 E.02351
G1 X147.428 Y66.878 E.0251
G1 X147.428 Y143.124 E2.39064
G1 X147.121 Y144.1 E.03208
G1 X146.336 Y144.962 E.03656
G1 X145.911 Y145.192 E.01515
G1 X145.149 Y145.401 E.02477
G1 X104.849 Y145.401 E1.26358
G1 X103.873 Y145.094 E.03208
G1 X103.012 Y144.309 E.03653
G1 X102.781 Y143.884 E.01517
G1 X102.572 Y143.122 E.02477
G1 X102.572 Y66.876 E2.39064
G1 X102.861 Y65.957 E.03021
M204 S1000
G1 X103.206 Y66.089 F10800
M204 S800
G1 F1200
G1 X103.36 Y65.864 E.00855
G1 X103.872 Y65.354 E.02266
G1 X104.214 Y65.164 E.01227
G1 X104.878 Y64.976 E.02164
G1 X145.13 Y64.98 E1.26207
G1 X145.574 Y65.077 E.01425
M73 P2 R69
G1 X146.02 Y65.284 E.01542
G1 X146.543 Y65.741 E.02178
G1 X146.861 Y66.236 E.01845
G1 X147.051 Y66.905 E.02181
G1 X147.051 Y143.095 E2.38888
G1 X146.794 Y143.911 E.02682
G1 X146.64 Y144.136 E.00855
G1 X146.128 Y144.646 E.02266
G1 X145.786 Y144.836 E.01227
G1 X145.122 Y145.024 E.02164
G1 X104.878 Y145.024 E1.26182
G1 X104.062 Y144.767 E.02682
G1 X103.837 Y144.613 E.00855
G1 X103.327 Y144.101 E.02266
G1 X103.137 Y143.759 E.01227
G1 X102.949 Y143.095 E.02164
G1 X102.949 Y66.905 E2.38888
G1 X103.188 Y66.146 E.02495
M204 S1000
G1 X103.188 Y66.146 F10800
G1 X103.535 Y66.275
M204 S800
G1 F1200
G1 X104.083 Y65.668 E.02564
G1 X104.906 Y65.353 E.02763
G1 X145.108 Y65.357 E1.26051
G1 X145.833 Y65.612 E.0241
G1 X146.272 Y66.004 E.01845
G1 X146.508 Y66.37 E.01365
G1 X146.674 Y66.933 E.0184
G1 X146.674 Y143.066 E2.3871
G1 X146.465 Y143.725 E.02168
G1 X145.917 Y144.332 E.02564
G1 X145.094 Y144.647 E.02763
G1 X104.907 Y144.647 E1.26004
G1 X104.248 Y144.438 E.02168
M73 P3 R69
G1 X103.641 Y143.89 E.02564
G1 X103.326 Y143.067 E.02763
G1 X103.326 Y66.934 E2.3871
G1 X103.517 Y66.332 E.0198
M73 Q3 S71
M204 S1000
G1 X103.517 Y66.332 F10800
G1 X103.866 Y66.457
M204 S800
G1 F1200
G1 X104.298 Y65.978 E.02022
G1 X104.935 Y65.73 E.02143
G1 X145.086 Y65.734 E1.25891
G1 X145.645 Y65.941 E.01869
M73 Q3 S70
G1 X146.156 Y66.507 E.02391
G1 X146.297 Y66.962 E.01494
G1 X146.297 Y143.037 E2.38528
G1 X146.072 Y143.639 E.02015
G1 X145.522 Y144.129 E.0231
G1 X145.065 Y144.27 E.015
G1 X104.936 Y144.27 E1.25822
G1 X104.334 Y144.046 E.02014
G1 X103.844 Y143.495 E.02312
G1 X103.703 Y143.038 E.015
G1 X103.703 Y66.963 E2.38528
G1 X103.847 Y66.514 E.01478
M204 S1000
G1 X103.847 Y66.514 F10800
G1 X104.199 Y66.633
M204 S800
G1 F1200
G1 X104.52 Y66.284 E.01487
G1 X104.967 Y66.107 E.01507
G1 X145.064 Y66.111 E1.25721
G1 X145.455 Y66.268 E.01321
G1 X145.723 Y66.523 E.0116
G1 X145.92 Y66.994 E.01601
G1 X145.92 Y143.006 E2.3833
G1 X145.801 Y143.367 E.01192
G1 X145.48 Y143.716 E.01487
G1 X145.033 Y143.893 E.01507
G1 X104.967 Y143.893 E1.25624
G1 X104.606 Y143.774 E.01192
G1 X104.257 Y143.453 E.01487
G1 X104.08 Y143.006 E.01507
G1 X104.08 Y66.994 E2.3833
G1 X104.181 Y66.69 E.01004
M204 S1000
G1 X104.181 Y66.69 F10800
G1 X104.534 Y66.816
M204 S800
G1 F1200
G1 X104.751 Y66.582 E.01001
G1 X105.002 Y66.484 E.00845
G1 X145.012 Y66.484 E1.25449
G1 X145.443 Y66.775 E.01631
G1 X145.543 Y67.029 E.00856
G1 X145.543 Y142.971 E2.38111
G1 X145.466 Y143.184 E.0071
G1 X145.249 Y143.418 E.01001
G1 X144.998 Y143.516 E.00845
G1 X105.002 Y143.516 E1.25405
G1 X104.789 Y143.439 E.0071
G1 X104.555 Y143.222 E.01001
G1 X104.457 Y142.971 E.00845
G1 X104.457 Y67.029 E2.38111
G1 X104.514 Y66.873 E.00521
M204 S1000
G1 X104.514 Y66.873 F10800
G1 X104.863 Y67.002
M204 S800
G1 F1200
G1 X105.044 Y66.861 E.00719
G1 X145.025 Y66.89 E1.25358
G1 X145.165 Y67.071 E.00717
M73 P4 R68
G1 X145.137 Y142.998 E2.38064
G1 X144.956 Y143.139 E.00719
M73 Q4 S70
G1 X104.975 Y143.11 E1.25358
G1 X104.835 Y142.929 E.00717
G1 X104.863 Y67.062 E2.37876
M204 S1000
;WIPE_START
G1 F8640
G1 X104.863 Y67.002 E-.01385
G1 X105.044 Y66.861 E-.05298
G1 X108.219 Y66.863 E-.73317
;WIPE_END
G1 Z.6 F720
; printing object frame - frame_upper_arm.stl id:0 copy 0
G1 X140.088 Y106.532 F10800
G1 Z.2 F720
G1 E.8 F2100
M204 S800
;TYPE:Support material
G1 F1200
G1 X140.933 Y106.758 E.02743
G1 X141.298 Y107.003 E.01378
G1 X141.655 Y107.391 E.01653
G1 X141.989 Y108.199 E.02741
G1 X142.012 Y108.726 E.01654
G1 X141.926 Y109.157 E.01378
G1 X141.602 Y109.78 E.02202
G1 X141.09 Y110.251 E.02181
G1 X138.91 Y110.251 E.06835
G1 X138.398 Y109.78 E.02181
G1 X138.102 Y109.241 E.01928
G1 X137.98 Y108.55 E.022
G1 X138.074 Y107.943 E.01926
G1 X138.345 Y107.391 E.01928
G1 X138.841 Y106.895 E.02199
G1 X139.393 Y106.624 E.01928
G1 X140.032 Y106.531 E.02025
M204 S1000
G1 X140.032 Y106.531 F10800
G1 X141.34 Y109.825
M204 S800
G1 F1200
G1 X141.34 Y107.536 E.07177
G1 X140.921 Y107.145 E.01797
G1 X140.921 Y109.911 E.08673
G1 X140.502 Y109.911 E.01314
G1 X140.502 Y106.946 E.09297
G1 X140.219 Y106.884 E.00908
G1 X140.083 Y106.872 E.00428
G1 X140.083 Y109.911 E.09529
G1 X139.664 Y109.911 E.01314
G1 X139.664 Y106.904 E.09428
G1 X139.245 Y107.049 E.0139
G1 X139.245 Y109.911 E.08974
G1 X139.015 Y109.911 E.00721
G1 X138.826 Y109.752 E.00774
G1 X138.826 Y107.348 E.07538
G1 X138.407 Y108.015 E.0247
G1 X138.407 Y109.491 E.04628
M204 S1000
;WIPE_START
G1 F8640
G1 X138.407 Y108.015 E-.34081
G1 X138.826 Y107.348 E-.18188
G1 X138.826 Y108.549 E-.27731
;WIPE_END
G1 Z.6 F720
G1 X141.898 Y92.859 F10800
G1 Z.2 F720
G1 E.8 F2100
M204 S800
G1 F1200
G1 X142.018 Y93.638 E.02471
G1 X141.831 Y94.404 E.02472
G1 X141.365 Y95.039 E.0247
G1 X140.691 Y95.448 E.02472
G1 X139.912 Y95.568 E.02471
G1 X139.146 Y95.381 E.02472
G1 X138.511 Y94.915 E.0247
G1 X138.102 Y94.241 E.02472
G1 X137.98 Y93.55 E.022
G1 X138.113 Y92.829 E.02299
G1 X141.862 Y92.829 E.11755
M204 S1000
G1 X141.862 Y92.829 F10800
G1 X141.34 Y94.825
M204 S800
G1 F1200
G1 X141.34 Y93.169 E.05192
G1 X140.921 Y93.169 E.01314
G1 X140.921 Y94.955 E.056
G1 X140.71 Y95.073 E.00758
G1 X140.502 Y95.154 E.007
G1 X140.502 Y93.169 E.06224
G1 X140.083 Y93.169 E.01314
G1 X140.083 Y95.228 E.06456
G1 X139.664 Y95.196 E.01318
G1 X139.664 Y93.169 E.06356
G1 X139.245 Y93.169 E.01314
G1 X139.245 Y95.051 E.05901
G1 X138.826 Y94.752 E.01614
G1 X138.826 Y93.169 E.04963
G1 X138.407 Y93.169 E.01314
G1 X138.407 Y94.491 E.04145
M204 S1000
;WIPE_START
G1 F8640
G1 X138.407 Y93.169 E-.30525
G1 X138.826 Y93.169 E-.09675
G1 X138.826 Y94.752 E-.36552
G1 X138.941 Y94.834 E-.03248
;WIPE_END
G1 Z.6 F720
G1 X140.046 Y77.481 F10800
G1 Z.2 F720
G1 E.8 F2100
M204 S800
G1 F1200
G1 X140.409 Y77.561 E.01165
G1 X140.756 Y77.793 E.01309
G1 X140.988 Y78.14 E.01309
G1 X141.07 Y78.549 E.01308
G1 X140.989 Y78.959 E.0131
G1 X140.757 Y79.306 E.01309
G1 X140.41 Y79.538 E.01309
G1 X140.001 Y79.62 E.01308
G1 X139.591 Y79.539 E.0131
G1 X139.244 Y79.307 E.01309
G1 X139.012 Y78.96 E.01309
G1 X138.93 Y78.551 E.01308
G1 X139.011 Y78.141 E.0131
G1 X139.243 Y77.794 E.01309
G1 X139.59 Y77.562 E.01309
G1 X139.989 Y77.48 E.01277
M204 S1000
G1 X139.989 Y77.48 F10800
G1 X140.502 Y79.297
M204 S800
G1 F1200
G1 X140.502 Y78.02 E.04004
G1 X140.095 Y77.826 E.01414
G1 X140.083 Y79.275 E.04543
G1 X139.664 Y79.199 E.01335
G1 X139.664 Y77.715 E.04653
M204 S1000
;WIPE_START
G1 F8640
G1 X139.664 Y79.199 E-.34266
G1 X140.083 Y79.275 E-.09833
G1 X140.095 Y77.826 E-.33459
G1 X140.191 Y77.871 E-.02442
;WIPE_END
G1 Z.6 F720
G1 X110.046 Y77.481 F10800
G1 Z.2 F720
G1 E.8 F2100
M204 S800
G1 F1200
G1 X110.409 Y77.561 E.01165
G1 X110.756 Y77.793 E.01309
G1 X110.988 Y78.14 E.01309
G1 X111.07 Y78.549 E.01308
G1 X110.989 Y78.959 E.0131
G1 X110.757 Y79.306 E.01309
G1 X110.41 Y79.538 E.01309
G1 X110.001 Y79.62 E.01308
G1 X109.591 Y79.539 E.0131
G1 X109.244 Y79.307 E.01309
G1 X109.012 Y78.96 E.01309
G1 X108.93 Y78.551 E.01308
G1 X109.011 Y78.141 E.0131
G1 X109.243 Y77.794 E.01309
G1 X109.59 Y77.562 E.01309
G1 X109.989 Y77.48 E.01277
M204 S1000
G1 X109.989 Y77.48 F10800
G1 X110.336 Y79.385
M204 S800
G1 F1200
G1 X110.336 Y77.901 E.04653
G1 X109.917 Y77.825 E.01335
G1 X109.905 Y79.274 E.04543
G1 X109.498 Y79.08 E.01414
G1 X109.498 Y77.803 E.04004
M204 S1000
;WIPE_START
G1 F8640
G1 X109.498 Y79.08 E-.29486
G1 X109.905 Y79.274 E-.10411
G1 X109.917 Y77.825 E-.33459
G1 X110.2 Y77.877 E-.06644
;WIPE_END
G1 Z.6 F720
G1 X111.887 Y92.829 F10800
G1 Z.2 F720
G1 E.8 F2100
M204 S800
G1 F1200
G1 X112.02 Y93.55 E.02299
G1 X111.866 Y94.323 E.02471
G1 X111.428 Y94.978 E.02471
G1 X110.773 Y95.416 E.02471
G1 X110 Y95.57 E.02471
G1 X109.227 Y95.416 E.02471
G1 X108.572 Y94.978 E.02471
G1 X108.134 Y94.323 E.02471
G1 X107.98 Y93.55 E.02471
G1 X108.114 Y92.829 E.02299
G1 X111.83 Y92.829 E.11651
M204 S1000
G1 X111.83 Y92.829 F10800
G1 X111.593 Y94.491
M204 S800
G1 F1200
G1 X111.593 Y93.169 E.04145
G1 X111.174 Y93.169 E.01314
G1 X111.174 Y94.752 E.04963
G1 X110.755 Y95.051 E.01614
G1 X110.755 Y93.169 E.05901
G1 X110.336 Y93.169 E.01314
G1 X110.336 Y95.196 E.06356
G1 X109.917 Y95.228 E.01318
G1 X109.917 Y93.169 E.06456
G1 X109.498 Y93.169 E.01314
