; HEADER_BLOCK_START
; generated by OrcaSlicer 2.0.0 on 2024-07-11 at 17:52:53
; total layer number: 44
; filament_density: 1.24
; filament_diameter: 1.75
; max_z_height: 7.00
; HEADER_BLOCK_END

; THUMBNAIL_BLOCK_START

;
; THUMBNAIL_BLOCK_END

; external perimeters extrusion width = 0.60mm
; perimeters extrusion width = 0.66mm
; infill extrusion width = 0.66mm
; solid infill extrusion width = 0.72mm
; top infill extrusion width = 0.56mm
; support material extrusion width = 0.58mm
; first layer extrusion width = 0.72mm

; EXECUTABLE_BLOCK_START
M73 P0 R42
M201 X2500 Y2500 Z400 E5000
M203 X180 Y180 Z12 E80
M204 P1250 R5000 T3000 ; sets acceleration (P, T) and retract acceleration (R), mm/sec^2
M205 X8.00 Y8.00 Z0.20 E10.00 ; sets the jerk limits, mm/sec
;TYPE:Custom
M862.3 P "MINI" ; printer model check
G90 ; use absolute coordinates
M83 ; extruder relative mode
M104 S170 ; set extruder temp for bed leveling
M140 S60 ; set bed temp
M109 R170 ; wait for bed leveling temp
M190 S60 ; wait for bed temp
M204 T1250 ; set travel acceleration
G28 ; home all without mesh bed level
G29 ; mesh bed leveling 
M204 T3000 ; restore travel acceleration
M104 S210 ; set extruder temp
G92 E0
G1 Y-2 X179 F2400
G1 Z3 F720
M109 S210 ; wait for extruder temp

; intro line
G1 X170 F1000
G1 Z0.2 F720
G1 X110 E8 F900
G1 X40 E10 F700
G92 E0

M221 S95 ; set flow
G90
G21
M83 ; use relative distances for extrusion
; filament start gcode
M900 K0.12 ; Filament gcode LA 1.5
; ; Filament gcode LA 1.0
M106 S0
;LAYER_CHANGE
;Z:0.2
;HEIGHT:0.2
;BEFORE_LAYER_CHANGE
;0.2
G92 E0

G1 E-3.2 F4200
;AFTER_LAYER_CHANGE
;0.2
;_SET_FAN_SPEED_CHANGING_LAYER
M204 P700
M205 X8 Y8
; printing object frame - frame_upper_arm.stl id:19 copy 0
M204 T700
G1 Z.4 F9000
G1 X138.808 Y68.776
G1 Z.4
G1 Z.2
G1 E3.2 F1800
;TYPE:Inner wall
;WIDTH:0.719999
G1 F1200
G1 X138.614 Y68.916 E.01321
G1 X138.158 Y69.398 E.03658
G1 X137.838 Y69.912 E.03341
G1 X137.633 Y70.405 E.02945
G1 X137.523 Y70.912 E.02863
G1 X137.497 Y71.39 E.0264
G1 X137.589 Y72.197 E.04484
G1 X137.777 Y72.719 E.03059
G1 X137.947 Y73.045 E.02034
G1 X138.351 Y73.589 E.03738
G1 X138.758 Y73.963 E.03049
G1 X139.199 Y74.252 E.0291
G1 X139.741 Y74.484 E.0325
G1 X140.281 Y74.605 E.03056
G1 X140.897 Y74.637 E.03402
G1 X141.554 Y74.538 E.03666
G1 X142.122 Y74.337 E.03324
G1 X142.699 Y73.991 E.03712
G1 X143.15 Y73.586 E.03341
G1 X143.55 Y73.046 E.03712
G1 X143.757 Y72.614 E.0264
;WIDTH:0.766138
G1 X143.852 Y72.372 E.01532
;WIDTH:0.812276
G1 X143.947 Y72.131 E.01629
;WIDTH:0.858414
G1 X144.042 Y71.889 E.01727
G1 X144.056 Y72.006 E.00782
;WIDTH:0.831242
G1 X144.069 Y72.123 E.00756
;WIDTH:0.804069
G1 X144.09 Y72.396 E.01699
;WIDTH:0.762034
G1 X144.111 Y72.669 E.01605
;WIDTH:0.719999
G1 X144.111 Y83.852 E.61699
G1 X143.968 Y83.67 E.01276
G1 X143.338 Y83.06 E.04838
G1 X142.653 Y82.629 E.04468
G1 X142.048 Y82.379 E.03611
G1 X141.262 Y82.2 E.04444
G1 X140.47 Y82.176 E.04374
G1 X139.946 Y82.257 E.02924
G1 X139.309 Y82.425 E.03637
G1 X138.517 Y82.809 E.04856
G1 X137.931 Y83.251 E.04048
G1 X137.429 Y83.789 E.04059
G1 X137.063 Y84.338 E.03641
G1 X136.842 Y84.808 E.02866
G1 X136.725 Y85.156 E.02026
G1 X136.584 Y85.795 E.03611
G1 X136.546 Y86.236 E.0244
G1 X136.575 Y86.897 E.03653
G1 X136.622 Y87.225 E.01826
G1 X136.81 Y87.853 E.03619
G1 X137.225 Y88.691 E.05156
G1 X137.535 Y89.105 E.02855
G1 X137.948 Y89.499 E.0315
G1 X138.424 Y89.892 E.03407
G1 X138.937 Y90.18 E.03242
G1 X139.66 Y90.444 E.04249
G1 X140.529 Y90.584 E.04858
G1 X141.262 Y90.558 E.04047
G1 X142.015 Y90.393 E.0425
G1 X142.527 Y90.193 E.03033
G1 X143.193 Y89.807 E.04247
G1 X143.755 Y89.327 E.04082
G1 X144.111 Y88.887 E.03121
G1 X144.111 Y98.852 E.54978
G1 X143.968 Y98.67 E.01276
G1 X143.34 Y98.061 E.04828
G1 X142.691 Y97.646 E.04248
G1 X141.837 Y97.314 E.05058
G1 X141.298 Y97.207 E.0303
G1 X140.816 Y97.175 E.02665
G1 X140.199 Y97.207 E.03411
G1 X139.494 Y97.356 E.03975
G1 X138.937 Y97.579 E.03309
G1 X138.511 Y97.82 E.02699
G1 X138.043 Y98.156 E.03179
G1 X137.646 Y98.536 E.03033
G1 X137.373 Y98.87 E.0238
G1 X137.013 Y99.441 E.03726
G1 X136.794 Y99.941 E.03009
G1 X136.683 Y100.291 E.02028
G1 X136.576 Y100.83 E.0303
G1 X136.546 Y101.236 E.02245
G1 X136.584 Y102.01 E.04279
G1 X136.7 Y102.541 E.02997
G1 X136.902 Y103.05 E.03022
G1 X137.257 Y103.735 E.04258
G1 X137.62 Y104.197 E.03242
G1 X138.158 Y104.699 E.04058
G1 X138.811 Y105.115 E.04269
G1 X139.31 Y105.334 E.03007
G1 X139.946 Y105.501 E.0363
G1 X140.529 Y105.584 E.03249
G1 X141.298 Y105.551 E.04249
G1 X142.155 Y105.348 E.04858
G1 X142.824 Y105.043 E.04056
G1 X143.458 Y104.599 E.0427
G1 X143.852 Y104.222 E.03009
G1 X144.111 Y103.905 E.0226
G1 X144.111 Y115.037 E.61418
;WIDTH:0.766103
G1 X144.088 Y115.324 E.01698
;WIDTH:0.812207
G1 X144.065 Y115.611 E.01807
;WIDTH:0.85831
G1 X144.042 Y115.899 E.01915
G1 X143.944 Y115.641 E.01832
;WIDTH:0.812207
G1 X143.847 Y115.383 E.01728
;WIDTH:0.766103
G1 X143.749 Y115.125 E.01624
;WIDTH:0.719999
G1 X143.497 Y114.641 E.03013
G1 X143.139 Y114.175 E.03244
G1 X142.736 Y113.806 E.03013
G1 X142.341 Y113.536 E.02639
G1 X141.652 Y113.25 E.04117
G1 X140.886 Y113.121 E.04287
G1 X140.451 Y113.129 E.024
G1 X139.946 Y113.22 E.02833
G1 X139.491 Y113.381 E.02662
G1 X139.001 Y113.637 E.03051
G1 X138.614 Y113.916 E.02634
G1 X138.156 Y114.402 E.03683
G1 X137.834 Y114.921 E.0337
G1 X137.597 Y115.54 E.03658
G1 X137.498 Y116.138 E.03341
G1 X137.507 Y116.757 E.03419
G1 X137.622 Y117.318 E.03159
G1 X137.838 Y117.847 E.0315
G1 X138.093 Y118.256 E.02662
G1 X138.45 Y118.679 E.03051
G1 X138.705 Y118.924 E.01952
G1 X139.222 Y119.265 E.03418
G1 X139.774 Y119.495 E.033
G1 X140.281 Y119.605 E.02862
G1 X140.897 Y119.637 E.03402
G1 X141.554 Y119.538 E.03666
G1 X142.003 Y119.38 E.02623
G1 X142.487 Y119.127 E.03014
G1 X142.876 Y118.849 E.0264
G1 X143.123 Y118.612 E.01885
G1 X143.496 Y118.136 E.03341
G1 X143.797 Y117.534 E.03712
;WIDTH:0.766138
G1 X143.878 Y117.319 E.01356
;WIDTH:0.812276
G1 X143.96 Y117.104 E.01443
;WIDTH:0.858414
G1 X144.042 Y116.889 E.01529
G1 X144.051 Y116.967 E.00526
;WIDTH:0.840193
G1 X144.071 Y117.178 E.01376
;WIDTH:0.800129
G1 X144.091 Y117.389 E.01307
;WIDTH:0.760064
G1 X144.111 Y117.6 E.01238
;WIDTH:0.719999
G1 X144.111 Y134.164 E.91386
G1 X107.386 Y134.164 E2.02627
G1 X107.386 Y117.6 E.91388
;WIDTH:0.760715
G1 X107.406 Y117.353 E.01447
;WIDTH:0.801431
M73 P1 R42
G1 X107.427 Y117.107 E.01529
;WIDTH:0.842147
G1 X107.447 Y116.86 E.01611
G1 X107.507 Y117.023 E.01133
;WIDTH:0.804638
G1 X107.566 Y117.187 E.0108
;WIDTH:0.767128
G1 X107.838 Y117.847 E.04211
;WIDTH:0.719999
G1 X108.093 Y118.256 E.02662
G1 X108.45 Y118.679 E.03051
G1 X108.806 Y118.997 E.02634
G1 X109.085 Y119.182 E.01848
G1 X109.628 Y119.442 E.03325
G1 X110.281 Y119.605 E.03712
G1 X110.759 Y119.631 E.0264
G1 X111.303 Y119.584 E.03014
G1 X111.769 Y119.475 E.0264
G1 X112.276 Y119.264 E.0303
G1 X112.699 Y118.991 E.02778
G1 X113.055 Y118.671 E.0264
G1 X113.406 Y118.253 E.03013
G1 X113.646 Y117.876 E.02463
G1 X113.857 Y117.369 E.03032
G1 X113.974 Y116.847 E.02953
G1 X114 Y116.365 E.02661
G1 X113.951 Y115.814 E.03052
G1 X113.841 Y115.35 E.02634
G1 X113.637 Y114.86 E.02927
G1 X113.361 Y114.423 E.02853
G1 X112.979 Y114.003 E.0313
G1 X112.605 Y113.709 E.02626
G1 X111.846 Y113.305 E.04742
G1 X111.241 Y113.159 E.03433
G1 X110.611 Y113.121 E.03482
G1 X109.946 Y113.22 E.03712
G1 X109.495 Y113.379 E.0264
G1 X109.01 Y113.631 E.03013
G1 X108.544 Y113.989 E.03244
G1 X108.175 Y114.392 E.03014
G1 X107.889 Y114.82 E.02841
G1 X107.716 Y115.191 E.02258
;WIDTH:0.758466
G1 X107.653 Y115.341 E.0095
;WIDTH:0.796932
G1 X107.589 Y115.491 E.01001
;WIDTH:0.835398
G1 X107.526 Y115.641 E.01052
;WIDTH:0.873864
G1 X107.463 Y115.791 E.01103
G1 X107.444 Y115.623 E.01148
;WIDTH:0.835398
G1 X107.424 Y115.455 E.01095
;WIDTH:0.796932
G1 X107.405 Y115.286 E.01042
;WIDTH:0.758466
G1 X107.386 Y115.118 E.00988
;WIDTH:0.719999
G1 X107.386 Y103.911 E.61832
G1 X107.62 Y104.197 E.02042
G1 X108.187 Y104.718 E.04249
G1 X108.644 Y105.024 E.03033
G1 X109.008 Y105.207 E.02245
G1 X109.63 Y105.433 E.03653
G1 X110.273 Y105.564 E.03618
G1 X110.968 Y105.584 E.03839
G1 X111.335 Y105.544 E.02037
G1 X112.155 Y105.348 E.04652
G1 X112.824 Y105.043 E.04056
G1 X113.458 Y104.599 E.0427
G1 X114.068 Y103.969 E.04838
G1 X114.485 Y103.316 E.04276
G1 X114.705 Y102.812 E.03032
G1 X114.815 Y102.462 E.02025
G1 X114.953 Y101.599 E.04825
G1 X114.928 Y100.866 E.04046
G1 X114.762 Y100.113 E.0425
G1 X114.563 Y99.601 E.0303
G1 X114.393 Y99.275 E.02033
G1 X113.877 Y98.561 E.04856
G1 X113.34 Y98.061 E.04048
G1 X112.875 Y97.741 E.03116
G1 X112.321 Y97.474 E.03395
G1 X111.978 Y97.357 E.01997
G1 X111.333 Y97.215 E.03646
G1 X110.753 Y97.175 E.03209
G1 X110.199 Y97.207 E.03061
G1 X109.309 Y97.425 E.05056
G1 X108.517 Y97.809 E.04856
G1 X107.905 Y98.277 E.04249
G1 X107.386 Y98.852 E.04273
G1 X107.386 Y88.907 E.54868
G1 X107.529 Y89.089 E.01276
G1 X108.159 Y89.699 E.04838
G1 X108.779 Y90.1 E.04076
G1 X109.525 Y90.403 E.04444
G1 X110.164 Y90.544 E.03611
G1 X110.82 Y90.573 E.03621
G1 X111.375 Y90.544 E.03068
G1 X111.891 Y90.433 E.02913
G1 X112.313 Y90.276 E.02481
G1 X113.109 Y89.868 E.04933
G1 X113.568 Y89.506 E.03224
G1 X114.09 Y88.938 E.04258
G1 X114.389 Y88.49 E.02975
G1 X114.563 Y88.157 E.0207
G1 X114.835 Y87.407 E.044
G1 X114.928 Y86.893 E.02884
G1 X114.952 Y86.523 E.02044
G1 X114.911 Y85.73 E.04385
G1 X114.797 Y85.218 E.02894
G1 X114.651 Y84.828 E.02293
G1 X114.24 Y84.023 E.04988
G1 X113.877 Y83.561 E.03242
G1 X113.39 Y83.097 E.03711
G1 X112.975 Y82.806 E.02797
G1 X112.653 Y82.629 E.0203
G1 X112.125 Y82.411 E.03149
G1 X111.645 Y82.268 E.02763
G1 X110.968 Y82.175 E.03771
G1 X110.199 Y82.207 E.0425
G1 X109.377 Y82.397 E.04655
G1 X108.773 Y82.667 E.03648
G1 X108.218 Y83.021 E.03633
G1 X107.93 Y83.251 E.02032
G1 X107.386 Y83.854 E.04482
G1 X107.386 Y72.722 E.61417
;WIDTH:0.763898
G1 X107.408 Y72.424 E.01757
;WIDTH:0.807796
G1 X107.43 Y72.125 E.01864
;WIDTH:0.851694
G1 X107.452 Y71.827 E.01971
G1 X107.464 Y71.869 E.00285
;WIDTH:0.842189
G1 X107.559 Y72.123 E.01771
;WIDTH:0.801459
G1 X107.654 Y72.378 E.01681
;WIDTH:0.760729
G1 X107.748 Y72.633 E.01591
;WIDTH:0.719999
G1 X108 Y73.118 E.03014
G1 X108.282 Y73.51 E.02664
G1 X108.806 Y73.997 E.03944
G1 X109.375 Y74.337 E.03659
G1 X109.946 Y74.538 E.03341
G1 X110.616 Y74.638 E.03736
G1 X111.226 Y74.604 E.0337
G1 X111.869 Y74.442 E.03658
G1 X112.415 Y74.181 E.03341
G1 X112.955 Y73.78 E.03712
G1 X113.36 Y73.33 E.03341
G1 X113.706 Y72.753 E.03712
G1 X113.892 Y72.255 E.02934
G1 X113.991 Y71.748 E.02849
G1 X114.004 Y71.138 E.03366
G1 X113.908 Y70.577 E.03141
G1 X113.749 Y70.125 E.0264
G1 X113.376 Y69.444 E.04287
G1 X112.982 Y69.005 E.03256
G1 X112.605 Y68.709 E.02643
G1 X111.902 Y68.326 E.04416
G1 X111.252 Y68.161 E.03698
G1 X110.611 Y68.121 E.03544
G1 X109.946 Y68.22 E.03712
G1 X109.495 Y68.379 E.0264
G1 X109.01 Y68.631 E.03014
G1 X108.621 Y68.91 E.0264
G1 X108.374 Y69.146 E.01885
G1 X108.001 Y69.623 E.03341
G1 X107.7 Y70.225 E.03713
;WIDTH:0.766117
G1 X107.619 Y70.45 E.01408
;WIDTH:0.812235
G1 X107.537 Y70.674 E.01498
;WIDTH:0.858352
G1 X107.455 Y70.898 E.01588
G1 X107.432 Y70.652 E.01645
;WIDTH:0.812235
G1 X107.409 Y70.405 E.01552
;WIDTH:0.766117
G1 X107.386 Y70.159 E.01459
;WIDTH:0.719999
G1 X107.386 Y61.495 E.47801
G1 X144.111 Y61.495 E2.02627
G1 X144.111 Y70.309 E.48627
;WIDTH:0.763725
G1 X144.089 Y70.518 E.01237
;WIDTH:0.807451
G1 X144.068 Y70.728 E.01312
;WIDTH:0.851176
G1 X144.046 Y70.937 E.01387
G1 X144.007 Y70.805 E.00909
;WIDTH:0.821064
G1 X143.968 Y70.672 E.00875
;WIDTH:0.790952
G1 X143.844 Y70.356 E.02069
;WIDTH:0.755476
G1 X143.72 Y70.04 E.01971
;WIDTH:0.719999
G1 X143.486 Y69.623 E.0264
G1 X143.153 Y69.19 E.03013
G1 X142.623 Y68.711 E.03943
G1 X142.035 Y68.384 E.03714
G1 X141.252 Y68.161 E.04488
G1 X140.611 Y68.121 E.03543
G1 X139.946 Y68.22 E.03712
G1 X139.491 Y68.381 E.02662
G1 X139.001 Y68.637 E.03051
G1 X138.857 Y68.741 E.00982
G1 X139.3 Y69.255 F9000
G1 F1200
G1 X139.805 Y68.981 E.03173
G1 X140.078 Y68.884 E.01597
G1 X140.611 Y68.798 E.02981
G1 X140.886 Y68.798 E.01515
G1 X141.506 Y68.911 E.03475
G1 X142.042 Y69.143 E.03224
G1 X142.429 Y69.415 E.02608
G1 X142.948 Y70.036 E.04467
G1 X143.213 Y70.604 E.0346
G1 X143.33 Y71.243 E.0358
G1 X143.307 Y71.76 E.02856
G1 X143.111 Y72.411 E.03751
G1 X142.797 Y72.954 E.03461
G1 X142.477 Y73.302 E.02609
G1 X142.039 Y73.618 E.0298
G1 X141.61 Y73.817 E.02609
G1 X141.092 Y73.94 E.02933
G1 X140.561 Y73.959 E.02937
G1 X140.027 Y73.863 E.02991
G1 X139.529 Y73.661 E.02968
G1 X139.078 Y73.355 E.03003
G1 X138.722 Y72.985 E.02834
G1 X138.446 Y72.558 E.02804
G1 X138.257 Y72.075 E.02863
G1 X138.171 Y71.331 E.04133
G1 X138.187 Y71.044 E.01584
G1 X138.32 Y70.498 E.03103
G1 X138.556 Y70.011 E.02982
G1 X138.841 Y69.637 E.02599
G1 X139.19 Y69.315 E.02621
G1 X139.247 Y69.284 E.00355
G1 X139.572 Y69.889 F9000
;TYPE:Outer wall
G1 F1200
G1 X139.629 Y69.837 E.00424
G1 X140.119 Y69.581 E.03051
G1 X140.611 Y69.475 E.02777
G1 X140.886 Y69.475 E.01515
G1 X141.436 Y69.599 E.03108
G1 X141.799 Y69.785 E.02253
G1 X142.079 Y70.015 E.01997
G1 X142.411 Y70.448 E.03013
G1 X142.6 Y70.914 E.02773
G1 X142.653 Y71.25 E.01879
G1 X142.63 Y71.686 E.02409
G1 X142.465 Y72.207 E.03014
G1 X142.192 Y72.629 E.02773
G1 X141.947 Y72.865 E.01879
G1 X141.604 Y73.086 E.0225
G1 X141.288 Y73.21 E.01875
G1 X140.893 Y73.283 E.02211
G1 X140.463 Y73.261 E.0238
G1 X140.147 Y73.191 E.01785
G1 X139.835 Y73.055 E.01875
G1 X139.505 Y72.828 E.02211
G1 X139.263 Y72.577 E.01921
G1 X139.039 Y72.228 E.02292
G1 X138.893 Y71.816 E.0241
G1 X138.846 Y71.272 E.03014
G1 X138.94 Y70.77 E.02814
G1 X139.11 Y70.4 E.02251
G1 X139.31 Y70.125 E.01875
G1 X139.528 Y69.929 E.01615
G1 E-2.24 F4200
;WIPE_START
G1 F1200
G1 X139.629 Y69.837 E-.13144
G1 X140.119 Y69.581 E-.53081
G1 X140.422 Y69.516 E-.29774
;WIPE_END
G1 Z.6 F9000
G1 X144.046 Y70.937 Z.6
G1 Z.2
G1 E3.2 F1800
;TYPE:Inner wall
;WIDTH:0.851176
G1 F1200
G1 X144.055 Y71.622 E.04513
;WIDTH:0.858414
G1 X144.042 Y71.889 E.01772
G1 E-2.24 F4200
;WIPE_START
G1 F1200
G1 X144.055 Y71.622 E-.26889
G1 X144.046 Y70.937 E-.69111
;WIPE_END
G1 Z.6 F9000
G1 X144.79 Y85.078 Z.6
G1 Z.2
G1 E3.2 F1800
;WIDTH:0.719999
G1 F1200
G1 X144.791 Y85.359 E.01551
;WIDTH:0.714436
G1 X144.81 Y85.76 E.02192
;WIDTH:0.676017
G1 X144.83 Y86.16 E.02067
;WIDTH:0.644986
G1 X144.826 Y86.793 E.03105
;WIDTH:0.690617
G1 X144.803 Y87.376 E.03083
;WIDTH:0.719999
G1 X144.788 Y88.039 E.03654
G1 X144.791 Y100.359 E.67978
;WIDTH:0.71444
G1 X144.81 Y100.76 E.02192
;WIDTH:0.676019
G1 X144.83 Y101.16 E.02067
;WIDTH:0.644986
G1 X144.826 Y101.793 E.03105
;WIDTH:0.690617
G1 X144.803 Y102.376 E.03083
;WIDTH:0.719999
G1 X144.788 Y103.039 E.03654
G1 X144.788 Y134.841 E1.75462
G1 X106.709 Y134.841 E2.10098
M73 P1 R41
G1 X106.7 Y102.458 E1.78665
;WIDTH:0.702208
G1 X106.675 Y101.879 E.03113
;WIDTH:0.653056
G1 X106.671 Y100.965 E.04544
;WIDTH:0.691887
G1 X106.695 Y100.377 E.03115
;WIDTH:0.719999
G1 X106.709 Y99.718 E.03634
G1 X106.708 Y87.399 E.67968
;WIDTH:0.71778
G1 X106.688 Y86.999 E.02203
;WIDTH:0.677689
G1 X106.668 Y86.599 E.02072
;WIDTH:0.644986
G1 X106.671 Y85.966 E.03105
;WIDTH:0.691565
G1 X106.695 Y85.382 E.03088
;WIDTH:0.719999
G1 X106.709 Y84.72 E.03654
G1 X106.709 Y60.818 E1.31876
G1 X144.788 Y60.818 E2.10098
G1 X144.788 Y84.654 E1.31512
G1 X144.79 Y85.018 E.02008
G1 X143.898 Y84.797 F9000
G1 F1200
G1 X144.092 Y85.232 E.02626
G1 X144.157 Y85.6 E.02063
;WIDTH:0.684973
G1 X144.222 Y85.968 E.01956
;WIDTH:0.649946
G1 X144.235 Y86.599 E.03119
;WIDTH:0.664107
G1 X144.194 Y86.93 E.01691
;WIDTH:0.690617
G1 X144.152 Y87.262 E.01764
;WIDTH:0.719999
G1 X143.94 Y87.89 E.03654
G1 X143.443 Y88.662 E.05067
G1 X142.97 Y89.128 E.03662
G1 X142.459 Y89.472 E.03402
G1 X141.769 Y89.762 E.04127
G1 X141.145 Y89.891 E.03519
G1 X140.529 Y89.907 E.03397
G1 X139.792 Y89.78 E.04127
G1 X139.196 Y89.554 E.03518
G1 X138.616 Y89.194 E.03765
G1 X138.131 Y88.749 E.03632
G1 X137.803 Y88.335 E.02916
G1 X137.423 Y87.567 E.04725
G1 X137.28 Y87.064 E.02889
G1 X137.222 Y86.206 E.04745
G1 X137.245 Y85.941 E.01464
G1 X137.386 Y85.302 E.03611
G1 X137.642 Y84.695 E.03636
G1 X137.984 Y84.177 E.03426
G1 X138.41 Y83.73 E.03405
