; generated by PrusaSlicer 2.7.4 on 2024-06-19 at 10:20:08 UTC


;
;
; 

; external perimeters extrusion width = 0.45mm
; perimeters extrusion width = 0.45mm
; infill extrusion width = 0.45mm
; solid infill extrusion width = 0.45mm
; top infill extrusion width = 0.40mm
; first layer extrusion width = 0.42mm

M73 P0 R80
M73 Q0 S80
M201 X1000 Y1000 Z200 E5000 ; sets maximum accelerations, mm/sec^2
M203 X200 Y200 Z12 E120 ; sets maximum feedrates, mm / sec
M204 S1250 T1250 ; sets acceleration (S) and retract acceleration (R), mm/sec^2
M205 X8.00 Y8.00 Z0.40 E4.50 ; sets the jerk limits, mm/sec
M205 S0 T0 ; sets the minimum extruding and travel feed rate, mm/sec

; printing object marker - marker_upper_arm.stl id:0 copy 0
; stop printing object marker - marker_upper_arm.stl id:0 copy 0

;TYPE:Custom
M862.3 P "MK3S" ; printer model check
M862.1 P0.4 ; nozzle diameter check
M115 U3.13.3 ; tell printer latest fw version
G90 ; use absolute coordinates
M83 ; extruder relative mode
M104 S230 ; set extruder temp
M140 S60 ; set bed temp
M190 S60 ; wait for bed temp
M109 S230 ; wait for extruder temp
G28 W ; home all without mesh bed level
G80 X57.5902 Y82.8145 W132.816 H40.5669 ; mesh bed levelling

G1 Z0.2 F720
G1 Y-3 F1000 ; go outside print area
G92 E0
G1 X60 E9 F1000 ; intro line
G1 X100 E12.5 F1000 ; intro line

G92 E0
M221 S95

; Don't change E values below. Excessive value can damage the printer.
M907 E430 ; set extruder motor current
G21 ; set units to millimeters
G90 ; use absolute coordinates
M83 ; use relative distances for extrusion
M900 K0 ; Filament gcode
M107
;LAYER_CHANGE
;Z:0.3
;HEIGHT:0.3
G1 X64.989 Y87.664 F10800
G1 Z.3 F720
M204 S800
;TYPE:Skirt/Brim
;WIDTH:0.42
G1 F900
G1 X67.027 Y86.169 E.12332
G1 X68.544 Y85.288 E.08559
G1 X70.227 Y84.504 E.09059
G1 X72.62 Y83.691 E.12331
G1 X74.331 Y83.307 E.08556
G1 X76.07 Y83.074 E.0856
G1 X77.873 Y82.992 E.08806
G1 X185.924 Y82.993 E5.27184
G1 X186.758 Y83.084 E.04093
M73 P0 R79
G1 X187.587 Y83.344 E.04239
M73 Q0 S79
G1 X188.323 Y83.747 E.04094
G1 X188.976 Y84.292 E.0415
G1 X189.47 Y84.892 E.03792
G1 X189.874 Y85.627 E.04092
G1 X190.136 Y86.456 E.04242
G1 X190.228 Y87.297 E.04128
G1 X190.207 Y119.279 E1.56041
G1 X190.093 Y119.925 E.03201
G1 X189.877 Y120.562 E.03282
G1 X189.574 Y121.145 E.03206
G1 X189.119 Y121.752 E.03701
G1 X188.633 Y122.217 E.03282
G1 X188.006 Y122.645 E.03704
G1 X187.411 Y122.923 E.03204
G1 X186.68 Y123.128 E.03704
G1 X185.873 Y123.204 E.03955
G1 X77.873 Y123.204 E5.26935
G1 X75.3 Y123.038 E.1258
G1 X72.62 Y122.505 E.13332
G1 X71.045 Y122.008 E.08058
G1 X69.423 Y121.341 E.08557
G1 X67.027 Y120.027 E.13333
G1 X65.593 Y119.017 E.08558
G1 X64.252 Y117.886 E.08559
G1 X63.085 Y116.719 E.08052
G1 X61.954 Y115.378 E.08559
G1 X60.436 Y113.106 E.13332
G1 X59.673 Y111.641 E.08059
G1 X58.998 Y110.023 E.08554
G1 X58.466 Y108.351 E.08561
G1 X58.082 Y106.64 E.08556
G1 X57.84 Y104.799 E.0906
G1 X57.768 Y103.047 E.08555
G1 X57.849 Y101.295 E.08557
G1 X58.233 Y98.797 E.12331
G1 X58.683 Y97.101 E.08561
G1 X59.318 Y95.357 E.09056
G1 X60.281 Y93.373 E.1076
G1 X61.374 Y91.608 E.10129
G1 X62.439 Y90.214 E.08559
G1 X63.693 Y88.845 E.09058
G1 X64.945 Y87.704 E.08265
M204 S1000
; printing object marker - marker_upper_arm.stl id:0 copy 0
G1 X64.945 Y87.704 F10800
G1 X186.18 Y119.665
M204 S800
;TYPE:Perimeter
;WIDTH:0.42
G1 F900
G1 X185.824 Y119.725 E.01761
G1 X184.936 Y119.689 E.04336
G1 X184.473 Y119.527 E.02393
G1 X183.627 Y119.129 E.04562
G1 X183.039 Y118.908 E.03065
G1 X182.529 Y118.786 E.02559
G1 X181.88 Y118.729 E.03179
G1 X181.241 Y118.783 E.03129
G1 X180.445 Y118.999 E.04024
G1 X179.005 Y119.638 E.07686
G1 X178.436 Y119.727 E.0281
G1 X77.885 Y119.727 E4.90591
G1 X77.148 Y119.711 E.03597
G1 X76.424 Y119.663 E.0354
G1 X75.703 Y119.584 E.03539
G1 X74.985 Y119.474 E.03544
G1 X74.274 Y119.332 E.03537
G1 X73.569 Y119.16 E.03541
G1 X72.873 Y118.957 E.03537
G1 X72.186 Y118.724 E.03539
G1 X71.51 Y118.461 E.03539
G1 X70.845 Y118.169 E.03544
G1 X70.195 Y117.848 E.03537
G1 X69.559 Y117.499 E.0354
G1 X68.938 Y117.122 E.03545
G1 X68.335 Y116.719 E.03539
G1 X67.75 Y116.29 E.03539
G1 X67.184 Y115.836 E.0354
G1 X66.639 Y115.358 E.03537
G1 X66.115 Y114.856 E.03541
G1 X65.613 Y114.332 E.03541
G1 X65.135 Y113.787 E.03537
G1 X64.681 Y113.221 E.0354
G1 X64.252 Y112.636 E.03539
G1 X63.849 Y112.032 E.03543
G1 X63.472 Y111.412 E.0354
G1 X63.123 Y110.776 E.0354
G1 X62.802 Y110.125 E.03541
G1 X62.51 Y109.461 E.03539
G1 X62.247 Y108.785 E.03539
G1 X62.014 Y108.098 E.03539
G1 X61.811 Y107.402 E.03537
G1 X61.639 Y106.697 E.03541
G1 X61.497 Y105.986 E.03537
G1 X61.387 Y105.268 E.03544
G1 X61.308 Y104.547 E.03539
G1 X61.26 Y103.823 E.0354
G1 X61.244 Y103.098 E.03538
G1 X61.26 Y102.373 E.03538
G1 X61.308 Y101.649 E.0354
G1 X61.387 Y100.928 E.03539
G1 X61.488 Y100.268 E.03258
G1 X61.639 Y99.498 E.03828
G1 X61.811 Y98.794 E.03536
G1 X62.014 Y98.098 E.03537
G1 X62.245 Y97.417 E.03509
G1 X62.657 Y96.403 E.0534
G1 X63.127 Y95.414 E.05343
G1 X63.472 Y94.784 E.03505
G1 X63.849 Y94.163 E.03545
G1 X64.252 Y93.56 E.03539
G1 X64.681 Y92.975 E.03539
G1 X65.135 Y92.409 E.0354
G1 X65.613 Y91.864 E.03537
G1 X66.115 Y91.34 E.03541
G1 X66.597 Y90.879 E.03254
G1 X67.186 Y90.359 E.03833
G1 X67.75 Y89.906 E.03529
G1 X68.335 Y89.477 E.03539
G1 X68.938 Y89.074 E.03539
G1 X69.559 Y88.697 E.03545
G1 X70.195 Y88.348 E.0354
G1 X70.845 Y88.027 E.03537
G1 X71.51 Y87.735 E.03544
G1 X72.186 Y87.472 E.03539
G1 X72.873 Y87.239 E.03539
G1 X73.569 Y87.036 E.03537
G1 X74.274 Y86.864 E.03541
G1 X74.985 Y86.722 E.03537
G1 X75.703 Y86.612 E.03544
G1 X76.424 Y86.533 E.03539
G1 X77.148 Y86.485 E.0354
G1 X77.885 Y86.469 E.03597
G1 X178.395 Y86.471 E4.90391
G1 X178.81 Y86.506 E.02032
G1 X179.23 Y86.655 E.02174
G1 X180.15 Y87.08 E.04945
G1 X180.737 Y87.297 E.03053
G1 X181.245 Y87.415 E.02545
G1 X181.873 Y87.467 E.03075
G1 X182.508 Y87.413 E.03109
G1 X183.139 Y87.256 E.03173
G1 X183.686 Y87.041 E.02868
G1 X184.472 Y86.669 E.04243
G1 X184.936 Y86.507 E.02398
G1 X185.387 Y86.47 E.02208
G1 X185.996 Y86.493 E.02973
G1 X186.371 Y86.637 E.0196
M73 Q1 S79
G1 X186.562 Y86.82 E.01291
G1 X186.692 Y87.056 E.01315
G1 X186.752 Y87.454 E.01964
G1 X186.75 Y118.36 E1.50791
G1 X186.727 Y119.037 E.03305
M73 P1 R79
G1 X186.523 Y119.431 E.02165
G1 X186.23 Y119.631 E.01731
M204 S1000
G1 X186.23 Y119.631 F10800
G1 X186.356 Y119.973
M204 S800
G1 F900
G1 X186.328 Y119.992 E.00165
G1 X185.914 Y120.081 E.02066
G1 X185.388 Y120.082 E.02566
G1 X184.865 Y120.039 E.0256
G1 X184.32 Y119.849 E.02816
G1 X183.498 Y119.461 E.04435
G1 X183.011 Y119.272 E.02549
G1 X182.491 Y119.14 E.02618
G1 X181.902 Y119.084 E.02887
G1 X181.327 Y119.128 E.02814
G1 X180.592 Y119.322 E.03709
G1 X179.461 Y119.838 E.06065
G1 X178.969 Y120.013 E.02548
G1 X178.449 Y120.082 E.02559
G1 X77.881 Y120.082 E4.90674
G1 X77.132 Y120.066 E.03655
G1 X76.393 Y120.018 E.03613
G1 X75.656 Y119.937 E.03617
G1 X74.924 Y119.824 E.03614
G1 X74.197 Y119.68 E.03616
G1 X73.477 Y119.503 E.03617
G1 X72.766 Y119.296 E.03613
G1 X72.064 Y119.058 E.03617
G1 X71.373 Y118.789 E.03618
G1 X70.695 Y118.491 E.03613
G1 X70.031 Y118.163 E.03613
G1 X69.381 Y117.807 E.03616
G1 X68.747 Y117.422 E.03619
G1 X68.131 Y117.011 E.03613
G1 X67.534 Y116.572 E.03616
G1 X66.956 Y116.109 E.03613
G1 X66.399 Y115.62 E.03616
G1 X65.863 Y115.108 E.03617
G1 X65.351 Y114.572 E.03617
G1 X64.862 Y114.015 E.03616
G1 X64.399 Y113.437 E.03613
G1 X63.96 Y112.84 E.03616
G1 X63.549 Y112.224 E.03613
G1 X63.164 Y111.59 E.03619
G1 X62.808 Y110.94 E.03616
G1 X62.48 Y110.276 E.03613
G1 X62.182 Y109.598 E.03613
G1 X61.913 Y108.907 E.03618
G1 X61.675 Y108.205 E.03617
G1 X61.467 Y107.494 E.03614
G1 X61.291 Y106.774 E.03616
G1 X61.147 Y106.047 E.03616
G1 X61.034 Y105.315 E.03614
G1 X60.953 Y104.578 E.03617
G1 X60.905 Y103.839 E.03613
G1 X60.889 Y103.098 E.03616
G1 X60.905 Y102.357 E.03616
G1 X60.953 Y101.618 E.03613
G1 X61.034 Y100.881 E.03617
G1 X61.138 Y100.207 E.03327
G1 X61.292 Y99.421 E.03908
G1 X61.467 Y98.702 E.0361
G1 X61.675 Y97.991 E.03614
G1 X61.912 Y97.293 E.03597
G1 X62.331 Y96.259 E.05443
G1 X62.81 Y95.252 E.05441
G1 X63.164 Y94.606 E.03594
G1 X63.549 Y93.972 E.03619
G1 X63.96 Y93.356 E.03613
G1 X64.399 Y92.759 E.03616
G1 X64.862 Y92.181 E.03613
G1 X65.351 Y91.624 E.03616
G1 X65.863 Y91.088 E.03617
G1 X66.356 Y90.617 E.03327
G1 X66.956 Y90.087 E.03906
G1 X67.534 Y89.624 E.03613
G1 X68.131 Y89.185 E.03616
G1 X68.747 Y88.774 E.03613
G1 X69.381 Y88.389 E.03619
G1 X70.031 Y88.033 E.03616
G1 X70.695 Y87.705 E.03613
G1 X71.373 Y87.407 E.03613
G1 X72.064 Y87.138 E.03618
G1 X72.766 Y86.9 E.03617
G1 X73.477 Y86.693 E.03613
G1 X74.197 Y86.516 E.03617
G1 X74.924 Y86.372 E.03616
G1 X75.656 Y86.259 E.03614
G1 X76.393 Y86.178 E.03617
G1 X77.132 Y86.13 E.03613
G1 X77.881 Y86.114 E.03655
G1 X178.395 Y86.115 E4.9041
G1 X178.881 Y86.156 E.0238
G1 X179.38 Y86.333 E.02583
G1 X180.277 Y86.748 E.04822
G1 X180.763 Y86.933 E.02537
G1 X181.281 Y87.061 E.02603
G1 X181.85 Y87.112 E.02787
G1 X182.426 Y87.067 E.02819
G1 X183.01 Y86.924 E.02934
G1 X183.534 Y86.72 E.02744
G1 X184.32 Y86.347 E.04245
G1 X184.865 Y86.157 E.02816
G1 X185.214 Y86.122 E.01711
G1 X185.772 Y86.115 E.02723
G1 X186.237 Y86.174 E.02287
G1 X186.577 Y86.342 E.0185
G1 X186.847 Y86.601 E.01825
G1 X187.038 Y86.947 E.01928
G1 X187.107 Y87.454 E.02496
G1 X187.106 Y118.889 E1.53372
G1 X187.017 Y119.303 E.02066
G1 X186.741 Y119.716 E.02424
G1 X186.406 Y119.94 E.01966
M204 S1000
G1 X186.406 Y119.94 F10800
G1 X186.551 Y120.267
M204 S800
;TYPE:External perimeter
G1 F900
G1 X186.476 Y120.318 E.00443
G1 X185.937 Y120.436 E.02692
G1 X185.389 Y120.438 E.02674
G1 X184.793 Y120.389 E.02918
G1 X184.168 Y120.17 E.03231
G1 X183.37 Y119.792 E.04308
G1 X182.882 Y119.603 E.02553
G1 X182.453 Y119.493 E.02161
G1 X181.923 Y119.439 E.02599
G1 X181.414 Y119.473 E.02489
G1 X180.74 Y119.646 E.03395
G1 X179.528 Y120.194 E.0649
G1 X179.055 Y120.358 E.02443
G1 X178.463 Y120.438 E.02915
G1 X77.877 Y120.438 E4.90761
G1 X77.117 Y120.421 E.03709
M73 P1 R78
M73 Q1 S78
G1 X76.362 Y120.372 E.03691
G1 X75.61 Y120.29 E.03691
G1 X74.862 Y120.174 E.03693
G1 X74.12 Y120.027 E.03691
G1 X73.385 Y119.847 E.03692
G1 X72.659 Y119.635 E.0369
G1 X71.942 Y119.392 E.03694
G1 X71.237 Y119.118 E.0369
G1 X70.545 Y118.813 E.0369
G1 X69.866 Y118.479 E.03692
G1 X69.203 Y118.115 E.0369
G1 X68.556 Y117.722 E.03693
G1 X67.927 Y117.302 E.0369
G1 X67.317 Y116.855 E.0369
G1 X66.727 Y116.381 E.03693
G1 X66.158 Y115.882 E.03692
G1 X65.612 Y115.359 E.03689
G1 X65.089 Y114.813 E.03689
G1 X64.59 Y114.244 E.03692
G1 X64.116 Y113.654 E.03693
G1 X63.669 Y113.044 E.0369
G1 X63.249 Y112.415 E.0369
G1 X62.856 Y111.768 E.03693
G1 X62.492 Y111.105 E.0369
G1 X62.158 Y110.426 E.03692
G1 X61.853 Y109.734 E.0369
G1 X61.579 Y109.029 E.0369
G1 X61.336 Y108.312 E.03694
G1 X61.124 Y107.586 E.0369
G1 X60.944 Y106.851 E.03692
G1 X60.797 Y106.109 E.03691
G1 X60.681 Y105.361 E.03693
G1 X60.599 Y104.609 E.03691
G1 X60.55 Y103.854 E.03691
G1 X60.533 Y103.098 E.03689
G1 X60.55 Y102.342 E.03689
G1 X60.599 Y101.587 E.03691
G1 X60.681 Y100.835 E.03691
G1 X60.787 Y100.146 E.03401
G1 X60.944 Y99.345 E.03982
G1 X61.124 Y98.61 E.03692
G1 X61.336 Y97.884 E.0369
G1 X61.578 Y97.169 E.03683
G1 X62.005 Y96.116 E.05544
G1 X62.493 Y95.09 E.05543
G1 X62.856 Y94.428 E.03684
G1 X63.249 Y93.781 E.03693
G1 X63.669 Y93.152 E.0369
G1 X64.116 Y92.542 E.0369
G1 X64.59 Y91.952 E.03693
G1 X65.089 Y91.383 E.03692
G1 X65.612 Y90.837 E.03689
G1 X66.115 Y90.355 E.03399
G1 X66.727 Y89.815 E.03982
G1 X67.317 Y89.341 E.03693
G1 X67.927 Y88.894 E.0369
G1 X68.556 Y88.474 E.0369
G1 X69.203 Y88.081 E.03693
G1 X69.866 Y87.717 E.0369
G1 X70.545 Y87.383 E.03692
G1 X71.237 Y87.078 E.0369
G1 X71.942 Y86.804 E.0369
G1 X72.659 Y86.561 E.03694
G1 X73.385 Y86.349 E.0369
G1 X74.12 Y86.169 E.03692
G1 X74.862 Y86.022 E.03691
G1 X75.61 Y85.906 E.03693
G1 X76.362 Y85.824 E.03691
G1 X77.117 Y85.775 E.03691
G1 X77.877 Y85.758 E.03709
G1 X178.395 Y85.76 E4.9043
G1 X178.952 Y85.806 E.02727
G1 X179.53 Y86.01 E.02991
G1 X180.403 Y86.416 E.04697
G1 X180.889 Y86.601 E.02537
G1 X181.318 Y86.707 E.02156
G1 X181.827 Y86.757 E.02495
G1 X182.345 Y86.721 E.02533
G1 X182.882 Y86.593 E.02693
G1 X183.381 Y86.399 E.02612
G1 X184.311 Y85.958 E.05022
G1 X184.793 Y85.807 E.02464
G1 X185.284 Y85.758 E.02408
G1 X185.79 Y85.759 E.02469
G1 X186.348 Y85.833 E.02746
G1 X186.783 Y86.047 E.02365
G1 X187.133 Y86.381 E.0236
G1 X187.399 Y86.915 E.02911
G1 X187.463 Y87.454 E.02648
G1 X187.461 Y118.36 E1.50791
G1 X187.424 Y119.192 E.04063
G1 X187.261 Y119.585 E.02076
G1 X186.992 Y119.967 E.0228
G1 X186.601 Y120.233 E.02307
M204 S1000
G1 X186.224 Y120.367 F10800
G1 X186.592 Y87.807
M204 S800
;TYPE:Solid infill
;WIDTH:0.420533
G1 F900
G1 X185.575 Y86.79 E.07028
G1 X185.094 Y86.813 E.02353
G1 X186.432 Y88.15 E.09243
G1 X186.432 Y88.654 E.02463
G1 X184.696 Y86.918 E.11996
G1 X184.353 Y87.079 E.01851
G1 X186.432 Y89.158 E.14367
G1 X186.432 Y89.661 E.02458
G1 X184.011 Y87.241 E.16726
G1 X183.661 Y87.395 E.01868
G1 X186.432 Y90.165 E.19145
G1 X186.431 Y90.669 E.02463
G1 X183.3 Y87.537 E.2164
G1 X182.903 Y87.644 E.02009
G1 X186.431 Y91.172 E.2438
G1 X186.431 Y91.676 E.02463
G1 X182.49 Y87.734 E.27237
G1 X182.027 Y87.775 E.02271
G1 X186.431 Y92.18 E.30437
G1 X186.431 Y92.683 E.02458
G1 X181.505 Y87.757 E.3404
G1 X181.205 Y87.732 E.01471
G1 X180.909 Y87.665 E.01483
G1 X186.431 Y93.187 E.38159
G1 X186.431 Y93.691 E.02463
G1 X180.165 Y87.424 E.43304
G1 X179.962 Y87.348 E.01059
G1 X179.258 Y87.021 E.03793
G1 X186.431 Y94.194 E.49568
M73 Q2 S78
G1 X186.431 Y94.698 E.02463
G1 X178.529 Y86.795 E.54609
G1 X178.021 Y86.791 E.02482
M73 P2 R78
G1 X186.431 Y95.201 E.58116
G1 X186.431 Y95.705 E.02463
G1 X177.517 Y86.791 E.61599
G1 X177.013 Y86.791 E.02463
G1 X186.431 Y96.209 E.65081
G1 X186.431 Y96.712 E.02458
G1 X176.509 Y86.791 E.68561
G1 X176.006 Y86.791 E.02458
G1 X186.431 Y97.216 E.7204
G1 X186.431 Y97.72 E.02463
G1 X175.502 Y86.791 E.75523
G1 X174.998 Y86.791 E.02463
G1 X186.431 Y98.223 E.79002
G1 X186.431 Y98.727 E.02463
G1 X174.495 Y86.791 E.82482
G1 X173.991 Y86.791 E.02463
G1 X186.431 Y99.231 E.85964
G1 X186.431 Y99.734 E.02458
G1 X173.487 Y86.791 E.89444
G1 X172.984 Y86.791 E.02458
G1 X186.431 Y100.238 E.92923
G1 X186.431 Y100.742 E.02463
G1 X172.48 Y86.791 E.96406
G1 X171.976 Y86.791 E.02463
G1 X186.431 Y101.245 E.99885
G1 X186.431 Y101.749 E.02463
G1 X171.473 Y86.791 E1.03365
G1 X170.969 Y86.791 E.02463
G1 X186.431 Y102.253 E1.06847
G1 X186.431 Y102.756 E.02458
G1 X170.465 Y86.791 E1.10327
G1 X169.962 Y86.791 E.02458
G1 X186.431 Y103.26 E1.13806
G1 X186.431 Y103.763 E.02458
G1 X169.458 Y86.791 E1.17285
G1 X168.954 Y86.791 E.02463
G1 X186.431 Y104.267 E1.20768
G1 X186.431 Y104.771 E.02463
G1 X168.451 Y86.791 E1.24248
G1 X167.947 Y86.791 E.02463
G1 X186.431 Y105.274 E1.27727
G1 X186.431 Y105.778 E.02463
G1 X167.443 Y86.791 E1.3121
G1 X166.94 Y86.791 E.02458
G1 X186.431 Y106.282 E1.34689
G1 X186.431 Y106.785 E.02458
G1 X166.436 Y86.791 E1.38168
G1 X165.932 Y86.791 E.02463
G1 X186.431 Y107.289 E1.41651
G1 X186.431 Y107.793 E.02463
G1 X165.428 Y86.791 E1.45134
G1 X164.925 Y86.791 E.02458
M73 P2 R77
G1 X186.431 Y108.296 E1.4861
G1 X186.43 Y108.8 E.02463
M73 Q2 S77
G1 X164.421 Y86.791 E1.52089
G1 X163.917 Y86.791 E.02463
G1 X186.43 Y109.304 E1.55572
G1 X186.43 Y109.807 E.02458
G1 X163.414 Y86.791 E1.59048
G1 X162.91 Y86.791 E.02463
G1 X186.43 Y110.311 E1.62531
G1 X186.43 Y110.815 E.02463
M73 P3 R77
M73 Q3 S77
G1 X162.406 Y86.791 E1.66014
G1 X161.903 Y86.791 E.02458
G1 X186.43 Y111.318 E1.69489
G1 X186.43 Y111.822 E.02463
G1 X161.399 Y86.791 E1.72972
G1 X160.895 Y86.791 E.02463
G1 X186.43 Y112.325 E1.76452
G1 X186.43 Y112.829 E.02463
G1 X160.392 Y86.791 E1.79931
G1 X159.888 Y86.791 E.02463
G1 X186.43 Y113.333 E1.83414
G1 X186.43 Y113.836 E.02458
G1 X159.384 Y86.791 E1.86893
G1 X158.881 Y86.791 E.02458
G1 X186.43 Y114.34 E1.90372
G1 X186.43 Y114.844 E.02463
G1 X158.377 Y86.79 E1.93859
G1 X157.873 Y86.79 E.02463
G1 X186.43 Y115.347 E1.97338
G1 X186.43 Y115.851 E.02463
G1 X157.37 Y86.79 E2.00817
G1 X156.866 Y86.79 E.02463
G1 X186.43 Y116.355 E2.043
G1 X186.43 Y116.858 E.02458
