; generated by PrusaSlicer 2.7.4 on 2024-07-02 at 12:07:19 UTC


;
;
; 

; external perimeters extrusion width = 0.45mm
; perimeters extrusion width = 0.45mm
; infill extrusion width = 0.45mm
; solid infill extrusion width = 0.45mm
; top infill extrusion width = 0.40mm
; first layer extrusion width = 0.42mm

M73 P0 R80
M73 Q0 S80
M201 X1000 Y1000 Z200 E5000 ; sets maximum accelerations, mm/sec^2
M203 X200 Y200 Z12 E120 ; sets maximum feedrates, mm / sec
M204 S1250 T1250 ; sets acceleration (S) and retract acceleration (R), mm/sec^2
M205 X8.00 Y8.00 Z0.40 E4.50 ; sets the jerk limits, mm/sec
M205 S0 T0 ; sets the minimum extruding and travel feed rate, mm/sec

; printing object marker - marker_upper_arm.stl id:0 copy 0
; stop printing object marker - marker_upper_arm.stl id:0 copy 0

;TYPE:Custom
M862.3 P "MK3S" ; printer model check
M862.1 P0.4 ; nozzle diameter check
M115 U3.13.3 ; tell printer latest fw version
G90 ; use absolute coordinates
M83 ; extruder relative mode
M104 S230 ; set extruder temp
M140 S60 ; set bed temp
M190 S60 ; wait for bed temp
M109 S230 ; wait for extruder temp
G28 W ; home all without mesh bed level
G80 X104.717 Y38.5925 W40.5669 H132.816 ; mesh bed levelling

G1 Z0.2 F720
G1 Y-3 F1000 ; go outside print area
G92 E0
G1 X60 E9 F1000 ; intro line
G1 X100 E12.5 F1000 ; intro line

G92 E0
M221 S95

; Don't change E values below. Excessive value can damage the printer.
M907 E430 ; set extruder motor current
G21 ; set units to millimeters
G90 ; use absolute coordinates
M83 ; use relative distances for extrusion
M900 K0 ; Filament gcode
M107
;LAYER_CHANGE
;Z:0.3
;HEIGHT:0.3
G1 X107.023 Y49.906 F10800
G1 Z.3 F720
M204 S800
;TYPE:Skirt/Brim
;WIDTH:0.42
G1 F900
G1 X107.19 Y49.546 E.01936
G1 X108.071 Y48.03 E.08555
G1 X109.081 Y46.595 E.08562
G1 X110.212 Y45.255 E.08555
G1 X112.037 Y43.507 E.1233
G1 X113.426 Y42.436 E.08558
G1 X114.903 Y41.49 E.08558
G1 X116.457 Y40.676 E.08559
G1 X118.172 Y39.965 E.09058
G1 X119.846 Y39.442 E.08557
G1 X121.559 Y39.067 E.08556
G1 X123.299 Y38.842 E.0856
G1 X125.761 Y38.786 E.12015
G1 X127.573 Y38.936 E.08871
G1 X129.301 Y39.236 E.08557
G1 X130.997 Y39.685 E.0856
G1 X132.646 Y40.281 E.08555
G1 X134.238 Y41.018 E.08559
G1 X135.759 Y41.891 E.08557
G1 X137.198 Y42.894 E.08558
G1 X138.545 Y44.018 E.0856
G1 X139.788 Y45.255 E.08556
G1 X140.919 Y46.595 E.08555
G1 X141.929 Y48.03 E.08562
G1 X142.81 Y49.546 E.08555
G1 X143.555 Y51.134 E.08558
G1 X144.159 Y52.781 E.08559
G1 X144.617 Y54.474 E.08557
G1 X144.926 Y56.2 E.08555
G1 X145.106 Y58.875 E.13081
G1 X145.075 Y167.393 E5.29463
G1 X144.919 Y168.136 E.03704
M73 P0 R79
M73 Q0 S79
G1 X144.637 Y168.841 E.03705
G1 X144.288 Y169.415 E.03278
G1 X143.793 Y169.991 E.03705
G1 X143.206 Y170.472 E.03703
G1 X142.544 Y170.844 E.03705
G1 X141.827 Y171.095 E.03706
G1 X141.181 Y171.209 E.03201
G1 X108.733 Y171.2 E1.58315
G1 X107.989 Y171.044 E.03709
G1 X107.285 Y170.762 E.037
G1 X106.639 Y170.362 E.03707
G1 X106.074 Y169.855 E.03704
G1 X105.605 Y169.259 E.037
G1 X105.214 Y168.513 E.04109
G1 X104.987 Y167.768 E.038
G1 X104.898 Y167.03 E.03627
G1 X104.894 Y58.875 E5.27691
G1 X105.06 Y56.302 E.1258
G1 X105.36 Y54.574 E.08557
G1 X105.81 Y52.879 E.08556
G1 X106.406 Y51.229 E.08559
G1 X106.997 Y49.96 E.0683
M204 S1000
; printing object marker - marker_upper_arm.stl id:0 copy 0
G1 X106.997 Y49.96 F10800
G1 X141.526 Y167.279
M204 S800
;TYPE:Perimeter
;WIDTH:0.42
G1 F900
G1 X141.341 Y167.521 E.01486
G1 X141.085 Y167.684 E.01481
G1 X140.768 Y167.752 E.01582
G1 X109.156 Y167.746 E1.54236
G1 X108.812 Y167.633 E.01767
G1 X108.58 Y167.438 E.01479
G1 X108.428 Y167.175 E.01482
G1 X108.393 Y166.85 E.01595
G1 X108.402 Y165.994 E.04177
G1 X108.561 Y165.495 E.02555
G1 X108.969 Y164.629 E.04671
G1 X109.19 Y164.042 E.0306
G1 X109.312 Y163.531 E.02563
G1 X109.369 Y162.882 E.03179
G1 X109.315 Y162.243 E.03129
G1 X109.099 Y161.447 E.04024
G1 X108.46 Y160.007 E.07686
G1 X108.371 Y159.438 E.0281
G1 X108.371 Y58.888 E4.90586
G1 X108.387 Y58.15 E.03602
G1 X108.435 Y57.426 E.0354
G1 X108.514 Y56.705 E.03539
G1 X108.624 Y55.988 E.03539
G1 X108.766 Y55.276 E.03542
G1 X108.938 Y54.572 E.03536
G1 X109.141 Y53.875 E.03542
G1 X109.374 Y53.188 E.03539
G1 X109.637 Y52.512 E.03539
G1 X109.929 Y51.848 E.03539
G1 X110.25 Y51.197 E.03541
G1 X110.599 Y50.561 E.0354
G1 X110.976 Y49.941 E.0354
G1 X111.379 Y49.338 E.03539
G1 X111.808 Y48.753 E.03539
G1 X112.262 Y48.187 E.0354
G1 X112.74 Y47.641 E.03541
G1 X113.242 Y47.117 E.03541
G1 X113.724 Y46.656 E.03254
G1 X114.313 Y46.136 E.03833
G1 X114.877 Y45.683 E.03529
G1 X115.462 Y45.254 E.03539
G1 X116.066 Y44.851 E.03543
G1 X116.686 Y44.475 E.03538
G1 X117.322 Y44.126 E.0354
G1 X117.973 Y43.805 E.03541
G1 X118.637 Y43.513 E.03539
G1 X119.313 Y43.25 E.03539
G1 X120 Y43.016 E.03541
G1 X120.696 Y42.813 E.03537
G1 X121.401 Y42.641 E.03541
G1 X122.112 Y42.499 E.03537
G1 X122.83 Y42.389 E.03544
G1 X123.551 Y42.31 E.03539
G1 X124.268 Y42.263 E.03506
G1 X125.331 Y42.254 E.05187
G1 X126.044 Y42.29 E.03483
G1 X126.867 Y42.356 E.04028
G1 X127.552 Y42.448 E.03372
G1 X128.256 Y42.573 E.03489
G1 X128.959 Y42.729 E.03513
G1 X129.657 Y42.916 E.03526
G1 X130.348 Y43.134 E.03535
G1 X131.028 Y43.382 E.03531
G1 X131.698 Y43.66 E.03539
G1 X132.355 Y43.966 E.03536
G1 X132.998 Y44.301 E.03537
G1 X133.625 Y44.664 E.03535
G1 X134.237 Y45.053 E.03538
G1 X134.831 Y45.469 E.03538
G1 X135.406 Y45.911 E.03539
G1 X135.962 Y46.377 E.0354
G1 X136.497 Y46.867 E.0354
G1 X137.009 Y47.38 E.03536
G1 X137.499 Y47.914 E.03536
G1 X137.965 Y48.47 E.0354
G1 X138.407 Y49.046 E.03542
G1 X138.823 Y49.639 E.03534
G1 X139.213 Y50.251 E.03541
G1 X139.575 Y50.879 E.03537
G1 X139.91 Y51.523 E.03542
G1 X140.217 Y52.18 E.03538
G1 X140.494 Y52.85 E.03537
G1 X140.742 Y53.532 E.03541
G1 X140.96 Y54.224 E.0354
G1 X141.148 Y54.924 E.03536
G1 X141.305 Y55.632 E.03538
G1 X141.431 Y56.347 E.03542
G1 X141.526 Y57.066 E.03539
G1 X141.589 Y57.788 E.03536
G1 X141.629 Y59.069 E.06253
G1 X141.629 Y158.378 E4.84531
G1 X141.605 Y159.744 E.06666
M73 P1 R79
M73 Q1 S79
G1 X141.445 Y160.208 E.02395
G1 X141.013 Y161.166 E.05127
G1 X140.754 Y161.907 E.0383
G1 X140.66 Y162.405 E.02473
G1 X140.634 Y163.032 E.03062
G1 X140.711 Y163.658 E.03077
G1 X140.842 Y164.142 E.02446
G1 X141.057 Y164.688 E.02863
G1 X141.469 Y165.558 E.04697
G1 X141.61 Y166.075 E.02615
G1 X141.613 Y167.011 E.04567
G1 X141.545 Y167.222 E.01082
M204 S1000
G1 X141.545 Y167.222 F10800
G1 X141.843 Y167.444
M204 S800
G1 F900
G1 X141.582 Y167.784 E.02091
G1 X141.222 Y168.014 E.02084
G1 X140.791 Y168.108 E.02152
G1 X109.312 Y168.11 E1.53587
G1 X108.823 Y168.031 E.02417
G1 X108.458 Y167.819 E.02059
G1 X108.183 Y167.491 E.02088
G1 X108.042 Y167.108 E.01991
G1 X108.028 Y166.269 E.04094
G1 X108.074 Y165.794 E.02328
G1 X108.24 Y165.343 E.02345
G1 X108.637 Y164.501 E.04542
G1 X108.826 Y164.013 E.02553
G1 X108.958 Y163.493 E.02618
G1 X109.014 Y162.904 E.02887
G1 X108.97 Y162.33 E.02809
G1 X108.776 Y161.595 E.03709
G1 X108.26 Y160.463 E.0607
G1 X108.085 Y159.972 E.02543
G1 X108.016 Y159.452 E.02559
G1 X108.016 Y58.884 E4.90674
G1 X108.032 Y58.135 E.03655
G1 X108.08 Y57.395 E.03618
G1 X108.161 Y56.658 E.03617
G1 X108.274 Y55.926 E.03614
G1 X108.418 Y55.199 E.03616
G1 X108.595 Y54.48 E.03613
G1 X108.802 Y53.768 E.03618
G1 X109.04 Y53.066 E.03617
G1 X109.309 Y52.376 E.03613
G1 X109.607 Y51.698 E.03613
G1 X109.935 Y51.033 E.03618
G1 X110.291 Y50.383 E.03616
G1 X110.676 Y49.75 E.03615
G1 X111.087 Y49.134 E.03613
G1 X111.526 Y48.536 E.03619
G1 X111.989 Y47.958 E.03613
G1 X112.478 Y47.401 E.03616
G1 X112.99 Y46.866 E.03613
G1 X113.483 Y46.394 E.0333
G1 X114.083 Y45.864 E.03906
G1 X114.661 Y45.401 E.03613
G1 X115.258 Y44.963 E.03613
G1 X115.874 Y44.551 E.03616
G1 X116.508 Y44.167 E.03616
G1 X117.158 Y43.81 E.03618
G1 X117.822 Y43.482 E.03613
G1 X118.5 Y43.184 E.03613
G1 X119.191 Y42.915 E.03618
G1 X119.893 Y42.677 E.03617
G1 X120.604 Y42.47 E.03613
G1 X121.324 Y42.294 E.03616
G1 X122.051 Y42.149 E.03617
G1 X122.783 Y42.036 E.03614
G1 X123.52 Y41.956 E.03617
G1 X124.255 Y41.908 E.03594
G1 X125.339 Y41.899 E.05289
G1 X126.062 Y41.935 E.03532
G1 X126.906 Y42.002 E.04131
G1 X127.606 Y42.096 E.03446
G1 X128.325 Y42.224 E.03563
G1 X129.044 Y42.384 E.03594
G1 X129.757 Y42.575 E.03601
G1 X130.462 Y42.798 E.03608
G1 X131.157 Y43.051 E.03609
G1 X131.841 Y43.334 E.03612
G1 X132.512 Y43.647 E.03612
G1 X133.169 Y43.989 E.03614
G1 X133.81 Y44.359 E.03611
G1 X134.435 Y44.758 E.03618
G1 X135.041 Y45.182 E.03609
G1 X135.629 Y45.633 E.03616
G1 X136.196 Y46.109 E.03612
G1 X136.743 Y46.61 E.03619
G1 X137.266 Y47.134 E.03612
G1 X137.767 Y47.68 E.03615
G1 X138.243 Y48.247 E.03612
G1 X138.694 Y48.835 E.03616
G1 X139.119 Y49.442 E.03615
G1 X139.517 Y50.067 E.03615
G1 X139.887 Y50.708 E.03611
G1 X140.229 Y51.365 E.03614
G1 X140.542 Y52.037 E.03617
G1 X140.826 Y52.721 E.03613
G1 X141.079 Y53.418 E.03618
G1 X141.302 Y54.124 E.03612
G1 X141.494 Y54.84 E.03617
G1 X141.654 Y55.563 E.03613
G1 X141.783 Y56.292 E.03612
G1 X141.879 Y57.027 E.03617
G1 X141.944 Y57.765 E.03615
G1 X141.984 Y59.069 E.06365
G1 X141.984 Y159.359 E4.89317
G1 X141.922 Y159.944 E.0287
G1 X141.769 Y160.355 E.0214
G1 X141.348 Y161.285 E.04981
G1 X141.123 Y161.906 E.03223
G1 X141.015 Y162.427 E.02596
G1 X140.988 Y162.994 E.0277
G1 X141.042 Y163.493 E.02449
G1 X141.174 Y164.013 E.02618
G1 X141.378 Y164.536 E.02739
G1 X141.803 Y165.434 E.04847
G1 X141.965 Y166.026 E.02995
G1 X141.969 Y167.049 E.04991
G1 X141.861 Y167.387 E.01731
M204 S1000
G1 X141.861 Y167.387 F10800
G1 X142.16 Y167.609
M204 S800
;TYPE:External perimeter
G1 F900
G1 X141.824 Y168.047 E.02693
G1 X141.358 Y168.344 E.02696
G1 X140.815 Y168.464 E.02713
G1 X109.899 Y168.465 E1.5084
G1 X109.206 Y168.462 E.03381
G1 X108.704 Y168.368 E.02492
G1 X108.229 Y168.093 E.02678
G1 X107.874 Y167.67 E.02694
G1 X107.687 Y167.157 E.02664
G1 X107.672 Y166.262 E.04367
G1 X107.728 Y165.708 E.02717
G1 X107.918 Y165.191 E.02687
G1 X108.306 Y164.372 E.04422
G1 X108.495 Y163.884 E.02553
G1 X108.605 Y163.455 E.02161
G1 X108.659 Y162.926 E.02594
G1 X108.625 Y162.416 E.02494
G1 X108.452 Y161.742 E.03395
G1 X107.904 Y160.531 E.06485
G1 X107.74 Y160.057 E.02447
G1 X107.66 Y159.466 E.0291
G1 X107.66 Y58.88 E4.90761
G1 X107.677 Y58.119 E.03714
M73 P1 R78
M73 Q1 S78
G1 X107.726 Y57.364 E.03691
G1 X107.808 Y56.612 E.03691
G1 X107.924 Y55.864 E.03693
G1 X108.071 Y55.122 E.03691
G1 X108.251 Y54.387 E.03692
G1 X108.463 Y53.661 E.0369
G1 X108.706 Y52.945 E.03689
G1 X108.98 Y52.24 E.0369
G1 X109.285 Y51.547 E.03694
G1 X109.619 Y50.869 E.03688
G1 X109.983 Y50.205 E.03695
G1 X110.376 Y49.559 E.03689
G1 X110.796 Y48.93 E.0369
G1 X111.243 Y48.319 E.03694
G1 X111.717 Y47.729 E.03693
G1 X112.216 Y47.161 E.03689
G1 X112.739 Y46.614 E.03692
G1 X113.242 Y46.132 E.03399
G1 X113.854 Y45.592 E.03982
G1 X114.444 Y45.119 E.03689
G1 X115.054 Y44.671 E.03693
G1 X115.683 Y44.251 E.0369
G1 X116.33 Y43.859 E.03691
G1 X116.993 Y43.495 E.0369
G1 X117.672 Y43.16 E.03694
G1 X118.364 Y42.855 E.0369
G1 X119.069 Y42.581 E.0369
G1 X119.786 Y42.338 E.03694
G1 X120.512 Y42.126 E.0369
G1 X121.247 Y41.946 E.03692
G1 X121.989 Y41.799 E.03691
G1 X122.737 Y41.684 E.03692
G1 X123.489 Y41.601 E.03691
G1 X124.242 Y41.552 E.03682
G1 X125.346 Y41.543 E.05387
G1 X126.079 Y41.58 E.03581
G1 X126.944 Y41.649 E.04234
G1 X127.66 Y41.745 E.03525
G1 X128.394 Y41.875 E.03637
G1 X129.128 Y42.038 E.03668
G1 X129.856 Y42.234 E.03678
G1 X130.576 Y42.461 E.03683
G1 X131.286 Y42.719 E.03686
G1 X131.984 Y43.009 E.03688
G1 X132.669 Y43.328 E.03687
G1 X133.34 Y43.677 E.0369
G1 X133.994 Y44.055 E.03686
G1 X134.632 Y44.462 E.03692
G1 X135.252 Y44.896 E.03692
G1 X135.852 Y45.356 E.03689
G1 X136.431 Y45.842 E.03688
G1 X136.988 Y46.353 E.03688
G1 X137.523 Y46.888 E.03691
G1 X138.034 Y47.445 E.03688
G1 X138.52 Y48.025 E.03692
G1 X138.981 Y48.625 E.03692
G1 X139.414 Y49.244 E.03686
G1 X139.821 Y49.882 E.03692
G1 X140.199 Y50.537 E.0369
G1 X140.548 Y51.208 E.0369
G1 X140.868 Y51.894 E.03693
G1 X141.157 Y52.592 E.03686
G1 X141.416 Y53.303 E.03692
G1 X141.643 Y54.025 E.03693
G1 X141.839 Y54.755 E.03688
G1 X142.003 Y55.494 E.03693
G1 X142.134 Y56.238 E.03686
G1 X142.233 Y56.988 E.03691
G1 X142.299 Y57.742 E.03693
G1 X142.34 Y59.069 E.06478
G1 X142.34 Y159.466 E4.89839
G1 X142.267 Y160.03 E.02775
G1 X142.093 Y160.502 E.02454
G1 X141.682 Y161.407 E.0485
G1 X141.458 Y162.027 E.03216
G1 X141.37 Y162.449 E.02103
G1 X141.342 Y162.956 E.02477
G1 X141.395 Y163.455 E.02448
G1 X141.505 Y163.884 E.02161
G1 X141.699 Y164.384 E.02617
G1 X142.138 Y165.31 E.05
G1 X142.321 Y165.978 E.03379
G1 X142.325 Y167.087 E.05411
G1 X142.178 Y167.552 E.02379
M204 S1000
G1 X141.949 Y167.88 F10800
G1 X134.922 Y45.734
M204 S800
;TYPE:Solid infill
;WIDTH:0.420573
G1 F900
G1 X137.024 Y47.858 E.14603
G1 X137.493 Y48.393 E.03477
G1 X137.938 Y48.947 E.03473
G1 X138.359 Y49.521 E.03479
G1 X138.669 Y49.985 E.02727
G1 X133.891 Y45.207 E.33021
G1 X133.154 Y44.752 E.04233
G1 X132.662 Y44.482 E.02743
G1 X139.393 Y51.213 E.46519
G1 X139.875 Y52.199 E.05363
G1 X131.677 Y44 E.56661
G1 X130.816 Y43.643 E.04555
G1 X140.232 Y53.059 E.65075
G1 X140.509 Y53.84 E.0405
G1 X130.035 Y43.366 E.72387
G1 X129.316 Y43.15 E.03669
M73 Q2 S78
G1 X140.725 Y54.56 E.78852
G1 X140.894 Y55.233 E.03391
M73 P2 R78
G1 X128.643 Y42.981 E.84671
G1 X128.008 Y42.85 E.03169
G1 X141.026 Y55.868 E.89969
G1 X141.127 Y56.472 E.02993
G1 X127.403 Y42.749 E.94844
G1 X126.824 Y42.673 E.02854
G1 X141.202 Y57.052 E.99371
G1 X141.257 Y57.61 E.0274
G1 X126.269 Y42.622 E1.03584
G1 X125.738 Y42.595 E.02598
G1 X141.292 Y58.149 E1.07495
G1 X141.304 Y58.665 E.02522
G1 X125.215 Y42.575 E1.11196
G1 X124.715 Y42.58 E.02444
G1 X141.309 Y59.173 E1.14679
G1 X141.309 Y59.677 E.02463
G1 X124.219 Y42.587 E1.18111
G1 X123.746 Y42.618 E.02316
G1 X141.309 Y60.181 E1.2138
G1 X141.309 Y60.684 E.02458
G1 X123.285 Y42.661 E1.24562
G1 X122.833 Y42.712 E.02223
G1 X141.309 Y61.188 E1.27689
G1 X141.309 Y61.692 E.02463
G1 X122.396 Y42.78 E1.30706
G1 X121.968 Y42.855 E.02123
G1 X141.309 Y62.196 E1.33668
G1 X141.309 Y62.699 E.02458
G1 X121.548 Y42.938 E1.3657
G1 X121.14 Y43.034 E.02048
G1 X141.309 Y63.203 E1.3939
G1 X141.309 Y63.707 E.02463
G1 X120.737 Y43.135 E1.42175
G1 X120.347 Y43.249 E.01986
G1 X141.309 Y64.211 E1.4487
G1 X141.309 Y64.714 E.02458
G1 X119.962 Y43.367 E1.47531
G1 X119.586 Y43.495 E.01941
G1 X141.309 Y65.218 E1.5013
G1 X141.309 Y65.722 E.02463
G1 X119.217 Y43.63 E1.5268
G1 X118.855 Y43.771 E.01899
G1 X141.309 Y66.225 E1.55182
G1 X141.309 Y66.729 E.02463
M73 P2 R77
G1 X118.501 Y43.922 E1.57625
G1 X118.152 Y44.076 E.01864
M73 Q2 S77
G1 X141.309 Y67.233 E1.6004
G1 X141.309 Y67.737 E.02463
G1 X117.813 Y44.241 E1.62383
G1 X117.475 Y44.407 E.0184
G1 X141.309 Y68.24 E1.64716
G1 X141.309 Y68.744 E.02463
M73 Q3 S77
G1 X117.15 Y44.585 E1.66965
G1 X116.825 Y44.764 E.01813
M73 P3 R77
G1 X141.309 Y69.248 E1.69211
G1 X141.309 Y69.752 E.02463
G1 X116.512 Y44.955 E1.71375
G1 X116.2 Y45.146 E.01788
G1 X141.309 Y70.255 E1.73531
G1 X141.309 Y70.759 E.02463
G1 X115.898 Y45.348 E1.75618
G1 X115.598 Y45.552 E.01773
G1 X141.309 Y71.263 E1.77691
G1 X141.309 Y71.767 E.02463
G1 X115.307 Y45.765 E1.79702
G1 X115.019 Y45.98 E.01756
G1 X141.309 Y72.27 E1.81693
G1 X141.309 Y72.774 E.02463
G1 X114.739 Y46.204 E1.83628
G1 X114.462 Y46.431 E.0175
G1 X141.309 Y73.278 E1.85542
G1 X141.309 Y73.781 E.02458
G1 X114.195 Y46.667 E1.87388
G1 X113.928 Y46.904 E.01745
G1 X141.309 Y74.285 E1.89233
G1 X141.309 Y74.789 E.02463
G1 X113.67 Y47.15 E1.91016
G1 X113.415 Y47.399 E.01742
G1 X141.309 Y75.293 E1.92778
G1 X141.309 Y75.796 E.02458
G1 X113.169 Y47.656 E1.94478
G1 X112.925 Y47.916 E.01742
G1 X141.309 Y76.3 E1.96165
G1 X141.309 Y76.804 E.02463
G1 X112.689 Y48.185 E1.97792
G1 X112.457 Y48.455 E.0174
G1 X141.309 Y77.308 E1.99402
G1 X141.309 Y77.811 E.02458
G1 X112.232 Y48.735 E2.00951
G1 X112.011 Y49.017 E.01751
M73 Q4 S77
G1 X141.309 Y78.315 E2.02481
G1 X141.309 Y78.819 E.02463
M73 P4 R76
M73 Q4 S76
G1 X111.798 Y49.308 E2.03953
G1 X111.588 Y49.601 E.01762
G1 X141.309 Y79.322 E2.05405
G1 X141.309 Y79.826 E.02463
G1 X111.386 Y49.903 E2.06801
G1 X111.187 Y50.209 E.01784
