; generated by PrusaSlicer 2.7.4 on 2024-05-15 at 10:25:07 UTC


;
;
; 

; external perimeters extrusion width = 0.45mm
; perimeters extrusion width = 0.45mm
; infill extrusion width = 0.45mm
; solid infill extrusion width = 0.45mm
; top infill extrusion width = 0.40mm
; first layer extrusion width = 0.42mm

M73 P0 R68
M73 Q0 S68
M201 X1000 Y1000 Z200 E5000 ; sets maximum accelerations, mm/sec^2
M203 X200 Y200 Z12 E120 ; sets maximum feedrates, mm / sec
M204 S1250 T1250 ; sets acceleration (S) and retract acceleration (R), mm/sec^2
M205 X8.00 Y8.00 Z0.40 E4.50 ; sets the jerk limits, mm/sec
M205 S0 T0 ; sets the minimum extruding and travel feed rate, mm/sec

; printing object marker - marker_upper_arm.stl id:0 copy 0
; stop printing object marker - marker_upper_arm.stl id:0 copy 0

;TYPE:Custom
M862.3 P "MK3S" ; printer model check
M862.1 P0.4 ; nozzle diameter check
M115 U3.13.3 ; tell printer latest fw version
G90 ; use absolute coordinates
M83 ; extruder relative mode
M104 S225 ; set extruder temp
M140 S50 ; set bed temp
M190 S50 ; wait for bed temp
M109 S225 ; wait for extruder temp
G28 W ; home all without mesh bed level
G80 X104.684 Y52.4344 W40.6312 H105.131 ; mesh bed levelling

G1 Z0.2 F720
G1 Y-3 F1000 ; go outside print area
G92 E0
G1 X60 E9 F1000 ; intro line
G1 X100 E12.5 F1000 ; intro line

G92 E0
M221 S95

; Don't change E values below. Excessive value can damage the printer.
M907 E430 ; set extruder motor current
G21 ; set units to millimeters
G90 ; use absolute coordinates
M83 ; use relative distances for extrusion
M900 K0 ; Filament gcode
M107
;LAYER_CHANGE
;Z:0.2
;HEIGHT:0.2
G1 E-1 F2100
G1 Z.2 F720
G1 X105.541 Y56.933 F10800
G1 Z.2 F720
M73 P0 R67
G1 E1 F1200
M204 S800
;TYPE:Skirt/Brim
;WIDTH:0.42
G1 X106.078 Y55.961 E.0383
G1 X106.679 Y55.164 E.03443
G1 X107.4 Y54.442 E.03519
G1 X108.29 Y53.777 E.03832
G1 X109.166 Y53.299 E.03442
G1 X110.042 Y52.962 E.03237
G1 X111.034 Y52.724 E.03518
G1 X112.238 Y52.623 E.04167
G1 X137.802 Y52.623 E.8817
G1 X139.237 Y52.775 E.04977
G1 X140.525 Y53.165 E.04641
G1 X141.67 Y53.751 E.04436
G1 X142.772 Y54.597 E.04792
G1 X143.634 Y55.551 E.04435
G1 X144.413 Y56.836 E.05183
G1 X144.862 Y58.041 E.04435
G1 X145.103 Y59.409 E.04791
G1 X145.127 Y153 E3.22793
G1 X144.964 Y154.183 E.04119
M73 Q0 S67
G1 X144.738 Y154.803 E.02276
G1 X144.413 Y155.395 E.02329
G1 X144.012 Y155.919 E.02276
G1 X143.523 Y156.386 E.02332
G1 X142.983 Y156.764 E.02273
G1 X142.377 Y157.063 E.02331
G1 X141.748 Y157.262 E.02275
G1 X141.08 Y157.364 E.02331
G1 X109.25 Y157.377 E1.09781
G1 X108.067 Y157.214 E.04119
G1 X107.447 Y156.988 E.02276
G1 X106.794 Y156.623 E.0258
G1 X106.263 Y156.199 E.02344
G1 X105.809 Y155.705 E.02314
G1 X105.434 Y155.143 E.0233
G1 X105.124 Y154.46 E.02587
G1 X104.95 Y153.816 E.02301
G1 X104.875 Y153.139 E.02349
G1 X104.873 Y60 E3.21234
G1 X104.937 Y59.031 E.03349
G1 X105.182 Y57.888 E.04032
G1 X105.52 Y56.989 E.03313
M204 S1000
G1 E-1 F2100
G1 X105.52 Y56.989 F10800
; printing object marker - marker_upper_arm.stl id:0 copy 0
G1 X108.484 Y153.317
G1 E1 F1200
M204 S800
;TYPE:Perimeter
;WIDTH:0.419999
G1 X108.416 Y152.841 E.01658
G1 X108.444 Y152.131 E.02451
G1 X108.6 Y151.638 E.01783
G1 X109.009 Y150.769 E.03313
G1 X109.232 Y150.176 E.02185
G1 X109.354 Y149.66 E.01829
G1 X109.412 Y149.003 E.02275
G1 X109.356 Y148.356 E.0224
G1 X109.138 Y147.553 E.0287
G1 X108.501 Y146.119 E.05412
G1 X108.414 Y145.561 E.01948
G1 X108.414 Y60.033 E2.94983
G1 X108.447 Y59.523 E.01763
G1 X108.586 Y58.878 E.02276
G1 X108.732 Y58.512 E.01359
G1 X108.962 Y58.044 E.01799
G1 X109.366 Y57.475 E.02407
G1 X109.844 Y57.016 E.02286
G1 X110.476 Y56.61 E.02591
G1 X111.118 Y56.338 E.02405
G1 X111.773 Y56.197 E.02311
G1 X112.283 Y56.164 E.01763
G1 X137.889 Y56.169 E.88314
G1 X138.58 Y56.259 E.02403
G1 X139.217 Y56.46 E.02304
G1 X139.588 Y56.653 E.01442
G1 X140.076 Y56.952 E.01974
G1 X140.453 Y57.282 E.01728
G1 X140.889 Y57.802 E.0234
G1 X141.108 Y58.181 E.0151
G1 X141.403 Y58.838 E.02484
G1 X141.513 Y59.336 E.01759
G1 X141.581 Y59.833 E.0173
G1 X141.586 Y144.618 E2.92421
G1 X141.574 Y145.788 E.04036
G1 X141.437 Y146.285 E.01778
G1 X141.007 Y147.194 E.03468
G1 X140.81 Y147.697 E.01863
G1 X140.641 Y148.368 E.02387
G1 X140.588 Y149.003 E.02198
G1 X140.643 Y149.646 E.02226
G1 X140.802 Y150.282 E.02261
G1 X141.018 Y150.831 E.02035
G1 X141.39 Y151.618 E.03002
G1 X141.552 Y152.082 E.01695
G1 X141.584 Y152.431 E.01209
G1 X141.585 Y152.85 E.01445
G1 X141.536 Y153.248 E.01383
G1 X141.426 Y153.473 E.00864
G1 X141.252 Y153.654 E.00866
G1 X141.032 Y153.775 E.00866
G1 X140.734 Y153.834 E.01048
G1 X109.4 Y153.836 E1.0807
G1 X109.002 Y153.786 E.01383
G1 X108.749 Y153.662 E.00972
G1 X108.521 Y153.365 E.01291
M204 S1000
G1 X108.521 Y153.365 F10800
G1 X108.136 Y153.462
M204 S800
G1 F1200
G1 X108.038 Y152.957 E.01774
G1 X108.044 Y152.367 E.02035
G1 X108.095 Y151.923 E.01541
G1 X108.259 Y151.477 E.01639
G1 X108.657 Y150.633 E.03218
G1 X108.846 Y150.146 E.01802
G1 X108.98 Y149.619 E.01875
G1 X109.035 Y149.026 E.02054
G1 X108.99 Y148.448 E.02
G1 X108.795 Y147.709 E.02636
G1 X108.279 Y146.579 E.04284
G1 X108.106 Y146.091 E.01786
G1 X108.037 Y145.576 E.01792
G1 X108.037 Y60.021 E2.95076
G1 X108.072 Y59.471 E.01901
G1 X108.224 Y58.767 E.02484
G1 X108.489 Y58.105 E.02459
G1 X108.761 Y57.641 E.01855
G1 X109.085 Y57.222 E.01827
G1 X109.603 Y56.724 E.02478
G1 X110.042 Y56.413 E.01856
G1 X110.515 Y56.162 E.01847
G1 X111.011 Y55.975 E.01828
G1 X111.721 Y55.822 E.02505
G1 X112.271 Y55.787 E.01901
G1 X137.914 Y55.792 E.88442
G1 X138.662 Y55.889 E.02601
M73 P1 R67
M73 Q1 S67
G1 X139.361 Y56.11 E.02528
G1 X139.855 Y56.367 E.01921
G1 X140.309 Y56.654 E.01852
G1 X140.724 Y57.018 E.01904
G1 X141.199 Y57.585 E.02551
G1 X141.569 Y58.226 E.02553
G1 X141.765 Y58.728 E.01859
G1 X141.881 Y59.254 E.01858
G1 X141.958 Y59.816 E.01956
G1 X141.959 Y145.65 E2.96039
G1 X141.884 Y146.155 E.01761
G1 X141.731 Y146.546 E.01448
G1 X141.174 Y147.796 E.0472
G1 X141.016 Y148.407 E.02177
G1 X140.965 Y148.979 E.01981
G1 X141.01 Y149.559 E.02006
G1 X141.154 Y150.146 E.02085
G1 X141.359 Y150.67 E.01941
G1 X141.731 Y151.456 E.02999
G1 X141.922 Y152.002 E.01995
G1 X141.961 Y152.43 E.01482
G1 X141.962 Y152.849 E.01445
G1 X141.9 Y153.363 E.01786
G1 X141.738 Y153.692 E.01265
G1 X141.484 Y153.957 E.01266
G1 X141.163 Y154.133 E.01263
G1 X140.772 Y154.211 E.01375
G1 X109.4 Y154.213 E1.08201
G1 X108.887 Y154.15 E.01783
G1 X108.722 Y154.069 E.00634
G1 X108.408 Y153.868 E.01286
G1 X108.169 Y153.512 E.01479
M204 S1000
G1 X108.169 Y153.512 F10800
G1 X107.799 Y153.605
M204 S800
;TYPE:External perimeter
G1 F1200
G1 X107.737 Y153.484 E.00469
G1 X107.66 Y152.984 E.01745
G1 X107.667 Y152.363 E.02142
G1 X107.728 Y151.832 E.01843
G1 X107.918 Y151.316 E.01896
G1 X108.306 Y150.496 E.03129
G1 X108.495 Y150.01 E.01798
G1 X108.605 Y149.579 E.01534
G1 X108.659 Y149.05 E.01834
G1 X108.625 Y148.54 E.01763
G1 X108.452 Y147.866 E.024
G1 X107.904 Y146.655 E.04584
G1 X107.74 Y146.182 E.01727
G1 X107.66 Y145.59 E.0206
G1 X107.66 Y60.009 E2.95166
G1 X107.698 Y59.419 E.02039
G1 X107.862 Y58.656 E.02692
G1 X108.15 Y57.939 E.02665
G1 X108.448 Y57.43 E.02034
G1 X108.804 Y56.969 E.02009
G1 X109.363 Y56.433 E.02671
G1 X109.844 Y56.092 E.02034
G1 X110.36 Y55.818 E.02015
G1 X110.904 Y55.612 E.02006
G1 X111.669 Y55.448 E.02698
G1 X112.259 Y55.41 E.02039
G1 X137.938 Y55.414 E.88566
G1 X138.743 Y55.52 E.028
G1 X139.506 Y55.76 E.02759
G1 X140.029 Y56.032 E.02033
G1 X140.542 Y56.357 E.02095
G1 X140.994 Y56.754 E.02075
G1 X141.509 Y57.368 E.02764
G1 X141.91 Y58.062 E.02764
G1 X142.126 Y58.618 E.02057
G1 X142.249 Y59.173 E.01961
G1 X142.335 Y59.8 E.02183
G1 X142.334 Y145.695 E2.96249
G1 X142.248 Y146.256 E.01957
G1 X142.071 Y146.708 E.01674
G1 X141.538 Y147.895 E.04488
G1 X141.391 Y148.445 E.01964
G1 X141.341 Y148.955 E.01767
G1 X141.377 Y149.473 E.01791
G1 X141.505 Y150.009 E.01901
G1 X141.7 Y150.509 E.01851
G1 X142.14 Y151.438 E.03545
G1 X142.292 Y151.922 E.0175
G1 X142.338 Y152.428 E.01752
G1 X142.34 Y152.983 E.01914
G1 X142.264 Y153.477 E.01724
G1 X142.051 Y153.91 E.01664
G1 X141.717 Y154.26 E.01669
G1 X141.293 Y154.492 E.01667
G1 X140.809 Y154.588 E.01702
G1 X109.267 Y154.59 E1.08787
G1 X108.772 Y154.514 E.01727
G1 X108.232 Y154.213 E.02132
G1 X107.916 Y153.835 E.01699
G1 X107.826 Y153.658 E.00685
M204 S1000
G1 X107.712 Y153.275 F10800
G1 E-1 F2100
G1 X138.598 Y56.442 F10800
G1 E1 F1200
M204 S800
;TYPE:Solid infill
;WIDTH:0.420619
G1 X141.067 Y58.912 E.12065
G1 X141.22 Y59.599 E.02431
G1 X138.169 Y56.547 E.14908
G1 X137.867 Y56.508 E.01052
G1 X137.595 Y56.508 E.0094
G1 X141.242 Y60.155 E.17818
G1 X141.242 Y60.689 E.01845
G1 X137.061 Y56.508 E.20427
G1 X136.527 Y56.508 E.01845
G1 X141.242 Y61.223 E.23036
G1 X141.242 Y61.757 E.01845
G1 X135.992 Y56.508 E.25647
G1 X135.458 Y56.508 E.01845
G1 X141.242 Y62.291 E.28256
G1 X141.242 Y62.825 E.01845
G1 X134.924 Y56.507 E.30867
G1 X134.39 Y56.507 E.01845
G1 X141.242 Y63.36 E.33479
G1 X141.242 Y63.894 E.01845
G1 X133.856 Y56.507 E.36087
G1 X133.321 Y56.507 E.01848
G1 X141.242 Y64.428 E.38699
G1 X141.242 Y64.962 E.01845
G1 X132.787 Y56.507 E.41308
G1 X132.253 Y56.507 E.01845
M73 P1 R66
G1 X141.242 Y65.496 E.43917
G1 X141.242 Y66.031 E.01848
G1 X131.719 Y56.507 E.46528
G1 X131.184 Y56.507 E.01848
G1 X141.242 Y66.565 E.49139
G1 X141.242 Y67.099 E.01845
G1 X130.65 Y56.507 E.51748
G1 X130.116 Y56.507 E.01845
M73 Q1 S66
G1 X141.242 Y67.633 E.54357
G1 X141.242 Y68.167 E.01845
G1 X129.582 Y56.507 E.56966
G1 X129.047 Y56.506 E.01848
G1 X141.242 Y68.701 E.5958
G1 X141.242 Y69.236 E.01848
G1 X128.513 Y56.506 E.62191
G1 X127.979 Y56.506 E.01845
G1 X141.242 Y69.77 E.648
G1 X141.242 Y70.304 E.01845
G1 X127.445 Y56.506 E.67409
G1 X126.91 Y56.506 E.01848
G1 X141.242 Y70.838 E.7002
G1 X141.242 Y71.372 E.01845
G1 X126.376 Y56.506 E.72629
G1 X125.842 Y56.506 E.01845
G1 X141.243 Y71.906 E.75241
G1 X141.243 Y72.441 E.01848
G1 X125.308 Y56.506 E.77852
G1 X124.773 Y56.506 E.01848
G1 X141.243 Y72.975 E.80463
G1 X141.243 Y73.509 E.01845
M73 Q2 S66
G1 X124.239 Y56.506 E.83072
G1 X123.705 Y56.506 E.01845
M73 P2 R66
G1 X141.243 Y74.043 E.85681
G1 X141.243 Y74.577 E.01845
G1 X123.171 Y56.505 E.88292
G1 X122.636 Y56.505 E.01848
G1 X141.243 Y75.112 E.90906
G1 X141.243 Y75.646 E.01845
G1 X122.102 Y56.505 E.93515
G1 X121.568 Y56.505 E.01845
G1 X141.243 Y76.18 E.96124
G1 X141.243 Y76.714 E.01845
G1 X121.034 Y56.505 E.98733
G1 X120.5 Y56.505 E.01845
G1 X141.243 Y77.248 E1.01342
G1 X141.243 Y77.782 E.01845
G1 X119.965 Y56.505 E1.03953
G1 X119.431 Y56.505 E.01845
G1 X141.243 Y78.317 E1.06565
G1 X141.243 Y78.851 E.01845
G1 X118.897 Y56.505 E1.09174
G1 X118.363 Y56.505 E.01845
G1 X141.243 Y79.385 E1.11782
G1 X141.243 Y79.919 E.01845
G1 X117.828 Y56.504 E1.14396
G1 X117.294 Y56.504 E.01845
G1 X141.243 Y80.453 E1.17005
G1 X141.243 Y80.987 E.01845
G1 X116.76 Y56.504 E1.19614
G1 X116.226 Y56.504 E.01845
G1 X141.243 Y81.522 E1.22225
G1 X141.243 Y82.056 E.01845
G1 X115.691 Y56.504 E1.24837
G1 X115.157 Y56.504 E.01845
G1 X141.243 Y82.59 E1.27446
G1 X141.243 Y83.124 E.01845
G1 X114.623 Y56.504 E1.30055
G1 X114.089 Y56.504 E.01845
G1 X141.243 Y83.658 E1.32663
G1 X141.243 Y84.193 E.01848
G1 X113.554 Y56.504 E1.35277
G1 X113.02 Y56.504 E.01845
G1 X141.243 Y84.727 E1.37886
G1 X141.243 Y85.261 E.01845
G1 X112.486 Y56.504 E1.40495
G1 X111.974 Y56.526 E.0177
G1 X141.243 Y85.795 E1.42996
G1 X141.243 Y86.329 E.01845
G1 X111.514 Y56.6 E1.45244
G1 X111.214 Y56.664 E.0106
M73 P3 R66
M73 Q3 S66
G1 X111.091 Y56.711 E.00455
G1 X141.243 Y86.863 E1.4731
G1 X141.243 Y87.398 E.01848
G1 X110.714 Y56.868 E1.49155
G1 X110.37 Y57.059 E.01359
M73 P3 R65
G1 X141.243 Y87.932 E1.50833
G1 X141.243 Y88.466 E.01845
M73 Q3 S65
G1 X110.058 Y57.281 E1.52357
G1 X109.786 Y57.542 E.01302
G1 X141.243 Y89 E1.53689
G1 X141.243 Y89.534 E.01845
G1 X109.529 Y57.819 E1.54944
G1 X109.305 Y58.13 E.01324
G1 X141.243 Y90.068 E1.56036
G1 X141.244 Y90.603 E.01848
G1 X109.114 Y58.473 E1.56974
G1 X108.961 Y58.854 E.01418
G1 X141.244 Y91.137 E1.57722
G1 X141.244 Y91.671 E.01845
G1 X108.847 Y59.275 E1.58276
G1 X108.784 Y59.57 E.01042
G1 X108.773 Y59.735 E.00571
G1 X141.244 Y92.205 E1.58638
G1 X141.244 Y92.739 E.01845
G1 X108.754 Y60.249 E1.58733
G1 X108.754 Y60.783 E.01845
G1 X141.244 Y93.274 E1.58735
G1 X141.244 Y93.808 E.01845
G1 X108.754 Y61.318 E1.58733
G1 X108.754 Y61.852 E.01845
G1 X141.244 Y94.342 E1.58733
G1 X141.244 Y94.876 E.01845
G1 X108.754 Y62.386 E1.58733
G1 X108.754 Y62.92 E.01845
G1 X141.244 Y95.41 E1.58733
G1 X141.244 Y95.944 E.01845
G1 X108.754 Y63.454 E1.58733
G1 X108.754 Y63.988 E.01845
M73 P4 R65
M73 Q4 S65
G1 X141.244 Y96.479 E1.58735
G1 X141.244 Y97.013 E.01845
G1 X108.754 Y64.522 E1.58735
G1 X108.754 Y65.057 E.01848
G1 X141.244 Y97.547 E1.58733
G1 X141.244 Y98.081 E.01845
G1 X108.754 Y65.591 E1.58733
G1 X108.754 Y66.125 E.01845
G1 X141.244 Y98.615 E1.58733
G1 X141.244 Y99.149 E.01845
G1 X108.754 Y66.659 E1.58733
G1 X108.754 Y67.193 E.01845
G1 X141.244 Y99.684 E1.58735
G1 X141.244 Y100.218 E.01845
G1 X108.754 Y67.727 E1.58735
G1 X108.754 Y68.261 E.01845
G1 X141.244 Y100.752 E1.58735
G1 X141.244 Y101.286 E.01845
G1 X108.754 Y68.796 E1.58733
G1 X108.754 Y69.33 E.01845
M73 P4 R64
G1 X141.244 Y101.82 E1.58733
G1 X141.244 Y102.354 E.01845
M73 Q4 S64
G1 X108.754 Y69.864 E1.58733
G1 X108.754 Y70.398 E.01845
G1 X141.244 Y102.889 E1.58735
G1 X141.244 Y103.423 E.01845
G1 X108.754 Y70.932 E1.58735
G1 X108.754 Y71.466 E.01845
G1 X141.244 Y103.957 E1.58735
G1 X141.244 Y104.491 E.01845
G1 X108.754 Y72 E1.58735
G1 X108.754 Y72.535 E.01848
G1 X141.244 Y105.025 E1.58733
G1 X141.244 Y105.56 E.01848
M73 P5 R64
M73 Q5 S64
G1 X108.754 Y73.069 E1.58735
G1 X108.754 Y73.603 E.01845
G1 X141.244 Y106.094 E1.58735
G1 X141.244 Y106.628 E.01845
G1 X108.754 Y74.137 E1.58735
G1 X108.754 Y74.671 E.01845
G1 X141.244 Y107.162 E1.58735
G1 X141.244 Y107.696 E.01845
G1 X108.754 Y75.205 E1.58735
G1 X108.754 Y75.739 E.01845
G1 X141.244 Y108.23 E1.58735
G1 X141.244 Y108.765 E.01848
G1 X108.754 Y76.274 E1.58735
G1 X108.754 Y76.808 E.01845
G1 X141.245 Y109.299 E1.58738
G1 X141.245 Y109.833 E.01845
G1 X108.754 Y77.342 E1.58738
G1 X108.754 Y77.876 E.01845
G1 X141.245 Y110.367 E1.58738
G1 X141.245 Y110.901 E.01845
G1 X108.754 Y78.41 E1.58738
G1 X108.754 Y78.944 E.01845
G1 X141.245 Y111.435 E1.58738
G1 X141.245 Y111.97 E.01848
G1 X108.754 Y79.479 E1.58738
G1 X108.754 Y80.013 E.01845
G1 X141.245 Y112.504 E1.58738
G1 X141.245 Y113.038 E.01845
G1 X108.754 Y80.547 E1.58738
G1 X108.754 Y81.081 E.01845
G1 X141.245 Y113.572 E1.58738
G1 X141.245 Y114.106 E.01845
G1 X108.754 Y81.615 E1.58738
G1 X108.754 Y82.149 E.01845
G1 X141.245 Y114.641 E1.5874
G1 X141.245 Y115.175 E.01845
M73 P6 R64
M73 Q6 S64
G1 X108.754 Y82.683 E1.5874
G1 X108.754 Y83.218 E.01848
M73 P6 R63
G1 X141.245 Y115.709 E1.58738
G1 X141.245 Y116.243 E.01845
M73 Q6 S63
G1 X108.754 Y83.752 E1.58738
G1 X108.754 Y84.286 E.01845
G1 X141.245 Y116.777 E1.58738
G1 X141.245 Y117.311 E.01845
G1 X108.754 Y84.82 E1.58738
G1 X108.754 Y85.354 E.01845
G1 X141.245 Y117.846 E1.5874
G1 X141.245 Y118.38 E.01845
G1 X108.754 Y85.888 E1.5874
G1 X108.754 Y86.422 E.01845
G1 X141.245 Y118.914 E1.5874
G1 X141.245 Y119.448 E.01845
G1 X108.754 Y86.957 E1.58738
G1 X108.754 Y87.491 E.01845
G1 X141.245 Y119.982 E1.58738
G1 X141.245 Y120.516 E.01845
G1 X108.754 Y88.025 E1.58738
G1 X108.754 Y88.559 E.01845
G1 X141.245 Y121.051 E1.5874
G1 X141.245 Y121.585 E.01845
G1 X108.754 Y89.093 E1.5874
G1 X108.754 Y89.627 E.01845
G1 X141.245 Y122.119 E1.5874
G1 X141.245 Y122.653 E.01845
G1 X108.754 Y90.161 E1.5874
G1 X108.754 Y90.696 E.01848
G1 X141.245 Y123.187 E1.58738
G1 X141.245 Y123.722 E.01848
G1 X108.754 Y91.23 E1.5874
G1 X108.754 Y91.764 E.01845
M73 P7 R63
M73 Q7 S63
G1 X141.245 Y124.256 E1.5874
G1 X141.245 Y124.79 E.01845
G1 X108.754 Y92.298 E1.5874
G1 X108.754 Y92.832 E.01845
G1 X141.245 Y125.324 E1.5874
G1 X141.245 Y125.858 E.01845
G1 X108.754 Y93.366 E1.5874
G1 X108.754 Y93.9 E.01845
G1 X141.245 Y126.392 E1.5874
G1 X141.245 Y126.927 E.01848
G1 X108.754 Y94.435 E1.5874
G1 X108.754 Y94.969 E.01845
G1 X141.245 Y127.461 E1.5874
G1 X141.246 Y127.995 E.01845
