; generated by PrusaSlicer 2.7.4 on 2024-05-19 at 14:09:18 UTC


;
;
; 

; external perimeters extrusion width = 0.45mm
; perimeters extrusion width = 0.45mm
; infill extrusion width = 0.45mm
; solid infill extrusion width = 0.45mm
; top infill extrusion width = 0.40mm
; first layer extrusion width = 0.42mm

M73 P0 R96
M73 Q0 S96
M201 X1000 Y1000 Z200 E5000 ; sets maximum accelerations, mm/sec^2
M203 X200 Y200 Z12 E120 ; sets maximum feedrates, mm / sec
M204 S1250 T1250 ; sets acceleration (S) and retract acceleration (R), mm/sec^2
M205 X8.00 Y8.00 Z0.40 E4.50 ; sets the jerk limits, mm/sec
M205 S0 T0 ; sets the minimum extruding and travel feed rate, mm/sec

; printing object marker - marker_upper_arm.stl id:0 copy 0
; stop printing object marker - marker_upper_arm.stl id:0 copy 0

;TYPE:Custom
M862.3 P "MK3S" ; printer model check
M862.1 P0.4 ; nozzle diameter check
M115 U3.13.3 ; tell printer latest fw version
G90 ; use absolute coordinates
M83 ; extruder relative mode
M104 S230 ; set extruder temp
M140 S50 ; set bed temp
M190 S50 ; wait for bed temp
M109 S230 ; wait for extruder temp
G28 W ; home all without mesh bed level
G80 X104.684 Y47.4344 W40.6312 H115.131 ; mesh bed levelling

G1 Z0.2 F720
G1 Y-3 F1000 ; go outside print area
G92 E0
G1 X60 E9 F1000 ; intro line
G1 X100 E12.5 F1000 ; intro line

G92 E0
M221 S95

; Don't change E values below. Excessive value can damage the printer.
M907 E430 ; set extruder motor current
G21 ; set units to millimeters
G90 ; use absolute coordinates
M83 ; use relative distances for extrusion
M900 K0 ; Filament gcode
M107
;LAYER_CHANGE
;Z:0.2
;HEIGHT:0.2
G1 E-1 F2100
G1 Z.2 F720
G1 X105.418 Y52.22 F10800
G1 Z.2 F720
G1 E1 F900
M204 S800
;TYPE:Skirt/Brim
;WIDTH:0.42
G1 F1200
G1 X105.912 Y51.226 E.03828
G1 X106.472 Y50.414 E.03402
G1 X107.182 Y49.64 E.03623
G1 X108.073 Y48.92 E.03951
G1 X108.957 Y48.399 E.03539
G1 X110.03 Y47.965 E.03992
G1 X111.036 Y47.724 E.03568
G1 X112.238 Y47.623 E.0416
G1 X137.802 Y47.623 E.8817
G1 X139.237 Y47.775 E.04977
G1 X140.525 Y48.165 E.04641
G1 X141.67 Y48.751 E.04436
G1 X142.772 Y49.597 E.04792
G1 X143.634 Y50.551 E.04435
G1 X144.413 Y51.836 E.05183
G1 X144.889 Y53.141 E.04791
G1 X145.117 Y54.626 E.05182
G1 X145.127 Y158 E3.56534
G1 X144.991 Y159.083 E.03765
G1 X144.774 Y159.723 E.02331
G1 X144.471 Y160.304 E.0226
G1 X144.069 Y160.853 E.02347
G1 X143.603 Y161.319 E.02273
G1 X142.983 Y161.764 E.02632
G1 X142.377 Y162.063 E.02331
G1 X141.748 Y162.262 E.02275
G1 X141.08 Y162.364 E.02331
G1 X109.25 Y162.377 E1.09781
G1 X108.167 Y162.241 E.03765
G1 X107.527 Y162.024 E.02331
G1 X106.942 Y161.719 E.02275
G1 X106.335 Y161.265 E.02614
G1 X105.864 Y160.773 E.02349
G1 X105.486 Y160.233 E.02273
G1 X105.157 Y159.55 E.02615
G1 X104.966 Y158.897 E.02347
G1 X104.875 Y158.139 E.02633
G1 X104.873 Y55 E3.55724
G1 X104.926 Y54.125 E.03023
G1 X105.098 Y53.195 E.03262
G1 X105.399 Y52.277 E.03332
M204 S1000
G1 E-1 F2100
G1 X105.399 Y52.277 F10800
; printing object marker - marker_upper_arm.stl id:0 copy 0
G1 X108.793 Y158.668
G1 E1 F900
M204 S800
;TYPE:Perimeter
;WIDTH:0.419999
G1 F1200
G1 X108.688 Y158.613 E.00409
G1 X108.494 Y158.34 E.01155
G1 X108.416 Y157.851 E.01708
G1 X108.444 Y157.131 E.02485
G1 X108.6 Y156.638 E.01783
G1 X109.009 Y155.769 E.03313
G1 X109.232 Y155.176 E.02185
G1 X109.354 Y154.66 E.01829
G1 X109.412 Y154.003 E.02275
G1 X109.356 Y153.356 E.0224
G1 X109.138 Y152.553 E.0287
G1 X108.501 Y151.119 E.05412
G1 X108.414 Y150.561 E.01948
G1 X108.414 Y55.16 E3.29035
G1 X108.433 Y54.734 E.01471
M73 P0 R95
G1 X108.538 Y54.043 E.02411
G1 X108.758 Y53.418 E.02285
G1 X109.113 Y52.809 E.02431
G1 X109.493 Y52.358 E.02034
G1 X109.91 Y51.973 E.01957
G1 X110.476 Y51.617 E.02306
G1 X111.118 Y51.338 E.02414
G1 X111.773 Y51.197 E.02311
G1 X112.283 Y51.164 E.01763
G1 X137.889 Y51.169 E.88314
G1 X138.58 Y51.259 E.02403
G1 X139.217 Y51.46 E.02304
G1 X139.588 Y51.653 E.01442
G1 X140.076 Y51.952 E.01974
G1 X140.453 Y52.282 E.01728
G1 X140.889 Y52.802 E.0234
G1 X141.297 Y53.552 E.02945
G1 X141.488 Y54.154 E.02178
G1 X141.581 Y54.854 E.02435
G1 X141.586 Y149.618 E3.26838
G1 X141.574 Y150.788 E.04036
M73 Q0 S95
G1 X141.437 Y151.285 E.01778
G1 X141.007 Y152.194 E.03468
G1 X140.81 Y152.698 E.01866
G1 X140.641 Y153.368 E.02383
G1 X140.588 Y154.003 E.02198
G1 X140.643 Y154.646 E.02226
G1 X140.802 Y155.282 E.02261
G1 X141.018 Y155.831 E.02035
G1 X141.39 Y156.618 E.03002
G1 X141.552 Y157.082 E.01695
G1 X141.584 Y157.431 E.01209
G1 X141.568 Y158.075 E.02222
G1 X141.445 Y158.443 E.01338
G1 X141.28 Y158.632 E.00865
G1 X141.039 Y158.778 E.00972
G1 X140.765 Y158.834 E.00965
G1 X109.87 Y158.836 E1.06556
G1 X109.046 Y158.801 E.02845
G1 X108.846 Y158.696 E.00779
M204 S1000
G1 X108.846 Y158.696 F10800
G1 X108.585 Y159.01
M204 S800
G1 F1200
G1 X108.354 Y158.807 E.01061
G1 X108.145 Y158.485 E.01324
G1 X108.038 Y157.957 E.01858
G1 X108.044 Y157.367 E.02035
G1 X108.095 Y156.923 E.01541
G1 X108.259 Y156.477 E.01639
G1 X108.657 Y155.633 E.03218
G1 X108.846 Y155.146 E.01802
G1 X108.98 Y154.619 E.01875
G1 X109.035 Y154.026 E.02054
G1 X108.99 Y153.448 E.02
G1 X108.795 Y152.709 E.02636
G1 X108.279 Y151.579 E.04284
G1 X108.106 Y151.091 E.01786
G1 X108.037 Y150.576 E.01792
G1 X108.037 Y55.021 E3.29566
G1 X108.072 Y54.465 E.01921
G1 X108.173 Y53.944 E.0183
G1 X108.412 Y53.267 E.02476
G1 X108.664 Y52.792 E.01855
G1 X108.97 Y52.359 E.01829
G1 X109.472 Y51.835 E.02503
G1 X109.887 Y51.514 E.0181
G1 X110.521 Y51.16 E.02504
G1 X111.011 Y50.975 E.01806
G1 X111.721 Y50.822 E.02505
G1 X112.271 Y50.787 E.01901
G1 X137.914 Y50.792 E.88442
G1 X138.662 Y50.889 E.02601
G1 X139.361 Y51.11 E.02528
G1 X139.855 Y51.367 E.01921
G1 X140.309 Y51.654 E.01852
G1 X140.724 Y52.018 E.01904
G1 X141.199 Y52.585 E.02551
G1 X141.477 Y53.066 E.01916
G1 X141.706 Y53.554 E.01859
G1 X141.858 Y54.076 E.01875
G1 X141.958 Y54.829 E.0262
G1 X141.959 Y150.65 E3.30483
G1 X141.884 Y151.155 E.01761
G1 X141.731 Y151.546 E.01448
G1 X141.174 Y152.796 E.0472
G1 X141.016 Y153.407 E.02177
G1 X140.965 Y153.979 E.01981
G1 X141.01 Y154.559 E.02006
G1 X141.154 Y155.146 E.02085
G1 X141.359 Y155.67 E.01941
G1 X141.731 Y156.456 E.02999
G1 X141.922 Y157.002 E.01995
G1 X141.961 Y157.43 E.01482
G1 X141.963 Y157.872 E.01524
G1 X141.918 Y158.307 E.01508
G1 X141.767 Y158.648 E.01286
G1 X141.525 Y158.924 E.01266
G1 X141.196 Y159.124 E.01328
G1 X140.79 Y159.211 E.01432
G1 X109.39 Y159.213 E1.08298
G1 X108.943 Y159.168 E.01549
G1 X108.64 Y159.034 E.01143
M204 S1000
G1 X108.64 Y159.034 F10800
G1 X108.426 Y159.352
M204 S800
;TYPE:External perimeter
G1 F1200
G1 X108.391 Y159.336 E.00133
G1 X107.989 Y158.967 E.01882
G1 X107.737 Y158.484 E.01879
G1 X107.66 Y157.984 E.01745
G1 X107.667 Y157.363 E.02142
G1 X107.728 Y156.832 E.01843
G1 X107.918 Y156.316 E.01896
G1 X108.306 Y155.496 E.03129
G1 X108.495 Y155.01 E.01798
G1 X108.605 Y154.579 E.01534
G1 X108.659 Y154.05 E.01834
G1 X108.625 Y153.54 E.01763
G1 X108.452 Y152.866 E.024
G1 X107.904 Y151.655 E.04584
G1 X107.74 Y151.182 E.01727
G1 X107.66 Y150.59 E.0206
G1 X107.66 Y55.009 E3.29656
G1 X107.698 Y54.417 E.02046
G1 X107.808 Y53.845 E.02009
G1 X108.066 Y53.115 E.0267
G1 X108.342 Y52.594 E.02033
G1 X108.678 Y52.118 E.0201
G1 X109.219 Y51.554 E.02695
G1 X109.679 Y51.199 E.02004
G1 X110.361 Y50.817 E.02696
G1 X110.904 Y50.612 E.02002
G1 X111.669 Y50.448 E.02698
G1 X112.259 Y50.41 E.02039
G1 X137.938 Y50.414 E.88566
G1 X138.743 Y50.52 E.028
M73 Q1 S95
G1 X139.506 Y50.76 E.02759
G1 X140.029 Y51.032 E.02033
G1 X140.542 Y51.357 E.02095
G1 X140.994 Y51.754 E.02075
G1 X141.509 Y52.368 E.02764
G1 X141.804 Y52.878 E.02032
G1 X142.062 Y53.428 E.02095
G1 X142.228 Y53.998 E.02048
M73 P1 R95
G1 X142.335 Y54.804 E.02804
G1 X142.334 Y150.695 E3.30725
G1 X142.248 Y151.256 E.01957
G1 X142.071 Y151.708 E.01674
G1 X141.538 Y152.895 E.04488
G1 X141.391 Y153.445 E.01964
G1 X141.341 Y153.955 E.01767
G1 X141.377 Y154.473 E.01791
G1 X141.505 Y155.009 E.01901
G1 X141.7 Y155.509 E.01851
G1 X142.14 Y156.438 E.03545
G1 X142.292 Y156.922 E.0175
G1 X142.338 Y157.428 E.01752
G1 X142.34 Y157.871 E.01528
G1 X142.284 Y158.409 E.01866
G1 X142.089 Y158.853 E.01673
G1 X141.771 Y159.216 E.01664
G1 X141.352 Y159.47 E.0169
G1 X140.815 Y159.588 E.01896
G1 X109.377 Y159.59 E1.08429
G1 X108.841 Y159.534 E.01859
G1 X108.481 Y159.376 E.01356
M204 S1000
G1 X108.168 Y159.127 F10800
G1 E-1 F2100
G1 X141.312 Y54.156 F10800
G1 E1 F900
M204 S800
;TYPE:Solid infill
;WIDTH:0.420212
G1 F1200
G1 X138.859 Y51.703 E.11971
G1 X138.506 Y51.591 E.01278
G1 X138.17 Y51.548 E.01169
G1 X141.203 Y54.58 E.148
G1 X141.242 Y54.876 E.0103
G1 X141.242 Y55.153 E.00956
G1 X137.597 Y51.508 E.17789
G1 X137.064 Y51.508 E.01839
G1 X141.242 Y55.686 E.2039
G1 X141.242 Y56.22 E.01843
G1 X136.53 Y51.508 E.22996
G1 X135.996 Y51.508 E.01843
G1 X141.242 Y56.753 E.256
G1 X141.242 Y57.287 E.01843
G1 X135.463 Y51.508 E.28203
G1 X134.929 Y51.507 E.01843
G1 X141.242 Y57.821 E.30812
G1 X141.242 Y58.354 E.01839
G1 X134.395 Y51.507 E.33416
G1 X133.862 Y51.507 E.01839
G1 X141.242 Y58.888 E.36019
G1 X141.242 Y59.421 E.01839
G1 X133.328 Y51.507 E.38623
G1 X132.794 Y51.507 E.01843
G1 X141.242 Y59.955 E.41229
G1 X141.242 Y60.489 E.01843
G1 X132.261 Y51.507 E.43833
G1 X131.727 Y51.507 E.01843
G1 X141.242 Y61.022 E.46436
G1 X141.242 Y61.556 E.01843
G1 X131.193 Y51.507 E.49042
G1 X130.66 Y51.507 E.01839
G1 X141.242 Y62.089 E.51644
G1 X141.242 Y62.623 E.01843
G1 X130.126 Y51.507 E.5425
G1 X129.592 Y51.507 E.01843
G1 X141.242 Y63.157 E.56856
G1 X141.242 Y63.69 E.01839
G1 X129.059 Y51.506 E.5946
G1 X128.525 Y51.506 E.01843
G1 X141.242 Y64.224 E.62066
G1 X141.242 Y64.757 E.01839
G1 X127.991 Y51.506 E.64669
G1 X127.458 Y51.506 E.01839
G1 X141.242 Y65.291 E.67273
G1 X141.242 Y65.825 E.01843
G1 X126.924 Y51.506 E.69879
G1 X126.39 Y51.506 E.01843
G1 X141.242 Y66.358 E.72483
G1 X141.242 Y66.892 E.01843
G1 X125.857 Y51.506 E.75086
G1 X125.323 Y51.506 E.01843
G1 X141.242 Y67.425 E.7769
G1 X141.242 Y67.959 E.01843
G1 X124.789 Y51.506 E.80296
G1 X124.256 Y51.506 E.01839
G1 X141.243 Y68.493 E.82902
G1 X141.243 Y69.026 E.01839
G1 X123.722 Y51.506 E.85506
G1 X123.188 Y51.505 E.01843
M73 P1 R94
G1 X141.243 Y69.56 E.88114
G1 X141.243 Y70.093 E.01839
G1 X122.655 Y51.505 E.90716
G1 X122.121 Y51.505 E.01843
G1 X141.243 Y70.627 E.93322
G1 X141.243 Y71.161 E.01843
M73 Q1 S94
G1 X121.587 Y51.505 E.95928
G1 X121.054 Y51.505 E.01839
G1 X141.243 Y71.694 E.98529
G1 X141.243 Y72.228 E.01843
G1 X120.52 Y51.505 E1.01135
G1 X119.986 Y51.505 E.01843
G1 X141.243 Y72.761 E1.03739
G1 X141.243 Y73.295 E.01843
G1 X119.453 Y51.505 E1.06342
G1 X118.919 Y51.505 E.01843
G1 X141.243 Y73.828 E1.08946
G1 X141.243 Y74.362 E.01843
G1 X118.385 Y51.505 E1.11552
G1 X117.852 Y51.504 E.01839
G1 X141.243 Y74.896 E1.14158
G1 X141.243 Y75.429 E.01839
G1 X117.318 Y51.504 E1.16762
G1 X116.784 Y51.504 E.01843
G1 X141.243 Y75.963 E1.19368
G1 X141.243 Y76.496 E.01839
G1 X116.251 Y51.504 E1.21969
G1 X115.717 Y51.504 E.01843
G1 X141.243 Y77.03 E1.24575
G1 X141.243 Y77.564 E.01843
G1 X115.183 Y51.504 E1.27181
G1 X114.65 Y51.504 E.01839
G1 X141.243 Y78.097 E1.29783
G1 X141.243 Y78.631 E.01843
M73 Q2 S94
G1 X114.116 Y51.504 E1.32389
G1 X113.582 Y51.504 E.01843
M73 P2 R94
G1 X141.243 Y79.164 E1.34992
G1 X141.243 Y79.698 E.01843
G1 X113.049 Y51.504 E1.37596
G1 X112.515 Y51.504 E.01843
G1 X141.243 Y80.232 E1.40202
G1 X141.243 Y80.765 E.01839
G1 X112.002 Y51.525 E1.42703
G1 X111.819 Y51.534 E.00632
G1 X111.539 Y51.594 E.00988
G1 X141.243 Y81.299 E1.44968
G1 X141.243 Y81.832 E.01839
G1 X111.113 Y51.702 E1.47044
G1 X110.737 Y51.86 E.01407
G1 X141.243 Y82.366 E1.48879
G1 X141.243 Y82.9 E.01843
G1 X110.395 Y52.051 E1.50551
G1 X110.283 Y52.114 E.00443
G1 X110.08 Y52.27 E.00883
G1 X141.243 Y83.433 E1.52086
G1 X141.243 Y83.967 E.01843
G1 X109.802 Y52.526 E1.53443
G1 X109.541 Y52.798 E.01301
G1 X141.243 Y84.5 E1.54716
G1 X141.243 Y85.034 E.01843
G1 X109.317 Y53.108 E1.55809
G1 X109.126 Y53.45 E.01352
G1 X141.243 Y85.568 E1.56744
G1 X141.243 Y86.101 E.01839
G1 X108.973 Y53.831 E1.57488
G1 X108.866 Y54.132 E.01102
M73 P2 R93
G1 X108.846 Y54.238 E.00372
G1 X141.243 Y86.635 E1.58108
G1 X141.243 Y87.168 E.01839
G1 X108.775 Y54.7 E1.58455
G1 X108.754 Y55.212 E.01768
M73 Q2 S93
G1 X141.243 Y87.702 E1.5856
G1 X141.243 Y88.236 E.01843
G1 X108.754 Y55.746 E1.5856
G1 X108.754 Y56.279 E.01839
G1 X141.243 Y88.769 E1.5856
G1 X141.244 Y89.303 E.01843
G1 X108.754 Y56.813 E1.58562
G1 X108.754 Y57.346 E.01839
G1 X141.244 Y89.836 E1.58562
G1 X141.244 Y90.37 E.01843
G1 X108.754 Y57.88 E1.58562
G1 X108.754 Y58.414 E.01843
G1 X141.244 Y90.904 E1.58562
G1 X141.244 Y91.437 E.01839
G1 X108.754 Y58.947 E1.58562
G1 X108.754 Y59.481 E.01843
G1 X141.244 Y91.971 E1.58562
G1 X141.244 Y92.504 E.01839
M73 Q3 S93
G1 X108.754 Y60.014 E1.58562
G1 X108.754 Y60.548 E.01843
M73 P3 R93
G1 X141.244 Y93.038 E1.58562
G1 X141.244 Y93.572 E.01843
G1 X108.754 Y61.081 E1.58564
G1 X108.754 Y61.615 E.01843
G1 X141.244 Y94.105 E1.58562
G1 X141.244 Y94.639 E.01843
G1 X108.754 Y62.149 E1.58562
G1 X108.754 Y62.682 E.01839
G1 X141.244 Y95.172 E1.58562
G1 X141.244 Y95.706 E.01843
G1 X108.754 Y63.216 E1.58562
G1 X108.754 Y63.749 E.01839
G1 X141.244 Y96.24 E1.58564
G1 X141.244 Y96.773 E.01839
G1 X108.754 Y64.283 E1.58562
G1 X108.754 Y64.816 E.01839
G1 X141.244 Y97.307 E1.58564
G1 X141.244 Y97.84 E.01839
G1 X108.754 Y65.35 E1.58562
G1 X108.754 Y65.884 E.01843
G1 X141.244 Y98.374 E1.58562
G1 X141.244 Y98.908 E.01843
G1 X108.754 Y66.417 E1.58564
G1 X108.754 Y66.951 E.01843
G1 X141.244 Y99.441 E1.58562
G1 X141.244 Y99.975 E.01843
G1 X108.754 Y67.484 E1.58564
G1 X108.754 Y68.018 E.01843
M73 P3 R92
G1 X141.244 Y100.508 E1.58562
G1 X141.244 Y101.042 E.01843
M73 Q3 S92
G1 X108.754 Y68.551 E1.58564
G1 X108.754 Y69.085 E.01843
G1 X141.244 Y101.576 E1.58564
G1 X141.244 Y102.109 E.01839
G1 X108.754 Y69.619 E1.58562
G1 X108.754 Y70.152 E.01839
G1 X141.244 Y102.643 E1.58564
G1 X141.244 Y103.176 E.01839
G1 X108.754 Y70.686 E1.58562
G1 X108.754 Y71.219 E.01839
G1 X141.244 Y103.71 E1.58564
G1 X141.244 Y104.244 E.01843
G1 X108.754 Y71.753 E1.58564
G1 X108.754 Y72.286 E.01839
G1 X141.244 Y104.777 E1.58564
G1 X141.244 Y105.311 E.01843
G1 X108.754 Y72.82 E1.58564
G1 X108.754 Y73.354 E.01843
M73 P4 R92
M73 Q4 S92
G1 X141.244 Y105.844 E1.58562
G1 X141.244 Y106.378 E.01843
G1 X108.754 Y73.887 E1.58564
G1 X108.754 Y74.421 E.01843
G1 X141.244 Y106.912 E1.58564
G1 X141.244 Y107.445 E.01839
G1 X108.754 Y74.954 E1.58564
G1 X108.754 Y75.488 E.01843
G1 X141.244 Y107.979 E1.58564
G1 X141.244 Y108.512 E.01839
G1 X108.754 Y76.021 E1.58564
G1 X108.754 Y76.555 E.01843
G1 X141.244 Y109.046 E1.58564
G1 X141.244 Y109.58 E.01843
G1 X108.754 Y77.089 E1.58564
G1 X108.754 Y77.622 E.01839
G1 X141.245 Y110.113 E1.58567
G1 X141.245 Y110.647 E.01843
G1 X108.754 Y78.156 E1.58567
G1 X108.754 Y78.689 E.01839
G1 X141.245 Y111.18 E1.58567
G1 X141.245 Y111.714 E.01843
G1 X108.754 Y79.223 E1.58567
G1 X108.754 Y79.756 E.01839
G1 X141.245 Y112.247 E1.58567
G1 X141.245 Y112.781 E.01843
G1 X108.754 Y80.29 E1.58567
G1 X108.754 Y80.824 E.01843
G1 X141.245 Y113.315 E1.58567
G1 X141.245 Y113.848 E.01839
G1 X108.754 Y81.357 E1.58567
G1 X108.754 Y81.891 E.01843
M73 P4 R91
G1 X141.245 Y114.382 E1.58567
G1 X141.245 Y114.915 E.01839
M73 Q4 S91
G1 X108.754 Y82.424 E1.58567
G1 X108.754 Y82.958 E.01843
G1 X141.245 Y115.449 E1.58567
G1 X141.245 Y115.983 E.01843
G1 X108.754 Y83.491 E1.58569
G1 X108.754 Y84.025 E.01843
G1 X141.245 Y116.516 E1.58567
G1 X141.245 Y117.05 E.01843
G1 X108.754 Y84.559 E1.58567
G1 X108.754 Y85.092 E.01839
G1 X141.245 Y117.583 E1.58567
G1 X141.245 Y118.117 E.01843
G1 X108.754 Y85.626 E1.58567
G1 X108.754 Y86.159 E.01839
G1 X141.245 Y118.651 E1.58569
G1 X141.245 Y119.184 E.01839
M73 P5 R91
M73 Q5 S91
G1 X108.754 Y86.693 E1.58567
G1 X108.754 Y87.226 E.01839
G1 X141.245 Y119.718 E1.58569
G1 X141.245 Y120.251 E.01839
G1 X108.754 Y87.76 E1.58567
G1 X108.754 Y88.294 E.01843
G1 X141.245 Y120.785 E1.58567
G1 X141.245 Y121.319 E.01843
G1 X108.754 Y88.827 E1.58569
G1 X108.754 Y89.361 E.01843
G1 X141.245 Y121.852 E1.58567
G1 X141.245 Y122.386 E.01843
G1 X108.754 Y89.894 E1.58569
