; generated by PrusaSlicer 2.7.4 on 2024-06-06 at 08:57:43 UTC


;
;
; 

; external perimeters extrusion width = 0.45mm
; perimeters extrusion width = 0.45mm
; infill extrusion width = 0.45mm
; solid infill extrusion width = 0.45mm
; top infill extrusion width = 0.40mm
; first layer extrusion width = 0.42mm

M73 P0 R53
M73 Q0 S53
M201 X1000 Y1000 Z200 E5000 ; sets maximum accelerations, mm/sec^2
M203 X200 Y200 Z12 E120 ; sets maximum feedrates, mm / sec
M204 S1250 T1250 ; sets acceleration (S) and retract acceleration (R), mm/sec^2
M205 X8.00 Y8.00 Z0.40 E4.50 ; sets the jerk limits, mm/sec
M205 S0 T0 ; sets the minimum extruding and travel feed rate, mm/sec

; printing object marker - marker_upper_arm.stl id:0 copy 0
; stop printing object marker - marker_upper_arm.stl id:0 copy 0

;TYPE:Custom
M862.3 P "MK3S" ; printer model check
M862.1 P0.4 ; nozzle diameter check
M115 U3.13.3 ; tell printer latest fw version
G90 ; use absolute coordinates
M83 ; extruder relative mode
M104 S230 ; set extruder temp
M140 S50 ; set bed temp
M190 S50 ; wait for bed temp
M109 S230 ; wait for extruder temp
G28 W ; home all without mesh bed level
G80 X104.717 Y47.4666 W40.5669 H115.067 ; mesh bed levelling

G1 Z0.2 F720
G1 Y-3 F1000 ; go outside print area
G92 E0
G1 X60 E9 F1000 ; intro line
G1 X100 E12.5 F1000 ; intro line

G92 E0
M221 S95

; Don't change E values below. Excessive value can damage the printer.
M907 E430 ; set extruder motor current
G21 ; set units to millimeters
G90 ; use absolute coordinates
M83 ; use relative distances for extrusion
M900 K0 ; Filament gcode
M107
;LAYER_CHANGE
;Z:0.3
;HEIGHT:0.3
G1 X105.853 Y51.369 F10800
G1 Z.3 F720
M204 S800
;TYPE:Skirt/Brim
;WIDTH:0.42
G1 F1200
G1 X106.496 Y50.418 E.05601
G1 X107.197 Y49.655 E.05055
G1 X108.09 Y48.934 E.056
G1 X108.983 Y48.41 E.05052
G1 X110.049 Y47.982 E.05605
G1 X111.056 Y47.742 E.05051
G1 X112.25 Y47.644 E.05845
G1 X137.801 Y47.645 E1.24664
G1 X139.203 Y47.79 E.06877
G1 X140.517 Y48.185 E.06694
G1 X141.745 Y48.824 E.06754
G1 X142.757 Y49.612 E.06258
G1 X143.616 Y50.563 E.06253
G1 X144.394 Y51.845 E.07317
G1 X144.868 Y53.146 E.06756
G1 X145.096 Y54.628 E.07316
G1 X145.106 Y158 E5.04355
G1 X144.97 Y159.077 E.05296
G1 X144.754 Y159.714 E.03282
G1 X144.451 Y160.297 E.03206
G1 X144.053 Y160.839 E.03281
G1 X143.589 Y161.303 E.03202
G1 X143.047 Y161.701 E.03281
G1 X142.464 Y162.004 E.03206
G1 X141.827 Y162.22 E.03282
G1 X141.078 Y162.343 E.03703
G1 X109.25 Y162.356 E1.5529
G1 X108.173 Y162.22 E.05296
G1 X107.536 Y162.004 E.03282
G1 X106.884 Y161.656 E.03606
G1 X106.346 Y161.246 E.033
G1 X105.831 Y160.698 E.03669
G1 X105.453 Y160.133 E.03317
G1 X105.175 Y159.538 E.03204
G1 X104.987 Y158.892 E.03283
G1 X104.898 Y158.154 E.03627
G1 X104.894 Y55 E5.03291
G1 X104.948 Y54.115 E.04326
G1 X105.12 Y53.195 E.04566
G1 X105.407 Y52.304 E.04567
G1 X105.827 Y51.423 E.04762
M204 S1000
; printing object marker - marker_upper_arm.stl id:0 copy 0
G1 X105.827 Y51.423 F10800
G1 X108.908 Y158.803
M204 S800
;TYPE:Perimeter
;WIDTH:0.42
G1 F1200
G1 X108.591 Y158.571 E.01917
G1 X108.427 Y158.291 E.01583
G1 X108.373 Y157.851 E.02163
G1 X108.401 Y157.124 E.0355
G1 X108.561 Y156.62 E.0258
G1 X108.969 Y155.754 E.04671
G1 X109.19 Y155.166 E.03065
G1 X109.312 Y154.656 E.02559
G1 X109.369 Y154.007 E.03179
G1 X109.315 Y153.368 E.03129
G1 X109.099 Y152.572 E.04024
G1 X108.46 Y151.132 E.07686
G1 X108.371 Y150.563 E.0281
G1 X108.371 Y55.16 E4.65474
G1 X108.39 Y54.732 E.0209
G1 X108.497 Y54.032 E.03455
G1 X108.717 Y53.406 E.03237
G1 X109.079 Y52.783 E.03516
G1 X109.462 Y52.328 E.02902
G1 X109.884 Y51.939 E.028
G1 X110.454 Y51.58 E.03287
G1 X111.106 Y51.296 E.0347
G1 X111.767 Y51.154 E.03299
G1 X112.281 Y51.121 E.02513
G1 X137.887 Y51.126 E1.24932
G1 X138.59 Y51.217 E.03459
G1 X138.991 Y51.343 E.02051
G1 X139.531 Y51.556 E.02832
G1 X139.966 Y51.819 E.0248
G1 X140.49 Y52.26 E.03342
G1 X140.924 Y52.777 E.03293
G1 X141.337 Y53.536 E.04216
G1 X141.529 Y54.14 E.03092
G1 X141.624 Y54.851 E.035
G1 X141.629 Y149.617 E4.62366
G1 X141.616 Y150.793 E.05738
M73 P1 R53
M73 Q1 S53
G1 X141.477 Y151.302 E.02574
G1 X141.045 Y152.213 E.04919
G1 X140.851 Y152.708 E.02594
G1 X140.683 Y153.371 E.03337
G1 X140.631 Y154 E.03079
G1 X140.685 Y154.635 E.03109
G1 X140.842 Y155.266 E.03173
G1 X141.057 Y155.813 E.02868
G1 X141.429 Y156.6 E.04247
G1 X141.594 Y157.072 E.0244
G1 X141.627 Y157.431 E.01759
G1 X141.609 Y158.089 E.03212
G1 X141.482 Y158.467 E.01946
G1 X141.212 Y158.741 E.01877
G1 X140.768 Y158.877 E.02266
G1 X109.311 Y158.879 E1.53479
G1 X108.967 Y158.814 E.01708
M204 S1000
G1 X108.967 Y158.814 F10800
G1 X108.746 Y159.123
M204 S800
G1 F1200
G1 X108.329 Y158.811 E.02541
G1 X108.125 Y158.493 E.01843
G1 X108.016 Y157.959 E.02659
G1 X108.022 Y157.367 E.02889
G1 X108.075 Y156.918 E.02206
G1 X108.24 Y156.468 E.02338
G1 X108.637 Y155.625 E.04546
G1 X108.826 Y155.138 E.02549
G1 X108.958 Y154.618 E.02618
M73 P1 R52
G1 X109.014 Y154.029 E.02887
G1 X108.97 Y153.454 E.02814
G1 X108.776 Y152.719 E.03709
G1 X108.26 Y151.588 E.06065
G1 X108.085 Y151.096 E.02548
G1 X108.016 Y150.577 E.02554
G1 X108.016 Y55.02 E4.66225
G1 X108.051 Y54.462 E.02728
M73 Q1 S52
G1 X108.152 Y53.938 E.02604
G1 X108.39 Y53.263 E.03492
G1 X108.646 Y52.78 E.02667
G1 X108.953 Y52.345 E.02598
G1 X109.458 Y51.819 E.03558
G1 X109.875 Y51.496 E.02574
G1 X110.511 Y51.141 E.03554
G1 X111.005 Y50.954 E.02577
G1 X111.718 Y50.801 E.03558
G1 X112.27 Y50.766 E.02699
G1 X137.91 Y50.77 E1.25098
G1 X138.667 Y50.868 E.03724
G1 X139.198 Y51.036 E.02717
G1 X139.699 Y51.242 E.02643
G1 X140.173 Y51.53 E.02706
G1 X140.743 Y52.007 E.03626
G1 X141.217 Y52.572 E.03598
G1 X141.495 Y53.055 E.02719
G1 X141.726 Y53.547 E.02652
G1 X141.878 Y54.066 E.02639
G1 X141.98 Y54.828 E.03751
G1 X141.98 Y150.663 E4.67581
G1 X141.905 Y151.16 E.02452
G1 X141.75 Y151.556 E.02075
G1 X141.195 Y152.801 E.06651
G1 X141.037 Y153.408 E.0306
G1 X140.986 Y153.977 E.02787
G1 X141.031 Y154.553 E.02819
G1 X141.174 Y155.137 E.02934
G1 X141.378 Y155.661 E.02744
G1 X141.751 Y156.447 E.04245
G1 X141.943 Y156.997 E.02842
G1 X141.983 Y157.43 E.02122
G1 X141.984 Y157.872 E.02157
G1 X141.938 Y158.313 E.02163
G1 X141.785 Y158.66 E.0185
G1 X141.528 Y158.954 E.01905
G1 X141.19 Y159.131 E.01862
G1 X140.791 Y159.233 E.02009
G1 X109.2 Y159.223 E1.54133
G1 X108.804 Y159.136 E.01978
M204 S1000
G1 X108.804 Y159.136 F10800
G1 X108.621 Y159.436
M204 S800
;TYPE:External perimeter
G1 F1200
G1 X108.304 Y159.255 E.01781
G1 X107.989 Y158.967 E.02082
G1 X107.737 Y158.483 E.02662
G1 X107.66 Y157.984 E.02463
G1 X107.667 Y157.363 E.0303
G1 X107.728 Y156.832 E.02608
G1 X107.918 Y156.316 E.02683
G1 X108.306 Y155.497 E.04422
G1 X108.495 Y155.009 E.02553
G1 X108.605 Y154.58 E.02161
G1 X108.659 Y154.05 E.02599
G1 X108.625 Y153.541 E.02489
G1 X108.452 Y152.867 E.03395
G1 X107.904 Y151.655 E.0649
G1 X107.74 Y151.182 E.02443
G1 X107.66 Y150.59 E.02915
G1 X107.66 Y55.009 E4.66342
G1 X107.698 Y54.417 E.02894
G1 X107.808 Y53.845 E.02842
G1 X108.063 Y53.12 E.0375
G1 X108.342 Y52.594 E.02905
G1 X108.678 Y52.118 E.02843
G1 X109.219 Y51.554 E.03813
G1 X109.679 Y51.198 E.02838
G1 X110.361 Y50.817 E.03812
G1 X110.905 Y50.612 E.02836
G1 X111.669 Y50.448 E.03812
G1 X112.259 Y50.41 E.02885
G1 X137.933 Y50.414 E1.25264
G1 X138.743 Y50.52 E.03986
G1 X139.305 Y50.697 E.02875
G1 X139.867 Y50.928 E.02965
G1 X140.381 Y51.24 E.02934
G1 X140.995 Y51.755 E.0391
G1 X141.509 Y52.368 E.03903
G1 X141.803 Y52.877 E.02868
G1 X142.062 Y53.428 E.02971
G1 X142.227 Y53.992 E.02867
G1 X142.335 Y54.804 E.03997
G1 X142.334 Y150.695 E4.67854
G1 X142.248 Y151.256 E.02769
G1 X142.071 Y151.708 E.02368
G1 X141.538 Y152.895 E.06348
G1 X141.391 Y153.444 E.02773
G1 X141.341 Y153.954 E.025
G1 X141.377 Y154.472 E.02533
G1 X141.505 Y155.009 E.02693
G1 X141.699 Y155.508 E.02612
G1 X142.14 Y156.438 E.05022
G1 X142.292 Y156.922 E.02475
G1 X142.338 Y157.428 E.02479
G1 X142.34 Y157.871 E.02161
G1 X142.284 Y158.409 E.02639
G1 X142.089 Y158.853 E.02366
G1 X141.658 Y159.297 E.03019
G1 X141.088 Y159.552 E.03047
G1 X140.815 Y159.588 E.01344
G1 X109.265 Y159.59 E1.53933
G1 X108.715 Y159.49 E.02727
M73 P2 R52
M73 Q2 S52
G1 X108.673 Y159.466 E.00236
M204 S1000
G1 X108.329 Y159.262 F10800
G1 X141.341 Y54.067
M204 S800
;TYPE:Solid infill
;WIDTH:0.420027
G1 F1200
G1 X138.936 Y51.662 E.16596
G1 X138.52 Y51.531 E.02128
G1 X138.269 Y51.498 E.01235
G1 X141.252 Y54.481 E.20584
G1 X141.304 Y54.872 E.01925
G1 X141.304 Y55.036 E.008
G1 X137.714 Y51.446 E.24773
G1 X137.211 Y51.445 E.02454
G1 X141.304 Y55.539 E.28247
G1 X141.304 Y56.042 E.02454
G1 X136.708 Y51.445 E.31718
G1 X136.205 Y51.445 E.02454
G1 X141.304 Y56.545 E.35189
G1 X141.304 Y57.048 E.02454
G1 X135.702 Y51.445 E.3866
G1 X135.198 Y51.445 E.02459
G1 X141.304 Y57.551 E.42134
G1 X141.304 Y58.054 E.02454
G1 X134.695 Y51.445 E.45605
G1 X134.192 Y51.445 E.02454
G1 X141.304 Y58.557 E.49076
G1 X141.304 Y59.06 E.02454
G1 X133.689 Y51.445 E.52547
G1 X133.186 Y51.445 E.02454
G1 X141.304 Y59.563 E.56018
G1 X141.304 Y60.066 E.02454
G1 X132.683 Y51.445 E.59489
G1 X132.18 Y51.445 E.02454
G1 X141.304 Y60.569 E.6296
G1 X141.304 Y61.072 E.02454
G1 X131.677 Y51.445 E.66431
G1 X131.174 Y51.444 E.02454
G1 X141.304 Y61.575 E.69906
G1 X141.304 Y62.078 E.02454
G1 X130.671 Y51.444 E.73377
G1 X130.168 Y51.444 E.02454
G1 X141.304 Y62.581 E.76847
G1 X141.304 Y63.084 E.02454
G1 X129.665 Y51.444 E.80318
G1 X129.162 Y51.444 E.02454
G1 X141.305 Y63.587 E.83793
G1 X141.305 Y64.09 E.02454
G1 X128.659 Y51.444 E.87264
G1 X128.156 Y51.444 E.02454
G1 X141.305 Y64.593 E.90735
G1 X141.305 Y65.096 E.02454
G1 X127.653 Y51.444 E.94206
G1 X127.15 Y51.444 E.02454
G1 X141.305 Y65.599 E.97677
G1 X141.305 Y66.102 E.02454
G1 X126.647 Y51.444 E1.01148
G1 X126.144 Y51.444 E.02454
G1 X141.305 Y66.605 E1.04619
G1 X141.305 Y67.108 E.02454
G1 X125.641 Y51.444 E1.0809
G1 X125.138 Y51.443 E.02454
G1 X141.305 Y67.611 E1.11564
G1 X141.305 Y68.114 E.02454
G1 X124.635 Y51.443 E1.15035
G1 X124.132 Y51.443 E.02454
G1 X141.305 Y68.617 E1.18506
G1 X141.305 Y69.12 E.02454
G1 X123.628 Y51.443 E1.2198
G1 X123.125 Y51.443 E.02454
G1 X141.305 Y69.623 E1.25451
G1 X141.305 Y70.125 E.02449
G1 X122.622 Y51.443 E1.28919
G1 X122.119 Y51.443 E.02454
G1 X141.305 Y70.628 E1.3239
G1 X141.305 Y71.131 E.02454
G1 X121.616 Y51.443 E1.35861
G1 X121.113 Y51.443 E.02454
G1 X141.305 Y71.634 E1.39332
G1 X141.305 Y72.137 E.02454
M73 Q3 S52
G1 X120.61 Y51.443 E1.42803
G1 X120.107 Y51.443 E.02454
M73 P3 R51
G1 X141.305 Y72.64 E1.46273
G1 X141.305 Y73.143 E.02454
M73 Q3 S51
G1 X119.604 Y51.443 E1.49744
G1 X119.101 Y51.442 E.02454
G1 X141.305 Y73.646 E1.53219
G1 X141.305 Y74.149 E.02454
G1 X118.598 Y51.442 E1.5669
G1 X118.095 Y51.442 E.02454
G1 X141.305 Y74.652 E1.60161
G1 X141.305 Y75.155 E.02454
G1 X117.592 Y51.442 E1.63632
G1 X117.089 Y51.442 E.02454
G1 X141.305 Y75.658 E1.67103
G1 X141.305 Y76.161 E.02454
G1 X116.586 Y51.442 E1.70574
G1 X116.083 Y51.442 E.02454
G1 X141.305 Y76.664 E1.74045
G1 X141.305 Y77.167 E.02454
G1 X115.58 Y51.442 E1.77516
G1 X115.077 Y51.442 E.02454
G1 X141.305 Y77.67 E1.80986
G1 X141.305 Y78.173 E.02454
G1 X114.574 Y51.442 E1.84457
G1 X114.071 Y51.442 E.02454
G1 X141.305 Y78.676 E1.87928
G1 X141.305 Y79.179 E.02454
G1 X113.568 Y51.442 E1.91399
G1 X113.065 Y51.441 E.02454
G1 X141.305 Y79.682 E1.94874
G1 X141.305 Y80.185 E.02454
G1 X112.561 Y51.441 E1.98348
G1 X112.076 Y51.459 E.02368
G1 X141.305 Y80.688 E2.01695
G1 X141.305 Y81.191 E.02454
M73 Q4 S51
G1 X111.626 Y51.512 E2.048
G1 X111.212 Y51.601 E.02066
M73 P4 R51
G1 X141.305 Y81.694 E2.07657
G1 X141.305 Y82.197 E.02454
G1 X110.845 Y51.737 E2.10189
G1 X110.517 Y51.912 E.01814
G1 X141.305 Y82.7 E2.12453
G1 X141.305 Y83.203 E.02454
G1 X110.201 Y52.098 E2.14637
G1 X109.917 Y52.318 E.01753
G1 X141.305 Y83.706 E2.16593
G1 X141.306 Y84.209 E.02454
G1 X109.67 Y52.574 E2.18301
G1 X109.432 Y52.838 E.01734
G1 X141.306 Y84.712 E2.19947
G1 X141.306 Y85.215 E.02454
G1 X109.224 Y53.133 E2.21382
G1 X109.049 Y53.462 E.01818
G1 X141.306 Y85.718 E2.22586
G1 X141.306 Y86.221 E.02454
G1 X108.909 Y53.824 E2.23556
G1 X108.806 Y54.116 E.01511
G1 X108.789 Y54.207 E.00452
G1 X141.306 Y86.724 E2.24384
G1 X141.306 Y87.227 E.02454
G1 X108.717 Y54.638 E2.24881
G1 X108.691 Y55.116 E.02336
M73 P4 R50
G1 X141.306 Y87.73 E2.25057
G1 X141.306 Y88.233 E.02454
M73 Q4 S50
G1 X108.691 Y55.618 E2.2506
M73 Q5 S50
G1 X108.691 Y56.121 E.02454
M73 P5 R50
G1 X141.306 Y88.736 E2.2506
G1 X141.306 Y89.239 E.02454
G1 X108.691 Y56.624 E2.2506
G1 X108.691 Y57.127 E.02454
G1 X141.306 Y89.742 E2.2506
G1 X141.306 Y90.245 E.02454
G1 X108.691 Y57.63 E2.2506
G1 X108.691 Y58.133 E.02454
G1 X141.306 Y90.748 E2.2506
G1 X141.306 Y91.251 E.02454
G1 X108.691 Y58.636 E2.2506
G1 X108.691 Y59.139 E.02454
G1 X141.306 Y91.754 E2.2506
G1 X141.306 Y92.257 E.02454
G1 X108.691 Y59.642 E2.2506
G1 X108.691 Y60.145 E.02454
G1 X141.306 Y92.76 E2.2506
G1 X141.306 Y93.263 E.02454
G1 X108.691 Y60.648 E2.2506
G1 X108.691 Y61.151 E.02454
G1 X141.306 Y93.766 E2.2506
G1 X141.306 Y94.269 E.02454
G1 X108.691 Y61.654 E2.2506
G1 X108.691 Y62.157 E.02454
G1 X141.306 Y94.772 E2.2506
G1 X141.306 Y95.275 E.02454
M73 Q6 S50
G1 X108.691 Y62.66 E2.2506
G1 X108.691 Y63.163 E.02454
M73 P6 R50
G1 X141.306 Y95.778 E2.2506
G1 X141.306 Y96.281 E.02454
G1 X108.691 Y63.666 E2.2506
G1 X108.691 Y64.169 E.02454
G1 X141.306 Y96.784 E2.2506
G1 X141.306 Y97.287 E.02454
G1 X108.691 Y64.672 E2.2506
G1 X108.691 Y65.175 E.02454
G1 X141.306 Y97.79 E2.2506
G1 X141.306 Y98.293 E.02454
G1 X108.691 Y65.678 E2.2506
G1 X108.691 Y66.181 E.02454
G1 X141.306 Y98.796 E2.2506
G1 X141.306 Y99.299 E.02454
G1 X108.691 Y66.684 E2.2506
G1 X108.691 Y67.187 E.02454
G1 X141.306 Y99.802 E2.2506
G1 X141.306 Y100.305 E.02454
G1 X108.691 Y67.69 E2.2506
G1 X108.691 Y68.192 E.02449
M73 P6 R49
M73 Q6 S49
G1 X141.306 Y100.807 E2.2506
G1 X141.306 Y101.31 E.02454
G1 X108.691 Y68.695 E2.2506
G1 X108.691 Y69.198 E.02454
G1 X141.306 Y101.813 E2.2506
G1 X141.306 Y102.316 E.02454
M73 P7 R49
M73 Q7 S49
G1 X108.691 Y69.701 E2.2506
G1 X108.691 Y70.204 E.02454
G1 X141.306 Y102.819 E2.2506
G1 X141.306 Y103.322 E.02454
G1 X108.691 Y70.707 E2.2506
G1 X108.691 Y71.21 E.02454
G1 X141.306 Y103.825 E2.2506
G1 X141.306 Y104.328 E.02454
G1 X108.691 Y71.713 E2.2506
G1 X108.691 Y72.216 E.02454
G1 X141.307 Y104.831 E2.25063
G1 X141.307 Y105.334 E.02454
G1 X108.691 Y72.719 E2.25063
G1 X108.691 Y73.222 E.02454
G1 X141.307 Y105.837 E2.25063
G1 X141.307 Y106.34 E.02454
G1 X108.691 Y73.725 E2.25063
G1 X108.691 Y74.228 E.02454
G1 X141.307 Y106.843 E2.25063
G1 X141.307 Y107.346 E.02454
G1 X108.691 Y74.731 E2.25063
G1 X108.691 Y75.234 E.02454
G1 X141.307 Y107.849 E2.25063
G1 X141.307 Y108.352 E.02454
G1 X108.691 Y75.737 E2.25063
G1 X108.691 Y76.24 E.02454
G1 X141.307 Y108.855 E2.25063
G1 X141.307 Y109.358 E.02454
M73 P8 R49
M73 Q8 S49
G1 X108.691 Y76.743 E2.25063
G1 X108.691 Y77.246 E.02454
G1 X141.307 Y109.861 E2.25063
G1 X141.307 Y110.364 E.02454
G1 X108.691 Y77.749 E2.25063
G1 X108.691 Y78.252 E.02454
G1 X141.307 Y110.867 E2.25063
G1 X141.307 Y111.37 E.02454
G1 X108.691 Y78.755 E2.25063
G1 X108.691 Y79.258 E.02454
G1 X141.307 Y111.873 E2.25063
G1 X141.307 Y112.376 E.02454
G1 X108.691 Y79.761 E2.25063
G1 X108.691 Y80.264 E.02454
G1 X141.307 Y112.879 E2.25063
G1 X141.307 Y113.382 E.02454
M73 P8 R48
G1 X108.691 Y80.766 E2.25067
G1 X108.691 Y81.269 E.02454
M73 Q8 S48
G1 X141.307 Y113.885 E2.25067
G1 X141.307 Y114.388 E.02454
G1 X108.691 Y81.772 E2.25067
G1 X108.691 Y82.275 E.02454
G1 X141.307 Y114.891 E2.25067
G1 X141.307 Y115.394 E.02454
G1 X108.691 Y82.778 E2.25067
G1 X108.691 Y83.281 E.02454
M73 Q9 S48
G1 X141.307 Y115.897 E2.25067
G1 X141.307 Y116.4 E.02454
M73 P9 R48
G1 X108.691 Y83.784 E2.25067
G1 X108.691 Y84.287 E.02454
G1 X141.307 Y116.903 E2.25067
G1 X141.307 Y117.406 E.02454
G1 X108.691 Y84.79 E2.25067
G1 X108.691 Y85.293 E.02454
G1 X141.307 Y117.909 E2.25067
G1 X141.307 Y118.412 E.02454
G1 X108.691 Y85.796 E2.25067
G1 X108.691 Y86.299 E.02454
G1 X141.307 Y118.915 E2.25067
G1 X141.307 Y119.418 E.02454
G1 X108.691 Y86.802 E2.25067
G1 X108.691 Y87.305 E.02454
G1 X141.307 Y119.921 E2.25067
