; HEADER_BLOCK_START
; generated by OrcaSlicer 2.0.0 on 2024-06-20 at 17:51:19
; total layer number: 8
; filament_density: 1.24
; filament_diameter: 1.75
; max_z_height: 1.60
; HEADER_BLOCK_END

; THUMBNAIL_BLOCK_START

;
; THUMBNAIL_BLOCK_END

; external perimeters extrusion width = 0.60mm
; perimeters extrusion width = 0.66mm
; infill extrusion width = 0.66mm
; solid infill extrusion width = 0.72mm
; top infill extrusion width = 0.56mm
; first layer extrusion width = 0.72mm

; EXECUTABLE_BLOCK_START
M73 P0 R17
M201 X2500 Y2500 Z400 E5000
M203 X180 Y180 Z12 E80
M204 P1250 R5000 T3000 ; sets acceleration (P, T) and retract acceleration (R), mm/sec^2
M205 X8.00 Y8.00 Z0.20 E10.00 ; sets the jerk limits, mm/sec
;TYPE:Custom
M862.3 P "MINI" ; printer model check
G90 ; use absolute coordinates
M83 ; extruder relative mode
M104 S170 ; set extruder temp for bed leveling
M140 S60 ; set bed temp
M109 R170 ; wait for bed leveling temp
M190 S60 ; wait for bed temp
M204 T1250 ; set travel acceleration
G28 ; home all without mesh bed level
G29 ; mesh bed leveling 
M204 T3000 ; restore travel acceleration
M104 S220 ; set extruder temp
G92 E0
G1 Y-2 X179 F2400
G1 Z3 F720
M109 S220 ; wait for extruder temp

; intro line
G1 X170 F1000
G1 Z0.2 F720
G1 X110 E8 F900
G1 X40 E10 F700
G92 E0

M221 S95 ; set flow
G90
G21
M83 ; use relative distances for extrusion
; filament start gcode
M900 K0.12 ; Filament gcode LA 1.5
; ; Filament gcode LA 1.0
M106 S0
;LAYER_CHANGE
;Z:0.2
;HEIGHT:0.2
;BEFORE_LAYER_CHANGE
;0.2
G92 E0

G1 E-3.2 F4200
;AFTER_LAYER_CHANGE
;0.2
;_SET_FAN_SPEED_CHANGING_LAYER
M204 P700
M205 X8 Y8
; printing object Embossed text id:97277300685328 copy 0
M204 T700
M73 P1 R17
G1 Z.4 F9000
G1 X59.527 Y51.853
G1 Z.4
G1 Z.2
G1 E3.2 F1800
;TYPE:Inner wall
;WIDTH:0.855177
G1 F1200
G1 X59.232 Y52.129 E.02676
G1 X58.934 Y52.499 E.03145
G1 X58.636 Y52.129 E.03145
;WIDTH:0.855821
G1 X58.291 Y51.81 E.03114
G1 X58.581 Y51.528 E.02676
G1 X58.884 Y51.138 E.0327
G1 X59.187 Y51.528 E.0327
G1 X59.483 Y51.812 E.02719
G1 E-2.24 F4200
;WIPE_START
G1 F1200
G1 X59.232 Y52.129 E-.3891
G1 X58.934 Y52.499 E-.45616
G1 X58.859 Y52.406 E-.11475
;WIPE_END
G1 Z.6 F9000
G1 X60.997 Y51.853 Z.6
G1 Z.2
G1 E3.2 F1800
;WIDTH:0.719999
G1 F1200
G1 X60.566 Y52.025 E.02564
G1 X60.096 Y52.338 E.03116
G1 X59.778 Y52.635 E.02402
G1 X59.511 Y52.967 E.02352
G1 X59.248 Y53.425 E.02913
G1 X59.044 Y54.019 E.03461
;WIDTH:0.751684
G1 X58.989 Y54.363 E.02012
;WIDTH:0.783368
G1 X58.934 Y54.707 E.02102
G1 X58.879 Y54.363 E.02102
;WIDTH:0.751684
G1 X58.823 Y54.019 E.02012
;WIDTH:0.719999
G1 X58.62 Y53.425 E.03461
G1 X58.357 Y52.968 E.02913
G1 X58.09 Y52.635 E.02352
G1 X57.737 Y52.31 E.02649
G1 X57.274 Y52.01 E.03043
G1 X56.825 Y51.835 E.02658
G1 X57.267 Y51.645 E.02658
G1 X57.719 Y51.329 E.03043
G1 X58.026 Y51.031 E.02356
G1 X58.285 Y50.698 E.02333
G1 X58.536 Y50.244 E.02861
;WIDTH:0.766816
G1 X58.623 Y50.001 E.0152
;WIDTH:0.813633
G1 X58.71 Y49.759 E.01619
;WIDTH:0.86045
G1 X58.797 Y49.516 E.01717
;WIDTH:0.907266
G1 X58.884 Y49.273 E.01815
G1 X58.927 Y49.406 E.00981
;WIDTH:0.862926
G1 X58.97 Y49.538 E.0093
;WIDTH:0.818586
G1 X59.012 Y49.671 E.0088
;WIDTH:0.774245
G1 X59.122 Y49.957 E.01828
;WIDTH:0.747122
G1 X59.231 Y50.244 E.0176
;WIDTH:0.719999
G1 X59.482 Y50.698 E.02861
G1 X59.742 Y51.031 E.02333
G1 X60.096 Y51.368 E.02696
G1 X60.566 Y51.681 E.03116
G1 X60.942 Y51.831 E.02233
G1 E-2.24 F4200
;WIPE_START
G1 F1200
G1 X60.566 Y52.025 E-.4062
G1 X60.096 Y52.338 E-.5421
G1 X60.087 Y52.346 E-.0117
;WIPE_END
G1 Z.6 F9000
G1 X44.203 Y53.757 Z.6
G1 Z.2
G1 E3.2 F1800
;WIDTH:0.668663
G1 F1200
G1 X44.174 Y53.705 E.00299
G1 X44.379 Y52.021 E.08653
G1 X45.525 Y52.021 E.05843
G1 X44.885 Y52.547 E.04223
G1 X44.491 Y53.076 E.03362
G1 X44.227 Y53.701 E.03464
G1 E-2.24 F4200
;WIPE_START
G1 F1200
G1 X44.174 Y53.705 E-.05024
G1 X44.289 Y52.765 E-.90976
;WIPE_END
G1 Z.6 F9000
G1 X58.19 Y72.05 Z.6
G1 Z.2
G1 E3.2 F1800
;WIDTH:0.620226
G1 F1200
G1 X58.479 Y71.673 E.02232
;WIDTH:0.660481
G1 X58.593 Y71.423 E.01385
;WIDTH:0.700735
G1 X58.707 Y71.173 E.01475
;WIDTH:0.74099
G1 X58.821 Y70.922 E.01565
;WIDTH:0.781244
G1 X58.935 Y70.672 E.01655
G1 X58.954 Y70.817 E.00884
;WIDTH:0.74193
G1 X58.974 Y70.963 E.00837
;WIDTH:0.702616
G1 X58.995 Y71.536 E.03084
;WIDTH:0.661421
G1 X59.015 Y72.11 E.02892
;WIDTH:0.620226
G1 X58.144 Y72.11 E.04098
G1 X58.153 Y72.097 E.00073
G1 E-2.24 F4200
;WIPE_START
G1 F1200
G1 X58.479 Y71.673 E-.51298
G1 X58.593 Y71.423 E-.26413
G1 X58.672 Y71.25 E-.18288
;WIPE_END
G1 Z.6 F9000
G1 X61.344 Y52.429 Z.6
G1 Z.2
G1 E3.2 F1800
;WIDTH:0.740818
G1 F1200
G1 X60.887 Y52.621 E.02819
;WIDTH:0.719999
G1 X60.522 Y52.864 E.02423
G1 X60.066 Y53.354 E.03688
G1 X59.862 Y53.71 E.02266
G1 X59.704 Y54.172 E.02692
G1 X59.642 Y54.707 E.02971
G1 X59.642 Y72.737 E.99479
G1 X57.279 Y72.737 E.13043
;WIDTH:0.755545
M73 P2 R16
G1 X57.037 Y72.719 E.01405
;WIDTH:0.791091
G1 X56.796 Y72.701 E.01475
;WIDTH:0.826637
G1 X56.555 Y72.684 E.01545
;WIDTH:0.869837
G1 X56.446 Y72.662 E.00749
;WIDTH:0.913037
G1 X56.337 Y72.64 E.00788
;WIDTH:0.956236
G1 X56.228 Y72.619 E.00827
G1 X56.328 Y72.573 E.0082
;WIDTH:0.913037
G1 X56.428 Y72.527 E.00781
;WIDTH:0.869837
G1 X56.528 Y72.481 E.00742
;WIDTH:0.826637
G1 X56.726 Y72.378 E.01426
;WIDTH:0.791091
G1 X56.924 Y72.275 E.01361
;WIDTH:0.755545
G1 X57.122 Y72.172 E.01296
;WIDTH:0.719999
G1 X57.603 Y71.792 E.03384
G1 X57.94 Y71.352 E.03053
G1 X58.189 Y70.767 E.0351
G1 X58.273 Y70.113 E.0364
G1 X58.225 Y65.914 E.23166
G1 X58.225 Y54.707 E.61836
G1 X58.164 Y54.172 E.02971
G1 X58.005 Y53.71 E.02692
G1 X57.801 Y53.354 E.02266
G1 X57.593 Y53.096 E.01829
G1 X57.318 Y52.843 E.02061
G1 X56.958 Y52.609 E.02367
G1 X56.462 Y52.416 E.02942
;WIDTH:0.768404
G1 X56.226 Y52.365 E.01424
;WIDTH:0.816808
G1 X55.99 Y52.315 E.01519
;WIDTH:0.865212
G1 X55.755 Y52.264 E.01614
G1 X52.266 Y52.262 E.23378
;WIDTH:0.86368
G1 X48.394 Y52.218 E.25899
;WIDTH:0.834309
G1 X47.172 Y52.189 E.07881
;WIDTH:0.835872
G1 X46.677 Y52.214 E.03202
G1 X46.569 Y52.252 E.00739
;WIDTH:0.809927
G1 X46.461 Y52.289 E.00714
;WIDTH:0.783982
G1 X46.154 Y52.441 E.02066
;WIDTH:0.751991
G1 X45.847 Y52.592 E.01977
;WIDTH:0.719999
G1 X45.362 Y52.991 E.03466
G1 X45.053 Y53.405 E.02854
G1 X44.834 Y53.901 E.02988
G1 X44.729 Y54.491 E.03307
G1 X44.78 Y54.808 E.01769
;WIDTH:0.674316
G1 X44.831 Y55.124 E.0165
;WIDTH:0.628633
G1 X44.961 Y55.425 E.01566
;WIDTH:0.601831
G1 X45.091 Y55.727 E.01494
;WIDTH:0.575029
G1 X53.805 Y71.289 E.77337
;WIDTH:0.589109
G1 X54.116 Y71.744 E.02453
;WIDTH:0.626751
G1 X54.244 Y71.876 E.00876
;WIDTH:0.664392
G1 X54.373 Y72.009 E.00933
;WIDTH:0.702033
G1 X54.501 Y72.141 E.00989
;WIDTH:0.744401
G1 X54.645 Y72.221 E.00943
;WIDTH:0.786768
G1 X54.79 Y72.3 E.01
;WIDTH:0.829135
G1 X54.934 Y72.38 E.01057
;WIDTH:0.871502
G1 X55.079 Y72.459 E.01114
;WIDTH:0.913869
G1 X55.223 Y72.539 E.01171
;WIDTH:0.956236
G1 X55.368 Y72.619 E.01228
G1 X55.255 Y72.643 E.00862
;WIDTH:0.90791
G1 X55.141 Y72.667 E.00816
;WIDTH:0.859584
G1 X55.028 Y72.691 E.00771
;WIDTH:0.811258
G1 X54.728 Y72.709 E.01884
;WIDTH:0.77485
G1 X54.427 Y72.728 E.01795
;WIDTH:0.738442
G1 X54.127 Y72.746 E.01706
;WIDTH:0.702033
G1 X53.915 Y72.407 E.02149
;WIDTH:0.664392
G1 X53.797 Y72.236 E.01052
;WIDTH:0.626751
G1 X53.679 Y72.065 E.00988
;WIDTH:0.589109
G1 X53.359 Y71.533 E.02764
;WIDTH:0.575029
G1 X44.627 Y55.987 E.77312
;WIDTH:0.601831
G1 X44.459 Y55.66 E.01674
;WIDTH:0.628633
G1 X44.29 Y55.333 E.01755
;WIDTH:0.674316
G1 X44.13 Y55.002 E.01894
;WIDTH:0.719999
G1 X43.97 Y54.671 E.02031
G1 X43.502 Y53.839 E.05266
G1 X43.802 Y51.369 E.13724
G1 X45.499 Y51.369 E.09362
;WIDTH:0.758624
G1 X45.869 Y51.389 E.0216
;WIDTH:0.797248
G1 X46.239 Y51.408 E.02277
;WIDTH:0.835872
G1 X46.608 Y51.427 E.02393
G1 X47.184 Y51.417 E.0372
;WIDTH:0.834309
G1 X48.4 Y51.427 E.0784
;WIDTH:0.86368
G1 X52.266 Y51.441 E.2586
;WIDTH:0.865212
G1 X55.839 Y51.442 E.2394
G1 X56.04 Y51.384 E.014
;WIDTH:0.816808
G1 X56.241 Y51.326 E.01318
;WIDTH:0.768404
G1 X56.441 Y51.268 E.01236
;WIDTH:0.719999
G1 X56.931 Y51.057 E.02942
G1 X57.283 Y50.811 E.02367
G1 X57.723 Y50.32 E.03638
G1 X57.918 Y49.967 E.02225
G1 X58.068 Y49.517 E.02619
G1 X58.125 Y49 E.02872
G1 X58.125 Y43.769 E.28857
G1 X59.642 Y43.769 E.08373
G1 X59.642 Y49 E.28857
G1 X59.7 Y49.517 E.02872
G1 X59.849 Y49.967 E.02619
G1 X60.045 Y50.32 E.02225
G1 X60.246 Y50.58 E.01814
G1 X60.522 Y50.842 E.02097
G1 X60.887 Y51.085 E.02423
;WIDTH:0.75903
G1 X61.115 Y51.173 E.01426
;WIDTH:0.798061
G1 X61.343 Y51.262 E.01504
;WIDTH:0.837092
G1 X61.571 Y51.35 E.01582
;WIDTH:0.876122
G1 X61.799 Y51.438 E.01659
G1 X62.012 Y51.442 E.01449
;WIDTH:0.865223
G1 X64.62 Y51.442 E.17473
G1 X64.62 Y52.264 E.0551
G1 X61.81 Y52.264 E.18827
G1 X61.671 Y52.312 E.00987
;WIDTH:0.823755
G1 X61.532 Y52.36 E.00937
;WIDTH:0.782287
G1 X61.4 Y52.406 E.00841
G1 X61.839 Y53.037 F9000
;WIDTH:0.719999
G1 F1200
G1 X61.571 Y53.072 E.01487
G1 X61.209 Y53.217 E.02155
G1 X60.771 Y53.556 E.03055
G1 X60.476 Y53.995 E.02916
G1 X60.363 Y54.325 E.01923
G1 X60.32 Y54.707 E.02122
G1 X60.32 Y73.414 E1.03214
G1 X53.736 Y73.414 E.36322
G1 X42.803 Y53.977 E1.2304
G1 X43.202 Y50.692 E.18258
G1 X55.755 Y50.692 E.69259
G1 X56.245 Y50.62 E.02734
G1 X56.595 Y50.469 E.02102
G1 X57.017 Y50.128 E.0299
G1 X57.3 Y49.691 E.02877
G1 X57.407 Y49.369 E.01871
G1 X57.448 Y49 E.02051
G1 X57.448 Y43.092 E.32593
G1 X60.32 Y43.092 E.15844
M73 P3 R16
G1 X60.32 Y49.122 E.3327
G1 X60.467 Y49.691 E.03241
G1 X60.771 Y50.15 E.03038
G1 X61.209 Y50.489 E.03055
G1 X61.571 Y50.634 E.02155
G1 X62.012 Y50.692 E.02453
G1 X65.37 Y50.692 E.18523
G1 X65.37 Y53.014 E.1281
G1 X62.012 Y53.014 E.18523
G1 X61.898 Y53.029 E.00636
G1 X61.846 Y53.718 F9000
G1 F1200
G1 X61.53 Y53.813 E.0182
G1 X61.267 Y54.016 E.01833
G1 X61.091 Y54.28 E.01749
G1 X60.997 Y54.707 E.02413
G1 X60.997 Y74.091 E1.0695
G1 X53.34 Y74.091 E.42243
G1 X42.104 Y54.116 E1.26449
G1 X42.602 Y50.015 E.22791
G1 X55.755 Y50.015 E.72568
G1 X56.049 Y49.972 E.0164
G1 X56.41 Y49.776 E.02264
G1 X56.598 Y49.566 E.01559
G1 X56.746 Y49.221 E.02067
G1 X56.771 Y49 E.01231
G1 X56.771 Y42.415 E.36328
G1 X60.997 Y42.415 E.23315
G1 X60.997 Y49.164 E.37237
G1 X61.169 Y49.566 E.0241
G1 X61.373 Y49.789 E.01671
G1 X61.748 Y49.98 E.02319
G1 X62.012 Y50.015 E.01472
G1 X66.047 Y50.015 E.22259
G1 X66.047 Y53.691 E.20281
G1 X61.937 Y53.691 E.22676
G1 X61.904 Y53.701 E.0019
G1 X62.012 Y54.368 F9000
;TYPE:Outer wall
G1 F1200
G1 X61.852 Y54.409 E.00915
G1 X61.734 Y54.513 E.00867
G1 X61.674 Y54.707 E.01117
G1 X61.674 Y74.768 E1.10686
G1 X52.944 Y74.768 E.48163
G1 X41.405 Y54.254 E1.29858
G1 X42.003 Y49.338 E.27324
G1 X55.834 Y49.338 E.7631
G1 X56.036 Y49.188 E.01391
G1 X56.094 Y49 E.01088
G1 X56.094 Y41.738 E.40064
G1 X61.674 Y41.738 E.30787
M73 P4 R16
G1 X61.674 Y49.06 E.40399
G1 X61.799 Y49.263 E.01314
G1 X62.012 Y49.338 E.01246
G1 X66.724 Y49.338 E.25995
G1 X66.724 Y54.368 E.27752
G1 X62.072 Y54.368 E.25664
G1 E-2.24 F4200
;WIPE_START
G1 F1200
G1 X61.852 Y54.409 E-.21545
G1 X61.734 Y54.513 E-.15091
G1 X61.674 Y54.707 E-.19441
G1 X61.674 Y55.123 E-.39923
;WIPE_END
G1 Z.6 F9000
G1 X58.934 Y54.707 Z.6
G1 Z.2
G1 E3.2 F1800
;TYPE:Inner wall
;WIDTH:0.783368
G1 F1200
G1 X58.934 Y65.91 E.67599
G1 X58.958 Y70.105 E.2531
;WIDTH:0.781244
G1 X58.935 Y70.672 E.03413
G1 E-2.24 F4200
;WIPE_START
G1 F1200
G1 X58.958 Y70.105 E-.54461
G1 X58.955 Y69.672 E-.41539
;WIPE_END
G1 Z.6 F9000
G1 X56.566 Y71.674 Z.6
G1 Z.2
G1 E3.2 F1800
;WIDTH:0.719999
G1 F1200
G1 X56.234 Y71.804 E.01967
G1 X55.756 Y71.86 E.02656
G1 X55.283 Y71.781 E.02647
G1 X54.868 Y71.583 E.02536
G1 X54.488 Y71.241 E.0282
G1 X54.32 Y70.994 E.01644
G1 X45.619 Y55.432 E.98375
G1 X45.446 Y54.983 E.02649
G1 X45.406 Y54.524 E.02546
G1 X45.48 Y54.102 E.02362
G1 X45.637 Y53.748 E.02135
G1 X45.858 Y53.452 E.02038
G1 X46.204 Y53.167 E.02476
G1 X46.804 Y52.938 E.03542
G1 X47.149 Y52.914 E.0191
G1 X48.373 Y52.952 E.06757
G1 X52.257 Y53.011 E.21429
G1 X55.857 Y53.014 E.19861
G1 X56.288 Y53.07 E.02402
G1 X56.643 Y53.209 E.02102
G1 X57.076 Y53.534 E.0299
G1 X57.391 Y53.995 E.03077
G1 X57.504 Y54.325 E.01923
G1 X57.548 Y54.707 E.02122
G1 X57.548 Y65.918 E.61858
G1 X57.596 Y70.121 E.23187
G1 X57.536 Y70.588 E.026
G1 X57.358 Y71.006 E.02507
G1 X57.118 Y71.32 E.02181
G1 X56.774 Y71.592 E.02417
G1 X56.622 Y71.652 E.00904
G1 X56.296 Y71.056 F9000
G1 F1200
G1 X55.973 Y71.169 E.01883
G1 X55.622 Y71.169 E.01936
G1 X55.24 Y71.017 E.0227
G1 X54.976 Y70.779 E.01962
G1 X46.21 Y55.101 E.99102
G1 X46.106 Y54.832 E.0159
G1 X46.082 Y54.556 E.01528
G1 X46.127 Y54.303 E.01417
G1 X46.221 Y54.091 E.01281
G1 X46.353 Y53.913 E.01223
G1 X46.561 Y53.742 E.01485
G1 X46.972 Y53.585 E.02429
G1 X48.358 Y53.629 E.07647
G1 X52.251 Y53.688 E.21485
G1 X55.856 Y53.691 E.19888
G1 X56.115 Y53.725 E.01441
G1 X56.482 Y53.908 E.02264
G1 X56.689 Y54.127 E.01662
G1 X56.845 Y54.477 E.02115
G1 X56.871 Y54.707 E.01273
G1 X56.871 Y65.922 E.61879
G1 X56.919 Y70.128 E.23209
G1 X56.883 Y70.409 E.0156
G1 X56.776 Y70.66 E.01504
G1 X56.632 Y70.848 E.01308
G1 X56.426 Y71.011 E.0145
G1 X56.352 Y71.037 E.0043
G1 X56.078 Y70.43 F9000
;TYPE:Outer wall
G1 F1200
G1 X55.789 Y70.507 E.01646
G1 X55.612 Y70.451 E.01027
G1 X55.502 Y70.333 E.00887
G1 X46.801 Y54.771 E.98375
G1 X46.758 Y54.589 E.01029
G1 X46.849 Y54.375 E.01283
G1 X47.05 Y54.265 E.01266
G1 X48.342 Y54.306 E.0713
G1 X52.246 Y54.365 E.21542
G1 X55.855 Y54.368 E.19915
G1 X56.064 Y54.44 E.01219
G1 X56.194 Y54.644 E.01331
G1 X56.194 Y65.926 E.62246
G1 X56.242 Y70.136 E.23231
G1 X56.194 Y70.313 E.01012
M73 P5 R16
G1 X56.12 Y70.388 E.00582
G1 E-2.24 F4200
;WIPE_START
G1 F1200
G1 X55.789 Y70.507 E-.33735
G1 X55.612 Y70.451 E-.17864
G1 X55.502 Y70.333 E-.15431
G1 X55.355 Y70.07 E-.2897
;WIPE_END
G1 Z.6 F9000
G1 X58.884 Y44.528 Z.6
G1 Z.2
G1 E3.2 F1800
;TYPE:Inner wall
;WIDTH:0.907266
G1 F1200
G1 X58.884 Y49.273 E.33422
G1 E-2.24 F4200
;WIPE_START
G1 F1200
G1 X58.884 Y48.273 E-.96
;WIPE_END
G1 Z.6 F9000
G1 X56.228 Y72.619 Z.6
G1 Z.2
G1 E3.2 F1800
;WIDTH:0.956236
G1 F1200
G1 X55.368 Y72.619 E.06398
G1 E-2.24 F4200
;WIPE_START
G1 F1200
G1 X56.228 Y72.619 E-.96
;WIPE_END
G1 Z.6 F9000
G1 X92.807 Y58.709 Z.6
G1 Z.2
G1 E3.2 F1800
;WIDTH:0.709722
G1 F1200
G1 X92.982 Y58.578 E.01187
;WIDTH:0.662218
G1 X93.156 Y58.447 E.01102
;WIDTH:0.614713
G1 X93.331 Y58.316 E.01018
;WIDTH:0.567208
G1 X93.833 Y57.98 E.0258
;WIDTH:0.574086
G1 X94.306 Y57.613 E.02592
;WIDTH:0.603307
G1 X94.522 Y57.432 E.01288
;WIDTH:0.632527
G1 X94.738 Y57.251 E.01355
;WIDTH:0.661133
G1 X95.005 Y56.987 E.01888
;WIDTH:0.689739
G1 X95.272 Y56.724 E.01975
;WIDTH:0.734534
G1 X95.635 Y56.291 E.03184
;WIDTH:0.771073
G1 X95.938 Y55.861 E.03124
;WIDTH:0.789964
G1 X96.222 Y55.388 E.03362
;WIDTH:0.803827
G1 X96.446 Y54.907 E.03289
G1 X96.691 Y54.251 E.04342
;WIDTH:0.793042
G1 X96.843 Y53.69 E.03549
;WIDTH:0.781747
G1 X96.941 Y53.15 E.03305
;WIDTH:0.76436
G1 X97.022 Y52.413 E.04361
;WIDTH:0.730428
G1 X97.035 Y51.499 E.05116
;WIDTH:0.691181
G1 X96.963 Y50.616 E.0468
;WIDTH:0.64741
G1 X96.869 Y50.043 E.02863
;WIDTH:0.6146
G1 X96.736 Y49.49 E.02647
;WIDTH:0.581772
G1 X96.544 Y48.876 E.02827
;WIDTH:0.582175
G1 X96.543 Y48.806 E.00305
;WIDTH:0.628371
G1 X96.543 Y48.737 E.00332
;WIDTH:0.674568
G1 X96.542 Y48.667 E.00358
;WIDTH:0.720764
G1 X96.542 Y48.598 E.00384
;WIDTH:0.766961
G1 X96.541 Y48.528 E.0041
;WIDTH:0.813157
G1 X96.541 Y48.459 E.00436
;WIDTH:0.859353
G1 X96.54 Y48.389 E.00462
;WIDTH:0.90555
G1 X96.54 Y48.32 E.00489
;WIDTH:0.951746
G1 X96.539 Y48.25 E.00515
G1 X96.573 Y48.281 E.00336
;WIDTH:0.922535
G1 X96.607 Y48.311 E.00325
;WIDTH:0.893324
G1 X96.658 Y48.362 E.00499
;WIDTH:0.848839
G1 X96.708 Y48.413 E.00473
;WIDTH:0.804354
G1 X96.759 Y48.464 E.00447
;WIDTH:0.759869
G1 X96.81 Y48.515 E.00421
;WIDTH:0.715384
G1 X96.861 Y48.566 E.00395
;WIDTH:0.670899
G1 X96.911 Y48.618 E.00368
;WIDTH:0.626414
G1 X96.962 Y48.669 E.00342
;WIDTH:0.581928
G1 X97.013 Y48.72 E.00316
;WIDTH:0.581772
G1 X97.252 Y49.339 E.02917
;WIDTH:0.6146
G1 X97.427 Y49.926 E.0285
;WIDTH:0.64741
G1 X97.557 Y50.508 E.0294
;WIDTH:0.674451
G1 X97.638 Y51.028 E.02706
;WIDTH:0.713258
G1 X97.706 Y51.935 E.04969
;WIDTH:0.730459
G1 X97.691 Y52.852 E.05141
