; HEADER_BLOCK_START
; generated by OrcaSlicer 2.0.0 on 2024-06-19 at 10:22:35
; total layer number: 18
; filament_density: 1.21
; filament_diameter: 1.75
; max_z_height: 1.80
; HEADER_BLOCK_END

; THUMBNAIL_BLOCK_START

;
; THUMBNAIL_BLOCK_END

; external perimeters extrusion width = 0.45mm
; perimeters extrusion width = 0.45mm
; infill extrusion width = 0.45mm
; solid infill extrusion width = 0.45mm
; top infill extrusion width = 0.40mm
; first layer extrusion width = 0.42mm

; external perimeters extrusion width = 0.45mm
; perimeters extrusion width = 0.45mm
; infill extrusion width = 0.45mm
; solid infill extrusion width = 0.45mm
; top infill extrusion width = 0.40mm
; first layer extrusion width = 0.42mm

; external perimeters extrusion width = 0.45mm
; perimeters extrusion width = 0.45mm
; infill extrusion width = 0.45mm
; solid infill extrusion width = 0.45mm
; top infill extrusion width = 0.40mm
; first layer extrusion width = 0.42mm

; EXECUTABLE_BLOCK_START
M73 P0 R238
M201 X2000 Y2000 Z300 E5000
M203 X200 Y200 Z12 E120
M204 P2000 R2500 T2000
M205 X9.00 Y9.00 Z0.20 E2.50 ; sets the jerk limits, mm/sec
;TYPE:Custom
M862.3 P "MK3S" ; printer model check
M862.1 P0.4 ; nozzle diameter check
M115 U3.13.0 ; tell printer latest fw version
G90 ; use absolute coordinates
M83 ; extruder relative mode
M104 S230 ; set extruder temp
M140 S60 ; set bed temp
M190 S60 ; wait for bed temp
M109 S230 ; wait for extruder temp
G28 W ; home all without mesh bed level
G80 ; mesh bed leveling

G1 Z0.2 F720
G1 Y-3 F1000 ; go outside print area
G92 E0
G1 X60 E9 F1000 ; intro line
G1 X100 E12.5 F1000 ; intro line

G92 E0
M221 S95
G90
G21
M83 ; use relative distances for extrusion
; filament start gcode
M106 S0
;LAYER_CHANGE
;Z:0.3
;HEIGHT:0.3
;BEFORE_LAYER_CHANGE
;0.3
G92 E0

;AFTER_LAYER_CHANGE
;0.3
;_SET_FAN_SPEED_CHANGING_LAYER
M204 S800
G1 X11.698 Y34.806 F10800
G1 Z.3 F720
;TYPE:Skirt
;WIDTH:0.42
G1 F1799.677
G1 X12.874 Y34.644 E.05796
G1 X237.177 Y34.644 E10.94378
G1 X238.002 Y34.733 E.04051
G1 X238.825 Y34.99 E.04203
G1 X239.509 Y35.354 E.03781
G1 X240.163 Y35.879 E.04093
G1 X240.663 Y36.459 E.03739
G1 X241.094 Y37.205 E.04203
G1 X241.364 Y38 E.04094
G1 X241.479 Y38.861 E.04238
G1 X241.464 Y147.825 E5.3164
G1 X241.194 Y150.376 E.12517
G1 X240.782 Y152.253 E.09373
G1 X239.93 Y154.741 E.12831
G1 X238.813 Y157.008 E.12331
G1 X237.357 Y159.198 E.12831
G1 X236.164 Y160.62 E.09059
G1 X234.259 Y162.434 E.12831
G1 X232.135 Y163.984 E.12831
G1 X229.919 Y165.199 E.12331
G1 X227.531 Y166.138 E.12517
G1 X225.677 Y166.639 E.09373
G1 X223.179 Y167.024 E.12331
G1 X121.7 Y175.339 E4.96778
G1 X12.823 Y175.356 E5.31214
G1 X11.713 Y175.198 E.05471
M73 P0 R237
G1 X10.666 Y174.754 E.05547
G1 X9.831 Y174.116 E.05126
G1 X9.137 Y173.236 E.0547
G1 X8.683 Y172.184 E.05588
G1 X8.519 Y171.001 E.05832
G1 X8.519 Y38.999 E6.44037
G1 X8.653 Y37.93 E.0526
G1 X9.077 Y36.867 E.05586
G1 X9.698 Y36.019 E.05125
G1 X10.578 Y35.299 E.05547
G1 X11.661 Y34.822 E.05774
; printing object marker - marker_upper_arm.stl id:19 copy 0
;WIPE_START
G1 X12.65 Y34.677
;WIPE_END
G1 X17.186 Y38.192 F10800
;TYPE:Outer wall
;WIDTH:0.42
G1 F900
G1 X17.846 Y38.042 E.033
G1 X18.555 Y37.748 E.03747
G1 X19.064 Y37.5 E.02759
G1 X19.563 Y37.309 E.0261
G1 X20.278 Y37.21 E.0352
G1 X120.681 Y37.21 E4.89868
G1 X121.257 Y37.218 E.02812
G1 X122.021 Y37.251 E.03732
G1 X122.784 Y37.318 E.03733
G1 X123.542 Y37.418 E.03733
G1 X124.296 Y37.551 E.03733
G1 X125.042 Y37.716 E.03733
G1 X125.782 Y37.914 E.03733
G1 X126.511 Y38.144 E.03733
G1 X127.23 Y38.406 E.03733
G1 X127.937 Y38.699 E.03733
G1 X128.63 Y39.022 E.03733
G1 X129.309 Y39.375 E.03733
G1 X129.972 Y39.758 E.03732
G1 X130.617 Y40.169 E.03734
G1 X131.244 Y40.608 E.03732
G1 X131.851 Y41.074 E.03733
G1 X132.437 Y41.565 E.03733
G1 X133.001 Y42.082 E.03733
G1 X133.542 Y42.623 E.03733
G1 X134.059 Y43.187 E.03733
G1 X134.55 Y43.773 E.03732
G1 X135.016 Y44.38 E.03733
G1 X135.455 Y45.007 E.03732
G1 X135.866 Y45.652 E.03733
G1 X136.249 Y46.315 E.03733
G1 X136.602 Y46.994 E.03732
G1 X136.925 Y47.687 E.03734
G1 X137.218 Y48.394 E.03732
G1 X137.48 Y49.113 E.03733
G1 X137.71 Y49.843 E.03733
G1 X137.908 Y50.582 E.03733
G1 X138.073 Y51.328 E.03732
G1 X138.206 Y52.082 E.03733
G1 X138.306 Y52.84 E.03732
G1 X138.373 Y53.603 E.03734
G1 X138.406 Y54.367 E.03731
G1 X138.398 Y55.515 E.056
G1 X138.348 Y56.278 E.03734
G1 X138.264 Y57.039 E.03734
G1 X138.148 Y57.795 E.03734
G1 X137.999 Y58.546 E.03733
G1 X137.817 Y59.289 E.03734
G1 X137.603 Y60.024 E.03734
G1 X137.357 Y60.749 E.03734
G1 X137.079 Y61.462 E.03733
G1 X136.771 Y62.162 E.03734
G1 X136.433 Y62.849 E.03734
G1 X136.065 Y63.519 E.03734
G1 X135.668 Y64.174 E.03734
G1 X135.242 Y64.81 E.03734
G1 X134.79 Y65.427 E.03734
G1 X134.311 Y66.024 E.03733
G1 X133.806 Y66.599 E.03734
G1 X133.277 Y67.152 E.03734
G1 X132.724 Y67.681 E.03734
G1 X132.149 Y68.186 E.03734
G1 X131.552 Y68.665 E.03734
G1 X130.935 Y69.117 E.03734
G1 X130.299 Y69.543 E.03733
G1 X129.644 Y69.94 E.03734
G1 X128.974 Y70.308 E.03734
G1 X128.287 Y70.646 E.03734
G1 X127.587 Y70.954 E.03734
G1 X126.874 Y71.232 E.03733
G1 X126.149 Y71.478 E.03734
G1 X125.414 Y71.692 E.03734
G1 X124.671 Y71.874 E.03734
G1 X123.92 Y72.023 E.03733
G1 X123.164 Y72.139 E.03734
G1 X122.403 Y72.223 E.03734
G1 X121.64 Y72.273 E.03734
G1 X120.872 Y72.29 E.03745
G1 X20.186 Y72.288 E4.91251
G1 X19.662 Y72.216 E.02579
G1 X19.359 Y72.106 E.01572
G1 X18.893 Y71.917 E.02453
G1 X18.261 Y71.614 E.03424
G1 X17.64 Y71.392 E.03215
G1 X17.031 Y71.295 E.03008
G1 X16.428 Y71.325 E.02945
G1 X15.782 Y71.495 E.0326
G1 X15.147 Y71.774 E.03387
G1 X14.69 Y71.997 E.02478
G1 X14.188 Y72.189 E.02622
G1 X13.692 Y72.28 E.02458
G1 X13.022 Y72.288 E.03273
G1 X12.411 Y72.227 E.02992
G1 X11.986 Y72.052 E.02244
G1 X11.61 Y71.764 E.02312
G1 X11.326 Y71.394 E.02277
G1 X11.147 Y70.962 E.02278
G1 X11.085 Y70.488 E.02337
G1 X11.086 Y39.094 E1.5317
G1 X11.169 Y38.462 E.0311
G1 X11.366 Y38.038 E.02279
G1 X11.661 Y37.686 E.02244
G1 X12.049 Y37.413 E.02312
G1 X12.489 Y37.253 E.02287
G1 X12.885 Y37.21 E.0194
G1 X13.465 Y37.21 E.02834
G1 X13.995 Y37.262 E.02596
G1 X14.669 Y37.499 E.03487
G1 X15.46 Y37.873 E.04266
G1 X15.953 Y38.062 E.02581
G1 X16.59 Y38.194 E.03174
G1 X17.146 Y38.192 E.02713
G1 X17.197 Y38.541 F10800
;TYPE:Inner wall
G1 F900
G1 X17.259 Y38.54 E.00303
G1 X17.982 Y38.37 E.03622
G1 X19.078 Y37.889 E.05844
G1 X19.659 Y37.653 E.03057
G1 X20.285 Y37.565 E.03081
G1 X120.681 Y37.565 E4.89836
G1 X121.249 Y37.573 E.02774
G1 X121.998 Y37.606 E.03657
G1 X122.745 Y37.671 E.03657
G1 X123.488 Y37.769 E.03657
G1 X124.226 Y37.899 E.03657
G1 X124.958 Y38.062 E.03657
G1 X125.682 Y38.256 E.03657
G1 X126.397 Y38.481 E.03657
G1 X127.101 Y38.737 E.03657
G1 X127.794 Y39.024 E.03657
G1 X128.473 Y39.341 E.03657
G1 X129.138 Y39.687 E.03658
G1 X129.787 Y40.062 E.03657
G1 X130.419 Y40.465 E.03658
G1 X131.033 Y40.895 E.03657
G1 X131.628 Y41.351 E.03657
G1 X132.202 Y41.833 E.03657
G1 X132.755 Y42.339 E.03657
G1 X133.285 Y42.869 E.03657
G1 X133.791 Y43.422 E.03657
G1 X134.273 Y43.996 E.03657
G1 X134.729 Y44.591 E.03658
G1 X135.159 Y45.205 E.03657
G1 X135.562 Y45.837 E.03658
G1 X135.937 Y46.486 E.03657
G1 X136.283 Y47.151 E.03656
G1 X136.6 Y47.83 E.03658
G1 X136.887 Y48.523 E.03656
G1 X137.143 Y49.227 E.03658
G1 X137.368 Y49.942 E.03657
G1 X137.562 Y50.666 E.03658
G1 X137.725 Y51.398 E.03656
G1 X137.855 Y52.136 E.03658
G1 X137.953 Y52.879 E.03656
G1 X138.018 Y53.626 E.03658
G1 X138.051 Y54.375 E.03655
G1 X138.042 Y55.499 E.05487
G1 X137.993 Y56.247 E.03658
G1 X137.912 Y56.993 E.03658
G1 X137.798 Y57.734 E.03658
G1 X137.651 Y58.469 E.03658
G1 X137.473 Y59.197 E.03658
G1 X137.263 Y59.917 E.03658
G1 X137.022 Y60.627 E.03658
G1 X136.751 Y61.326 E.03658
G1 X136.449 Y62.012 E.03658
G1 X136.117 Y62.684 E.03658
G1 X135.757 Y63.342 E.03658
G1 X135.368 Y63.983 E.03658
G1 X134.951 Y64.606 E.03658
G1 X134.508 Y65.211 E.03658
G1 X134.038 Y65.795 E.03658
G1 X133.544 Y66.359 E.03658
G1 X133.026 Y66.901 E.03658
G1 X132.484 Y67.419 E.03658
G1 X131.92 Y67.913 E.03658
G1 X131.336 Y68.383 E.03658
G1 X130.731 Y68.826 E.03658
G1 X130.108 Y69.243 E.03658
G1 X129.467 Y69.632 E.03658
G1 X128.809 Y69.992 E.03658
G1 X128.137 Y70.324 E.03658
G1 X127.451 Y70.626 E.03658
G1 X126.752 Y70.897 E.03658
G1 X126.042 Y71.138 E.03658
G1 X125.322 Y71.348 E.03658
G1 X124.594 Y71.526 E.03658
G1 X123.859 Y71.673 E.03658
G1 X123.118 Y71.787 E.03658
G1 X122.372 Y71.868 E.03658
G1 X121.624 Y71.917 E.03658
G1 X120.868 Y71.934 E.03688
G1 X20.392 Y71.932 E4.90225
G1 X19.748 Y71.869 E.03159
G1 X19.047 Y71.596 E.03667
G1 X18.382 Y71.28 E.03598
G1 X17.698 Y71.041 E.0353
G1 X17.015 Y70.939 E.03369
G1 X16.339 Y70.981 E.03305
G1 X15.639 Y71.169 E.03538
G1 X14.991 Y71.455 E.03455
G1 X14.271 Y71.776 E.03848
G1 X13.658 Y71.925 E.03077
G1 X13.018 Y71.932 E.03125
G1 X12.504 Y71.88 E.02519
G1 X12.165 Y71.741 E.01789
G1 X11.863 Y71.51 E.01854
G1 X11.636 Y71.214 E.01818
G1 X11.493 Y70.87 E.01821
G1 X11.44 Y70.464 E.01995
G1 X11.442 Y39.094 E1.53057
G1 X11.511 Y38.57 E.0258
G1 X11.669 Y38.231 E.01823
G1 X11.904 Y37.95 E.01789
G1 X12.215 Y37.731 E.01854
G1 X12.406 Y37.661 E.00995
G1 X12.82 Y37.574 E.02062
G1 X13.353 Y37.565 E.02601
G1 X13.923 Y37.612 E.02791
G1 X14.517 Y37.82 E.0307
G1 X15.331 Y38.204 E.0439
G1 X15.879 Y38.41 E.02855
G1 X16.59 Y38.55 E.03536
G1 X17.157 Y38.541 E.02768
G1 X17.213 Y38.891 F10800
G1 F900
G1 X17.332 Y38.888 E.00581
G1 X18.118 Y38.699 E.03944
G1 X19.234 Y38.208 E.05949
G1 X19.755 Y37.997 E.02742
G1 X20.291 Y37.921 E.02642
G1 X120.681 Y37.921 E4.89804
G1 X121.242 Y37.929 E.02736
G1 X121.975 Y37.961 E.03581
G1 X122.706 Y38.025 E.03582
G1 X123.434 Y38.121 E.03582
G1 X124.157 Y38.248 E.03581
G1 X124.873 Y38.407 E.03581
G1 X125.583 Y38.597 E.03582
G1 X126.283 Y38.818 E.03582
G1 X126.972 Y39.069 E.03581
G1 X127.651 Y39.35 E.03581
G1 X128.316 Y39.66 E.03581
G1 X128.967 Y39.999 E.03582
G1 X129.603 Y40.366 E.03581
G1 X130.222 Y40.76 E.03582
G1 X130.823 Y41.181 E.03581
G1 X131.405 Y41.628 E.03582
G1 X131.968 Y42.1 E.03581
G1 X132.509 Y42.596 E.03581
G1 X133.028 Y43.115 E.03581
G1 X133.524 Y43.656 E.03582
G1 X133.996 Y44.219 E.03581
G1 X134.443 Y44.801 E.03582
G1 X134.864 Y45.402 E.03581
G1 X135.258 Y46.021 E.03582
G1 X135.625 Y46.657 E.03582
G1 X135.964 Y47.308 E.03581
G1 X136.274 Y47.974 E.03582
G1 X136.555 Y48.652 E.03581
G1 X136.806 Y49.341 E.03582
G1 X137.027 Y50.042 E.03581
G1 X137.217 Y50.751 E.03582
G1 X137.376 Y51.467 E.03581
G1 X137.503 Y52.19 E.03582
G1 X137.599 Y52.918 E.03581
G1 X137.663 Y53.649 E.03583
G1 X137.695 Y54.382 E.0358
G1 X137.687 Y55.484 E.05373
G1 X137.639 Y56.216 E.03582
G1 X137.559 Y56.946 E.03583
G1 X137.447 Y57.672 E.03582
G1 X137.304 Y58.392 E.03582
G1 X137.13 Y59.105 E.03582
G1 X136.924 Y59.81 E.03582
G1 X136.688 Y60.505 E.03583
G1 X136.422 Y61.19 E.03582
G1 X136.126 Y61.862 E.03582
G1 X135.802 Y62.52 E.03582
G1 X135.448 Y63.164 E.03582
G1 X135.068 Y63.791 E.03582
G1 X134.66 Y64.402 E.03582
G1 X134.225 Y64.994 E.03583
G1 X133.766 Y65.567 E.03582
G1 X133.282 Y66.119 E.03582
G1 X132.774 Y66.649 E.03582
G1 X132.244 Y67.157 E.03582
G1 X131.692 Y67.641 E.03582
G1 X131.119 Y68.1 E.03582
G1 X130.527 Y68.535 E.03583
G1 X129.917 Y68.943 E.03582
G1 X129.289 Y69.323 E.03583
G1 X128.645 Y69.677 E.03582
G1 X127.987 Y70.001 E.03582
G1 X127.315 Y70.297 E.03582
G1 X126.63 Y70.563 E.03582
G1 X125.935 Y70.799 E.03583
G1 X125.23 Y71.005 E.03582
G1 X124.517 Y71.179 E.03583
G1 X123.797 Y71.322 E.03582
G1 X123.071 Y71.434 E.03582
G1 X122.341 Y71.514 E.03583
G1 X121.609 Y71.562 E.03582
G1 X120.864 Y71.578 E.03631
G1 X20.392 Y71.577 E4.90206
G1 X19.834 Y71.522 E.02738
M73 P0 R236
G1 X19.201 Y71.276 E.0331
G1 X18.503 Y70.945 E.03771
G1 X17.757 Y70.691 E.03846
G1 X17 Y70.584 E.0373
G1 X16.25 Y70.637 E.03666
G1 X15.496 Y70.844 E.03815
G1 X14.479 Y71.308 E.05453
G1 X13.995 Y71.501 E.02546
G1 X13.481 Y71.571 E.0253
G1 X12.738 Y71.553 E.03628
G1 X12.344 Y71.43 E.02012
G1 X12.031 Y71.145 E.02062
G1 X11.84 Y70.777 E.02025
G1 X11.796 Y70.441 E.01653
G1 X11.798 Y39.476 E1.51078
G1 X11.815 Y38.891 E.02858
G1 X11.912 Y38.551 E.01722
G1 X12.147 Y38.214 E.02006
G1 X12.514 Y38.001 E.0207
G1 X12.841 Y37.93 E.01635
G1 X13.353 Y37.921 E.02497
G1 X13.851 Y37.963 E.0244
G1 X14.365 Y38.142 E.02653
G1 X15.202 Y38.536 E.04515
G1 X15.804 Y38.757 E.0313
G1 X16.589 Y38.906 E.03898
G1 X17.173 Y38.892 E.02848
;WIPE_START
G1 X17.332 Y38.888
G1 X18.118 Y38.699
G1 X18.148 Y38.686
;WIPE_END
G1 X134.168 Y44.697 F10800
;TYPE:Bottom surface
;WIDTH:0.420713
G1 F900
G1 X132.536 Y43.065 E.11285
G1 X132.027 Y42.578 E.0344
G1 X131.486 Y42.103 E.03521
G1 X130.924 Y41.653 E.03521
G1 X130.343 Y41.227 E.03522
G1 X129.892 Y40.925 E.02654
G1 X134.699 Y45.732 E.33235
G1 X134.798 Y45.88 E.00867
G1 X135.171 Y46.495 E.03521
G1 X135.43 Y46.967 E.0263
G1 X128.657 Y40.194 E.46826
G1 X128.497 Y40.106 E.00892
G1 X127.851 Y39.788 E.03521
G1 X127.665 Y39.706 E.00995
G1 X135.918 Y47.959 E.57062
G1 X136.126 Y48.432 E.02526
G1 X136.278 Y48.823 E.02052
G1 X126.801 Y39.346 E.65527
G1 X126.521 Y39.237 E.01469
G1 X126.017 Y39.066 E.02601
G1 X136.558 Y49.607 E.72882
G1 X136.619 Y49.785 E.0092
G1 X136.778 Y50.33 E.02776
G1 X125.294 Y38.846 E.79399
G1 X125.147 Y38.804 E.00745
G1 X124.617 Y38.674 E.02667
G1 X136.95 Y51.007 E.85266
G1 X136.992 Y51.176 E.00854
G1 X137.085 Y51.645 E.02338
G1 X123.979 Y38.539 E.90615
G1 X123.741 Y38.492 E.01183
G1 X123.37 Y38.435 E.01834
G1 X137.189 Y52.254 E.95541
G1 X137.242 Y52.595 E.01687
G1 X137.268 Y52.837 E.01189
G1 X122.787 Y38.356 E1.00117
G1 X122.313 Y38.304 E.02332
G1 X122.226 Y38.298 E.00428
G1 X137.326 Y53.398 E1.04398
G1 X137.361 Y53.937 E.02642
G1 X121.687 Y38.263 E1.08371
G1 X121.595 Y38.257 E.00451
G1 X121.167 Y38.247 E.02089
G1 X137.377 Y54.457 E1.12068
G1 X137.383 Y54.75 E.01432
G1 X137.378 Y54.962 E.01041
G1 X120.657 Y38.241 E1.1561
G1 X120.153 Y38.241 E.02464
G1 X137.368 Y55.456 E1.1902
G1 X137.337 Y55.929 E.0232
G1 X119.649 Y38.241 E1.22293
G1 X119.145 Y38.241 E.02464
G1 X137.298 Y56.394 E1.25505
G1 X137.248 Y56.848 E.02234
G1 X118.641 Y38.241 E1.28645
G1 X118.137 Y38.241 E.02464
G1 X137.183 Y57.287 E1.31679
G1 X137.132 Y57.616 E.0163
G1 X137.112 Y57.719 E.00514
G1 X117.633 Y38.241 E1.34671
G1 X117.129 Y38.241 E.02464
G1 X137.028 Y58.14 E1.37577
G1 X136.992 Y58.323 E.00912
G1 X136.936 Y58.551 E.01151
G1 X116.625 Y38.241 E1.40422
G1 X116.121 Y38.241 E.02464
G1 X136.837 Y58.956 E1.43222
G1 X136.82 Y59.022 E.00333
G1 X136.725 Y59.349 E.01663
G1 X115.617 Y38.241 E1.45936
G1 X115.113 Y38.241 E.02464
G1 X136.611 Y59.738 E1.48627
G1 X136.483 Y60.114 E.01942
G1 X114.61 Y38.241 E1.51228
G1 X114.106 Y38.241 E.02464
G1 X136.352 Y60.487 E1.53806
G1 X136.211 Y60.85 E.01903
G1 X113.602 Y38.241 E1.56315
G1 X113.098 Y38.241 E.02464
G1 X136.064 Y61.208 E1.58788
G1 X135.91 Y61.557 E.01869
G1 X112.594 Y38.241 E1.61207
G1 X112.09 Y38.241 E.02464
G1 X135.75 Y61.901 E1.63582
G1 X135.584 Y62.238 E.0184
M73 P1 R236
G1 X111.586 Y38.241 E1.65915
G1 X111.082 Y38.241 E.02464
M73 P1 R235
G1 X135.41 Y62.569 E1.68198
G1 X135.231 Y62.894 E.01815
G1 X110.578 Y38.241 E1.70448
G1 X110.074 Y38.241 E.02464
G1 X135.045 Y63.212 E1.72644
G1 X134.855 Y63.525 E.01793
G1 X109.57 Y38.241 E1.74812
G1 X109.066 Y38.241 E.02464
G1 X134.656 Y63.831 E1.76925
G1 X134.454 Y64.133 E.01776
G1 X108.562 Y38.241 E1.79013
G1 X108.058 Y38.241 E.02464
G1 X134.245 Y64.427 E1.81046
G1 X134.031 Y64.718 E.01763
G1 X107.555 Y38.241 E1.83056
G1 X107.051 Y38.241 E.02464
G1 X133.81 Y65 E1.8501
G1 X133.586 Y65.28 E.01752
G1 X106.547 Y38.241 E1.86943
G1 X106.043 Y38.241 E.02464
G1 X133.353 Y65.552 E1.88822
G1 X133.118 Y65.82 E.01746
G1 X105.539 Y38.241 E1.90678
G1 X105.035 Y38.241 E.02464
G1 X132.875 Y66.081 E1.92481
G1 X132.628 Y66.338 E.01742
G1 X104.531 Y38.241 E1.94261
G1 X104.027 Y38.241 E.02464
G1 X132.375 Y66.588 E1.9599
G1 X132.117 Y66.835 E.01742
G1 X103.523 Y38.241 E1.97694
G1 X103.019 Y38.241 E.02464
G1 X131.853 Y67.074 E1.99349
G1 X131.584 Y67.31 E.01746
G1 X102.515 Y38.241 E2.00976
G1 X102.011 Y38.241 E.02464
G1 X131.309 Y67.538 E2.02556
G1 X131.029 Y67.762 E.01752
G1 X101.507 Y38.241 E2.04107
G1 X101.003 Y38.241 E.02464
