; HEADER_BLOCK_START
; generated by OrcaSlicer 2.0.0 on 2024-05-27 at 10:36:05
; total layer number: 10
; filament_density: 1.24
; filament_diameter: 1.75
; max_z_height: 2.00
; HEADER_BLOCK_END

; THUMBNAIL_BLOCK_START

;
; THUMBNAIL_BLOCK_END

; external perimeters extrusion width = 0.45mm
; perimeters extrusion width = 0.45mm
; infill extrusion width = 0.45mm
; solid infill extrusion width = 0.45mm
; top infill extrusion width = 0.40mm
; first layer extrusion width = 0.42mm

; EXECUTABLE_BLOCK_START
M73 P0 R69
M201 X2000 Y2000 Z300 E5000
M203 X200 Y200 Z12 E120
M204 P2000 R2500 T2000
M205 X9.00 Y9.00 Z0.20 E2.50 ; sets the jerk limits, mm/sec
;TYPE:Custom
M862.3 P "MK3S" ; printer model check
M862.1 P0.4 ; nozzle diameter check
M115 U3.13.0 ; tell printer latest fw version
G90 ; use absolute coordinates
M83 ; extruder relative mode
M104 S220 ; set extruder temp
M140 S60 ; set bed temp
M190 S60 ; wait for bed temp
M109 S220 ; wait for extruder temp
G28 W ; home all without mesh bed level
G80 ; mesh bed leveling

G1 Z0.2 F720
G1 Y-3 F1000 ; go outside print area
G92 E0
G1 X60 E9 F1000 ; intro line
G1 X100 E12.5 F1000 ; intro line

G92 E0
M221 S95
G90
G21
M83 ; use relative distances for extrusion
; filament start gcode
M900 K0.05 ; Filament gcode LA 1.5
M900 K30 ; Filament gcode LA 1.0
M106 S0
;LAYER_CHANGE
;Z:0.2
;HEIGHT:0.2
;BEFORE_LAYER_CHANGE
;0.2
G92 E0

G1 E-.8 F1800
;AFTER_LAYER_CHANGE
;0.2
;_SET_FAN_SPEED_CHANGING_LAYER
M204 S800
G1 Z.4 F720
G1 X57.55 Y41.406 F10800
G1 Z.4 F720
G1 Z.2
G1 E.8 F1800
;TYPE:Skirt
;WIDTH:0.42
G1 F3000
G1 X59.033 Y39.474 E.07482
G1 X59.471 Y39.036 E.01907
G1 X61.403 Y37.553 E.07482
G1 X61.94 Y37.243 E.01907
G1 X64.19 Y36.311 E.07482
G1 X64.789 Y36.151 E.01907
G1 X67.501 Y35.813 E.08396
G1 X181.312 Y35.216 E3.49717
G1 X183.726 Y35.534 E.07482
G1 X184.326 Y35.695 E.01907
G1 X186.575 Y36.626 E.07482
G1 X187.113 Y36.937 E.01907
G1 X189.278 Y38.624 E.08435
G1 X191.581 Y40.956 E.10069
G1 X193.063 Y42.887 E.07482
G1 X193.374 Y43.425 E.01907
G1 X194.305 Y45.674 E.07482
G1 X194.466 Y46.274 E.01907
G1 X194.784 Y48.688 E.07482
G1 X194.19 Y162.496 E3.49707
G1 X193.852 Y165.208 E.08396
G1 X193.692 Y165.807 E.01907
G1 X192.76 Y168.057 E.07482
G1 X192.45 Y168.594 E.01907
G1 X190.967 Y170.526 E.07482
G1 X190.529 Y170.964 E.01907
G1 X188.597 Y172.447 E.07482
G1 X188.06 Y172.757 E.01907
G1 X185.81 Y173.689 E.07482
G1 X185.211 Y173.849 E.01907
G1 X182.487 Y174.187 E.08435
G1 X67.517 Y174.191 E3.5327
G1 X64.792 Y173.852 E.08435
G1 X64.193 Y173.692 E.01907
G1 X61.943 Y172.76 E.07482
G1 X61.406 Y172.45 E.01907
G1 X59.474 Y170.967 E.07482
G1 X59.036 Y170.529 E.01907
G1 X57.553 Y168.597 E.07482
G1 X57.243 Y168.06 E.01907
G1 X56.311 Y165.81 E.07482
G1 X56.151 Y165.211 E.01907
G1 X55.813 Y162.487 E.08435
G1 X55.809 Y47.517 E3.5327
G1 X56.148 Y44.792 E.08435
G1 X56.308 Y44.193 E.01907
G1 X57.24 Y41.943 E.07482
G1 X57.53 Y41.441 E.01784
; printing object Deckel id:2816 copy 0
G1 E-.56 F1800
;WIPE_START
G1 F3000
G1 X58.137 Y40.646 E-.24
;WIPE_END
G1 Z.6 F720
G1 X66.711 Y153.456 Z.6 F10800
G1 Z.2 F720
G1 E.8 F1800
;TYPE:Brim
G1 F1200
G1 X66.711 Y161 E.23182
G1 X66.744 Y161.379 E.01168
G1 X66.844 Y161.765 E.01225
G1 X67.009 Y162.128 E.01225
G1 X67.235 Y162.456 E.01225
G1 X67.468 Y162.699 E.01035
G1 X67.787 Y162.94 E.01225
G1 X68.112 Y163.108 E.01125
G1 X68.491 Y163.231 E.01225
G1 X69 Y163.289 E.01574
G1 X76.548 Y163.289 E.23192
G1 X76.342 Y164.851 E.04843
G1 X75.429 Y167.055 E.07329
G1 X73.977 Y168.947 E.07329
G1 X72.085 Y170.399 E.07329
G1 X69.881 Y171.312 E.07329
G1 X67.517 Y171.623 E.07329
G1 X65.152 Y171.312 E.07329
G1 X62.948 Y170.399 E.07329
G1 X61.056 Y168.947 E.07329
G1 X59.604 Y167.055 E.07329
G1 X58.691 Y164.851 E.07329
G1 X58.38 Y162.486 E.07329
G1 X58.691 Y160.122 E.07329
G1 X59.604 Y157.918 E.07329
G1 X61.056 Y156.026 E.07329
G1 X62.948 Y154.574 E.07329
G1 X65.152 Y153.661 E.07329
G1 X66.672 Y153.461 E.04711
G1 X66.304 Y153.937 F10800
G1 F1200
G1 X66.334 Y154.015 E.00255
G1 X66.334 Y160.995 E.2145
G1 X66.367 Y161.402 E.01254
G1 X66.477 Y161.851 E.0142
G1 X66.663 Y162.277 E.01426
G1 X66.921 Y162.664 E.01429
G1 X67.191 Y162.955 E.0122
G1 X67.553 Y163.236 E.0141
G1 X67.931 Y163.439 E.01318
G1 X68.366 Y163.586 E.01412
G1 X69.007 Y163.666 E.01984
G1 X75.989 Y163.666 E.21453
G1 X76.081 Y163.713 E.00318
G1 X76.101 Y163.794 E.00255
G1 X75.969 Y164.767 E.03017
G1 X75.106 Y166.851 E.06932
G1 X73.717 Y168.666 E.07022
G1 X71.881 Y170.075 E.07112
G1 X69.768 Y170.947 E.07022
G1 X67.531 Y171.241 E.06932
G1 X65.265 Y170.947 E.07022
G1 X63.127 Y170.061 E.07112
G1 X61.337 Y168.687 E.06932
G1 X59.942 Y166.877 E.07022
G1 X59.057 Y164.738 E.07112
G1 X58.762 Y162.501 E.06932
G1 X59.057 Y160.235 E.07022
G1 X59.942 Y158.096 E.07112
G1 X61.337 Y156.286 E.07022
G1 X63.127 Y154.912 E.06932
G1 X65.237 Y154.034 E.07022
G1 X66.206 Y153.902 E.03008
G1 X66.266 Y153.924 E.00195
G1 X65.926 Y154.369 F10800
G1 F1200
G1 X65.957 Y154.446 E.00257
G1 X65.957 Y160.99 E.20108
G1 X66.003 Y161.499 E.0157
G1 X66.135 Y162.01 E.01622
G1 X66.354 Y162.493 E.0163
G1 X66.602 Y162.866 E.01375
G1 X66.909 Y163.205 E.01407
G1 X67.316 Y163.529 E.01597
G1 X67.745 Y163.767 E.01508
G1 X68.236 Y163.94 E.01599
G1 X69.014 Y164.043 E.02413
G1 X75.557 Y164.043 E.20104
G1 X75.649 Y164.09 E.00318
G1 X75.669 Y164.171 E.00257
G1 X75.596 Y164.681 E.01583
G1 X74.782 Y166.647 E.0654
G1 X73.457 Y168.386 E.06715
G1 X71.703 Y169.737 E.06804
G1 X69.655 Y170.581 E.06806
G1 X67.516 Y170.859 E.06628
G1 X65.378 Y170.581 E.06626
G1 X63.305 Y169.722 E.06895
G1 X61.596 Y168.406 E.06626
G1 X60.281 Y166.698 E.06626
G1 X59.422 Y164.625 E.06895
G1 X59.144 Y162.486 E.06627
G1 X59.422 Y160.348 E.06626
G1 X60.281 Y158.275 E.06894
G1 X61.596 Y156.566 E.06626
G1 X63.305 Y155.25 E.06628
G1 X65.322 Y154.407 E.06718
G1 X65.829 Y154.334 E.01573
G1 X65.889 Y154.355 E.00195
G1 X65.527 Y154.785 F10800
G1 F1200
G1 X65.58 Y154.881 E.00338
G1 X65.58 Y160.986 E.18757
G1 X65.627 Y161.524 E.01662
G1 X65.768 Y162.096 E.01808
G1 X66.045 Y162.709 E.02069
G1 X66.327 Y163.124 E.01541
G1 X66.681 Y163.506 E.01599
G1 X67.14 Y163.862 E.01786
G1 X67.627 Y164.125 E.01702
G1 X68.197 Y164.315 E.01845
G1 X69.022 Y164.42 E.02554
G1 X75.122 Y164.42 E.18746
G1 X75.214 Y164.467 E.00318
G1 X75.227 Y164.576 E.00337
G1 X74.458 Y166.444 E.06207
G1 X73.197 Y168.106 E.06409
G1 X71.499 Y169.413 E.06585
G1 X69.543 Y170.215 E.06496
G1 X67.531 Y170.477 E.06234
G1 X65.491 Y170.215 E.06319
G1 X63.484 Y169.384 E.06677
G1 X61.856 Y168.126 E.0632
G1 X60.619 Y166.519 E.06231
G1 X59.788 Y164.512 E.06677
G1 X59.526 Y162.501 E.06231
G1 X59.788 Y160.461 E.06319
G1 X60.619 Y158.454 E.06676
G1 X61.877 Y156.826 E.06319
G1 X63.485 Y155.588 E.06235
G1 X65.424 Y154.777 E.06459
G1 X65.487 Y154.782 E.00195
G1 X65.149 Y155.352 F10800
G1 F1200
G1 X65.203 Y155.448 E.00339
G1 X65.203 Y160.981 E.17002
G1 X65.25 Y161.549 E.01751
G1 X65.399 Y162.177 E.01984
G1 X65.698 Y162.857 E.02282
G1 X66.011 Y163.33 E.01743
G1 X66.398 Y163.755 E.01767
G1 X66.968 Y164.198 E.02218
G1 X67.517 Y164.486 E.01903
G1 X68.068 Y164.67 E.01784
G1 X68.968 Y164.793 E.02791
G1 X74.559 Y164.797 E.17182
G1 X74.651 Y164.844 E.00318
G1 X74.664 Y164.953 E.00337
G1 X74.119 Y166.267 E.0437
G1 X72.915 Y167.847 E.06104
G1 X71.321 Y169.074 E.06182
G1 X69.459 Y169.842 E.06189
G1 X67.545 Y170.095 E.05932
G1 X65.604 Y169.85 E.06012
G1 X63.662 Y169.046 E.06457
G1 X62.137 Y167.866 E.05925
G1 X60.958 Y166.341 E.05925
G1 X60.161 Y164.428 E.06368
G1 X59.909 Y162.515 E.05928
G1 X60.153 Y160.574 E.06012
G1 X60.943 Y158.658 E.06365
G1 X62.157 Y157.087 E.06103
G1 X63.689 Y155.911 E.05933
G1 X65.046 Y155.343 E.04521
G1 X65.11 Y155.348 E.00195
G1 X64.772 Y155.918 F10800
G1 F1200
G1 X64.826 Y156.014 E.00339
G1 X64.826 Y160.976 E.15245
G1 X64.885 Y161.644 E.0206
G1 X65.03 Y162.254 E.01928
G1 X65.389 Y163.073 E.02747
G1 X65.738 Y163.59 E.01916
G1 X66.113 Y164.002 E.01712
G1 X66.802 Y164.537 E.0268
G1 X67.334 Y164.816 E.01846
G1 X67.94 Y165.024 E.01968
G1 X68.909 Y165.166 E.03012
G1 X73.995 Y165.174 E.15627
G1 X74.087 Y165.221 E.00318
G1 X74.099 Y165.33 E.00337
G1 X73.781 Y166.089 E.02529
G1 X72.654 Y167.567 E.05709
G1 X71.117 Y168.75 E.05963
G1 X69.346 Y169.477 E.05881
G1 X67.53 Y169.713 E.05629
G1 X65.687 Y169.476 E.05707
G1 X63.841 Y168.707 E.06145
G1 X62.397 Y167.586 E.05618
G1 X61.281 Y166.136 E.05623
G1 X60.526 Y164.314 E.06059
G1 X60.291 Y162.499 E.05622
G1 X60.527 Y160.657 E.05708
G1 X61.266 Y158.863 E.05962
G1 X62.416 Y157.368 E.05797
G1 X63.868 Y156.249 E.05631
G1 X64.669 Y155.91 E.02673
G1 X64.732 Y155.915 E.00195
G1 X64.395 Y156.487 F10800
G1 F1200
G1 X64.449 Y156.584 E.0034
G1 X64.449 Y160.971 E.13481
G1 X64.509 Y161.669 E.02154
G1 X64.661 Y162.332 E.02088
G1 X65.082 Y163.292 E.03224
G1 X65.421 Y163.794 E.01861
G1 X65.828 Y164.249 E.01873
G1 X66.635 Y164.875 E.0314
G1 X67.219 Y165.175 E.02017
G1 X67.807 Y165.378 E.01912
G1 X68.848 Y165.538 E.03234
G1 X73.428 Y165.55 E.14075
G1 X73.52 Y165.597 E.00318
G1 X73.532 Y165.707 E.00338
G1 X73.443 Y165.91 E.00682
G1 X72.394 Y167.286 E.05317
G1 X70.913 Y168.427 E.05743
G1 X69.234 Y169.111 E.05571
G1 X67.515 Y169.33 E.05326
G1 X65.771 Y169.103 E.05402
G1 X64.021 Y168.369 E.05833
G1 X62.657 Y167.306 E.05312
G1 X61.604 Y165.932 E.05321
G1 X60.892 Y164.201 E.05751
G1 X60.673 Y162.485 E.05316
G1 X60.9 Y160.74 E.05405
G1 X61.59 Y159.067 E.05562
G1 X62.676 Y157.648 E.05491
G1 X64.048 Y156.586 E.0533
G1 X64.292 Y156.479 E.00817
G1 X64.355 Y156.484 E.00195
G1 X63.991 Y157.167 F10800
G1 F1200
G1 X64.072 Y157.276 E.00415
G1 X64.072 Y160.966 E.1134
G1 X64.133 Y161.694 E.02245
G1 X64.291 Y162.406 E.0224
G1 X64.775 Y163.512 E.03709
G1 X65.145 Y164.051 E.0201
G1 X65.54 Y164.492 E.01819
G1 X66.472 Y165.215 E.03624
G1 X67.039 Y165.507 E.01961
G1 X67.676 Y165.731 E.02073
G1 X68.782 Y165.909 E.03444
G1 X72.729 Y165.925 E.12128
G1 X72.821 Y165.973 E.00318
G1 X72.819 Y166.107 E.00412
G1 X72.133 Y167.006 E.03475
G1 X70.735 Y168.087 E.0543
G1 X69.123 Y168.745 E.05352
G1 X67.501 Y168.948 E.05022
G1 X65.886 Y168.737 E.05006
G1 X64.201 Y168.032 E.05612
G1 X62.919 Y167.027 E.05006
G1 X61.943 Y165.754 E.04929
G1 X61.258 Y164.089 E.05533
G1 X61.055 Y162.471 E.05011
G1 X61.266 Y160.853 E.05013
G1 X61.914 Y159.27 E.05255
G1 X62.937 Y157.928 E.05187
G1 X63.89 Y157.186 E.0371
G1 X63.952 Y157.175 E.00195
G1 X63.614 Y157.939 F10800
G1 F1200
G1 X63.695 Y158.047 E.00416
G1 X63.695 Y160.962 E.08955
G1 X63.756 Y161.718 E.02333
G1 X63.921 Y162.477 E.02387
G1 X64.47 Y163.733 E.04212
G1 X64.83 Y164.259 E.01956
G1 X65.252 Y164.737 E.0196
G1 X66.233 Y165.507 E.03833
G1 X66.861 Y165.839 E.02181
G1 X67.542 Y166.083 E.02222
G1 X68.714 Y166.28 E.03654
G1 X71.97 Y166.299 E.10005
G1 X72.062 Y166.347 E.00318
G1 X72.06 Y166.481 E.00412
G1 X71.852 Y166.747 E.01039
G1 X70.531 Y167.763 E.0512
G1 X69.04 Y168.372 E.04947
G1 X67.516 Y168.566 E.04721
G1 X65.971 Y168.364 E.0479
G1 X64.408 Y167.709 E.05207
G1 X63.18 Y166.748 E.0479
G1 X62.267 Y165.55 E.04629
G1 X61.631 Y164.006 E.05132
G1 X61.437 Y162.457 E.04795
G1 X61.639 Y160.937 E.04713
G1 X62.238 Y159.473 E.0486
G1 X63.219 Y158.186 E.04971
G1 X63.512 Y157.958 E.01142
G1 X63.574 Y157.946 E.00195
G1 E-.56 F1800
;WIPE_START
G1 F1200
G1 X63.695 Y158.047 E-.03772
G1 X63.695 Y158.89 E-.20228
;WIPE_END
G1 Z.6 F720
G1 X63.208 Y158.901 Z.6 F10800
G1 Z.2 F720
G1 E.8 F1800
G1 F1200
G1 X63.298 Y158.951 E.00318
G1 X63.318 Y159.014 E.00203
G1 X63.318 Y160.957 E.05972
G1 X63.38 Y161.742 E.02418
G1 X63.55 Y162.547 E.02529
G1 X64.121 Y163.876 E.04444
G1 X64.516 Y164.467 E.02183
G1 X64.964 Y164.979 E.02091
G1 X65.993 Y165.798 E.04041
G1 X66.741 Y166.196 E.02604
G1 X67.488 Y166.457 E.02433
G1 X68.721 Y166.657 E.03836
G1 X71.001 Y166.67 E.07008
G1 X71.093 Y166.718 E.00318
G1 X71.108 Y166.82 E.00318
G1 X71.07 Y166.873 E.00199
G1 X70.327 Y167.439 E.02869
G1 X68.957 Y167.998 E.04547
G1 X67.502 Y168.184 E.04507
G1 X66.056 Y167.991 E.04485
M73 P1 R69
G1 X64.614 Y167.387 E.04803
G1 X63.442 Y166.47 E.04574
G1 X62.591 Y165.347 E.04327
G1 X62.005 Y163.923 E.04734
G1 X61.819 Y162.473 E.0449
G1 X62.005 Y161.049 E.04412
G1 X62.563 Y159.676 E.04555
G1 X63.115 Y158.945 E.02814
G1 X63.172 Y158.918 E.00195
G1 E-.56 F1800
;WIPE_START
G1 F1200
G1 X63.298 Y158.951 E-.03139
G1 X63.318 Y159.014 E-.01585
G1 X63.318 Y159.817 E-.19277
;WIPE_END
G1 Z.6 F720
G1 X62.853 Y160.229 Z.6 F10800
G1 Z.2 F720
G1 E.8 F1800
G1 F1200
G1 X62.902 Y160.241 E.00155
G1 X62.941 Y160.326 E.00289
G1 X62.941 Y160.953 E.01925
G1 X63.012 Y161.826 E.02694
G1 X63.208 Y162.705 E.02767
G1 X63.813 Y164.093 E.04653
G1 X64.236 Y164.72 E.02323
G1 X64.736 Y165.28 E.02309
G1 X65.75 Y166.086 E.0398
G1 X66.625 Y166.555 E.03048
G1 X67.437 Y166.831 E.02637
G1 X68.652 Y167.028 E.03781
G1 X69.732 Y167.04 E.0332
G1 X69.824 Y167.088 E.00318
G1 X69.838 Y167.191 E.00318
G1 X69.774 Y167.258 E.00285
G1 X68.846 Y167.632 E.03075
G1 X67.518 Y167.802 E.04113
G1 X66.17 Y167.626 E.04177
G1 X64.821 Y167.065 E.04491
G1 X63.704 Y166.191 E.04356
G1 X62.916 Y165.145 E.04025
G1 X62.371 Y163.81 E.04429
G1 X62.201 Y162.488 E.04096
G1 X62.37 Y161.161 E.04112
G1 X62.723 Y160.284 E.02904
G1 X62.801 Y160.216 E.00318
G1 X62.814 Y160.219 E.0004
G1 E-.56 F1800
;WIPE_START
G1 F1200
G1 X62.902 Y160.241 E-.02169
G1 X62.941 Y160.326 E-.02257
G1 X62.941 Y160.953 E-.15033
G1 X62.956 Y161.141 E-.04541
;WIPE_END
G1 Z.6 F720
G1 X62.764 Y162.738 Z.6 F10800
G1 Z.2 F720
G1 E.8 F1800
G1 F1200
G1 X62.849 Y162.813 E.0035
G1 X63.506 Y164.313 E.0503
G1 X63.919 Y164.925 E.02269
G1 X64.449 Y165.524 E.02458
G1 X65.581 Y166.423 E.04443
G1 X66.439 Y166.883 E.0299
G1 X67.229 Y167.158 E.02573
G1 X67.301 Y167.233 E.00318
G1 X67.281 Y167.335 E.00318
G1 X67.177 Y167.377 E.00345
G1 X66.284 Y167.26 E.0277
G1 X65.027 Y166.742 E.04177
G1 X63.966 Y165.913 E.04136
G1 X63.241 Y164.944 E.0372
G1 X62.744 Y163.727 E.04037
G1 X62.629 Y162.863 E.02679
G1 X62.664 Y162.766 E.00318
G1 X62.725 Y162.748 E.00195
G1 E-.56 F1800
;WIPE_START
G1 F1200
G1 X62.849 Y162.813 E-.03352
G1 X63.194 Y163.601 E-.20648
;WIPE_END
G1 Z.6 F720
G1 X173.456 Y163.288 Z.6 F10800
G1 Z.2 F720
G1 E.8 F1800
G1 F1200
G1 X181.094 Y163.286 E.2347
G1 X181.481 Y163.237 E.01201
G1 X181.858 Y163.121 E.01211
G1 X182.16 Y162.972 E.01034
G1 X182.481 Y162.743 E.01212
G1 X182.767 Y162.453 E.01252
G1 X183.039 Y162.036 E.0153
G1 X183.204 Y161.614 E.01392
G1 X183.281 Y161.181 E.01351
G1 X183.288 Y153.452 E.23749
G1 X184.851 Y153.658 E.04844
G1 X187.055 Y154.571 E.07329
G1 X188.947 Y156.023 E.07329
G1 X190.399 Y157.915 E.07329
G1 X191.312 Y160.119 E.07329
G1 X191.623 Y162.483 E.07329
G1 X191.312 Y164.848 E.07329
G1 X190.399 Y167.052 E.07329
G1 X188.947 Y168.944 E.07329
G1 X187.055 Y170.396 E.07329
G1 X184.851 Y171.309 E.07329
G1 X182.486 Y171.62 E.07329
G1 X180.122 Y171.309 E.07329
G1 X177.918 Y170.396 E.07329
G1 X176.026 Y168.944 E.07329
G1 X174.574 Y167.052 E.07329
G1 X173.661 Y164.848 E.07329
G1 X173.461 Y163.328 E.04711
G1 X173.937 Y163.696 F10800
M73 P1 R68
G1 F1200
G1 X174.014 Y163.665 E.00255
G1 X181.148 Y163.66 E.2192
G1 X181.6 Y163.595 E.01402
G1 X182.032 Y163.456 E.01394
G1 X182.384 Y163.275 E.01218
G1 X182.756 Y163.002 E.01417
G1 X183.087 Y162.651 E.01482
G1 X183.395 Y162.163 E.01774
G1 X183.551 Y161.76 E.01327
G1 X183.65 Y161.256 E.01578
G1 X183.665 Y154.011 E.22262
G1 X183.712 Y153.919 E.00318
G1 X183.793 Y153.899 E.00255
G1 X184.738 Y154.023 E.0293
G1 X186.877 Y154.909 E.07112
G1 X188.666 Y156.283 E.06932
G1 X190.061 Y158.093 E.07022
G1 X190.947 Y160.232 E.07112
G1 X191.241 Y162.469 E.06932
G1 X190.947 Y164.735 E.07022
G1 X190.061 Y166.873 E.07112
G1 X188.666 Y168.684 E.07022
G1 X186.877 Y170.058 E.06932
G1 X184.738 Y170.943 E.07112
G1 X182.501 Y171.238 E.06932
G1 X180.235 Y170.943 E.07022
G1 X178.122 Y170.072 E.07022
G1 X176.286 Y168.663 E.07112
G1 X174.897 Y166.848 E.07022
G1 X174.034 Y164.763 E.06932
G1 X173.902 Y163.793 E.03008
G1 X173.924 Y163.734 E.00195
G1 X174.369 Y164.073 F10800
G1 F1200
G1 X174.446 Y164.042 E.00256
G1 X181.209 Y164.032 E.20781
G1 X181.723 Y163.951 E.016
G1 X182.21 Y163.788 E.01579
G1 X182.614 Y163.574 E.01402
G1 X183.036 Y163.255 E.01626
G1 X183.412 Y162.843 E.01713
