; generated by PrusaSlicer 2.7.4 on 2024-06-25 at 17:22:26 UTC


;
;
; 

; external perimeters extrusion width = 0.45mm
; perimeters extrusion width = 0.45mm
; infill extrusion width = 0.45mm
; solid infill extrusion width = 0.45mm
; top infill extrusion width = 0.40mm
; first layer extrusion width = 0.42mm

; external perimeters extrusion width = 0.45mm
; perimeters extrusion width = 0.45mm
; infill extrusion width = 0.45mm
; solid infill extrusion width = 0.45mm
; top infill extrusion width = 0.40mm
; first layer extrusion width = 0.42mm

; external perimeters extrusion width = 0.45mm
; perimeters extrusion width = 0.45mm
; infill extrusion width = 0.45mm
; solid infill extrusion width = 0.45mm
; top infill extrusion width = 0.40mm
; first layer extrusion width = 0.42mm

M73 P0 R462
M73 Q0 S462
M201 X1000 Y1000 Z200 E5000 ; sets maximum accelerations, mm/sec^2
M203 X200 Y200 Z12 E120 ; sets maximum feedrates, mm / sec
M204 S1250 T1250 ; sets acceleration (S) and retract acceleration (R), mm/sec^2
M205 X8.00 Y8.00 Z0.40 E4.50 ; sets the jerk limits, mm/sec
M205 S0 T0 ; sets the minimum extruding and travel feed rate, mm/sec

; printing object marker - teammarker_forearm.stl id:1 copy 0
; stop printing object marker - teammarker_forearm.stl id:1 copy 0
; printing object marker - teammarker_forearm.stl id:0 copy 0
; stop printing object marker - teammarker_forearm.stl id:0 copy 0
; printing object marker - teammarker_forearm.stl id:2 copy 0
; stop printing object marker - teammarker_forearm.stl id:2 copy 0

;TYPE:Custom
M862.3 P "MK3S" ; printer model check
M862.1 P0.4 ; nozzle diameter check
M115 U3.13.3 ; tell printer latest fw version
G90 ; use absolute coordinates
M83 ; extruder relative mode
M104 S230 ; set extruder temp
M140 S60 ; set bed temp
M190 S60 ; wait for bed temp
M109 S230 ; wait for extruder temp
G28 W ; home all without mesh bed level
G80 X16.0422 Y15.5578 W217.916 H178.884 ; mesh bed levelling

G1 Z0.2 F720
G1 Y-3 F1000 ; go outside print area
G92 E0
G1 X60 E9 F1000 ; intro line
G1 X100 E12.5 F1000 ; intro line

G92 E0
M221 S95

; Don't change E values below. Excessive value can damage the printer.
M907 E430 ; set extruder motor current
G21 ; set units to millimeters
G90 ; use absolute coordinates
M83 ; use relative distances for extrusion
M900 K0 ; Filament gcode
M107
;LAYER_CHANGE
;Z:0.3
;HEIGHT:0.3
G1 X31.616 Y27.309 F10800
G1 Z.3 F720
M204 S800
;TYPE:Skirt/Brim
;WIDTH:0.42
G1 F900
G1 X32.05 Y26.807 E.03238
G1 X33.876 Y24.955 E.12689
G1 X35.854 Y23.267 E.12687
G1 X37.97 Y21.754 E.12692
G1 X39.075 Y21.068 E.06346
G1 X41.276 Y19.884 E.12194
G1 X43.662 Y18.848 E.12691
G1 X46.225 Y17.994 E.13181
G1 X48.754 Y17.39 E.12686
G1 X51.127 Y17.028 E.11712
G1 X52.521 Y16.902 E.06829
G1 X196.179 Y15.738 E7.00935
G1 X198.674 Y15.899 E.12198
G1 X201.345 Y16.303 E.1318
G1 X203.775 Y16.887 E.12194
G1 X205.114 Y17.302 E.0684
G1 X207.45 Y18.194 E.122
G1 X208.724 Y18.777 E.06836
G1 X210.838 Y19.912 E.11707
G1 X213.186 Y21.441 E.13671
G1 X215.153 Y22.984 E.12198
G1 X216.198 Y23.918 E.06838
G1 X217.128 Y24.827 E.06345
G1 X218.802 Y26.684 E.12198
G1 X219.672 Y27.783 E.06839
G1 X221.094 Y29.838 E.12193
G1 X221.815 Y31.04 E.06839
G1 X223.004 Y33.353 E.12689
G1 X223.956 Y35.665 E.12199
G1 X224.74 Y38.144 E.12686
G1 X232.4 Y66.73 E1.44392
G1 X233.117 Y69.874 E.15734
G1 X233.587 Y73.164 E.16215
G1 X233.723 Y74.92 E.08593
G1 X233.77 Y78.144 E.15732
G1 X233.685 Y79.903 E.08592
G1 X233.321 Y83.148 E.15932
G1 X217.276 Y189.508 E5.24805
G1 X216.904 Y190.69 E.06046
G1 X216.224 Y191.707 E.05969
G1 X215.589 Y192.289 E.04203
G1 X214.866 Y192.728 E.04127
G1 X214.056 Y193.023 E.04206
G1 X213.117 Y193.156 E.04627
G1 X125.713 Y194.264 E4.26481
G1 X36.97 Y194.264 E4.3298
G1 X36.215 Y194.189 E.03702
M73 P0 R461
G1 X35.484 Y193.984 E.03704
G1 X34.725 Y193.609 E.04131
G1 X34.117 Y193.154 E.03705
G1 X33.598 Y192.601 E.037
G1 X33.182 Y191.965 E.03708
G1 X32.884 Y191.267 E.03703
G1 X32.718 Y190.577 E.03463
G1 X16.679 Y84.254 E5.24622
G1 X16.315 Y81.009 E.15932
G1 X16.23 Y79.25 E.08592
G1 X16.254 Y76.677 E.12554
G1 X16.404 Y74.369 E.11285
G1 X16.613 Y72.62 E.08594
G1 X17.198 Y69.449 E.15732
G1 X25.595 Y38.099 E1.58349
G1 X26.515 Y35.559 E.13181
M73 Q0 S461
G1 X27.522 Y33.38 E.11712
G1 X28.185 Y32.146 E.06835
G1 X29.625 Y29.86 E.13182
G1 X31.134 Y27.868 E.12193
G1 X31.577 Y27.355 E.03307
M204 S1000
; printing object marker - teammarker_forearm.stl id:0 copy 0
G1 X31.577 Y27.355 F10800
G1 X36.665 Y190.705
M204 S800
;TYPE:Perimeter
;WIDTH:0.42
G1 F900
G1 X36.376 Y190.5 E.01729
G1 X36.213 Y190.244 E.01481
G1 X36.145 Y189.927 E.01582
G1 X36.145 Y189.362 E.02757
G1 X36.195 Y188.904 E.02248
G1 X36.333 Y188.529 E.0195
G1 X36.74 Y187.663 E.04669
G1 X36.966 Y187.057 E.03156
G1 X37.109 Y186.397 E.03295
G1 X37.138 Y185.76 E.03111
G1 X37.067 Y185.157 E.02962
G1 X36.939 Y184.672 E.02447
G1 X36.729 Y184.128 E.02845
G1 X36.257 Y183.111 E.0547
G1 X36.144 Y182.55 E.02792
G1 X36.143 Y131.904 E2.47103
G1 X36.042 Y129.32 E.12617
G1 X35.853 Y126.956 E.11571
G1 X35.519 Y124.137 E.1385
G1 X35.103 Y121.583 E.12625
G1 X34.583 Y119.049 E.12621
G1 X33.97 Y116.573 E.12445
G1 X33.236 Y114.054 E.12801
G1 X32.424 Y111.636 E.12445
G1 X31.501 Y109.218 E.12628
G1 X30.467 Y106.808 E.12795
G1 X29.366 Y104.506 E.1245
G1 X28.157 Y102.219 E.12622
G1 X26.837 Y99.952 E.12799
G1 X25.472 Y97.813 E.1238
G1 X24.669 Y96.51 E.07468
G1 X23.929 Y95.187 E.07396
G1 X23.245 Y93.834 E.07397
G1 X22.618 Y92.453 E.074
G1 X22.05 Y91.047 E.07399
G1 X21.541 Y89.619 E.07397
G1 X21.093 Y88.171 E.07395
G1 X20.705 Y86.705 E.07399
G1 X20.38 Y85.224 E.07398
G1 X20.139 Y83.854 E.06787
G1 X19.917 Y82.227 E.08012
G1 X19.78 Y80.718 E.07393
G1 X19.707 Y79.204 E.07395
G1 X19.697 Y77.688 E.07397
G1 X19.751 Y76.173 E.07396
G1 X19.868 Y74.661 E.07399
G1 X20.049 Y73.156 E.07396
G1 X20.292 Y71.659 E.07399
G1 X20.599 Y70.175 E.07394
G1 X20.97 Y68.69 E.07468
G1 X28.601 Y40.211 E1.43851
G1 X28.927 Y39.093 E.05682
G1 X29.296 Y38.003 E.05615
G1 X29.711 Y36.929 E.05618
G1 X30.172 Y35.874 E.05617
G1 X30.678 Y34.839 E.05621
G1 X31.228 Y33.828 E.05615
G1 X31.821 Y32.841 E.05618
G1 X32.455 Y31.88 E.05617
G1 X33.13 Y30.947 E.05619
G1 X33.787 Y30.118 E.05161
G1 X34.599 Y29.172 E.06083
G1 X35.387 Y28.335 E.05609
G1 X36.212 Y27.531 E.05621
G1 X37.07 Y26.763 E.05618
G1 X37.96 Y26.033 E.05616
G1 X38.881 Y25.342 E.05618
G1 X39.831 Y24.691 E.05619
G1 X40.808 Y24.082 E.05617
G1 X41.81 Y23.515 E.05617
G1 X42.836 Y22.991 E.05621
G1 X43.883 Y22.512 E.05618
G1 X44.862 Y22.114 E.05156
G1 X46.035 Y21.69 E.06086
G1 X47.133 Y21.35 E.05608
G1 X48.247 Y21.056 E.05621
G1 X49.372 Y20.811 E.05618
G1 X50.506 Y20.615 E.05615
G1 X51.648 Y20.467 E.05618
G1 X52.796 Y20.368 E.05622
G1 X53.946 Y20.319 E.05616
G1 X55.097 Y20.319 E.05616
G1 X56.248 Y20.368 E.05621
G1 X57.395 Y20.467 E.05617
G1 X58.537 Y20.615 E.05618
G1 X59.671 Y20.811 E.05615
G1 X60.796 Y21.056 E.05618
G1 X61.91 Y21.35 E.05621
G1 X63.01 Y21.69 E.05617
G1 X64.094 Y22.078 E.05617
G1 X65.161 Y22.512 E.0562
G1 X66.208 Y22.991 E.05618
G1 X67.233 Y23.515 E.05617
G1 X68.235 Y24.082 E.05617
G1 X69.212 Y24.691 E.05617
G1 X70.162 Y25.342 E.05619
G1 X71.083 Y26.033 E.05618
G1 X71.973 Y26.763 E.05616
G1 X72.831 Y27.531 E.05618
G1 X73.656 Y28.335 E.05621
G1 X74.445 Y29.173 E.05616
G1 X75.198 Y30.044 E.05618
G1 X75.913 Y30.947 E.0562
G1 X76.588 Y31.88 E.05619
G1 X77.223 Y32.841 E.0562
G1 X77.815 Y33.828 E.05615
G1 X78.365 Y34.839 E.05615
G1 X78.871 Y35.874 E.05621
G1 X79.332 Y36.929 E.05617
G1 X79.748 Y38.003 E.05619
G1 X80.116 Y39.093 E.05613
G1 X80.442 Y40.211 E.05682
G1 X88.073 Y68.69 E1.43851
G1 X88.444 Y70.175 E.07468
G1 X88.751 Y71.659 E.07394
G1 X88.994 Y73.156 E.07399
G1 X89.175 Y74.661 E.07396
G1 X89.292 Y76.173 E.07399
G1 X89.346 Y77.688 E.07396
G1 X89.342 Y78.419 E.03567
G1 X89.336 Y79.204 E.0383
G1 X89.263 Y80.718 E.07395
G1 X89.126 Y82.228 E.07398
G1 X88.926 Y83.731 E.07398
G1 X88.663 Y85.224 E.07397
G1 X88.338 Y86.705 E.07398
G1 X87.951 Y88.171 E.07398
G1 X87.502 Y89.619 E.07397
G1 X86.994 Y91.047 E.07395
G1 X86.425 Y92.453 E.074
G1 X85.799 Y93.834 E.07398
G1 X85.115 Y95.187 E.07397
G1 X84.374 Y96.51 E.07398
G1 X83.572 Y97.813 E.07465
G1 X82.207 Y99.952 E.1238
G1 X80.886 Y102.219 E.12802
G1 X79.677 Y104.506 E.12622
G1 X78.576 Y106.808 E.1245
G1 X77.542 Y109.218 E.12795
G1 X76.632 Y111.602 E.1245
G1 X75.807 Y114.054 E.12622
G1 X75.083 Y116.538 E.12624
G1 X74.452 Y119.084 E.12798
G1 X73.94 Y121.583 E.12446
G1 X73.524 Y124.137 E.12625
G1 X73.191 Y126.956 E.1385
G1 X73.002 Y129.32 E.11571
G1 X72.9 Y131.904 E.12617
G1 X72.899 Y182.435 E2.46542
G1 X72.864 Y182.845 E.02008
G1 X72.716 Y183.262 E.02159
G1 X72.289 Y184.186 E.04966
G1 X72.072 Y184.773 E.03053
G1 X71.955 Y185.281 E.02543
G1 X71.903 Y185.909 E.03075
G1 X71.956 Y186.544 E.03109
G1 X72.114 Y187.175 E.03174
G1 X72.328 Y187.722 E.02866
G1 X72.69 Y188.486 E.04125
G1 X72.87 Y189.027 E.02782
G1 X72.872 Y190.106 E.05264
G1 X72.677 Y190.471 E.02019
G1 X72.432 Y190.676 E.01559
G1 X72.05 Y190.786 E.0194
G1 X37.171 Y190.788 E1.70175
G1 X36.724 Y190.715 E.0221
M204 S1000
G1 X36.724 Y190.715 F10800
G1 X36.453 Y191.002
M204 S800
G1 F900
G1 X36.113 Y190.741 E.02091
G1 X35.883 Y190.38 E.02088
G1 X35.789 Y189.95 E.02148
G1 X35.789 Y189.361 E.02874
G1 X35.848 Y188.822 E.02646
G1 X36.011 Y188.377 E.02312
G1 X36.409 Y187.534 E.04548
G1 X36.62 Y186.975 E.02915
G1 X36.741 Y186.462 E.02572
G1 X36.786 Y185.886 E.02819
G1 X36.735 Y185.317 E.02787
G1 X36.607 Y184.798 E.02608
G1 X36.407 Y184.278 E.02718
G1 X35.879 Y183.085 E.06365
G1 X35.789 Y182.571 E.02546
G1 X35.787 Y131.904 E2.47206
G1 X35.686 Y129.334 E.12549
G1 X35.498 Y126.985 E.11497
G1 X35.168 Y124.194 E.13712
G1 X34.754 Y121.655 E.12551
G1 X34.242 Y119.156 E.12446
G1 X33.624 Y116.658 E.12555
G1 X32.899 Y114.167 E.12658
G1 X32.087 Y111.749 E.12445
G1 X31.169 Y109.345 E.12555
G1 X30.146 Y106.961 E.12657
G1 X29.036 Y104.64 E.12553
G1 X27.843 Y102.385 E.12447
G1 X26.537 Y100.143 E.12659
G1 X25.17 Y98.002 E.12394
G1 X24.362 Y96.69 E.07518
G1 X23.615 Y95.354 E.07468
G1 X22.924 Y93.987 E.07473
G1 X22.291 Y92.593 E.0747
G1 X21.717 Y91.174 E.07468
G1 X21.203 Y89.732 E.07469
G1 X20.751 Y88.269 E.07471
G1 X20.36 Y86.789 E.07469
G1 X20.031 Y85.293 E.07473
G1 X19.787 Y83.909 E.06857
G1 X19.563 Y82.267 E.08086
G1 X19.425 Y80.743 E.07466
G1 X19.351 Y79.214 E.07469
G1 X19.341 Y77.683 E.0747
G1 X19.396 Y76.153 E.0747
G1 X19.514 Y74.626 E.07472
G1 X19.697 Y73.106 E.0747
G1 X19.943 Y71.595 E.07469
G1 X20.252 Y70.096 E.07467
G1 X20.626 Y68.601 E.07519
G1 X28.259 Y40.115 E1.43887
G1 X28.587 Y38.987 E.05731
G1 X28.961 Y37.882 E.05692
G1 X29.382 Y36.793 E.05696
G1 X29.849 Y35.724 E.05692
G1 X30.362 Y34.676 E.05693
G1 X30.919 Y33.651 E.05692
G1 X31.52 Y32.651 E.05692
G1 X32.163 Y31.677 E.05694
G1 X32.847 Y30.732 E.05692
G1 X33.512 Y29.892 E.05227
G1 X34.334 Y28.934 E.06159
G1 X35.133 Y28.085 E.05688
G1 X35.969 Y27.271 E.05693
G1 X36.839 Y26.493 E.05694
G1 X37.741 Y25.754 E.05689
G1 X38.674 Y25.053 E.05694
G1 X39.637 Y24.394 E.05693
G1 X40.626 Y23.776 E.0569
G1 X41.642 Y23.201 E.05696
G1 X42.681 Y22.671 E.05691
G1 X43.742 Y22.185 E.05694
G1 X44.735 Y21.781 E.0523
G1 X45.922 Y21.353 E.06156
G1 X47.035 Y21.008 E.05685
G1 X48.164 Y20.711 E.05696
G1 X49.304 Y20.462 E.05693
G1 X50.453 Y20.263 E.05689
G1 X51.61 Y20.113 E.05692
G1 X52.773 Y20.013 E.05695
G1 X53.938 Y19.963 E.05689
G1 X55.105 Y19.963 E.05694
G1 X56.271 Y20.013 E.05694
G1 X57.433 Y20.113 E.0569
G1 X58.59 Y20.263 E.05692
G1 X59.74 Y20.462 E.05694
G1 X60.88 Y20.711 E.05693
G1 X62.008 Y21.008 E.05691
G1 X63.122 Y21.353 E.0569
G1 X64.221 Y21.746 E.05695
G1 X65.302 Y22.185 E.05693
G1 X66.362 Y22.671 E.05689
G1 X67.402 Y23.201 E.05695
G1 X68.417 Y23.776 E.05692
G1 X69.407 Y24.394 E.05694
G1 X70.369 Y25.053 E.05689
G1 X71.302 Y25.754 E.05694
G1 X72.205 Y26.493 E.05693
G1 X73.074 Y27.271 E.05691
G1 X73.91 Y28.085 E.05693
G1 X74.71 Y28.935 E.05695
G1 X75.472 Y29.818 E.05691
G1 X76.196 Y30.732 E.05689
M73 P0 R460
G1 X76.88 Y31.677 E.05692
G1 X77.523 Y32.651 E.05694
G1 X78.124 Y33.651 E.05692
G1 X78.681 Y34.676 E.05692
G1 X79.194 Y35.724 E.05693
G1 X79.661 Y36.793 E.05692
G1 X80.082 Y37.882 E.05696
G1 X80.456 Y38.987 E.05692
G1 X80.784 Y40.115 E.05731
G1 X88.417 Y68.601 E1.43887
G1 X88.791 Y70.096 E.07519
G1 X89.1 Y71.595 E.07467
G1 X89.347 Y73.106 E.0747
G1 X89.529 Y74.626 E.07469
G1 X89.648 Y76.153 E.07473
G1 X89.702 Y77.683 E.0747
G1 X89.697 Y78.421 E.03601
G1 X89.692 Y79.214 E.03869
G1 X89.618 Y80.743 E.07469
G1 X89.48 Y82.268 E.07471
G1 X89.278 Y83.786 E.07472
G1 X89.012 Y85.293 E.07466
G1 X88.684 Y86.789 E.07472
G1 X88.293 Y88.269 E.07469
G1 X87.84 Y89.732 E.07472
G1 X87.326 Y91.174 E.07469
G1 X86.752 Y92.593 E.07468
G1 X86.119 Y93.987 E.0747
G1 X85.429 Y95.354 E.07471
G1 X84.681 Y96.69 E.0747
G1 X83.873 Y98.002 E.07518
G1 X82.506 Y100.143 E.12394
G1 X81.201 Y102.385 E.12657
G1 X80.007 Y104.64 E.12449
G1 X78.897 Y106.961 E.12553
G1 X77.874 Y109.345 E.12657
G1 X76.964 Y111.729 E.1245
G1 X76.144 Y114.167 E.1255
G1 X75.424 Y116.637 E.12553
G1 X74.801 Y119.156 E.12661
G1 X74.289 Y121.655 E.12446
G1 X73.875 Y124.194 E.12551
G1 X73.546 Y126.979 E.13683
G1 X73.358 Y129.313 E.11425
G1 X73.256 Y131.904 E.12651
G1 X73.254 Y182.435 E2.46542
G1 X73.214 Y182.916 E.02355
G1 X73.038 Y183.412 E.02568
G1 X72.622 Y184.313 E.04842
G1 X72.436 Y184.798 E.02534
G1 X72.309 Y185.317 E.02607
G1 X72.258 Y185.886 E.02787
G1 X72.302 Y186.462 E.02819
G1 X72.445 Y187.046 E.02934
G1 X72.65 Y187.569 E.02741
G1 X73.077 Y188.472 E.04874
G1 X73.224 Y188.971 E.02538
G1 X73.233 Y190.107 E.05543
G1 X73.055 Y190.574 E.02438
G1 X72.852 Y190.815 E.01537
G1 X72.594 Y190.996 E.01538
G1 X72.069 Y191.141 E.02657
G1 X37.171 Y191.143 E1.70268
G1 X36.817 Y191.105 E.01737
G1 X36.51 Y191.018 E.01557
M204 S1000
G1 X36.51 Y191.018 F10800
G1 X36.288 Y191.318
M204 S800
;TYPE:External perimeter
G1 F900
G1 X35.85 Y190.982 E.02693
G1 X35.553 Y190.517 E.02692
G1 X35.433 Y189.974 E.02713
G1 X35.434 Y189.361 E.02991
G1 X35.5 Y188.74 E.03047
G1 X35.69 Y188.225 E.02678
G1 X36.077 Y187.405 E.04424
G1 X36.274 Y186.894 E.02672
G1 X36.395 Y186.381 E.02572
G1 X36.431 Y185.863 E.02533
G1 X36.381 Y185.354 E.02495
G1 X36.274 Y184.925 E.02157
G1 X36.084 Y184.428 E.02596
M73 Q0 S460
G1 X35.537 Y183.185 E.06626
G1 X35.433 Y182.591 E.02942
G1 X35.432 Y131.904 E2.47303
G1 X35.331 Y129.348 E.12481
G1 X35.144 Y127.013 E.11429
G1 X34.817 Y124.251 E.1357
G1 X34.406 Y121.726 E.12482
G1 X33.892 Y119.22 E.12481
G1 X33.279 Y116.744 E.12445
G1 X32.562 Y114.28 E.12521
G1 X31.749 Y111.862 E.12446
G1 X30.834 Y109.465 E.12518
G1 X29.825 Y107.114 E.12482
G1 X28.725 Y104.813 E.12444
G1 X27.528 Y102.552 E.12482
G1 X26.237 Y100.335 E.12517
G1 X24.869 Y98.191 E.12409
G1 X24.055 Y96.87 E.07571
G1 X23.301 Y95.521 E.0754
G1 X22.603 Y94.141 E.07545
G1 X21.964 Y92.734 E.0754
G1 X21.385 Y91.3 E.07545
G1 X20.866 Y89.844 E.07542
G1 X20.409 Y88.367 E.07543
G1 X20.014 Y86.872 E.07544
G1 X19.682 Y85.362 E.07543
G1 X19.436 Y83.964 E.06926
G1 X19.21 Y82.307 E.08159
G1 X19.07 Y80.768 E.0754
G1 X18.996 Y79.224 E.07542
G1 X18.986 Y77.678 E.07543
G1 X19.041 Y76.133 E.07543
G1 X19.16 Y74.591 E.07546
G1 X19.344 Y73.056 E.07543
G1 X19.593 Y71.53 E.07544
G1 X19.905 Y70.016 E.07542
G1 X20.282 Y68.512 E.07565
G1 X27.916 Y40.019 E1.43921
G1 X28.248 Y38.88 E.05788
G1 X28.627 Y37.76 E.05769
G1 X29.053 Y36.658 E.05764
G1 X29.527 Y35.575 E.05768
G1 X30.046 Y34.513 E.05767
G1 X30.61 Y33.475 E.05764
G1 X31.219 Y32.461 E.05771
G1 X31.87 Y31.475 E.05765
G1 X32.563 Y30.518 E.05765
G1 X33.238 Y29.666 E.05303
G1 X34.07 Y28.696 E.06235
G1 X34.88 Y27.836 E.05764
G1 X35.726 Y27.011 E.05765
G1 X36.607 Y26.223 E.05767
G1 X37.521 Y25.474 E.05766
G1 X38.467 Y24.764 E.05771
G1 X39.442 Y24.096 E.05766
G1 X40.444 Y23.47 E.05764
G1 X41.473 Y22.888 E.05768
G1 X42.526 Y22.351 E.05767
G1 X43.601 Y21.859 E.05768
G1 X44.607 Y21.449 E.053
G1 X45.809 Y21.015 E.06235
G1 X46.937 Y20.666 E.05761
G1 X48.08 Y20.365 E.05767
G1 X49.235 Y20.113 E.05768
G1 X50.4 Y19.911 E.05769
G1 X51.572 Y19.759 E.05766
G1 X52.75 Y19.658 E.05769
G1 X53.931 Y19.607 E.05767
G1 X55.113 Y19.607 E.05767
