; generated by PrusaSlicer 2.7.4 on 2024-07-03 at 14:39:03 UTC


;
;
; 

; external perimeters extrusion width = 0.45mm
; perimeters extrusion width = 0.45mm
; infill extrusion width = 0.45mm
; solid infill extrusion width = 0.45mm
; top infill extrusion width = 0.40mm
; support material extrusion width = 0.35mm
; first layer extrusion width = 0.42mm

M73 P0 R55
M73 Q0 S56
M201 X1000 Y1000 Z200 E5000 ; sets maximum accelerations, mm/sec^2
M203 X200 Y200 Z12 E120 ; sets maximum feedrates, mm / sec
M204 S1250 T1250 ; sets acceleration (S) and retract acceleration (R), mm/sec^2
M205 X8.00 Y8.00 Z0.40 E4.50 ; sets the jerk limits, mm/sec
M205 S0 T0 ; sets the minimum extruding and travel feed rate, mm/sec

; printing object frame - frame_forearm.stl id:0 copy 0
; stop printing object frame - frame_forearm.stl id:0 copy 0

;TYPE:Custom
M862.3 P "MK3S" ; printer model check
M862.1 P0.4 ; nozzle diameter check
M115 U3.13.3 ; tell printer latest fw version
G90 ; use absolute coordinates
M83 ; extruder relative mode
M104 S215 ; set extruder temp
M140 S60 ; set bed temp
M190 S60 ; wait for bed temp
M109 S215 ; wait for extruder temp
G28 W ; home all without mesh bed level
G80 X95.4575 Y66.5344 W59.0851 H76.9312 ; mesh bed levelling

G1 Z0.2 F720
G1 Y-3 F1000 ; go outside print area
G92 E0
G1 X60 E9 F1000 ; intro line
G1 X100 E12.5 F1000 ; intro line

G92 E0
M221 S95

; Don't change E values below. Excessive value can damage the printer.

M907 E538 ; set extruder motor current
G21 ; set units to millimeters
G90 ; use absolute coordinates
M83 ; use relative distances for extrusion

M900 K0.05 ; Filament gcode LA 1.5
M900 K30 ; Filament gcode LA 1.0




M107
;LAYER_CHANGE
;Z:0.2
;HEIGHT:0.2
G1 E-.8 F2100
G1 Z.6 F720
G1 X96.342 Y70.407 F10800
G1 Z.2 F720
G1 E.8 F2100
M204 S800
;TYPE:Skirt/Brim
;WIDTH:0.42
G1 F1200
G1 X99.33 Y67.419 E.13249
G1 X101.011 Y66.723 E.05705
G1 X148.989 Y66.723 E1.50432
G1 X150.67 Y67.419 E.05705
G1 X153.658 Y70.407 E.13249
G1 X154.354 Y72.088 E.05705
G1 X154.354 Y137.912 E2.06387
G1 X153.658 Y139.593 E.05705
G1 X150.67 Y142.581 E.13249
G1 X148.989 Y143.277 E.05705
G1 X101.011 Y143.277 E1.50432
G1 X99.33 Y142.581 E.05705
G1 X96.342 Y139.593 E.13249
G1 X95.646 Y137.912 E.05705
G1 X95.646 Y72.088 E2.06387
G1 X96.319 Y70.462 E.05518
M204 S1000
;WIPE_START
G1 F8640
G1 X96.342 Y70.407 E-.01377
G1 X98.75 Y67.999 E-.78623
;WIPE_END
G1 Z.6 F720
G1 X98.968 Y71.781 F10800
G1 Z.2 F720
G1 E.8 F2100
M204 S800
G1 F1200
G1 X99.082 Y71.55 E.00808
G1 X100.019 Y70.519 E.04368
G1 X100.704 Y70.011 E.02674
G1 X102.676 Y69.386 E.06486
G1 X147.266 Y69.39 E1.39809
G1 X148.286 Y69.584 E.03255
G1 X149.265 Y70 E.03335
G1 X150.389 Y70.896 E.04507
G1 X151.282 Y72.234 E.05044
G1 X151.69 Y73.779 E.0501
G1 X151.69 Y136.218 E1.95773
G1 X151.376 Y137.53 E.0423
G1 X150.918 Y138.45 E.03222
G1 X149.981 Y139.481 E.04368
G1 X149.296 Y139.989 E.02674
G1 X147.324 Y140.613 E.06485
G1 X102.705 Y140.613 E1.399
G1 X101.393 Y140.299 E.0423
G1 X100.473 Y139.841 E.03222
G1 X99.443 Y138.904 E.04366
G1 X98.934 Y138.219 E.02676
G1 X98.31 Y136.247 E.06485
G1 X98.31 Y73.782 E1.95855
G1 X98.624 Y72.47 E.0423
G1 X98.941 Y71.834 E.02228
M204 S1000
G1 X98.941 Y71.834 F10800
G1 X99.276 Y72.003
M204 S800
G1 F1200
G1 X99.407 Y71.744 E.0091
G1 X100.284 Y70.788 E.04068
G1 X100.902 Y70.334 E.02404
G1 X102.705 Y69.764 E.05929
G1 X147.248 Y69.767 E1.39661
G1 X148.194 Y69.95 E.03021
M73 P1 R55
M73 Q1 S56
G1 X149.092 Y70.336 E.03065
G1 X150.13 Y71.171 E.04177
G1 X150.926 Y72.362 E.04492
G1 X151.313 Y73.804 E.04681
G1 X151.313 Y136.195 E1.95623
G1 X151.015 Y137.419 E.0395
G1 X150.593 Y138.257 E.02942
G1 X149.716 Y139.212 E.04065
G1 X149.098 Y139.666 E.02404
G1 X147.295 Y140.236 E.05929
G1 X102.728 Y140.236 E1.39737
G1 X101.504 Y139.938 E.0395
G1 X100.667 Y139.516 E.02939
G1 X99.712 Y138.639 E.04065
G1 X99.257 Y138.021 E.02406
G1 X98.687 Y136.218 E.05929
G1 X98.687 Y73.805 E1.95692
G1 X98.985 Y72.581 E.0395
G1 X99.249 Y72.057 E.0184
M204 S1000
G1 X99.249 Y72.057 F10800
G1 X99.584 Y72.227
M204 S800
G1 F1200
G1 X99.731 Y71.939 E.01014
G1 X100.547 Y71.059 E.03763
G1 X101.099 Y70.656 E.02143
G1 X102.734 Y70.141 E.05375
G1 X147.229 Y70.144 E1.39511
G1 X148.101 Y70.316 E.02787
G1 X148.917 Y70.671 E.0279
G1 X149.869 Y71.445 E.03847
G1 X150.594 Y72.543 E.04125
G1 X150.936 Y73.828 E.04169
G1 X150.936 Y136.171 E1.95472
G1 X150.654 Y137.306 E.03667
M73 P1 R54
G1 X150.269 Y138.061 E.02657
G1 X149.453 Y138.941 E.03763
G1 X148.901 Y139.344 E.02143
G1 X147.266 Y139.859 E.05375
G1 X102.752 Y139.859 E1.39571
G1 X101.617 Y139.577 E.03667
G1 X100.862 Y139.193 E.02656
G1 X99.982 Y138.376 E.03765
G1 X99.58 Y137.824 E.02141
G1 X99.064 Y136.189 E.05376
G1 X99.064 Y73.829 E1.95525
G1 X99.346 Y72.694 E.03667
M73 Q1 S55
G1 X99.556 Y72.281 E.01453
M204 S1000
G1 X99.556 Y72.281 F10800
G1 X99.889 Y72.453
M204 S800
G1 F1200
G1 X100.053 Y72.136 E.01119
G1 X100.809 Y71.331 E.03463
G1 X101.295 Y70.98 E.0188
G1 X102.763 Y70.518 E.04825
G1 X147.21 Y70.521 E1.3936
G1 X148.006 Y70.681 E.02546
G1 X148.741 Y71.005 E.02519
G1 X149.607 Y71.717 E.03515
G1 X150.262 Y72.723 E.03764
G1 X150.559 Y73.852 E.0366
G1 X150.559 Y136.148 E1.95325
G1 X150.294 Y137.192 E.03377
G1 X149.947 Y137.864 E.02371
G1 X149.191 Y138.669 E.03463
G1 X148.705 Y139.02 E.0188
G1 X147.238 Y139.482 E.04822
G1 X102.776 Y139.482 E1.39407
G1 X101.731 Y139.217 E.0338
G1 X101.059 Y138.87 E.02371
G1 X100.254 Y138.114 E.03463
G1 X99.903 Y137.628 E.0188
G1 X99.441 Y136.161 E.04822
G1 X99.441 Y73.852 E1.95365
G1 X99.706 Y72.808 E.03377
M73 P2 R54
G1 X99.862 Y72.506 E.01066
M204 S1000
G1 X99.862 Y72.506 F10800
G1 X100.193 Y72.68
M204 S800
G1 F1200
G1 X100.374 Y72.335 E.01222
G1 X101.069 Y71.604 E.03163
M73 Q2 S55
G1 X101.489 Y71.304 E.01618
G1 X102.791 Y70.895 E.04279
G1 X147.191 Y70.898 E1.39213
G1 X147.873 Y71.035 E.02181
G1 X148.564 Y71.339 E.02367
G1 X149.344 Y71.988 E.03181
G1 X149.905 Y72.85 E.03225
G1 X150.182 Y73.878 E.03338
G1 X150.182 Y136.123 E1.95165
G1 X149.935 Y137.075 E.03084
G1 X149.626 Y137.665 E.02088
G1 X148.931 Y138.396 E.03163
G1 X148.511 Y138.696 E.01618
G1 X147.209 Y139.105 E.04279
G1 X102.8 Y139.105 E1.39241
G1 X101.848 Y138.858 E.03084
G1 X101.258 Y138.549 E.02088
G1 X100.527 Y137.854 E.03163
G1 X100.227 Y137.434 E.01618
G1 X99.818 Y136.132 E.04279
G1 X99.818 Y73.877 E1.95196
G1 X100.065 Y72.925 E.03084
G1 X100.165 Y72.733 E.00679
M204 S1000
G1 X100.165 Y72.733 F10800
G1 X100.495 Y72.909
M204 S800
G1 F1200
G1 X100.694 Y72.537 E.01323
G1 X101.327 Y71.88 E.02861
G1 X101.682 Y71.63 E.01361
G1 X102.82 Y71.272 E.03741
G1 X147.172 Y71.276 E1.39063
G1 X147.775 Y71.4 E.0193
G1 X148.385 Y71.672 E.02094
G1 X149.078 Y72.257 E.02844
G1 X149.572 Y73.028 E.02871
G1 X149.805 Y73.902 E.02836
G1 X149.805 Y136.098 E1.95011
G1 X149.577 Y136.956 E.02784
G1 X149.306 Y137.463 E.01803
G1 X148.673 Y138.12 E.02861
G1 X148.318 Y138.37 E.01361
G1 X147.18 Y138.728 E.03741
G1 X102.825 Y138.728 E1.39072
G1 X101.967 Y138.5 E.02784
G1 X101.46 Y138.229 E.01803
G1 X100.803 Y137.596 E.02861
G1 X100.553 Y137.241 E.01361
G1 X100.195 Y136.103 E.03741
G1 X100.195 Y73.902 E1.95027
G1 X100.423 Y73.044 E.02784
G1 X100.467 Y72.962 E.00292
M204 S1000
G1 X100.467 Y72.962 F10800
G1 X100.795 Y73.14
M204 S800
G1 F1200
G1 X101.012 Y72.741 E.01424
G1 X101.873 Y71.956 E.03653
G1 X102.849 Y71.649 E.03208
G1 X147.151 Y71.653 E1.38906
G1 X147.676 Y71.764 E.01682
G1 X148.204 Y72.004 E.01819
G1 X148.811 Y72.525 E.02508
G1 X149.216 Y73.156 E.02351
G1 X149.428 Y73.928 E.0251
G1 X149.428 Y136.072 E1.94848
G1 X149.219 Y136.834 E.02477
G1 X148.988 Y137.259 E.01517
G1 X148.127 Y138.044 E.03653
G1 X147.151 Y138.351 E.03208
G1 X102.851 Y138.351 E1.389
G1 X102.089 Y138.142 E.02477
G1 X101.664 Y137.912 E.01515
G1 X100.879 Y137.05 E.03656
G1 X100.572 Y136.074 E.03208
G1 X100.572 Y73.928 E1.94854
G1 X100.773 Y73.195 E.02383
M73 P3 R54
M73 Q3 S55
M204 S1000
G1 X100.773 Y73.195 F10800
G1 X101.135 Y73.298
M204 S800
G1 F1200
G1 X101.137 Y73.291 E.00023
G1 X101.327 Y72.949 E.01227
G1 X101.837 Y72.437 E.02266
G1 X102.062 Y72.283 E.00855
G1 X102.878 Y72.026 E.02682
G1 X147.13 Y72.03 E1.38749
G1 X147.574 Y72.127 E.01425
G1 X148.02 Y72.334 E.01542
G1 X148.543 Y72.791 E.02178
G1 X148.861 Y73.286 E.01845
G1 X149.051 Y73.955 E.02181
G1 X149.051 Y136.045 E1.94679
G1 X148.863 Y136.709 E.02164
G1 X148.673 Y137.051 E.01227
G1 X148.163 Y137.563 E.02266
G1 X147.938 Y137.717 E.00855
G1 X147.122 Y137.974 E.02682
G1 X102.878 Y137.974 E1.38724
G1 X102.214 Y137.786 E.02164
M73 P3 R53
G1 X101.872 Y137.596 E.01227
G1 X101.36 Y137.086 E.02266
G1 X101.206 Y136.861 E.00855
G1 X100.949 Y136.045 E.02682
G1 X100.949 Y73.955 E1.94679
G1 X101.119 Y73.356 E.01952
M204 S1000
G1 X101.119 Y73.356 F10800
G1 X101.509 Y73.505
M204 S800
G1 F1200
G1 X101.641 Y73.16 E.01158
G1 X102.248 Y72.612 E.02564
G1 X102.907 Y72.403 E.02168
G1 X147.108 Y72.407 E1.38589
G1 X147.833 Y72.662 E.0241
M73 Q3 S54
G1 X148.272 Y73.054 E.01845
G1 X148.508 Y73.42 E.01365
G1 X148.674 Y73.983 E.0184
G1 X148.674 Y136.017 E1.94503
G1 X148.359 Y136.84 E.02763
G1 X147.752 Y137.388 E.02564
G1 X147.093 Y137.597 E.02168
G1 X102.906 Y137.597 E1.38545
G1 X102.083 Y137.282 E.02763
G1 X101.535 Y136.675 E.02564
G1 X101.326 Y136.016 E.02168
G1 X101.326 Y73.983 E1.945
G1 X101.487 Y73.561 E.01416
M204 S1000
G1 X101.487 Y73.561 F10800
G1 X101.827 Y73.693
M204 S800
G1 F1200
G1 X101.951 Y73.375 E.0107
G1 X102.43 Y72.943 E.02022
G1 X102.936 Y72.78 E.01667
G1 X147.086 Y72.784 E1.38429
G1 X147.645 Y72.991 E.01869
G1 X148 Y73.315 E.01507
G1 X148.297 Y74.012 E.02376
G1 X148.297 Y135.988 E1.94321
G1 X148.049 Y136.625 E.02143
G1 X147.666 Y136.996 E.01672
G1 X147.064 Y137.22 E.02014
G1 X102.935 Y137.22 E1.38363
G1 X102.298 Y136.972 E.02143
G1 X101.928 Y136.589 E.0167
G1 X101.703 Y135.987 E.02015
G1 X101.703 Y74.012 E1.94318
G1 X101.806 Y73.749 E.00886
M73 P4 R53
M204 S1000
G1 X101.806 Y73.749 F10800
G1 X102.144 Y73.882
M204 S800
G1 F1200
G1 X102.257 Y73.597 E.00961
G1 X102.576 Y73.294 E.01379
G1 X102.967 Y73.157 E.01299
G1 X147.064 Y73.161 E1.38263
G1 X147.455 Y73.318 E.01321
M73 Q4 S54
G1 X147.723 Y73.573 E.0116
G1 X147.92 Y74.044 E.01601
G1 X147.92 Y135.956 E1.94121
G1 X147.743 Y136.403 E.01507
G1 X147.424 Y136.706 E.01379
G1 X147.033 Y136.843 E.01299
G1 X102.967 Y136.843 E1.38166
G1 X102.52 Y136.666 E.01507
G1 X102.217 Y136.347 E.01379
G1 X102.08 Y135.956 E.01299
G1 X102.08 Y74.044 E1.94121
G1 X102.122 Y73.938 E.00357
M204 S1000
G1 X102.122 Y73.938 F10800
G1 X102.461 Y74.07
M204 S800
G1 F1200
G1 X102.555 Y73.828 E.00814
G1 X102.789 Y73.611 E.01001
G1 X103.002 Y73.534 E.0071
G1 X147.012 Y73.534 E1.3799
G1 X147.443 Y73.825 E.01631
G1 X147.543 Y74.079 E.00856
G1 X147.543 Y135.921 E1.93901
G1 X147.445 Y136.172 E.00845
G1 X147.211 Y136.389 E.01001
G1 X146.998 Y136.466 E.0071
G1 X103.002 Y136.466 E1.37946
G1 X102.751 Y136.368 E.00845
G1 X102.534 Y136.134 E.01001
G1 X102.457 Y135.921 E.0071
G1 X102.457 Y74.129 E1.93744
M204 S1000
G1 X102.457 Y74.129 F10800
G1 X102.863 Y74.129
M204 S800
G1 F1200
G1 X102.863 Y74.052 E.00241
G1 X103.044 Y73.911 E.00719
G1 X147.025 Y73.94 E1.37899
G1 X147.165 Y74.121 E.00717
G1 X147.137 Y135.948 E1.93854
G1 X146.956 Y136.089 E.00719
G1 X102.975 Y136.06 E1.37899
G1 X102.835 Y135.879 E.00717
G1 X102.863 Y74.189 E1.93425
M204 S1000
;WIPE_START
G1 F8640
M73 P5 R53
G1 X102.863 Y74.129 E-.01385
G1 X102.863 Y74.052 E-.01778
G1 X103.044 Y73.911 E-.05298
G1 X106.142 Y73.913 E-.71539
;WIPE_END
G1 Z.6 F720
; printing object frame - frame_forearm.stl id:0 copy 0
G1 X141.822 Y92.105 F10800
G1 Z.2 F720
G1 E.8 F2100
M204 S800
;TYPE:Perimeter
;WIDTH:0.419999
G1 F1200
G1 X141.529 Y92.44 E.01395
G1 X141.261 Y92.919 E.01721
G1 X141.1 Y93.428 E.01674
G1 X141.037 Y93.959 E.01677
G1 X141.082 Y94.496 E.0169
G1 X141.232 Y95.012 E.01685
G1 X141.472 Y95.469 E.01618
G1 X141.732 Y95.807 E.01337
G1 X142.128 Y96.173 E.01691
G1 X142.619 Y96.463 E.01788
G1 X143.178 Y96.65 E.01848
G1 X143.668 Y96.711 E.01548
G1 X144.14 Y96.684 E.01482
G1 X144.692 Y96.542 E.01787
G1 X145.219 Y96.278 E.01848
G1 X145.609 Y95.975 E.01548
G1 X145.913 Y95.635 E.0143
G1 X145.913 Y117.375 E.68164
G1 X145.738 Y117.157 E.00877
M73 P5 R52
M73 Q5 S54
G1 X145.292 Y116.771 E.01849
G1 X144.863 Y116.527 E.01547
G1 X144.322 Y116.35 E.01785
G1 X143.817 Y116.289 E.01595
G1 X143.262 Y116.334 E.01746
G1 X142.634 Y116.529 E.02062
G1 X142.197 Y116.779 E.01579
G1 X141.801 Y117.112 E.01622
G1 X141.487 Y117.504 E.01575
G1 X141.236 Y117.978 E.01682
G1 X141.09 Y118.466 E.01597
G1 X141.036 Y118.989 E.01649
G1 X141.084 Y119.509 E.01637
G1 X141.229 Y120.004 E.01617
G1 X141.472 Y120.469 E.01645
G1 X141.775 Y120.859 E.01548
G1 X142.128 Y121.174 E.01483
G1 X142.618 Y121.463 E.01784
G1 X143.083 Y121.629 E.01548
G1 X143.647 Y121.709 E.01786
G1 X144.14 Y121.684 E.01548
G1 X144.692 Y121.542 E.01787
G1 X145.137 Y121.33 E.01546
G1 X145.593 Y120.988 E.01787
G1 X145.913 Y120.635 E.01494
G1 X145.913 Y134.836 E.44526
G1 X104.087 Y134.836 E1.31142
G1 X104.087 Y120.635 E.44526
M73 Q5 S53
G1 X104.275 Y120.859 E.00917
G1 X104.628 Y121.173 E.01481
G1 X105.118 Y121.463 E.01785
G1 X105.583 Y121.629 E.01548
G1 X106.147 Y121.709 E.01786
G1 X106.64 Y121.684 E.01548
G1 X107.192 Y121.542 E.01787
G1 X107.719 Y121.278 E.01848
G1 X108.109 Y120.975 E.01548
G1 X108.481 Y120.546 E.0178
G1 X108.745 Y120.067 E.01715
G1 X108.9 Y119.572 E.01626
G1 X108.964 Y119.034 E.01699
G1 X108.917 Y118.514 E.01637
G1 X108.786 Y118.038 E.01548
G1 X108.558 Y117.585 E.0159
G1 X108.225 Y117.141 E.0174
G1 X107.872 Y116.826 E.01483
G1 X107.381 Y116.537 E.01786
G1 X106.822 Y116.35 E.01848
G1 X106.317 Y116.289 E.01595
G1 X105.762 Y116.334 E.01746
G1 X105.289 Y116.464 E.01538
G1 X104.863 Y116.67 E.01484
G1 X104.407 Y117.012 E.01787
G1 X104.087 Y117.365 E.01494
G1 X104.087 Y95.635 E.68133
G1 X104.275 Y95.859 E.00917
G1 X104.628 Y96.173 E.01481
G1 X105.119 Y96.463 E.01788
G1 X105.678 Y96.65 E.01848
G1 X106.168 Y96.711 E.01548
G1 X106.64 Y96.684 E.01482
G1 X107.192 Y96.542 E.01787
G1 X107.719 Y96.278 E.01848
G1 X108.159 Y95.929 E.01761
G1 X108.487 Y95.537 E.01603
G1 X108.742 Y95.075 E.01655
G1 X108.9 Y94.572 E.01653
G1 X108.963 Y94.041 E.01677
G1 X108.919 Y93.51 E.01671
G1 X108.776 Y93.01 E.01631
G1 X108.528 Y92.531 E.01691
G1 X108.225 Y92.141 E.01548
G1 X107.826 Y91.79 E.01666
G1 X107.381 Y91.537 E.01605
G1 X106.822 Y91.35 E.01848
G1 X106.317 Y91.289 E.01595
G1 X105.762 Y91.334 E.01746
G1 X105.288 Y91.464 E.01541
G1 X104.781 Y91.722 E.01784
G1 X104.391 Y92.025 E.01548
G1 X104.087 Y92.367 E.01435
G1 X104.087 Y75.164 E.53939
G1 X145.913 Y75.164 E1.31142
G1 X145.913 Y84.379 E.28893
G1 X145.913 Y92.365 E.2504
G1 X145.725 Y92.141 E.00917
G1 X145.372 Y91.827 E.01481
G1 X144.881 Y91.537 E.01788
G1 X144.322 Y91.35 E.01848
G1 X143.817 Y91.289 E.01595
G1 X143.262 Y91.334 E.01746
G1 X142.788 Y91.464 E.01541
G1 X142.281 Y91.722 E.01784
G1 X141.891 Y92.025 E.01548
G1 X141.861 Y92.06 E.00145
M204 S1000
G1 X141.861 Y92.06 F10800
G1 X142.1 Y92.353
M204 S800
G1 F1200
G1 X141.858 Y92.631 E.01156
G1 X141.617 Y93.051 E.01518
G1 X141.462 Y93.534 E.0159
G1 X141.421 Y93.886 E.01111
G1 X141.437 Y94.294 E.0128
G1 X141.571 Y94.838 E.01757
G1 X141.803 Y95.288 E.01587
G1 X142.021 Y95.565 E.01105
G1 X142.37 Y95.885 E.01485
G1 X142.8 Y96.133 E.01556
G1 X143.284 Y96.288 E.01593
G1 X143.701 Y96.335 E.01316
G1 X144.107 Y96.308 E.01276
G1 X144.586 Y96.18 E.01555
G1 X145.038 Y95.947 E.01594
G1 X145.366 Y95.686 E.01314
G1 X145.635 Y95.38 E.01277
G1 X145.883 Y94.95 E.01556
;WIDTH:0.467976
G1 X145.94 Y94.845 E.00422
;WIDTH:0.515953
G1 X145.998 Y94.741 E.00468
;WIDTH:0.563929
G1 X146.055 Y94.636 E.00518
;WIDTH:0.611906
G1 X146.112 Y94.531 E.00565
;WIDTH:0.659882
G1 X146.17 Y94.426 E.00615
G1 X146.194 Y94.519 E.00493
;WIDTH:0.611906
G1 X146.218 Y94.611 E.0045
;WIDTH:0.563929
G1 X146.242 Y94.703 E.00412
;WIDTH:0.515953
G1 X146.266 Y94.795 E.00374
;WIDTH:0.467976
G1 X146.29 Y94.888 E.00339
;WIDTH:0.419999
G1 X146.29 Y118.096 E.72767
;WIDTH:0.469731
G1 X146.265 Y118.185 E.00328
;WIDTH:0.519462
G1 X146.24 Y118.274 E.00366
;WIDTH:0.569194
G1 X146.215 Y118.363 E.00405
;WIDTH:0.618925
G1 X146.19 Y118.453 E.00447
