; generated by PrusaSlicer 2.7.4 on 2024-05-16 at 09:33:23 UTC


;
;
; 

; external perimeters extrusion width = 0.45mm
; perimeters extrusion width = 0.45mm
; infill extrusion width = 0.45mm
; solid infill extrusion width = 0.45mm
; top infill extrusion width = 0.40mm
; support material extrusion width = 0.35mm
; first layer extrusion width = 0.42mm

M73 P0 R47
M73 Q0 S47
M201 X1000 Y1000 Z200 E5000 ; sets maximum accelerations, mm/sec^2
M203 X200 Y200 Z12 E120 ; sets maximum feedrates, mm / sec
M204 S1250 T1250 ; sets acceleration (S) and retract acceleration (R), mm/sec^2
M205 X8.00 Y8.00 Z0.40 E4.50 ; sets the jerk limits, mm/sec
M205 S0 T0 ; sets the minimum extruding and travel feed rate, mm/sec

; printing object frame - frame_forearm.stl id:0 copy 0
; stop printing object frame - frame_forearm.stl id:0 copy 0

;TYPE:Custom
M862.3 P "MK3S" ; printer model check
M862.1 P0.4 ; nozzle diameter check
M115 U3.13.3 ; tell printer latest fw version
G90 ; use absolute coordinates
M83 ; extruder relative mode
M104 S215 ; set extruder temp
M140 S60 ; set bed temp
M190 S60 ; wait for bed temp
M109 S215 ; wait for extruder temp
G28 W ; home all without mesh bed level
G80 X98.7272 Y67.1918 W52.5456 H71.3738 ; mesh bed levelling

G1 Z0.2 F720
G1 Y-3 F1000 ; go outside print area
G92 E0
G1 X60 E9 F1000 ; intro line
G1 X100 E12.5 F1000 ; intro line

G92 E0
M221 S95

; Don't change E values below. Excessive value can damage the printer.

M907 E538 ; set extruder motor current
G21 ; set units to millimeters
G90 ; use absolute coordinates
M83 ; use relative distances for extrusion

M900 K0.05 ; Filament gcode LA 1.5
M900 K30 ; Filament gcode LA 1.0




M107
;LAYER_CHANGE
;Z:0.2
;HEIGHT:0.2
G1 E-.8 F2100
G1 Z.6 F720
G1 X99.307 Y68.45 F10800
G1 Z.2 F720
G1 E.8 F2100
M204 S800
;TYPE:Skirt/Brim
;WIDTH:0.42
G1 F1200
G1 X100.353 Y67.574 E.04278
G1 X101.293 Y67.38 E.03009
G1 X148.707 Y67.38 E1.48663
G1 X150.014 Y67.772 E.04278
M73 P0 R46
G1 X150.891 Y68.818 E.0428
G1 X151.084 Y69.757 E.03006
G1 X151.083 Y75.566 E.18214
G1 X149.375 Y135.112 E1.86779
G1 X149.205 Y136.065 E.03035
G1 X148.797 Y136.892 E.02891
G1 X148.243 Y137.524 E.02635
G1 X147.609 Y137.969 E.02429
G1 X146.824 Y138.275 E.02642
G1 X146.052 Y138.377 E.02442
G1 X103.948 Y138.377 E1.32014
G1 X102.947 Y138.208 E.03183
G1 X102.108 Y137.797 E.02929
G1 X101.476 Y137.243 E.02635
G1 X101.05 Y136.643 E.02307
G1 X100.753 Y135.928 E.02428
G1 X100.625 Y135.114 E.02584
G1 X98.917 Y75.564 E1.86792
G1 X98.916 Y69.757 E.18207
G1 X99.29 Y68.508 E.04088
M204 S1000
;WIPE_START
G1 F8640
G1 X99.307 Y68.45 E-.01396
G1 X100.353 Y67.574 E-.31504
G1 X101.293 Y67.38 E-.22162
G1 X102.373 Y67.38 E-.24938
;WIPE_END
G1 Z.6 F720
; printing object frame - frame_forearm.stl id:0 copy 0
G1 X148.707 Y75.497 F10800
G1 Z.2 F720
G1 E.8 F2100
M204 S800
;TYPE:Support material
G1 F1200
G1 X147.48 Y75.882 E.04032
G1 X147.474 Y74.865 E.03189
G1 X147.31 Y74.311 E.01812
G1 X146.852 Y73.79 E.02175
G1 X146.251 Y73.541 E.0204
G1 X135.899 Y73.52 E.32458
G1 X135.899 Y69.757 E.11799
G1 X148.707 Y69.757 E.40159
G1 X148.707 Y75.441 E.17822
M204 S1000
G1 X148.707 Y75.441 F10800
G1 X148.044 Y75.527
M204 S800
G1 F1200
G1 X148.044 Y70.097 E.17025
G1 X147.625 Y70.097 E.01314
G1 X147.625 Y74.182 E.12808
G1 X147.206 Y73.638 E.02153
G1 X147.206 Y70.097 E.11103
G1 X146.787 Y70.097 E.01314
G1 X146.787 Y73.36 E.10231
G1 X146.368 Y73.218 E.01387
G1 X146.368 Y70.097 E.09786
G1 X145.949 Y70.097 E.01314
G1 X145.949 Y73.181 E.0967
G1 X145.53 Y73.181 E.01314
G1 X145.53 Y70.097 E.0967
G1 X145.111 Y70.097 E.01314
G1 X145.111 Y73.181 E.0967
G1 X144.692 Y73.181 E.01314
G1 X144.692 Y70.097 E.0967
G1 X144.273 Y70.097 E.01314
G1 X144.273 Y73.181 E.0967
G1 X143.854 Y73.181 E.01314
G1 X143.854 Y70.097 E.0967
G1 X143.435 Y70.097 E.01314
G1 X143.435 Y73.181 E.0967
G1 X143.016 Y73.181 E.01314
G1 X143.016 Y70.097 E.0967
G1 X142.597 Y70.097 E.01314
G1 X142.597 Y73.181 E.0967
G1 X142.178 Y73.181 E.01314
G1 X142.178 Y70.097 E.0967
G1 X141.759 Y70.097 E.01314
G1 X141.759 Y73.181 E.0967
G1 X141.34 Y73.181 E.01314
G1 X141.34 Y70.097 E.0967
G1 X140.921 Y70.097 E.01314
G1 X140.921 Y73.181 E.0967
G1 X140.502 Y73.181 E.01314
G1 X140.502 Y70.097 E.0967
G1 X140.083 Y70.097 E.01314
G1 X140.083 Y73.181 E.0967
G1 X139.664 Y73.181 E.01314
G1 X139.664 Y70.097 E.0967
G1 X139.245 Y70.097 E.01314
G1 X139.245 Y73.181 E.0967
G1 X138.826 Y73.181 E.01314
G1 X138.826 Y70.097 E.0967
G1 X138.407 Y70.097 E.01314
G1 X138.407 Y73.181 E.0967
G1 X137.988 Y73.181 E.01314
G1 X137.988 Y70.097 E.0967
G1 X137.569 Y70.097 E.01314
G1 X137.569 Y73.181 E.0967
G1 X137.15 Y73.181 E.01314
G1 X137.15 Y70.097 E.0967
G1 X136.731 Y70.097 E.01314
G1 X136.731 Y73.181 E.0967
G1 X136.312 Y73.181 E.01314
G1 X136.312 Y69.927 E.10203
M204 S1000
;WIPE_START
G1 F8640
G1 X136.312 Y73.181 E-.75136
G1 X136.523 Y73.181 E-.04864
;WIPE_END
G1 Z.6 F720
G1 X114.101 Y73.52 F10800
G1 Z.2 F720
G1 E.8 F2100
M204 S800
G1 F1200
G1 X103.684 Y73.554 E.32662
G1 X103.102 Y73.823 E.0201
M73 P1 R46
M73 Q1 S47
G1 X102.684 Y74.322 E.02041
G1 X102.526 Y74.867 E.01779
G1 X102.52 Y75.882 E.03183
G1 X101.293 Y75.496 E.04033
G1 X101.293 Y69.757 E.17994
G1 X114.101 Y69.757 E.40159
G1 X114.101 Y73.463 E.1162
M204 S1000
G1 X114.101 Y73.463 F10800
G1 X113.688 Y73.35
M204 S800
G1 F1200
G1 X113.688 Y70.097 E.102
G1 X113.269 Y70.097 E.01314
G1 X113.269 Y73.181 E.0967
G1 X112.85 Y73.181 E.01314
G1 X112.85 Y70.097 E.0967
G1 X112.431 Y70.097 E.01314
G1 X112.431 Y73.181 E.0967
G1 X112.012 Y73.181 E.01314
G1 X112.012 Y70.097 E.0967
G1 X111.593 Y70.097 E.01314
G1 X111.593 Y73.181 E.0967
G1 X111.174 Y73.181 E.01314
G1 X111.174 Y70.097 E.0967
G1 X110.755 Y70.097 E.01314
G1 X110.755 Y73.181 E.0967
G1 X110.336 Y73.181 E.01314
G1 X110.336 Y70.097 E.0967
G1 X109.917 Y70.097 E.01314
G1 X109.917 Y73.181 E.0967
G1 X109.498 Y73.181 E.01314
G1 X109.498 Y70.097 E.0967
G1 X109.079 Y70.097 E.01314
G1 X109.079 Y73.181 E.0967
G1 X108.66 Y73.181 E.01314
G1 X108.66 Y70.097 E.0967
G1 X108.241 Y70.097 E.01314
G1 X108.241 Y73.181 E.0967
G1 X107.822 Y73.181 E.01314
G1 X107.822 Y70.097 E.0967
G1 X107.403 Y70.097 E.01314
G1 X107.403 Y73.181 E.0967
G1 X106.984 Y73.181 E.01314
G1 X106.984 Y70.097 E.0967
G1 X106.565 Y70.097 E.01314
G1 X106.565 Y73.181 E.0967
G1 X106.146 Y73.181 E.01314
G1 X106.146 Y70.097 E.0967
G1 X105.727 Y70.097 E.01314
G1 X105.727 Y73.181 E.0967
G1 X105.308 Y73.181 E.01314
G1 X105.308 Y70.097 E.0967
G1 X104.889 Y70.097 E.01314
G1 X104.889 Y73.181 E.0967
G1 X104.47 Y73.181 E.01314
G1 X104.47 Y70.097 E.0967
G1 X104.051 Y70.097 E.01314
G1 X104.051 Y73.181 E.0967
G1 X103.632 Y73.218 E.01319
G1 X103.632 Y70.097 E.09786
G1 X103.213 Y70.097 E.01314
G1 X103.213 Y73.36 E.10231
G1 X102.794 Y73.638 E.01577
G1 X102.794 Y70.097 E.11103
G1 X102.375 Y70.097 E.01314
G1 X102.375 Y74.182 E.12808
G1 X102.207 Y74.694 E.0169
G1 X102.181 Y75.419 E.02275
G1 X101.956 Y75.349 E.00739
G1 X101.956 Y69.927 E.17
M204 S1000
;WIPE_START
G1 F8640
G1 X101.956 Y73.391 E-.8
;WIPE_END
G1 Z.6 F720
G1 X145.65 Y92.074 F10800
G1 Z.2 F720
G1 E.8 F2100
M204 S800
;TYPE:Perimeter
;WIDTH:0.419999
G1 F1200
G1 X145.372 Y91.827 E.01166
G1 X144.881 Y91.537 E.01788
G1 X144.322 Y91.35 E.01848
G1 X143.817 Y91.289 E.01595
G1 X143.262 Y91.334 E.01746
G1 X142.788 Y91.464 E.01541
G1 X142.281 Y91.722 E.01784
G1 X141.891 Y92.025 E.01548
G1 X141.529 Y92.44 E.01727
G1 X141.261 Y92.919 E.01721
G1 X141.1 Y93.428 E.01674
G1 X141.037 Y93.959 E.01677
G1 X141.082 Y94.496 E.0169
G1 X141.232 Y95.012 E.01685
G1 X141.472 Y95.469 E.01618
G1 X141.732 Y95.807 E.01337
G1 X142.128 Y96.173 E.01691
G1 X142.619 Y96.463 E.01788
G1 X143.178 Y96.65 E.01848
G1 X143.668 Y96.711 E.01548
G1 X144.14 Y96.684 E.01482
G1 X144.692 Y96.542 E.01787
G1 X145.219 Y96.278 E.01848
G1 X145.609 Y95.975 E.01548
G1 X145.836 Y95.726 E.01056
G1 X145.836 Y117.279 E.67578
G1 X145.738 Y117.157 E.00491
G1 X145.292 Y116.771 E.01849
G1 X144.863 Y116.527 E.01547
G1 X144.322 Y116.35 E.01785
G1 X143.817 Y116.289 E.01595
G1 X143.262 Y116.334 E.01746
G1 X142.789 Y116.464 E.01538
G1 X142.264 Y116.729 E.01844
G1 X141.824 Y117.087 E.01779
G1 X141.487 Y117.504 E.01681
G1 X141.236 Y117.978 E.01682
G1 X141.09 Y118.466 E.01597
G1 X141.036 Y118.989 E.01649
G1 X141.084 Y119.509 E.01637
G1 X141.229 Y120.004 E.01617
G1 X141.472 Y120.469 E.01645
G1 X141.775 Y120.859 E.01548
G1 X142.128 Y121.174 E.01483
G1 X142.618 Y121.463 E.01784
G1 X143.083 Y121.629 E.01548
G1 X143.647 Y121.709 E.01786
G1 X144.14 Y121.684 E.01548
G1 X144.692 Y121.542 E.01787
G1 X145.137 Y121.33 E.01546
G1 X145.593 Y120.988 E.01787
G1 X145.836 Y120.726 E.0112
G1 X145.836 Y134.836 E.44241
G1 X104.164 Y134.836 E1.30659
G1 X104.164 Y120.726 E.44241
G1 X104.275 Y120.859 E.00543
G1 X104.628 Y121.173 E.01481
G1 X105.118 Y121.463 E.01785
G1 X105.583 Y121.629 E.01548
G1 X106.147 Y121.709 E.01786
G1 X106.64 Y121.684 E.01548
G1 X107.192 Y121.542 E.01787
G1 X107.719 Y121.278 E.01848
G1 X108.109 Y120.975 E.01548
G1 X108.481 Y120.546 E.0178
G1 X108.745 Y120.067 E.01715
G1 X108.9 Y119.572 E.01626
G1 X108.964 Y119.034 E.01699
G1 X108.917 Y118.514 E.01637
G1 X108.786 Y118.038 E.01548
G1 X108.558 Y117.585 E.0159
G1 X108.225 Y117.141 E.0174
G1 X107.872 Y116.826 E.01483
G1 X107.381 Y116.537 E.01786
G1 X106.822 Y116.35 E.01848
G1 X106.317 Y116.289 E.01595
G1 X105.762 Y116.334 E.01746
G1 X105.289 Y116.464 E.01538
G1 X104.863 Y116.67 E.01484
G1 X104.407 Y117.012 E.01787
G1 X104.164 Y117.274 E.0112
G1 X104.164 Y95.726 E.67562
G1 X104.275 Y95.859 E.00543
G1 X104.628 Y96.173 E.01481
G1 X105.119 Y96.463 E.01788
G1 X105.678 Y96.65 E.01848
G1 X106.168 Y96.711 E.01548
G1 X106.64 Y96.684 E.01482
G1 X107.192 Y96.542 E.01787
G1 X107.719 Y96.278 E.01848
G1 X108.147 Y95.941 E.01708
G1 X108.487 Y95.537 E.01656
G1 X108.742 Y95.075 E.01655
G1 X108.9 Y94.572 E.01653
G1 X108.963 Y94.041 E.01677
G1 X108.919 Y93.51 E.01671
G1 X108.776 Y93.01 E.01631
G1 X108.528 Y92.531 E.01691
G1 X108.225 Y92.141 E.01548
G1 X107.835 Y91.797 E.01631
G1 X107.381 Y91.537 E.0164
G1 X106.822 Y91.35 E.01848
G1 X106.317 Y91.289 E.01595
G1 X105.762 Y91.334 E.01746
G1 X105.288 Y91.464 E.01541
G1 X104.781 Y91.722 E.01784
G1 X104.391 Y92.025 E.01548
G1 X104.164 Y92.275 E.01059
G1 X104.164 Y75.164 E.5365
G1 X145.836 Y75.165 E1.30659
G1 X145.836 Y92.274 E.53644
G1 X145.725 Y92.141 E.00543
G1 X145.695 Y92.114 E.00127
M204 S1000
G1 X145.695 Y92.114 F10800
G1 X145.397 Y92.349
M204 S800
G1 F1200
G1 X145.13 Y92.115 E.01113
G1 X144.7 Y91.867 E.01556
G1 X144.216 Y91.712 E.01593
G1 X143.786 Y91.665 E.01356
G1 X143.304 Y91.708 E.01517
G1 X142.902 Y91.824 E.01312
G1 X142.462 Y92.053 E.01555
G1 X142.134 Y92.314 E.01314
G1 X141.858 Y92.631 E.01318
G1 X141.617 Y93.051 E.01518
G1 X141.462 Y93.534 E.0159
G1 X141.421 Y93.886 E.01111
G1 X141.437 Y94.294 E.0128
G1 X141.571 Y94.838 E.01757
G1 X141.803 Y95.288 E.01587
G1 X142.021 Y95.565 E.01105
G1 X142.37 Y95.885 E.01485
G1 X142.8 Y96.133 E.01556
G1 X143.284 Y96.288 E.01593
G1 X143.701 Y96.335 E.01316
G1 X144.107 Y96.308 E.01276
G1 X144.586 Y96.18 E.01555
G1 X145.038 Y95.947 E.01594
G1 X145.366 Y95.686 E.01314
G1 X145.635 Y95.38 E.01277
G1 X145.883 Y94.95 E.01556
;WIDTH:0.460594
G1 X145.945 Y94.817 E.0051
;WIDTH:0.501188
G1 X146.007 Y94.685 E.00556
;WIDTH:0.541782
G1 X146.069 Y94.552 E.00609
;WIDTH:0.582376
G1 X146.132 Y94.42 E.00656
G1 X146.152 Y94.534 E.00519
;WIDTH:0.541782
G1 X146.172 Y94.648 E.0048
;WIDTH:0.501188
G1 X146.193 Y94.762 E.00442
;WIDTH:0.460594
G1 X146.213 Y94.877 E.00405
;WIDTH:0.419999
G1 X146.213 Y117.981 E.72441
;WIDTH:0.462876
G1 X146.191 Y118.123 E.00502
;WIDTH:0.505752
G1 X146.17 Y118.264 E.00549
;WIDTH:0.548628
G1 X146.149 Y118.405 E.00599
;WIDTH:0.591504
G1 X146.127 Y118.546 E.00651
G1 X146.101 Y118.488 E.0029
;WIDTH:0.5637
G1 X146.074 Y118.429 E.00281
;WIDTH:0.535896
G1 X145.965 Y118.215 E.00984
;WIDTH:0.497264
G1 X145.855 Y118.001 E.00909
;WIDTH:0.458632
G1 X145.746 Y117.787 E.0083
;WIDTH:0.419999
G1 X145.444 Y117.393 E.01557
G1 X145.056 Y117.065 E.01593
G1 X144.689 Y116.861 E.01317
G1 X144.216 Y116.712 E.01555
G1 X143.786 Y116.665 E.01356
G1 X143.304 Y116.708 E.01517
G1 X142.902 Y116.824 E.01312
G1 X142.526 Y117.011 E.01317
G1 X142.142 Y117.307 E.0152
G1 X141.908 Y117.571 E.01106
G1 X141.617 Y118.051 E.0176
G1 X141.462 Y118.534 E.0159
G1 X141.415 Y118.951 E.01316
G1 X141.442 Y119.357 E.01276
G1 X141.57 Y119.836 E.01555
G1 X141.803 Y120.288 E.01594
G1 X142.064 Y120.616 E.01314
G1 X142.37 Y120.885 E.01277
G1 X142.8 Y121.133 E.01556
G1 X143.197 Y121.269 E.01316
G1 X143.688 Y121.334 E.01553
G1 X144.107 Y121.308 E.01316
G1 X144.586 Y121.18 E.01555
G1 X144.963 Y120.996 E.01315
G1 X145.357 Y120.694 E.01557
G1 X145.635 Y120.38 E.01315
G1 X145.883 Y119.95 E.01556
;WIDTH:0.464368
G1 X145.943 Y119.837 E.00448
;WIDTH:0.508737
G1 X146.003 Y119.723 E.00499
;WIDTH:0.553106
G1 X146.064 Y119.61 E.00545
;WIDTH:0.597474
G1 X146.124 Y119.496 E.00594
G1 X146.146 Y119.595 E.00468
;WIDTH:0.553106
G1 X146.169 Y119.694 E.00431
;WIDTH:0.508737
G1 X146.191 Y119.793 E.00393
;WIDTH:0.464368
G1 X146.213 Y119.892 E.00355
;WIDTH:0.419999
G1 X146.213 Y134.89 E.47025
G1 X146.199 Y135.046 E.00491
G1 X146.132 Y135.138 E.00357
G1 X145.929 Y135.213 E.00679
G1 X104.11 Y135.213 E1.3112
G1 X103.954 Y135.199 E.00491
G1 X103.862 Y135.132 E.00357
G1 X103.787 Y134.929 E.00679
G1 X103.787 Y120.035 E.46699
;WIDTH:0.460594
G1 X103.807 Y119.881 E.00539
;WIDTH:0.501189
G1 X103.828 Y119.727 E.00592
;WIDTH:0.541784
G1 X103.848 Y119.573 E.00644
;WIDTH:0.582378
G1 X103.868 Y119.42 E.00692
G1 X103.919 Y119.524 E.0052
;WIDTH:0.541784
G1 X103.969 Y119.628 E.00479
;WIDTH:0.501189
G1 X104.02 Y119.732 E.00441
;WIDTH:0.460594
G1 X104.07 Y119.836 E.00401
;WIDTH:0.419999
G1 X104.303 Y120.288 E.01594
G1 X104.564 Y120.616 E.01314
G1 X104.87 Y120.885 E.01277
G1 X105.3 Y121.133 E.01556
G1 X105.697 Y121.269 E.01316
G1 X106.188 Y121.334 E.01553
G1 X106.607 Y121.308 E.01316
G1 X107.086 Y121.18 E.01555
G1 X107.538 Y120.947 E.01594
G1 X107.866 Y120.686 E.01314
G1 X108.135 Y120.38 E.01277
G1 X108.383 Y119.95 E.01556
G1 X108.538 Y119.466 E.01593
G1 X108.585 Y119.049 E.01316
G1 X108.542 Y118.555 E.01555
G1 X108.426 Y118.152 E.01315
G1 X108.227 Y117.767 E.01359
G1 X107.936 Y117.384 E.01508
G1 X107.63 Y117.115 E.01277
G1 X107.2 Y116.867 E.01556
G1 X106.716 Y116.712 E.01593
G1 X106.286 Y116.665 E.01356
G1 X105.804 Y116.708 E.01517
G1 X105.402 Y116.824 E.01312
G1 X105.037 Y117.004 E.01276
G1 X104.643 Y117.306 E.01557
G1 X104.303 Y117.712 E.0166
G1 X104.07 Y118.164 E.01594
;WIDTH:0.458774
G1 X104.019 Y118.282 E.00445
;WIDTH:0.497548
G1 X103.967 Y118.4 E.00487
;WIDTH:0.536322
G1 X103.916 Y118.518 E.00527
;WIDTH:0.575096
G1 X103.865 Y118.636 E.00569
G1 X103.845 Y118.508 E.00573
;WIDTH:0.536322
G1 X103.826 Y118.38 E.00531
;WIDTH:0.497548
G1 X103.806 Y118.252 E.0049
;WIDTH:0.458774
G1 X103.787 Y118.123 E.00451
;WIDTH:0.419999
G1 X103.787 Y95.035 E.72391
;WIDTH:0.461143
G1 X103.808 Y94.884 E.0053
M73 P2 R46
;WIDTH:0.502286
G1 X103.828 Y94.733 E.00582
;WIDTH:0.543429
G1 X103.849 Y94.582 E.00634
;WIDTH:0.584572
G1 X103.869 Y94.431 E.00686
G1 X103.92 Y94.533 E.00514
;WIDTH:0.543429
G1 X103.97 Y94.634 E.00469
;WIDTH:0.502286
G1 X104.02 Y94.736 E.00434
;WIDTH:0.461143
G1 X104.071 Y94.838 E.00397
;WIDTH:0.419999
G1 X104.303 Y95.288 E.01587
G1 X104.564 Y95.616 E.01314
G1 X104.87 Y95.885 E.01277
G1 X105.3 Y96.133 E.01556
G1 X105.784 Y96.288 E.01593
G1 X106.201 Y96.335 E.01316
G1 X106.607 Y96.308 E.01276
G1 X107.086 Y96.18 E.01555
G1 X107.538 Y95.947 E.01594
M73 Q2 S47
G1 X107.866 Y95.686 E.01314
G1 X108.135 Y95.38 E.01277
G1 X108.383 Y94.95 E.01556
G1 X108.521 Y94.522 E.0141
G1 X108.579 Y94.114 E.01292
G1 X108.563 Y93.706 E.0128
G1 X108.429 Y93.162 E.01757
G1 X108.197 Y92.712 E.01587
G1 X107.936 Y92.384 E.01314
G1 X107.63 Y92.115 E.01277
G1 X107.2 Y91.867 E.01556
G1 X106.716 Y91.712 E.01593
G1 X106.286 Y91.665 E.01356
G1 X105.804 Y91.708 E.01517
G1 X105.402 Y91.824 E.01312
G1 X104.962 Y92.053 E.01555
G1 X104.634 Y92.314 E.01314
G1 X104.358 Y92.631 E.01318
G1 X104.07 Y93.164 E.019
;WIDTH:0.458774
G1 X104.019 Y93.282 E.00445
;WIDTH:0.497548
G1 X103.967 Y93.4 E.00487
;WIDTH:0.536322
