; generated by PrusaSlicer 2.7.4 on 2024-05-30 at 09:25:53 UTC


;
;
; 

; external perimeters extrusion width = 0.45mm
; perimeters extrusion width = 0.45mm
; infill extrusion width = 0.45mm
; solid infill extrusion width = 0.45mm
; top infill extrusion width = 0.40mm
; support material extrusion width = 0.35mm
; first layer extrusion width = 0.42mm

M73 P0 R49
M73 Q0 S50
M201 X1000 Y1000 Z200 E5000 ; sets maximum accelerations, mm/sec^2
M203 X200 Y200 Z12 E120 ; sets maximum feedrates, mm / sec
M204 S1250 T1250 ; sets acceleration (S) and retract acceleration (R), mm/sec^2
M205 X8.00 Y8.00 Z0.40 E4.50 ; sets the jerk limits, mm/sec
M205 S0 T0 ; sets the minimum extruding and travel feed rate, mm/sec

; printing object frame - frame_forearm.stl id:0 copy 0
; stop printing object frame - frame_forearm.stl id:0 copy 0

;TYPE:Custom
M862.3 P "MK3S" ; printer model check
M862.1 P0.4 ; nozzle diameter check
M115 U3.13.3 ; tell printer latest fw version
G90 ; use absolute coordinates
M83 ; extruder relative mode
M104 S215 ; set extruder temp
M140 S60 ; set bed temp
M190 S60 ; wait for bed temp
M109 S215 ; wait for extruder temp
G28 W ; home all without mesh bed level
G80 X95.5344 Y66.5344 W58.9312 H76.9312 ; mesh bed levelling

G1 Z0.2 F720
G1 Y-3 F1000 ; go outside print area
G92 E0
G1 X60 E9 F1000 ; intro line
M73 Q0 S49
G1 X100 E12.5 F1000 ; intro line

G92 E0
M221 S95

; Don't change E values below. Excessive value can damage the printer.

M907 E538 ; set extruder motor current
G21 ; set units to millimeters
G90 ; use absolute coordinates
M83 ; use relative distances for extrusion

M900 K0.05 ; Filament gcode LA 1.5
M900 K30 ; Filament gcode LA 1.0




M107
;LAYER_CHANGE
;Z:0.2
;HEIGHT:0.2
G1 E-.8 F2100
G1 Z.6 F720
G1 X97.606 Y70.397 F10800
G1 Z.2 F720
G1 E.8 F2100
M204 S800
;TYPE:Skirt/Brim
;WIDTH:0.42
G1 F1200
G1 X98.365 Y69.516 E.03646
G1 X99.119 Y68.825 E.03207
G1 X100.062 Y68.146 E.03643
G1 X100.982 Y67.638 E.03295
G1 X101.928 Y67.246 E.03211
G1 X103.045 Y66.931 E.03639
G1 X104.136 Y66.763 E.03461
G1 X145.052 Y66.723 E1.28289
G1 X146.666 Y66.874 E.05083
G1 X148.274 Y67.32 E.05232
G1 X149.732 Y68.02 E.05071
G1 X151.188 Y69.088 E.05662
G1 X152.326 Y70.308 E.05231
G1 X153.253 Y71.762 E.05407
G1 X153.864 Y73.263 E.05081
G1 X154.211 Y74.896 E.05234
G1 X154.277 Y75.974 E.03386
G1 X154.276 Y134.133 E1.82353
G1 X154.183 Y135.317 E.03724
M73 P0 R48
G1 X153.933 Y136.505 E.03806
G1 X153.529 Y137.649 E.03804
G1 X152.98 Y138.731 E.03804
G1 X152.326 Y139.692 E.03645
G1 X151.599 Y140.521 E.03457
G1 X150.692 Y141.326 E.03802
G1 X149.731 Y141.98 E.03645
G1 X148.824 Y142.453 E.03207
G1 X147.737 Y142.864 E.03644
G1 X146.666 Y143.126 E.03457
G1 X145.512 Y143.263 E.03644
G1 X104.703 Y143.272 E1.27954
G1 X103.495 Y143.154 E.03806
G1 X102.495 Y142.933 E.03211
G1 X101.351 Y142.529 E.03804
G1 X100.269 Y141.98 E.03804
G1 X99.308 Y141.326 E.03645
G1 X98.401 Y140.521 E.03802
G1 X97.676 Y139.694 E.03448
G1 X97.02 Y138.731 E.03653
G1 X96.471 Y137.649 E.03804
G1 X96.121 Y136.687 E.0321
G1 X95.855 Y135.56 E.03631
G1 X95.734 Y134.46 E.0347
G1 X95.724 Y75.867 E1.83714
G1 X95.817 Y74.684 E.03721
G1 X96.067 Y73.495 E.0381
G1 X96.471 Y72.351 E.03804
G1 X97.018 Y71.273 E.0379
G1 X97.573 Y70.446 E.03123
M204 S1000
;WIPE_START
G1 F8640
G1 X97.606 Y70.397 E-.01364
G1 X98.365 Y69.516 E-.26851
G1 X99.119 Y68.825 E-.23615
G1 X100.062 Y68.146 E-.26831
G1 X100.113 Y68.118 E-.01339
;WIPE_END
G1 Z.6 F720
G1 X99.744 Y72.004 F10800
G1 Z.2 F720
G1 E.8 F2100
M204 S800
G1 F1200
G1 X99.881 Y71.813 E.00737
G1 X100.431 Y71.219 E.02538
G1 X101.727 Y70.253 E.05068
G1 X102.519 Y69.87 E.02758
G1 X103.371 Y69.587 E.02815
G1 X104.812 Y69.39 E.0456
G1 X145.162 Y69.389 E1.26515
G1 X146.413 Y69.54 E.03951
G1 X147.587 Y69.914 E.03863
G1 X148.663 Y70.495 E.03834
G1 X149.624 Y71.272 E.03875
G1 X150.425 Y72.218 E.03887
G1 X151.032 Y73.29 E.03863
G1 X151.426 Y74.44 E.03811
G1 X151.605 Y75.663 E.03875
G1 X151.613 Y134.086 E1.83181
G1 X151.541 Y134.975 E.02797
G1 X151.343 Y135.87 E.02874
G1 X151.033 Y136.709 E.02804
G1 X150.604 Y137.511 E.02852
G1 X150.117 Y138.19 E.0262
G1 X149.546 Y138.803 E.02627
G1 X148.905 Y139.337 E.02616
G1 X148.206 Y139.789 E.0261
G1 X146.564 Y140.43 E.05527
G1 X145.13 Y140.612 E.04532
G1 X104.914 Y140.613 E1.26094
G1 X104.025 Y140.541 E.02797
G1 X103.13 Y140.343 E.02874
G1 X102.291 Y140.033 E.02804
G1 X101.489 Y139.604 E.02852
G1 X100.811 Y139.117 E.02617
G1 X100.218 Y138.568 E.02534
G1 X99.254 Y137.275 E.05057
G1 X98.87 Y136.481 E.02765
G1 X98.587 Y135.629 E.02815
G1 X98.387 Y134.137 E.0472
G1 X98.387 Y75.913 E1.82557
G1 X98.459 Y75.022 E.02803
M73 P1 R48
M73 Q1 S49
G1 X98.657 Y74.131 E.02862
G1 X98.966 Y73.293 E.028
G1 X99.394 Y72.492 E.02848
G1 X99.709 Y72.052 E.01697
M204 S1000
G1 X99.709 Y72.052 F10800
G1 X100.024 Y72.31
M204 S800
G1 F1200
G1 X100.699 Y71.484 E.03345
G1 X101.923 Y70.576 E.04778
G1 X102.672 Y70.215 E.02607
G1 X103.472 Y69.951 E.02641
G1 X104.85 Y69.765 E.0436
G1 X145.129 Y69.764 E1.26292
G1 X146.317 Y69.905 E.03751
G1 X147.425 Y70.254 E.03642
G1 X148.441 Y70.799 E.03615
G1 X149.348 Y71.531 E.03654
G1 X150.106 Y72.421 E.03665
G1 X150.681 Y73.43 E.03641
G1 X151.064 Y74.545 E.03697
G1 X151.229 Y75.703 E.03668
G1 X151.236 Y134.078 E1.83031
G1 X151.166 Y134.931 E.02684
G1 X150.978 Y135.775 E.02711
G1 X150.684 Y136.565 E.02643
G1 X150.278 Y137.321 E.02691
G1 X149.279 Y138.537 E.04934
G1 X148.017 Y139.462 E.04906
G1 X146.479 Y140.062 E.05176
G1 X145.109 Y140.235 E.0433
G1 X104.921 Y140.236 E1.26007
G1 X104.069 Y140.166 E.0268
G1 X103.225 Y139.978 E.02711
G1 X102.435 Y139.684 E.02643
G1 X101.679 Y139.278 E.02691
G1 X100.483 Y138.3 E.04844
G1 X99.577 Y137.079 E.04767
G1 X99.215 Y136.329 E.02611
G1 X98.951 Y135.528 E.02644
G1 X98.764 Y134.124 E.04441
G1 X98.764 Y75.921 E1.82491
G1 X98.834 Y75.066 E.0269
G1 X99.022 Y74.226 E.02699
G1 X99.315 Y73.437 E.02639
G1 X99.721 Y72.681 E.02691
G1 X99.986 Y72.356 E.01315
M204 S1000
G1 X99.986 Y72.356 F10800
G1 X100.275 Y72.593
M204 S800
G1 F1200
G1 X100.967 Y71.75 E.0342
G1 X102.118 Y70.899 E.04488
G1 X102.823 Y70.56 E.02453
G1 X103.573 Y70.315 E.02474
G1 X104.887 Y70.141 E.04156
G1 X145.118 Y70.141 E1.26141
G1 X146.221 Y70.27 E.03482
G1 X147.263 Y70.596 E.03423
G1 X148.218 Y71.104 E.03392
G1 X149.098 Y71.813 E.03543
G1 X149.807 Y72.651 E.03442
G1 X150.344 Y73.6 E.03419
G1 X150.701 Y74.649 E.03474
G1 X150.854 Y75.742 E.0346
G1 X150.859 Y134.071 E1.82886
G1 X150.795 Y134.863 E.02491
G1 X150.62 Y135.656 E.02546
G1 X150.335 Y136.421 E.0256
G1 X149.952 Y137.131 E.02529
G1 X149.012 Y138.27 E.0463
G1 X147.829 Y139.134 E.04593
G1 X146.393 Y139.694 E.04833
G1 X145.089 Y139.858 E.04121
G1 X104.929 Y139.859 E1.25919
G1 X104.137 Y139.795 E.02491
G1 X103.344 Y139.62 E.02546
G1 X102.578 Y139.335 E.02563
G1 X101.869 Y138.952 E.02527
G1 X100.749 Y138.032 E.04545
G1 X99.9 Y136.884 E.04477
G1 X99.56 Y136.177 E.0246
G1 X99.315 Y135.427 E.02474
G1 X99.141 Y134.112 E.04159
G1 X99.141 Y75.929 E1.82429
G1 X99.205 Y75.135 E.02498
G1 X99.38 Y74.345 E.02537
G1 X99.664 Y73.58 E.02559
G1 X100.046 Y72.871 E.02525
G1 X100.237 Y72.64 E.0094
M204 S1000
G1 X100.237 Y72.64 F10800
G1 X100.525 Y72.877
M204 S800
G1 F1200
G1 X101.234 Y72.016 E.03497
G1 X102.312 Y71.222 E.04198
G1 X102.974 Y70.906 E.023
G1 X103.673 Y70.679 E.02304
G1 X104.899 Y70.518 E.03877
G1 X145.107 Y70.518 E1.26069
G1 X146.159 Y70.643 E.03322
G1 X147.132 Y70.95 E.03199
G1 X148.024 Y71.428 E.03173
G1 X148.846 Y72.094 E.03317
G1 X149.507 Y72.879 E.03218
G1 X150.007 Y73.769 E.03201
G1 X150.338 Y74.752 E.03252
G1 X150.479 Y75.78 E.03253
G1 X150.482 Y134.063 E1.82742
G1 X150.42 Y134.819 E.02378
M73 P2 R48
M73 Q2 S48
G1 X150.255 Y135.56 E.0238
G1 X149.987 Y136.277 E.024
G1 X149.627 Y136.94 E.02365
G1 X148.746 Y138.003 E.04329
G1 X147.642 Y138.807 E.04282
G1 X146.308 Y139.327 E.04489
G1 X145.069 Y139.482 E.03915
G1 X104.937 Y139.482 E1.25831
G1 X104.181 Y139.42 E.02378
G1 X103.44 Y139.255 E.0238
G1 X102.723 Y138.987 E.024
G1 X102.06 Y138.627 E.02365
G1 X101.016 Y137.765 E.04245
G1 X100.223 Y136.69 E.04188
G1 X99.679 Y135.327 E.04601
G1 X99.518 Y134.1 E.0388
G1 X99.518 Y75.937 E1.82366
G1 X99.58 Y75.179 E.02385
G1 X99.745 Y74.441 E.02371
G1 X100.012 Y73.725 E.02396
G1 X100.372 Y73.062 E.02365
G1 X100.486 Y72.923 E.00564
M204 S1000
G1 X100.486 Y72.923 F10800
G1 X100.774 Y73.161
M204 S800
G1 F1200
G1 X101.501 Y72.283 E.03574
G1 X102.505 Y71.546 E.03905
G1 X103.772 Y71.043 E.04274
G1 X104.911 Y70.895 E.03601
G1 X145.096 Y70.896 E1.25997
G1 X146.064 Y71.008 E.03055
G1 X146.971 Y71.291 E.02979
G1 X147.802 Y71.733 E.02951
G1 X148.569 Y72.351 E.03088
G1 X149.206 Y73.108 E.03102
G1 X149.669 Y73.936 E.02974
G1 X149.974 Y74.854 E.03033
G1 X150.103 Y75.817 E.03046
G1 X150.105 Y134.055 E1.82601
G1 X149.89 Y135.464 E.04469
M73 P2 R47
G1 X149.302 Y136.748 E.04428
G1 X148.496 Y137.72 E.03959
G1 X147.454 Y138.479 E.04042
G1 X146.223 Y138.959 E.04143
G1 X145.05 Y139.105 E.03706
G1 X104.945 Y139.105 E1.25746
G1 X103.536 Y138.89 E.04469
G1 X102.252 Y138.302 E.04428
G1 X101.282 Y137.499 E.03948
G1 X100.547 Y136.496 E.03899
G1 X100.043 Y135.228 E.04278
G1 X99.895 Y134.088 E.03604
G1 X99.895 Y75.944 E1.82306
G1 X100.11 Y74.537 E.04463
G1 X100.697 Y73.254 E.04424
G1 X100.735 Y73.207 E.0019
M204 S1000
G1 X100.735 Y73.207 F10800
G1 X101.021 Y73.446
M204 S800
G1 F1200
G1 X101.767 Y72.551 E.03653
G1 X102.699 Y71.87 E.03619
G1 X103.252 Y71.607 E.0192
G1 X103.871 Y71.407 E.0204
G1 X104.923 Y71.272 E.03326
G1 X145.085 Y71.273 E1.25925
G1 X146.002 Y71.38 E.02895
G1 X146.84 Y71.645 E.02756
G1 X147.607 Y72.057 E.0273
G1 X148.317 Y72.632 E.02865
G1 X148.905 Y73.336 E.02876
G1 X149.33 Y74.103 E.02749
G1 X149.61 Y74.954 E.02809
G1 X149.726 Y75.83 E.02771
G1 X149.728 Y134.047 E1.82535
G1 X149.671 Y134.729 E.02146
G1 X149.291 Y135.985 E.04114
G1 X148.628 Y137.032 E.03886
G1 X147.784 Y137.821 E.03623
G1 X147.267 Y138.151 E.01923
G1 X146.137 Y138.591 E.03802
G1 X145.043 Y138.728 E.03457
G1 X104.952 Y138.728 E1.25703
G1 X104.271 Y138.671 E.02143
G1 X103.015 Y138.291 E.04114
G1 X101.968 Y137.628 E.03886
G1 X101.184 Y136.791 E.03596
G1 X100.607 Y135.748 E.03737
G1 X100.407 Y135.129 E.0204
G1 X100.272 Y134.076 E.03329
G1 X100.272 Y75.952 E1.82244
G1 X100.325 Y75.292 E.02076
M73 P3 R47
G1 X100.698 Y74.039 E.04099
G1 X100.993 Y73.499 E.01929
M73 Q3 S48
M204 S1000
G1 X100.993 Y73.499 F10800
G1 X101.337 Y73.657
M204 S800
G1 F1200
G1 X101.346 Y73.639 E.00063
G1 X102.032 Y72.819 E.03352
G1 X102.891 Y72.195 E.03329
G1 X103.969 Y71.772 E.03631
G1 X104.935 Y71.649 E.03053
G1 X145.074 Y71.65 E1.25853
G1 X145.907 Y71.746 E.02629
G1 X146.679 Y71.987 E.02536
G1 X147.386 Y72.362 E.02509
G1 X148.041 Y72.889 E.02636
G1 X148.585 Y73.536 E.0265
G1 X148.978 Y74.24 E.02528
G1 X149.239 Y75.023 E.02588
G1 X149.349 Y75.842 E.02591
G1 X149.351 Y134.04 E1.82476
G1 X149.168 Y135.247 E.03828
G1 X148.653 Y136.363 E.03854
G1 X147.965 Y137.184 E.03359
G1 X147.08 Y137.823 E.03423
G1 X146.052 Y138.224 E.0346
G1 X145.037 Y138.351 E.03207
G1 X104.96 Y138.351 E1.25659
G1 X103.753 Y138.168 E.03828
G1 X102.637 Y137.653 E.03854
G1 X101.818 Y136.967 E.0335
G1 X101.195 Y136.11 E.03322
G1 X100.772 Y135.031 E.03634
G1 X100.649 Y134.064 E.03056
G1 X100.649 Y75.96 E1.82181
G1 X100.832 Y74.753 E.03828
G1 X101.312 Y73.712 E.03594
M204 S1000
G1 X101.312 Y73.712 F10800
G1 X101.637 Y73.891
M204 S800
G1 F1200
G1 X101.669 Y73.833 E.00208
G1 X102.297 Y73.088 E.03055
G1 X103.082 Y72.52 E.03038
G1 X103.55 Y72.3 E.01621
G1 X104.067 Y72.136 E.01701
G1 X104.946 Y72.026 E.02778
G1 X145.063 Y72.027 E1.25784
G1 X145.845 Y72.118 E.02468
G1 X146.548 Y72.341 E.02312
G1 X147.191 Y72.686 E.02288
G1 X147.789 Y73.17 E.02412
G1 X148.284 Y73.763 E.02422
G1 X148.639 Y74.406 E.02303
G1 X148.875 Y75.123 E.02367
G1 X148.972 Y75.855 E.02315
G1 X148.974 Y134.032 E1.8241
G1 X148.926 Y134.615 E.01834
G1 X148.606 Y135.668 E.03451
G1 X148.036 Y136.563 E.03327
G1 X147.324 Y137.223 E.03044
G1 X146.894 Y137.495 E.01595
G1 X145.965 Y137.856 E.03125
G1 X145.03 Y137.974 E.02955
G1 X104.968 Y137.974 E1.25612
G1 X104.385 Y137.926 E.01834
G1 X103.332 Y137.606 E.03451
G1 X102.437 Y137.036 E.03327
G1 X101.781 Y136.33 E.03022
G1 X101.3 Y135.45 E.03144
G1 X101.136 Y134.933 E.01701
G1 X101.026 Y134.053 E.02781
G1 X101.026 Y75.968 E1.82121
G1 X101.075 Y75.382 E.01844
G1 X101.394 Y74.332 E.03441
G1 X101.608 Y73.944 E.01389
M204 S1000
G1 X101.956 Y74.106 F10800
M204 S800
G1 F1200
G1 X101.992 Y74.028 E.00269
G1 X102.561 Y73.357 E.02758
G1 X103.273 Y72.845 E.0275
G1 X104.163 Y72.501 E.02992
G1 X104.958 Y72.403 E.02512
G1 X145.053 Y72.404 E1.25715
G1 X145.75 Y72.483 E.02199
G1 X146.388 Y72.682 E.02095
G1 X146.969 Y72.991 E.02063
G1 X147.513 Y73.428 E.02188
G1 X147.964 Y73.963 E.02194
G1 X148.287 Y74.543 E.02082
G1 X148.504 Y75.192 E.02146
G1 X148.595 Y75.868 E.02139
G1 X148.597 Y134.025 E1.82347
G1 X148.446 Y135.028 E.0318
G1 X148.007 Y135.973 E.03267
G1 X147.437 Y136.645 E.02763
G1 X146.709 Y137.166 E.02807
G1 X145.879 Y137.489 E.02793
G1 X145.024 Y137.597 E.02702
G1 X104.975 Y137.597 E1.25571
G1 X103.972 Y137.446 E.0318
M73 P4 R47
G1 X103.027 Y137.007 E.03267
M73 Q4 S48
G1 X102.357 Y136.439 E.02754
G1 X101.846 Y135.728 E.02745
G1 X101.501 Y134.837 E.02996
G1 X101.403 Y134.041 E.02515
G1 X101.403 Y75.975 E1.82062
M73 Q4 S47
G1 X101.554 Y74.971 E.03183
G1 X101.931 Y74.16 E.02804
M204 S1000
G1 X102.25 Y74.339 F10800
M204 S800
G1 F1200
G1 X102.314 Y74.224 E.00413
G1 X102.824 Y73.628 E.02459
G1 X103.462 Y73.172 E.02459
G1 X103.844 Y72.995 E.0132
G1 X104.969 Y72.78 E.03591
G1 X145.043 Y72.781 E1.25649
G1 X145.657 Y72.849 E.01937
G1 X146.229 Y73.024 E.01876
G1 X146.749 Y73.298 E.01843
G1 X147.238 Y73.686 E.01957
G1 X147.645 Y74.165 E.01971
G1 X147.936 Y74.682 E.0186
G1 X148.133 Y75.262 E.01921
G1 X148.218 Y75.881 E.01959
G1 X148.22 Y134.018 E1.82284
G1 X148.088 Y134.908 E.02821
G1 X147.911 Y135.374 E.01563
G1 X147.448 Y136.091 E.02676
G1 X146.867 Y136.622 E.02468
G1 X145.791 Y137.121 E.03719
G1 X145.018 Y137.22 E.02443
G1 X104.982 Y137.22 E1.2553
G1 X104.092 Y137.088 E.02821
G1 X103.626 Y136.911 E.01563
G1 X102.909 Y136.448 E.02676
G1 X102.381 Y135.873 E.02448
G1 X101.995 Y135.156 E.02553
G1 X101.78 Y134.03 E.03594
G1 X101.78 Y75.982 E1.82005
G1 X101.912 Y75.092 E.02821
M73 P4 R46
G1 X102.089 Y74.626 E.01563
G1 X102.22 Y74.392 E.00841
M204 S1000
G1 X102.22 Y74.392 F10800
G1 X102.572 Y74.553
M204 S800
G1 F1200
G1 X102.624 Y74.439 E.00393
G1 X103.086 Y73.898 E.02231
G1 X103.65 Y73.499 E.02166
G1 X104.352 Y73.232 E.02355
G1 X104.98 Y73.157 E.01983
G1 X145.033 Y73.158 E1.25583
G1 X145.564 Y73.215 E.01674
G1 X146.1 Y73.379 E.01757
G1 X146.556 Y73.622 E.0162
G1 X146.987 Y73.968 E.01733
G1 X147.344 Y74.393 E.0174
G1 X147.598 Y74.849 E.01637
G1 X147.77 Y75.363 E.01699
G1 X147.841 Y75.893 E.01677
G1 X147.843 Y134.011 E1.82225
G1 X147.73 Y134.789 E.02465
G1 X147.375 Y135.562 E.02667
G1 X146.928 Y136.089 E.02167
G1 X146.341 Y136.507 E.02259
G1 X145.704 Y136.754 E.02142
G1 X145.012 Y136.843 E.02188
G1 X104.989 Y136.843 E1.25489
G1 X104.211 Y136.73 E.02465
G1 X103.438 Y136.375 E.02667
G1 X102.912 Y135.928 E.02164
G1 X102.498 Y135.349 E.02232
G1 X102.232 Y134.648 E.02351
G1 X102.157 Y134.019 E.01986
G1 X102.157 Y75.989 E1.81949
G1 X102.27 Y75.211 E.02465
G1 X102.547 Y74.608 E.02081
M204 S1000
G1 X102.547 Y74.608 F10800
G1 X102.858 Y74.835
M204 S800
G1 F1200
G1 X103.334 Y74.183 E.02531
G1 X104.132 Y73.693 E.02936
G1 X104.991 Y73.534 E.02739
G1 X145.024 Y73.535 E1.25521
G1 X145.971 Y73.734 E.03034
G1 X146.712 Y74.227 E.02791
G1 X147.024 Y74.593 E.01508
G1 X147.26 Y75.017 E.01521
G1 X147.464 Y75.906 E.0286
G1 X147.466 Y134.004 E1.82162
G1 X147.372 Y134.672 E.02115
M73 P5 R46
M73 Q5 S47
G1 X147.238 Y135.034 E.0121
G1 X146.873 Y135.603 E.0212
G1 X146.414 Y136.02 E.01944
G1 X145.616 Y136.387 E.02754
G1 X145.005 Y136.466 E.01932
G1 X104.996 Y136.466 E1.25445
G1 X104.328 Y136.372 E.02115
G1 X103.966 Y136.238 E.0121
G1 X103.397 Y135.873 E.0212
G1 X102.995 Y135.435 E.01864
G1 X102.693 Y134.868 E.02014
G1 X102.534 Y134.008 E.02742
G1 X102.534 Y75.996 E1.81893
G1 X102.628 Y75.328 E.02115
G1 X102.762 Y74.966 E.0121
