; generated by PrusaSlicer 2.7.4 on 2024-05-19 at 14:03:45 UTC


;
;
; 

; external perimeters extrusion width = 0.45mm
; perimeters extrusion width = 0.45mm
; infill extrusion width = 0.45mm
; solid infill extrusion width = 0.45mm
; top infill extrusion width = 0.40mm
; first layer extrusion width = 0.42mm

M73 P0 R210
M73 Q0 S210
M201 X1000 Y1000 Z200 E5000 ; sets maximum accelerations, mm/sec^2
M203 X200 Y200 Z12 E120 ; sets maximum feedrates, mm / sec
M204 S1250 T1250 ; sets acceleration (S) and retract acceleration (R), mm/sec^2
M205 X8.00 Y8.00 Z0.40 E4.50 ; sets the jerk limits, mm/sec
M205 S0 T0 ; sets the minimum extruding and travel feed rate, mm/sec

; printing object marker - teammarker_forearm.stl id:0 copy 0
; stop printing object marker - teammarker_forearm.stl id:0 copy 0

;TYPE:Custom
M862.3 P "MK3S" ; printer model check
M862.1 P0.4 ; nozzle diameter check
M115 U3.13.3 ; tell printer latest fw version
G90 ; use absolute coordinates
M83 ; extruder relative mode
M104 S230 ; set extruder temp
M140 S50 ; set bed temp
M190 S50 ; wait for bed temp
M109 S230 ; wait for extruder temp
G28 W ; home all without mesh bed level
G80 X86.4884 Y16.0787 W77.0232 H177.843 ; mesh bed levelling

G1 Z0.2 F720
G1 Y-3 F1000 ; go outside print area
G92 E0
G1 X60 E9 F1000 ; intro line
G1 X100 E12.5 F1000 ; intro line

G92 E0
M221 S95

; Don't change E values below. Excessive value can damage the printer.
M907 E430 ; set extruder motor current
G21 ; set units to millimeters
G90 ; use absolute coordinates
M83 ; use relative distances for extrusion
M900 K0 ; Filament gcode
M107
;LAYER_CHANGE
;Z:0.2
;HEIGHT:0.2
G1 E-1 F2100
G1 Z.2 F720
G1 X96.863 Y35.278 F10800
G1 Z.2 F720
G1 E1 F900
M204 S800
;TYPE:Skirt/Brim
;WIDTH:0.42
G1 F1200
G1 X97.497 Y33.805 E.05531
G1 X98.644 Y31.583 E.08624
G1 X100.028 Y29.379 E.08976
G1 X100.851 Y28.242 E.04841
G1 X102.444 Y26.315 E.08623
G1 X103.407 Y25.293 E.04843
G1 X105.235 Y23.586 E.08626
G1 X106.32 Y22.697 E.04838
G1 X108.352 Y21.239 E.08626
G1 X109.542 Y20.496 E.04839
G1 X111.567 Y19.402 E.07938
G1 X114.227 Y18.239 E.10013
G1 X116.599 Y17.448 E.08624
G1 X117.957 Y17.09 E.04844
G1 X120.411 Y16.61 E.08624
G1 X121.803 Y16.43 E.04841
G1 X124.298 Y16.269 E.08623
G1 X125.702 Y16.269 E.04842
G1 X128.197 Y16.43 E.08623
G1 X129.589 Y16.61 E.04841
G1 X132.043 Y17.09 E.08624
G1 X133.401 Y17.448 E.04844
G1 X135.773 Y18.239 E.08624
G1 X137.073 Y18.768 E.04841
G1 X139.324 Y19.857 E.08624
G1 X140.545 Y20.548 E.04839
G1 X142.638 Y21.917 E.08626
G1 X143.76 Y22.76 E.0484
G1 X145.66 Y24.386 E.08625
G1 X146.665 Y25.366 E.04841
G1 X148.34 Y27.223 E.08625
G1 X149.211 Y28.323 E.04839
G1 X150.633 Y30.38 E.08625
G1 X151.356 Y31.583 E.04841
G1 X152.503 Y33.805 E.08624
G1 X153.026 Y34.997 E.04489
G1 X153.947 Y37.54 E.09328
G1 X162.322 Y68.795 E1.11601
G1 X162.929 Y72.064 E.11467
G1 X163.26 Y75.372 E.11466
G1 X163.313 Y78.697 E.11469
G1 X163.087 Y82.015 E.1147
G1 X146.832 Y189.978 E3.76558
G1 X146.658 Y190.721 E.02632
G1 X146.406 Y191.33 E.02273
G1 X145.762 Y192.274 E.03941
G1 X144.895 Y193.019 E.03943
G1 X143.865 Y193.514 E.03941
G1 X142.743 Y193.726 E.03938
G1 X107.067 Y193.711 E1.23046
G1 X106.418 Y193.597 E.02273
G1 X105.697 Y193.344 E.02635
G1 X105.105 Y193.019 E.02329
G1 X104.513 Y192.555 E.02594
G1 X104.059 Y192.061 E.02314
G1 X103.642 Y191.423 E.02629
G1 X103.37 Y190.804 E.02332
G1 X103.183 Y190.077 E.02589
G1 X87.131 Y83.663 E3.71171
G1 X86.772 Y80.458 E.11123
G1 X86.687 Y78.697 E.06081
G1 X86.734 Y75.472 E.11124
G1 X86.87 Y73.715 E.06078
G1 X87.322 Y70.521 E.11126
G1 X88.058 Y67.278 E.11469
G1 X96.053 Y37.54 E1.06208
G1 X96.843 Y35.334 E.08082
M204 S1000
G1 E-1 F2100
G1 X96.843 Y35.334 F10800
; printing object marker - teammarker_forearm.stl id:0 copy 0
G1 X142.756 Y190.13
G1 E1 F900
M204 S800
;TYPE:Perimeter
;WIDTH:0.419999
G1 F1200
G1 X142.526 Y190.19 E.0082
G1 X108.042 Y190.185 E1.18934
G1 X107.285 Y190.159 E.02612
G1 X106.969 Y189.992 E.01233
G1 X106.751 Y189.717 E.0121
G1 X106.666 Y189.371 E.01229
G1 X106.666 Y188.808 E.01942
G1 X106.716 Y188.36 E.01555
G1 X106.85 Y187.994 E.01344
G1 X107.259 Y187.125 E.03313
G1 X107.486 Y186.513 E.02251
G1 X107.63 Y185.846 E.02353
G1 X107.659 Y185.201 E.02227
G1 X107.586 Y184.593 E.02112
G1 X107.457 Y184.103 E.01748
G1 X107.247 Y183.557 E.02018
G1 X106.775 Y182.542 E.03861
G1 X106.666 Y181.994 E.01927
G1 X106.664 Y131.351 E1.74666
G1 X106.563 Y128.766 E.08922
M73 P0 R209
G1 X106.368 Y126.33 E.08429
G1 X106.04 Y123.577 E.09562
G1 X105.623 Y121.022 E.08929
G1 X105.111 Y118.523 E.08798
G1 X104.49 Y116.01 E.08928
G1 X103.755 Y113.487 E.09063
G1 X102.943 Y111.069 E.08797
G1 X102.02 Y108.65 E.0893
G1 X100.984 Y106.236 E.0906
G1 X99.884 Y103.935 E.08796
G1 X98.673 Y101.646 E.08931
G1 X97.351 Y99.376 E.0906
G1 X95.986 Y97.237 E.08752
G1 X95.184 Y95.935 E.05274
G1 X94.445 Y94.613 E.05224
G1 X93.762 Y93.262 E.05221
G1 X93.136 Y91.883 E.05223
G1 X92.568 Y90.479 E.05224
G1 X92.06 Y89.053 E.05221
G1 X91.612 Y87.606 E.05224
G1 X91.225 Y86.142 E.05223
G1 X90.901 Y84.663 E.05222
G1 X90.652 Y83.252 E.04942
G1 X90.438 Y81.67 E.05506
G1 X90.301 Y80.162 E.05222
G1 X90.228 Y78.65 E.05221
G1 X90.218 Y77.136 E.05222
G1 X90.272 Y75.622 E.05225
G1 X90.389 Y74.112 E.05224
G1 X90.57 Y72.609 E.05221
G1 X90.813 Y71.114 E.05224
G1 X91.119 Y69.631 E.05223
G1 X91.49 Y68.148 E.05272
G1 X99.121 Y39.669 E1.01688
G1 X99.446 Y38.553 E.04009
M73 Q0 S209
G1 X99.814 Y37.464 E.03965
G1 X100.229 Y36.392 E.03965
G1 X100.69 Y35.339 E.03965
G1 X101.195 Y34.306 E.03966
G1 X101.744 Y33.296 E.03965
G1 X102.335 Y32.31 E.03965
G1 X102.969 Y31.351 E.03965
G1 X103.643 Y30.42 E.03964
G1 X104.318 Y29.567 E.03752
G1 X105.109 Y28.648 E.04182
G1 X105.896 Y27.812 E.0396
G1 X106.719 Y27.009 E.03966
G1 X107.576 Y26.243 E.03964
G1 X108.465 Y25.514 E.03965
G1 X109.385 Y24.824 E.03966
G1 X110.333 Y24.174 E.03964
G1 X111.308 Y23.566 E.03963
G1 X112.309 Y22.999 E.03968
G1 X113.333 Y22.477 E.03964
G1 X114.378 Y21.998 E.03965
G1 X115.386 Y21.588 E.03753
G1 X116.526 Y21.178 E.04178
G1 X117.624 Y20.838 E.03964
G1 X118.735 Y20.545 E.03963
G1 X119.859 Y20.3 E.03968
G1 X120.991 Y20.104 E.03962
G1 X122.07 Y19.964 E.03753
G1 X123.278 Y19.858 E.04182
G1 X124.42 Y19.809 E.03942
G1 X125.943 Y19.824 E.05253
G1 X126.723 Y19.858 E.02693
G1 X127.869 Y19.956 E.03967
G1 X129.009 Y20.104 E.03965
G1 X130.142 Y20.3 E.03966
G1 X131.265 Y20.545 E.03964
G1 X132.376 Y20.838 E.03963
G1 X133.475 Y21.178 E.03968
G1 X134.557 Y21.565 E.03963
G1 X135.622 Y21.998 E.03965
G1 X136.667 Y22.477 E.03965
G1 X137.691 Y22.999 E.03964
G1 X138.692 Y23.566 E.03968
G1 X139.667 Y24.174 E.03963
G1 X140.615 Y24.824 E.03964
G1 X141.535 Y25.514 E.03966
G1 X142.424 Y26.243 E.03965
G1 X143.281 Y27.009 E.03964
G1 X144.104 Y27.812 E.03966
G1 X144.892 Y28.649 E.03965
G1 X145.643 Y29.519 E.03964
G1 X146.357 Y30.42 E.03965
G1 X147.031 Y31.351 E.03964
G1 X147.665 Y32.31 E.03965
G1 X148.256 Y33.296 E.03965
G1 X148.805 Y34.306 E.03965
G1 X149.31 Y35.339 E.03966
G1 X149.771 Y36.392 E.03965
G1 X150.186 Y37.464 E.03965
G1 X150.554 Y38.553 E.03965
G1 X150.879 Y39.669 E.04009
G1 X158.51 Y68.148 E1.01688
G1 X158.881 Y69.631 E.05272
G1 X159.187 Y71.114 E.05223
G1 X159.43 Y72.609 E.05224
G1 X159.611 Y74.112 E.05221
G1 X159.728 Y75.622 E.05224
G1 X159.782 Y77.136 E.05225
G1 X159.777 Y77.865 E.02514
G1 X159.772 Y78.65 E.02707
G1 X159.699 Y80.162 E.05221
G1 X159.562 Y81.671 E.05226
G1 X159.362 Y83.172 E.05223
G1 X159.099 Y84.663 E.05222
G1 X158.775 Y86.142 E.05222
G1 X158.388 Y87.606 E.05223
G1 X157.94 Y89.053 E.05224
G1 X157.432 Y90.479 E.05221
G1 X156.864 Y91.883 E.05224
G1 X156.238 Y93.262 E.05223
G1 X155.555 Y94.613 E.05221
G1 X154.816 Y95.935 E.05224
G1 X154.014 Y97.237 E.05274
G1 X152.649 Y99.376 E.08752
G1 X151.327 Y101.646 E.0906
G1 X150.134 Y103.901 E.08799
G1 X149.016 Y106.236 E.08929
G1 X147.98 Y108.65 E.0906
G1 X147.07 Y111.033 E.08798
G1 X146.245 Y113.487 E.08929
G1 X145.52 Y115.973 E.08931
G1 X144.889 Y118.523 E.0906
G1 X144.377 Y121.022 E.08798
G1 X143.96 Y123.577 E.08929
G1 X143.632 Y126.323 E.09538
G1 X143.437 Y128.766 E.08453
G1 X143.336 Y131.351 E.08922
G1 X143.334 Y181.882 E1.7428
G1 X143.3 Y182.283 E.01388
G1 X143.155 Y182.691 E.01493
G1 X142.728 Y183.618 E.0352
G1 X142.509 Y184.21 E.02177
G1 X142.391 Y184.724 E.01819
G1 X142.338 Y185.359 E.02198
G1 X142.393 Y186.001 E.02222
G1 X142.552 Y186.638 E.02264
G1 X142.768 Y187.187 E.02035
G1 X143.13 Y187.951 E.02916
G1 X143.305 Y188.48 E.01922
G1 X143.309 Y189.54 E.03656
G1 X143.129 Y189.883 E.01336
G1 X142.84 Y190.109 E.01265
G1 X142.814 Y190.115 E.00092
M204 S1000
G1 X142.814 Y190.115 F10800
G1 X142.852 Y190.49
M204 S800
G1 F1200
G1 X142.546 Y190.567 E.01088
G1 X107.395 Y190.562 E1.21235
G1 X106.988 Y190.453 E.01453
G1 X106.644 Y190.212 E.01449
G1 X106.406 Y189.873 E.01429
G1 X106.289 Y189.396 E.01694
G1 X106.289 Y188.808 E.02028
G1 X106.347 Y188.273 E.01856
G1 X106.509 Y187.833 E.01617
G1 X106.907 Y186.988 E.03221
G1 X107.119 Y186.427 E.02068
G1 X107.24 Y185.915 E.01815
G1 X107.285 Y185.335 E.02006
G1 X107.234 Y184.763 E.01981
G1 X107.105 Y184.237 E.01868
G1 X106.905 Y183.715 E.01928
G1 X106.378 Y182.526 E.04486
G1 X106.289 Y182.016 E.01786
G1 X106.287 Y131.351 E1.74742
G1 X106.186 Y128.78 E.08874
G1 X105.992 Y126.36 E.08373
G1 X105.668 Y123.637 E.09458
G1 X105.254 Y121.097 E.08876
G1 X104.742 Y118.598 E.08798
G1 X104.124 Y116.1 E.08875
G1 X103.398 Y113.607 E.08955
G1 X102.585 Y111.189 E.08798
G1 X101.668 Y108.785 E.08874
G1 X100.644 Y106.399 E.08955
G1 X99.543 Y104.097 E.08801
G1 X98.34 Y101.822 E.08876
G1 X97.033 Y99.579 E.08954
G1 X95.667 Y97.438 E.08759
G1 X94.859 Y96.126 E.05314
G1 X94.112 Y94.791 E.05276
G1 X93.422 Y93.425 E.05278
G1 X92.789 Y92.032 E.05277
G1 X92.216 Y90.613 E.05278
G1 X91.702 Y89.172 E.05277
G1 X91.25 Y87.71 E.05278
G1 X90.859 Y86.231 E.05276
G1 X90.531 Y84.736 E.05279
G1 X90.279 Y83.31 E.04994
G1 X90.063 Y81.712 E.05562
G1 X89.925 Y80.189 E.05274
G1 X89.851 Y78.66 E.0528
G1 X89.841 Y77.13 E.05277
G1 X89.895 Y75.601 E.05277
G1 X90.014 Y74.075 E.05279
G1 X90.196 Y72.556 E.05276
G1 X90.442 Y71.046 E.05277
G1 X90.751 Y69.547 E.05279
G1 X91.125 Y68.053 E.05312
G1 X98.758 Y39.568 E1.0171
G1 X99.086 Y38.44 E.04052
G1 X99.46 Y37.336 E.0402
G1 X99.88 Y36.249 E.04019
G1 X100.347 Y35.18 E.04023
G1 X100.859 Y34.133 E.0402
G1 X101.416 Y33.109 E.0402
G1 X102.016 Y32.109 E.04022
G1 X102.659 Y31.137 E.0402
G1 X103.342 Y30.192 E.04021
G1 X104.028 Y29.327 E.03808
G1 X104.828 Y28.396 E.04234
G1 X105.627 Y27.547 E.04021
G1 X106.462 Y26.734 E.04019
G1 X107.331 Y25.956 E.04023
G1 X108.233 Y25.217 E.04022
G1 X109.165 Y24.518 E.04018
G1 X110.127 Y23.859 E.04022
G1 X111.116 Y23.241 E.04022
G1 X112.13 Y22.667 E.04019
G1 X113.168 Y22.137 E.0402
G1 X114.229 Y21.652 E.04024
G1 X115.251 Y21.236 E.03806
G1 X116.407 Y20.82 E.04237
G1 X117.52 Y20.475 E.04019
G1 X118.647 Y20.178 E.0402
G1 X119.786 Y19.93 E.0402
G1 X120.935 Y19.731 E.04022
G1 X122.03 Y19.589 E.03808
G1 X123.253 Y19.481 E.04235
G1 X124.414 Y19.432 E.04008
G1 X125.953 Y19.447 E.05308
G1 X126.748 Y19.481 E.02744
G1 X127.909 Y19.581 E.04019
G1 X129.065 Y19.731 E.0402
G1 X130.214 Y19.93 E.04022
G1 X131.353 Y20.178 E.0402
G1 X132.48 Y20.475 E.0402
G1 X133.594 Y20.82 E.04022
G1 X134.692 Y21.213 E.04022
G1 X135.771 Y21.652 E.04018
G1 X136.832 Y22.137 E.04024
G1 X137.87 Y22.667 E.0402
G1 X138.884 Y23.241 E.04019
G1 X139.873 Y23.859 E.04022
G1 X140.835 Y24.518 E.04022
G1 X141.767 Y25.217 E.04018
G1 X142.669 Y25.956 E.04022
G1 X143.538 Y26.734 E.04023
G1 X144.373 Y27.547 E.04019
G1 X145.172 Y28.396 E.04021
G1 X145.934 Y29.278 E.0402
G1 X146.658 Y30.192 E.04022
G1 X147.341 Y31.137 E.04021
G1 X147.984 Y32.109 E.0402
G1 X148.584 Y33.109 E.04022
G1 X149.141 Y34.133 E.0402
G1 X149.653 Y35.18 E.0402
G1 X150.12 Y36.249 E.04023
G1 X150.54 Y37.336 E.04019
G1 X150.914 Y38.44 E.0402
G1 X151.242 Y39.568 E.04052
G1 X158.875 Y68.053 E1.0171
G1 X159.249 Y69.547 E.05312
G1 X159.558 Y71.046 E.05279
G1 X159.804 Y72.556 E.05277
G1 X159.986 Y74.075 E.05276
G1 X160.105 Y75.601 E.05279
G1 X160.159 Y77.13 E.05277
G1 X160.154 Y77.868 E.02545
G1 X160.149 Y78.66 E.02732
G1 X160.075 Y80.189 E.0528
G1 X159.937 Y81.712 E.05274
G1 X159.735 Y83.229 E.05278
G1 X159.469 Y84.736 E.05278
G1 X159.141 Y86.231 E.05279
G1 X158.75 Y87.71 E.05276
G1 X158.298 Y89.172 E.05278
G1 X157.784 Y90.613 E.05277
G1 X157.211 Y92.032 E.05278
G1 X156.578 Y93.425 E.05277
G1 X155.888 Y94.791 E.05278
G1 X155.141 Y96.126 E.05276
G1 X154.333 Y97.438 E.05314
G1 X152.967 Y99.579 E.08759
G1 X151.66 Y101.822 E.08954
G1 X150.467 Y104.077 E.08799
G1 X149.356 Y106.398 E.08875
G1 X148.332 Y108.785 E.08958
G1 X147.422 Y111.168 E.08798
G1 X146.602 Y113.607 E.08875
G1 X145.882 Y116.078 E.08877
G1 X145.258 Y118.598 E.08954
G1 X144.746 Y121.097 E.08798
G1 X144.332 Y123.637 E.08876
G1 X144.008 Y126.356 E.09444
G1 X143.814 Y128.78 E.08387
G1 X143.713 Y131.351 E.08874
G1 X143.711 Y181.882 E1.7428
G1 X143.671 Y182.359 E.01651
G1 X143.497 Y182.85 E.01797
G1 X143.08 Y183.752 E.03427
G1 X142.895 Y184.237 E.0179
G1 X142.766 Y184.763 E.01868
G1 X142.715 Y185.335 E.01981
G1 X142.76 Y185.915 E.02006
G1 X142.904 Y186.502 E.02085
G1 X143.109 Y187.026 E.01941
G1 X143.535 Y187.927 E.03437
G1 X143.681 Y188.422 E.0178
G1 X143.69 Y189.55 E.03891
G1 X143.515 Y190.01 E.01697
G1 X143.32 Y190.241 E.01043
G1 X143.004 Y190.452 E.01311
G1 X142.911 Y190.476 E.00331
M204 S1000
G1 X142.911 Y190.476 F10800
G1 X142.949 Y190.865
M204 S800
;TYPE:External perimeter
G1 F1200
G1 X142.567 Y190.944 E.01345
G1 X107.536 Y190.939 E1.20821
G1 X107.089 Y190.891 E.01551
G1 X106.588 Y190.657 E.01907
G1 X106.198 Y190.267 E.01902
G1 X106.014 Y189.892 E.01441
G1 X105.912 Y189.42 E.01665
G1 X105.912 Y188.808 E.02111
G1 X105.979 Y188.186 E.02158
G1 X106.168 Y187.672 E.01889
G1 X106.556 Y186.852 E.03129
G1 X106.752 Y186.34 E.01891
G1 X106.873 Y185.828 E.01815
G1 X106.909 Y185.31 E.01791
G1 X106.859 Y184.801 E.01764
G1 X106.753 Y184.371 E.01527
G1 X106.563 Y183.874 E.01835
G1 X106.016 Y182.632 E.04681
G1 X105.912 Y182.038 E.0208
G1 X105.91 Y131.351 E1.74818
G1 X105.809 Y128.795 E.08822
G1 X105.616 Y126.39 E.08321
G1 X105.296 Y123.698 E.0935
G1 X104.884 Y121.173 E.08824
G1 X104.372 Y118.674 E.08798
G1 X103.758 Y116.191 E.08822
G1 X103.04 Y113.727 E.08852
G1 X102.228 Y111.309 E.08797
G1 X101.313 Y108.912 E.08849
G1 X100.304 Y106.561 E.08824
G1 X99.2 Y104.253 E.08824
G1 X98.007 Y101.999 E.08796
G1 X96.715 Y99.781 E.08853
G1 X95.347 Y97.638 E.08769
G1 X94.534 Y96.317 E.0535
G1 X93.779 Y94.968 E.05332
G1 X93.082 Y93.588 E.05332
G1 X92.443 Y92.18 E.05333
G1 X91.863 Y90.747 E.05332
G1 X91.344 Y89.291 E.05331
G1 X90.887 Y87.814 E.05332
G1 X90.492 Y86.319 E.05333
G1 X90.161 Y84.809 E.05332
G1 X89.907 Y83.368 E.05047
G1 X89.688 Y81.754 E.05618
G1 X89.549 Y80.215 E.0533
G1 X89.474 Y78.671 E.05331
G1 X89.464 Y77.125 E.05332
G1 X89.519 Y75.58 E.05332
G1 X89.639 Y74.038 E.05334
G1 X89.823 Y72.503 E.05332
G1 X90.071 Y70.977 E.05332
G1 X90.384 Y69.463 E.05332
G1 X90.76 Y67.959 E.05347
G1 X98.395 Y39.466 E1.01738
G1 X98.726 Y38.327 E.04091
G1 X99.105 Y37.207 E.04078
G1 X99.532 Y36.105 E.04076
G1 X100.005 Y35.022 E.04076
G1 X100.524 Y33.96 E.04077
G1 X101.089 Y32.922 E.04076
G1 X101.697 Y31.908 E.04078
G1 X102.349 Y30.922 E.04077
G1 X103.042 Y29.965 E.04075
G1 X103.737 Y29.087 E.03862
G1 X104.548 Y28.143 E.04292
G1 X105.358 Y27.283 E.04075
G1 X106.205 Y26.458 E.04078
G1 X107.086 Y25.67 E.04077
G1 X108 Y24.921 E.04076
G1 X108.945 Y24.211 E.04077
G1 X109.92 Y23.543 E.04076
G1 X110.923 Y22.917 E.04078
G1 X111.951 Y22.335 E.04074
G1 X113.004 Y21.798 E.04077
G1 X114.079 Y21.306 E.04078
G1 X115.116 Y20.884 E.03861
G1 X116.287 Y20.462 E.04293
G1 X117.416 Y20.113 E.04076
G1 X118.559 Y19.812 E.04077
G1 X119.714 Y19.56 E.04077
G1 X120.878 Y19.358 E.04075
G1 X121.989 Y19.214 E.03864
G1 X123.228 Y19.105 E.0429
G1 X124.408 Y19.054 E.04074
G1 X125.963 Y19.07 E.05363
G1 X126.772 Y19.105 E.02793
G1 X127.95 Y19.206 E.04078
G1 X129.122 Y19.358 E.04076
G1 X130.286 Y19.56 E.04075
G1 X131.441 Y19.812 E.04077
G1 X132.584 Y20.113 E.04077
G1 X133.713 Y20.463 E.04077
G1 X134.826 Y20.86 E.04076
G1 X135.921 Y21.306 E.04078
