; generated by PrusaSlicer 2.7.4 on 2024-06-06 at 08:56:21 UTC


;
;
; 

; external perimeters extrusion width = 0.45mm
; perimeters extrusion width = 0.45mm
; infill extrusion width = 0.45mm
; solid infill extrusion width = 0.45mm
; top infill extrusion width = 0.40mm
; first layer extrusion width = 0.42mm

M73 P0 R116
M73 Q0 S116
M201 X1000 Y1000 Z200 E5000 ; sets maximum accelerations, mm/sec^2
M203 X200 Y200 Z12 E120 ; sets maximum feedrates, mm / sec
M204 S1250 T1250 ; sets acceleration (S) and retract acceleration (R), mm/sec^2
M205 X8.00 Y8.00 Z0.40 E4.50 ; sets the jerk limits, mm/sec
M205 S0 T0 ; sets the minimum extruding and travel feed rate, mm/sec

; printing object marker - teammarker_forearm.stl id:0 copy 0
; stop printing object marker - teammarker_forearm.stl id:0 copy 0

;TYPE:Custom
M862.3 P "MK3S" ; printer model check
M862.1 P0.4 ; nozzle diameter check
M115 U3.13.3 ; tell printer latest fw version
G90 ; use absolute coordinates
M83 ; extruder relative mode
M104 S230 ; set extruder temp
M140 S50 ; set bed temp
M190 S50 ; wait for bed temp
M109 S230 ; wait for extruder temp
G28 W ; home all without mesh bed level
G80 X86.5206 Y16.1109 W76.9588 H177.778 ; mesh bed levelling

G1 Z0.2 F720
G1 Y-3 F1000 ; go outside print area
G92 E0
G1 X60 E9 F1000 ; intro line
G1 X100 E12.5 F1000 ; intro line

G92 E0
M221 S95

; Don't change E values below. Excessive value can damage the printer.
M907 E430 ; set extruder motor current
G21 ; set units to millimeters
G90 ; use absolute coordinates
M83 ; use relative distances for extrusion
M900 K0 ; Filament gcode
M107
;LAYER_CHANGE
;Z:0.3
;HEIGHT:0.3
G1 X96.919 Y35.192 F10800
G1 Z.3 F720
M204 S800
;TYPE:Skirt/Brim
;WIDTH:0.42
G1 F1200
G1 X97.517 Y33.815 E.07325
G1 X98.663 Y31.593 E.12198
G1 X100.046 Y29.391 E.12687
G1 X100.868 Y28.255 E.06841
G1 X102.461 Y26.329 E.12195
G1 X103.422 Y25.308 E.06841
G1 X105.249 Y23.602 E.12196
G1 X106.333 Y22.714 E.06837
G1 X108.364 Y21.257 E.12195
G1 X109.553 Y20.515 E.06838
G1 X111.665 Y19.376 E.11708
G1 X114.235 Y18.259 E.13672
G1 X116.606 Y17.468 E.12195
G1 X117.961 Y17.111 E.06837
G1 X120.415 Y16.632 E.12199
G1 X121.805 Y16.452 E.06838
G1 X124.299 Y16.291 E.12194
G1 X125.701 Y16.291 E.0684
G1 X128.195 Y16.452 E.12194
G1 X129.585 Y16.632 E.06838
G1 X132.039 Y17.111 E.12199
G1 X133.394 Y17.468 E.06837
G1 X135.765 Y18.259 E.12195
G1 X137.064 Y18.787 E.06841
G1 X139.314 Y19.876 E.12196
G1 X140.534 Y20.566 E.06838
G1 X142.626 Y21.935 E.12198
G1 X143.747 Y22.776 E.06837
G1 X145.645 Y24.402 E.12194
G1 X146.649 Y25.38 E.06838
G1 X148.323 Y27.237 E.12198
G1 X149.193 Y28.336 E.06839
G1 X150.615 Y30.392 E.12197
G1 X151.956 Y32.737 E.1318
G1 X153.006 Y35.005 E.12194
G1 X153.926 Y37.546 E.13185
G1 X162.301 Y68.8 E1.57869
G1 X162.908 Y72.067 E.16213
G1 X163.239 Y75.374 E.16216
G1 X163.292 Y78.697 E.16215
G1 X163.065 Y82.013 E.16217
G1 X146.811 Y189.975 E5.32686
G1 X146.669 Y190.616 E.03203
G1 X146.387 Y191.321 E.03705
G1 X145.746 Y192.26 E.05547
G1 X144.883 Y193.001 E.0555
G1 X143.858 Y193.494 E.05549
G1 X142.741 Y193.704 E.05545
G1 X107.069 Y193.69 E1.74045
G1 X106.423 Y193.576 E.03201
G1 X105.706 Y193.324 E.03708
G1 X105.117 Y193.001 E.03277
G1 X104.52 Y192.532 E.03704
G1 X104.014 Y191.966 E.03704
G1 X103.661 Y191.412 E.03205
G1 X103.39 Y190.797 E.03279
G1 X103.206 Y190.081 E.03607
G1 X87.152 Y83.66 E5.25106
G1 X86.794 Y80.456 E.1573
G1 X86.708 Y78.697 E.08592
G1 X86.755 Y75.473 E.15732
G1 X86.892 Y73.717 E.08594
G1 X87.361 Y70.427 E.16214
G1 X88.078 Y67.283 E.15734
G1 X96.074 Y37.546 E1.50241
G1 X96.899 Y35.249 E.11908
M204 S1000
; printing object marker - teammarker_forearm.stl id:0 copy 0
G1 X96.899 Y35.249 F10800
G1 X107.144 Y190.152
M204 S800
;TYPE:Perimeter
;WIDTH:0.42
G1 F1200
G1 X106.855 Y189.947 E.01729
G1 X106.691 Y189.691 E.01483
G1 X106.623 Y189.374 E.01582
G1 X106.623 Y188.808 E.02762
G1 X106.674 Y188.35 E.02248
G1 X106.811 Y187.976 E.01943
G1 X107.219 Y187.11 E.04671
G1 X107.445 Y186.504 E.03156
G1 X107.587 Y185.844 E.03294
G1 X107.616 Y185.207 E.03111
G1 X107.545 Y184.604 E.02962
G1 X107.417 Y184.119 E.02447
G1 X107.208 Y183.575 E.02843
G1 X106.735 Y182.558 E.05472
G1 X106.623 Y181.997 E.02791
G1 X106.621 Y131.351 E2.47103
G1 X106.52 Y128.767 E.12617
G1 X106.331 Y126.403 E.11571
G1 X105.998 Y123.584 E.1385
G1 X105.581 Y121.03 E.12626
G1 X105.061 Y118.496 E.12621
G1 X104.448 Y116.02 E.12445
G1 X103.714 Y113.501 E.12801
G1 X102.902 Y111.083 E.12445
G1 X101.98 Y108.665 E.12626
G1 X100.945 Y106.255 E.12797
G1 X99.845 Y103.953 E.12448
G1 X98.635 Y101.666 E.12624
G1 X97.315 Y99.399 E.12799
G1 X95.95 Y97.26 E.1238
G1 X95.147 Y95.957 E.07468
G1 X94.407 Y94.634 E.07396
G1 X93.723 Y93.281 E.07397
G1 X93.096 Y91.9 E.074
G1 X92.528 Y90.494 E.07399
G1 X92.019 Y89.066 E.07397
G1 X91.571 Y87.618 E.07395
G1 X91.184 Y86.152 E.07398
G1 X90.858 Y84.671 E.07399
G1 X90.617 Y83.301 E.06787
G1 X90.395 Y81.674 E.08012
G1 X90.259 Y80.165 E.07392
G1 X90.185 Y78.651 E.07396
G1 X90.175 Y77.135 E.07397
G1 X90.229 Y75.62 E.07396
G1 X90.347 Y74.108 E.074
G1 X90.527 Y72.603 E.07395
G1 X90.771 Y71.106 E.074
G1 X91.077 Y69.622 E.07393
G1 X91.449 Y68.137 E.07469
G1 X99.08 Y39.658 E1.43851
G1 X99.405 Y38.54 E.05681
G1 X99.774 Y37.45 E.05615
G1 X100.189 Y36.376 E.05618
G1 X100.651 Y35.321 E.05619
G1 X101.156 Y34.286 E.05619
G1 X101.706 Y33.275 E.05615
G1 X102.299 Y32.288 E.05618
G1 X102.934 Y31.327 E.0562
G1 X103.609 Y30.394 E.05619
G1 X104.265 Y29.565 E.05158
G1 X105.077 Y28.619 E.06083
G1 X105.866 Y27.781 E.05616
G1 X106.69 Y26.978 E.05614
G1 X107.548 Y26.21 E.05618
G1 X108.439 Y25.48 E.0562
G1 X109.36 Y24.789 E.05618
G1 X110.31 Y24.138 E.05619
G1 X111.286 Y23.529 E.05613
G1 X112.289 Y22.962 E.05621
G1 X113.314 Y22.438 E.05617
G1 X114.361 Y21.959 E.05618
G1 X115.34 Y21.56 E.05158
G1 X116.513 Y21.137 E.06084
G1 X117.612 Y20.797 E.05613
G1 X118.725 Y20.503 E.05617
G1 X119.85 Y20.258 E.05618
G1 X120.985 Y20.062 E.0562
G1 X122.127 Y19.914 E.05618
G1 X123.274 Y19.815 E.05617
G1 X124.424 Y19.766 E.05616
G1 X125.576 Y19.766 E.05621
G1 X126.726 Y19.815 E.05616
G1 X127.873 Y19.914 E.05617
G1 X129.015 Y20.062 E.05618
G1 X130.15 Y20.258 E.0562
G1 X131.275 Y20.503 E.05618
G1 X132.388 Y20.797 E.05617
G1 X133.488 Y21.137 E.05617
G1 X134.572 Y21.525 E.05617
G1 X135.639 Y21.959 E.0562
G1 X136.686 Y22.438 E.05618
G1 X137.711 Y22.962 E.05617
G1 X138.714 Y23.529 E.05621
G1 X139.69 Y24.138 E.05613
G1 X140.64 Y24.789 E.05619
G1 X141.561 Y25.48 E.05618
G1 X142.452 Y26.21 E.0562
G1 X143.31 Y26.978 E.05618
G1 X144.134 Y27.781 E.05614
G1 X144.924 Y28.62 E.05623
G1 X145.677 Y29.491 E.05618
G1 X146.391 Y30.394 E.05617
G1 X147.066 Y31.327 E.05619
G1 X147.701 Y32.288 E.0562
G1 X148.294 Y33.275 E.05618
G1 X148.844 Y34.286 E.05615
G1 X149.349 Y35.321 E.05619
G1 X149.811 Y36.376 E.05619
G1 X150.226 Y37.45 E.05618
G1 X150.595 Y38.54 E.05615
G1 X150.92 Y39.658 E.05681
G1 X158.551 Y68.137 E1.43851
G1 X158.923 Y69.622 E.07469
M73 P0 R115
G1 X159.229 Y71.106 E.07393
G1 X159.473 Y72.603 E.074
G1 X159.653 Y74.108 E.07395
G1 X159.771 Y75.62 E.074
G1 X159.825 Y77.135 E.07396
G1 X159.82 Y77.866 E.03567
G1 X159.815 Y78.651 E.0383
G1 X159.742 Y80.165 E.07395
G1 X159.605 Y81.675 E.07398
G1 X159.405 Y83.178 E.07398
G1 X159.142 Y84.671 E.07397
G1 X158.816 Y86.152 E.07399
G1 X158.429 Y87.618 E.07398
G1 X157.981 Y89.066 E.07395
G1 X157.472 Y90.494 E.07397
G1 X156.904 Y91.9 E.07399
G1 X156.277 Y93.281 E.074
G1 X155.593 Y94.634 E.07397
G1 X154.853 Y95.957 E.07396
G1 X154.05 Y97.26 E.07468
G1 X152.685 Y99.399 E.1238
G1 X151.365 Y101.666 E.12799
G1 X150.155 Y103.953 E.12624
G1 X149.055 Y106.255 E.12448
G1 X148.02 Y108.665 E.12797
G1 X147.11 Y111.049 E.1245
G1 X146.286 Y113.501 E.12621
G1 X145.561 Y115.985 E.12625
G1 X144.931 Y118.531 E.12797
G1 X144.419 Y121.03 E.12446
G1 X144.002 Y123.584 E.12626
G1 X143.669 Y126.403 E.1385
G1 X143.48 Y128.767 E.11571
M73 Q0 S115
G1 X143.379 Y131.351 E.12617
G1 X143.377 Y181.882 E2.46542
G1 X143.343 Y182.292 E.02007
G1 X143.194 Y182.709 E.02161
G1 X142.768 Y183.633 E.04964
G1 X142.551 Y184.22 E.03053
G1 X142.433 Y184.727 E.0254
G1 X142.381 Y185.355 E.03075
G1 X142.435 Y185.991 E.03114
G1 X142.592 Y186.622 E.03173
G1 X142.807 Y187.168 E.02863
G1 X143.169 Y187.933 E.04129
G1 X143.348 Y188.474 E.0278
G1 X143.35 Y189.553 E.05264
G1 X143.155 Y189.918 E.02019
G1 X142.91 Y190.123 E.01559
G1 X142.528 Y190.233 E.0194
G1 X107.649 Y190.234 E1.70175
G1 X107.203 Y190.161 E.02205
M204 S1000
G1 X107.203 Y190.161 F10800
G1 X106.931 Y190.449
M204 S800
G1 F1200
G1 X106.592 Y190.188 E.02087
G1 X106.362 Y189.827 E.02088
G1 X106.267 Y189.397 E.02149
G1 X106.268 Y188.808 E.02874
G1 X106.326 Y188.269 E.02645
G1 X106.49 Y187.824 E.02314
G1 X106.887 Y186.981 E.04546
G1 X107.098 Y186.422 E.02915
G1 X107.219 Y185.909 E.02572
G1 X107.264 Y185.332 E.02824
G1 X107.213 Y184.764 E.02782
G1 X107.085 Y184.245 E.02608
G1 X106.885 Y183.725 E.02718
G1 X106.357 Y182.532 E.06365
G1 X106.267 Y182.017 E.02551
G1 X106.266 Y131.351 E2.47201
G1 X106.165 Y128.781 E.12549
G1 X105.977 Y126.432 E.11497
G1 X105.647 Y123.641 E.13712
G1 X105.233 Y121.102 E.12551
G1 X104.721 Y118.603 E.12446
G1 X104.103 Y116.105 E.12555
G1 X103.377 Y113.614 E.12659
G1 X102.565 Y111.196 E.12445
G1 X101.648 Y108.792 E.12554
G1 X100.624 Y106.408 E.12659
G1 X99.514 Y104.087 E.12553
G1 X98.321 Y101.832 E.12447
G1 X97.015 Y99.59 E.12659
G1 X95.649 Y97.449 E.12391
G1 X94.841 Y96.137 E.07518
G1 X94.093 Y94.801 E.0747
G1 X93.402 Y93.434 E.07473
G1 X92.769 Y92.04 E.0747
G1 X92.196 Y90.621 E.07466
G1 X91.682 Y89.179 E.07469
G1 X91.229 Y87.716 E.07472
G1 X90.838 Y86.236 E.07469
G1 X90.509 Y84.74 E.07473
G1 X90.266 Y83.356 E.06856
G1 X90.042 Y81.714 E.08086
G1 X89.904 Y80.19 E.07466
G1 X89.83 Y78.661 E.07469
G1 X89.82 Y77.13 E.0747
G1 X89.874 Y75.6 E.0747
G1 X89.993 Y74.073 E.07473
G1 X90.175 Y72.553 E.07469
G1 X90.421 Y71.042 E.07469
G1 X90.73 Y69.542 E.07472
G1 X91.105 Y68.048 E.07515
G1 X98.737 Y39.562 E1.43886
G1 X99.066 Y38.434 E.05733
G1 X99.44 Y37.328 E.05696
G1 X99.861 Y36.24 E.05692
G1 X100.328 Y35.171 E.05692
G1 X100.84 Y34.123 E.05691
G1 X101.398 Y33.098 E.05694
G1 X101.998 Y32.098 E.0569
G1 X102.641 Y31.124 E.05694
G1 X103.325 Y30.179 E.05692
G1 X103.991 Y29.339 E.0523
G1 X104.813 Y28.381 E.06159
G1 X105.612 Y27.532 E.05688
G1 X106.447 Y26.718 E.05689
G1 X107.317 Y25.94 E.05694
G1 X108.219 Y25.2 E.05692
G1 X109.153 Y24.5 E.05695
G1 X110.115 Y23.841 E.05689
G1 X111.105 Y23.223 E.05694
G1 X112.12 Y22.648 E.05692
G1 X113.159 Y22.118 E.05691
G1 X114.22 Y21.632 E.05694
G1 X115.213 Y21.228 E.0523
G1 X116.4 Y20.8 E.06156
G1 X117.514 Y20.455 E.0569
G1 X118.642 Y20.158 E.05691
G1 X119.782 Y19.909 E.05693
G1 X120.932 Y19.71 E.05694
G1 X122.089 Y19.56 E.05692
G1 X123.251 Y19.46 E.0569
G1 X124.417 Y19.41 E.05694
G1 X125.583 Y19.41 E.05689
G1 X126.749 Y19.46 E.05694
G1 X127.911 Y19.56 E.0569
G1 X129.068 Y19.71 E.05692
G1 X130.218 Y19.909 E.05694
G1 X131.358 Y20.158 E.05693
G1 X132.486 Y20.455 E.05691
G1 X133.601 Y20.8 E.05695
G1 X134.699 Y21.193 E.0569
G1 X135.78 Y21.632 E.05693
G1 X136.841 Y22.118 E.05694
G1 X137.88 Y22.648 E.05691
G1 X138.895 Y23.223 E.05692
G1 X139.885 Y23.841 E.05694
G1 X140.847 Y24.5 E.05689
G1 X141.781 Y25.2 E.05695
G1 X142.683 Y25.94 E.05692
G1 X143.553 Y26.718 E.05694
G1 X144.388 Y27.532 E.05689
G1 X145.188 Y28.382 E.05695
G1 X145.951 Y29.264 E.0569
G1 X146.675 Y30.179 E.05693
G1 X147.359 Y31.124 E.05692
G1 X148.002 Y32.098 E.05694
G1 X148.602 Y33.098 E.0569
G1 X149.16 Y34.123 E.05694
G1 X149.672 Y35.171 E.05691
G1 X150.139 Y36.24 E.05692
G1 X150.56 Y37.328 E.05692
G1 X150.934 Y38.434 E.05696
G1 X151.263 Y39.562 E.05733
G1 X158.895 Y68.048 E1.43886
G1 X159.27 Y69.542 E.07515
G1 X159.579 Y71.042 E.07472
G1 X159.825 Y72.553 E.07469
G1 X160.007 Y74.073 E.07469
G1 X160.126 Y75.6 E.07473
G1 X160.18 Y77.13 E.0747
G1 X160.176 Y77.868 E.03601
G1 X160.17 Y78.661 E.03869
G1 X160.096 Y80.19 E.07469
G1 X159.958 Y81.715 E.07471
G1 X159.756 Y83.232 E.07467
G1 X159.491 Y84.74 E.0747
G1 X159.162 Y86.236 E.07473
G1 X158.771 Y87.716 E.07469
G1 X158.318 Y89.179 E.07472
G1 X157.804 Y90.621 E.07469
G1 X157.231 Y92.04 E.07466
G1 X156.598 Y93.434 E.0747
G1 X155.907 Y94.801 E.07473
G1 X155.159 Y96.137 E.0747
G1 X154.351 Y97.449 E.07518
G1 X152.985 Y99.59 E.12391
G1 X151.679 Y101.832 E.12659
G1 X150.486 Y104.087 E.12447
G1 X149.376 Y106.408 E.12553
G1 X148.352 Y108.792 E.12659
G1 X147.442 Y111.175 E.12446
G1 X146.623 Y113.614 E.12553
G1 X145.903 Y116.084 E.12553
G1 X145.279 Y118.603 E.12662
G1 X144.767 Y121.102 E.12446
G1 X144.353 Y123.641 E.12551
G1 X144.024 Y126.426 E.13683
G1 X143.837 Y128.759 E.11419
G1 X143.734 Y131.351 E.12656
G1 X143.733 Y181.882 E2.46542
G1 X143.692 Y182.363 E.02355
G1 X143.517 Y182.859 E.02566
G1 X143.1 Y183.759 E.0484
G1 X142.915 Y184.245 E.02537
G1 X142.787 Y184.764 E.02608
G1 X142.736 Y185.332 E.02782
G1 X142.781 Y185.909 E.02824
G1 X142.924 Y186.493 E.02934
G1 X143.128 Y187.016 E.02739
G1 X143.556 Y187.919 E.04876
G1 X143.703 Y188.418 E.02538
G1 X143.711 Y189.554 E.05543
G1 X143.533 Y190.021 E.02438
G1 X143.331 Y190.262 E.01534
M73 Q1 S115
G1 X143.073 Y190.443 E.01538
G1 X142.548 Y190.588 E.02657
G1 X107.649 Y190.59 E1.70273
G1 X107.296 Y190.552 E.01732
M73 P1 R115
G1 X106.989 Y190.465 E.01557
M204 S1000
G1 X106.989 Y190.465 F10800
G1 X106.766 Y190.765
M204 S800
;TYPE:External perimeter
G1 F1200
G1 X106.328 Y190.429 E.02693
G1 X106.032 Y189.964 E.02689
G1 X105.912 Y189.42 E.02718
G1 X105.912 Y188.808 E.02986
G1 X105.979 Y188.187 E.03047
G1 X106.168 Y187.671 E.02681
G1 X106.556 Y186.852 E.04422
G1 X106.752 Y186.341 E.0267
G1 X106.873 Y185.828 E.02572
G1 X106.909 Y185.309 E.02538
G1 X106.859 Y184.8 E.02495
G1 X106.753 Y184.372 E.02151
G1 X106.563 Y183.875 E.02596
G1 X106.016 Y182.632 E.06626
G1 X105.912 Y182.038 E.02942
G1 X105.91 Y131.351 E2.47303
G1 X105.809 Y128.795 E.12481
G1 X105.622 Y126.46 E.11429
G1 X105.296 Y123.698 E.13569
G1 X104.884 Y121.173 E.12482
G1 X104.371 Y118.667 E.1248
G1 X103.758 Y116.191 E.12445
G1 X103.04 Y113.727 E.12522
G1 X102.228 Y111.309 E.12445
G1 X101.313 Y108.912 E.12518
G1 X100.304 Y106.561 E.12482
G1 X99.203 Y104.26 E.12446
G1 X98.007 Y101.999 E.1248
G1 X96.715 Y99.782 E.1252
G1 X95.347 Y97.638 E.12409
G1 X94.534 Y96.317 E.07568
G1 X93.779 Y94.968 E.07543
G1 X93.082 Y93.588 E.07543
G1 X92.443 Y92.18 E.07544
G1 X91.863 Y90.747 E.07543
G1 X91.344 Y89.291 E.07542
G1 X90.887 Y87.814 E.07543
G1 X90.492 Y86.319 E.07544
G1 X90.161 Y84.809 E.07542
G1 X89.914 Y83.411 E.06927
G1 X89.688 Y81.754 E.08159
G1 X89.549 Y80.215 E.07539
G1 X89.474 Y78.671 E.07542
G1 X89.464 Y77.125 E.07543
G1 X89.519 Y75.58 E.07543
G1 X89.639 Y74.038 E.07546
G1 X89.823 Y72.503 E.07543
G1 X90.071 Y70.977 E.07543
G1 X90.384 Y69.463 E.07543
G1 X90.76 Y67.958 E.07569
G1 X98.395 Y39.466 E1.43918
G1 X98.726 Y38.327 E.05787
G1 X99.105 Y37.207 E.05769
G1 X99.532 Y36.105 E.05766
G1 X100.005 Y35.022 E.05766
G1 X100.524 Y33.96 E.05767
G1 X101.089 Y32.922 E.05766
G1 X101.697 Y31.908 E.05769
G1 X102.349 Y30.922 E.05767
G1 X103.042 Y29.965 E.05765
G1 X103.716 Y29.113 E.053
G1 X104.548 Y28.143 E.06235
G1 X105.358 Y27.283 E.05764
G1 X106.205 Y26.458 E.05769
G1 X107.086 Y25.67 E.05767
G1 X108 Y24.921 E.05766
G1 X108.945 Y24.211 E.05767
G1 X109.92 Y23.543 E.05766
G1 X110.923 Y22.917 E.05769
G1 X111.952 Y22.335 E.05768
G1 X113.004 Y21.798 E.05763
G1 X114.079 Y21.306 E.05768
G1 X115.086 Y20.896 E.05305
G1 X116.287 Y20.462 E.06231
G1 X117.416 Y20.113 E.05766
G1 X118.559 Y19.812 E.05767
G1 X119.714 Y19.56 E.05768
G1 X120.878 Y19.358 E.05764
G1 X122.051 Y19.206 E.05771
G1 X123.228 Y19.105 E.05764
G1 X124.409 Y19.054 E.05767
G1 X125.591 Y19.054 E.05767
G1 X126.772 Y19.105 E.05767
G1 X127.95 Y19.206 E.05769
G1 X129.122 Y19.358 E.05766
G1 X130.286 Y19.56 E.05764
G1 X131.441 Y19.812 E.05768
G1 X132.584 Y20.113 E.05767
G1 X133.713 Y20.463 E.05767
G1 X134.826 Y20.86 E.05765
G1 X135.921 Y21.306 E.05769
G1 X136.996 Y21.798 E.05768
G1 X138.048 Y22.335 E.05763
G1 X139.077 Y22.917 E.05768
G1 X140.08 Y23.543 E.05769
G1 X141.055 Y24.211 E.05766
G1 X142 Y24.921 E.05767
G1 X142.914 Y25.67 E.05766
G1 X143.795 Y26.458 E.05767
