; generated by PrusaSlicer 2.7.4 on 2024-05-15 at 10:22:17 UTC


;
;
; 

; external perimeters extrusion width = 0.45mm
; perimeters extrusion width = 0.45mm
; infill extrusion width = 0.45mm
; solid infill extrusion width = 0.45mm
; top infill extrusion width = 0.40mm
; first layer extrusion width = 0.42mm

M73 P0 R169
M73 Q0 S169
M201 X1000 Y1000 Z200 E5000 ; sets maximum accelerations, mm/sec^2
M203 X200 Y200 Z12 E120 ; sets maximum feedrates, mm / sec
M204 S1250 T1250 ; sets acceleration (S) and retract acceleration (R), mm/sec^2
M205 X8.00 Y8.00 Z0.40 E4.50 ; sets the jerk limits, mm/sec
M205 S0 T0 ; sets the minimum extruding and travel feed rate, mm/sec

; printing object marker - teammarker_forearm.stl id:0 copy 0
; stop printing object marker - teammarker_forearm.stl id:0 copy 0

;TYPE:Custom
M862.3 P "MK3S" ; printer model check
M862.1 P0.4 ; nozzle diameter check
M115 U3.13.3 ; tell printer latest fw version
G90 ; use absolute coordinates
M83 ; extruder relative mode
M104 S225 ; set extruder temp
M140 S50 ; set bed temp
M190 S50 ; wait for bed temp
M109 S225 ; wait for extruder temp
G28 W ; home all without mesh bed level
G80 X85.186 Y15.5073 W79.628 H178.985 ; mesh bed levelling

G1 Z0.2 F720
G1 Y-3 F1000 ; go outside print area
G92 E0
G1 X60 E9 F1000 ; intro line
G1 X100 E12.5 F1000 ; intro line

G92 E0
M221 S95

; Don't change E values below. Excessive value can damage the printer.
M907 E430 ; set extruder motor current
G21 ; set units to millimeters
G90 ; use absolute coordinates
M83 ; use relative distances for extrusion
M900 K0 ; Filament gcode
M107
;LAYER_CHANGE
;Z:0.2
;HEIGHT:0.2
G1 E-1 F2100
G1 Z.2 F720
G1 X101.415 Y19.468 F10800
G1 Z.2 F720
G1 E1 F1200
M204 S800
;TYPE:Skirt/Brim
;WIDTH:0.42
G1 X101.559 Y18.811 E.0232
G1 X101.842 Y18.103 E.0263
G1 X102.481 Y17.163 E.0392
G1 X103.355 Y16.41 E.03979
G1 X104.385 Y15.915 E.03941
G1 X105.507 Y15.703 E.03938
G1 X141.302 Y15.696 E1.23456
G1 X142.061 Y15.772 E.02631
G1 X142.784 Y15.974 E.02589
G1 X143.389 Y16.255 E.02301
G1 X144.024 Y16.687 E.02649
G1 X144.569 Y17.22 E.02629
G1 X145.014 Y17.84 E.02632
G1 X145.345 Y18.527 E.0263
G1 X145.551 Y19.262 E.02633
G1 X164.234 Y126.623 E3.7585
G1 X164.449 Y128.441 E.06314
M73 P0 R168
G1 X164.625 Y131.785 E.11549
G1 X164.601 Y133.615 E.06312
G1 X164.338 Y136.953 E.11548
G1 X164.076 Y138.765 E.06315
G1 X163.369 Y142.091 E.11728
G1 X155.715 Y171.601 E1.05147
G1 X154.788 Y174.218 E.09575
G1 X153.638 Y176.744 E.09572
G1 X152.274 Y179.162 E.09575
M73 Q0 S168
G1 X150.706 Y181.453 E.09575
G1 X149.015 Y183.523 E.09219
G1 X147.999 Y184.615 E.05144
G1 X146.055 Y186.449 E.09218
G1 X144.906 Y187.4 E.05144
G1 X142.741 Y188.968 E.0922
G1 X141.479 Y189.762 E.05142
G1 X139.129 Y191.037 E.09221
G1 X137.775 Y191.661 E.05142
G1 X135.28 Y192.621 E.0922
G1 X133.857 Y193.065 E.05141
G1 X131.259 Y193.695 E.0922
G1 X129.79 Y193.951 E.05143
G1 X127.132 Y194.24 E.09221
G1 X125.643 Y194.304 E.0514
G1 X122.97 Y194.246 E.09221
G1 X121.485 Y194.118 E.05141
G1 X120.108 Y193.936 E.04791
G1 X117.485 Y193.419 E.09221
G1 X116.044 Y193.037 E.05142
G1 X113.51 Y192.186 E.09219
G1 X112.13 Y191.62 E.05144
G1 X109.791 Y190.481 E.08973
G1 X107.259 Y188.968 E.10173
G1 X106.118 Y188.176 E.0479
G1 X104.023 Y186.516 E.09219
G1 X102.916 Y185.517 E.05143
G1 X101.053 Y183.6 E.0922
G1 X99.232 Y181.371 E.09927
G1 X97.726 Y179.162 E.09221
G1 X96.968 Y177.878 E.05143
G1 X96.316 Y176.652 E.04789
G1 X95.212 Y174.218 E.09218
G1 X94.255 Y171.503 E.09929
G1 X86.248 Y140.461 E1.10567
G1 X85.687 Y137.147 E.11593
G1 X85.491 Y135.237 E.06622
G1 X85.375 Y131.788 E.11902
G1 X85.56 Y128.341 E.11906
G1 X101.406 Y19.528 E3.79252
M204 S1000
G1 E-1 F2100
G1 X101.406 Y19.528 F10800
; printing object marker - teammarker_forearm.stl id:0 copy 0
G1 X105.473 Y19.303
G1 E1 F1200
M204 S800
;TYPE:Perimeter
;WIDTH:0.419999
G1 X105.724 Y19.239 E.00893
G1 X141.208 Y19.239 E1.22383
G1 X141.568 Y19.304 E.01262
G1 X141.845 Y19.493 E.01157
G1 X142.022 Y19.764 E.01116
G1 X142.084 Y20.057 E.01033
G1 X142.084 Y20.62 E.01942
G1 X142.034 Y21.069 E.01558
G1 X141.9 Y21.434 E.01341
G1 X141.491 Y22.304 E.03316
G1 X141.264 Y22.916 E.02251
G1 X141.12 Y23.583 E.02353
G1 X141.091 Y24.227 E.02223
G1 X141.164 Y24.836 E.02115
G1 X141.293 Y25.326 E.01748
G1 X141.503 Y25.872 E.02018
G1 X141.975 Y26.886 E.03858
G1 X142.084 Y27.434 E.01927
G1 X142.086 Y80.611 E1.83406
G1 X142.124 Y82.431 E.06278
G1 X142.237 Y84.23 E.06217
G1 X142.425 Y86.023 E.06218
G1 X142.687 Y87.806 E.06216
G1 X143.022 Y89.577 E.06216
G1 X143.431 Y91.333 E.06218
G1 X143.913 Y93.07 E.06217
G1 X144.453 Y94.749 E.06083
G1 X145.09 Y96.477 E.06352
G1 X145.784 Y98.141 E.06218
G1 X146.546 Y99.775 E.06218
G1 X147.374 Y101.373 E.06207
G1 X148.25 Y102.906 E.0609
G1 X149.229 Y104.466 E.06352
G1 X150.251 Y105.951 E.06217
G1 X151.333 Y107.393 E.06218
G1 X153.455 Y109.992 E.11572
G1 X154.395 Y111.253 E.05425
G1 X155.279 Y112.553 E.05422
G1 X156.105 Y113.89 E.0542
G1 X156.872 Y115.263 E.05424
G1 X157.579 Y116.667 E.05422
G1 X158.224 Y118.101 E.05423
G1 X158.806 Y119.562 E.05424
G1 X159.324 Y121.046 E.05421
G1 X159.776 Y122.552 E.05423
G1 X160.163 Y124.076 E.05423
G1 X160.483 Y125.615 E.05421
G1 X160.735 Y127.167 E.05423
G1 X160.91 Y128.644 E.0513
G1 X161.036 Y130.297 E.05718
G1 X161.084 Y131.868 E.05421
G1 X161.074 Y132.634 E.02642
G1 X161.064 Y133.44 E.0278
G1 X160.98 Y134.925 E.0513
G1 X160.817 Y136.575 E.05718
G1 X160.592 Y138.13 E.05419
G1 X160.3 Y139.675 E.05423
G1 X159.937 Y141.218 E.05467
G1 X152.681 Y169.318 E1.00095
G1 X152.343 Y170.519 E.04303
G1 X151.958 Y171.693 E.04261
G1 X151.522 Y172.849 E.04261
G1 X151.036 Y173.985 E.04262
G1 X150.502 Y175.099 E.04261
G1 X149.92 Y176.188 E.04259
G1 X149.292 Y177.252 E.04261
G1 X148.618 Y178.287 E.0426
G1 X147.9 Y179.293 E.04263
G1 X147.14 Y180.266 E.04258
G1 X146.338 Y181.206 E.04262
G1 X145.496 Y182.11 E.04261
G1 X144.616 Y182.977 E.04261
G1 X143.7 Y183.805 E.04259
G1 X142.748 Y184.592 E.0426
G1 X141.763 Y185.338 E.04262
G1 X140.747 Y186.041 E.04261
G1 X139.702 Y186.699 E.04259
G1 X138.629 Y187.311 E.0426
G1 X137.531 Y187.877 E.04261
G1 X136.409 Y188.394 E.04261
G1 X135.266 Y188.862 E.0426
G1 X134.104 Y189.281 E.0426
G1 X132.925 Y189.649 E.0426
G1 X131.731 Y189.966 E.04261
G1 X130.524 Y190.231 E.04262
G1 X129.307 Y190.443 E.04261
G1 X128.082 Y190.603 E.04261
G1 X126.852 Y190.709 E.04258
G1 X125.618 Y190.763 E.0426
G1 X124.382 Y190.763 E.04263
G1 X123.148 Y190.709 E.0426
G1 X121.918 Y190.603 E.04258
G1 X120.693 Y190.443 E.04261
G1 X119.476 Y190.231 E.04261
G1 X118.334 Y189.98 E.04033
G1 X117.074 Y189.649 E.04493
G1 X115.896 Y189.281 E.04257
G1 X114.734 Y188.862 E.0426
G1 X113.652 Y188.419 E.04032
G1 X112.468 Y187.876 E.04493
G1 X111.371 Y187.311 E.04256
G1 X110.298 Y186.699 E.0426
G1 X109.253 Y186.041 E.04259
G1 X108.237 Y185.338 E.04261
G1 X107.252 Y184.592 E.04262
G1 X106.3 Y183.805 E.0426
G1 X105.384 Y182.977 E.04259
G1 X104.504 Y182.11 E.04261
G1 X103.662 Y181.206 E.04261
G1 X102.86 Y180.266 E.04262
G1 X102.1 Y179.293 E.04258
G1 X101.382 Y178.287 E.04263
G1 X100.708 Y177.252 E.0426
G1 X100.08 Y176.188 E.04261
G1 X99.498 Y175.099 E.04259
G1 X98.964 Y173.985 E.04261
G1 X98.478 Y172.849 E.04262
G1 X98.042 Y171.693 E.04261
G1 X97.657 Y170.52 E.04258
G1 X97.319 Y169.318 E.04306
G1 X90.063 Y141.218 E1.00095
G1 X89.701 Y139.675 E.05466
G1 X89.408 Y138.131 E.0542
G1 X89.195 Y136.659 E.0513
G1 X89.025 Y135.01 E.05717
G1 X88.936 Y133.442 E.05417
G1 X88.916 Y131.87 E.05422
G1 X88.964 Y130.299 E.05421
G1 X89.08 Y128.732 E.05419
G1 X89.264 Y127.171 E.05421
G1 X89.517 Y125.619 E.05423
G1 X89.836 Y124.08 E.05421
G1 X90.222 Y122.557 E.05419
G1 X90.675 Y121.051 E.05424
G1 X91.192 Y119.567 E.0542
G1 X91.773 Y118.107 E.0542
G1 X92.418 Y116.673 E.05423
G1 X93.124 Y115.269 E.0542
G1 X93.891 Y113.897 E.05421
G1 X96.098 Y110.329 E.1447
G1 X97.376 Y108.06 E.08982
G1 X98.56 Y105.74 E.08983
G1 X99.647 Y103.376 E.08974
G1 X100.638 Y100.965 E.0899
G1 X101.312 Y99.114 E.06794
G1 X101.528 Y98.518 E.02186
G1 X102.317 Y96.036 E.08982
G1 X103.003 Y93.523 E.08984
G1 X103.303 Y92.216 E.04625
G1 X103.586 Y90.985 E.04356
G1 X104.063 Y88.425 E.08981
G1 X104.435 Y85.855 E.08956
G1 X104.702 Y83.257 E.09008
G1 X104.861 Y80.657 E.08984
G1 X104.914 Y78.095 E.08838
G1 X104.916 Y27.547 E1.74338
G1 X104.95 Y27.145 E.01391
G1 X105.095 Y26.737 E.01493
G1 X105.522 Y25.811 E.03517
G1 X105.741 Y25.218 E.0218
G1 X105.859 Y24.705 E.01816
G1 X105.912 Y24.07 E.02198
G1 X105.857 Y23.427 E.02226
G1 X105.698 Y22.791 E.02261
G1 X105.482 Y22.241 E.02038
G1 X105.12 Y21.478 E.02913
G1 X104.945 Y20.948 E.01925
G1 X104.941 Y19.888 E.03656
G1 X105.121 Y19.546 E.01333
G1 X105.41 Y19.32 E.01265
G1 X105.415 Y19.318 E.00019
M204 S1000
G1 X105.415 Y19.318 F10800
G1 X105.377 Y18.943
M204 S800
G1 F1200
G1 X105.704 Y18.862 E.01162
G1 X141.29 Y18.862 E1.22735
G1 X141.713 Y18.954 E.01493
G1 X142.11 Y19.222 E.01652
G1 X142.37 Y19.615 E.01625
G1 X142.461 Y20.033 E.01475
G1 X142.461 Y20.62 E.02025
G1 X142.403 Y21.155 E.01856
G1 X142.241 Y21.596 E.0162
G1 X141.843 Y22.44 E.03218
G1 X141.631 Y23.002 E.02072
G1 X141.51 Y23.514 E.01815
G1 X141.465 Y24.094 E.02006
G1 X141.516 Y24.666 E.01981
G1 X141.645 Y25.192 E.01868
G1 X141.845 Y25.713 E.01925
G1 X142.372 Y26.903 E.04489
G1 X142.461 Y27.412 E.01782
G1 X142.463 Y80.611 E1.83482
G1 X142.501 Y82.407 E.06196
G1 X142.612 Y84.191 E.06165
G1 X142.797 Y85.963 E.06145
G1 X143.056 Y87.73 E.06159
G1 X143.39 Y89.492 E.06185
G1 X143.795 Y91.232 E.06162
G1 X144.272 Y92.955 E.06166
G1 X144.812 Y94.633 E.0608
G1 X145.438 Y96.332 E.06245
G1 X146.125 Y97.982 E.06164
G1 X146.88 Y99.601 E.06161
G1 X147.701 Y101.187 E.0616
G1 X148.577 Y102.719 E.06087
G1 X149.54 Y104.253 E.06247
G1 X150.552 Y105.725 E.06161
G1 X151.625 Y107.154 E.06163
G1 X153.753 Y109.76 E.11604
G1 X154.702 Y111.034 E.05479
G1 X155.595 Y112.348 E.05479
G1 X156.43 Y113.699 E.05478
G1 X157.205 Y115.086 E.0548
G1 X157.92 Y116.505 E.0548
G1 X158.571 Y117.954 E.05479
G1 X159.159 Y119.43 E.0548
G1 X159.682 Y120.93 E.05479
G1 X160.14 Y122.451 E.05479
G1 X160.53 Y123.991 E.05479
G1 X160.854 Y125.547 E.05482
G1 X161.109 Y127.115 E.05479
G1 X161.285 Y128.608 E.05185
G1 X161.413 Y130.277 E.05773
G1 X161.461 Y131.865 E.05479
G1 X161.451 Y132.639 E.0267
G1 X161.441 Y133.453 E.02808
G1 X161.356 Y134.954 E.05185
G1 X161.192 Y136.621 E.05777
G1 X160.964 Y138.192 E.05475
G1 X160.668 Y139.753 E.0548
G1 X160.303 Y141.308 E.05509
G1 X153.045 Y169.416 E1.00123
G1 X152.704 Y170.629 E.04346
G1 X152.313 Y171.818 E.04317
G1 X151.872 Y172.99 E.04319
G1 X151.38 Y174.14 E.04314
G1 X150.838 Y175.269 E.04319
G1 X150.249 Y176.373 E.04316
G1 X149.612 Y177.451 E.04319
G1 X148.93 Y178.5 E.04315
G1 X148.203 Y179.518 E.04314
G1 X147.432 Y180.504 E.04317
G1 X146.62 Y181.457 E.04318
G1 X145.767 Y182.373 E.04317
G1 X144.875 Y183.251 E.04317
G1 X143.946 Y184.09 E.04317
G1 X142.982 Y184.888 E.04316
G1 X141.985 Y185.644 E.04315
G1 X140.955 Y186.356 E.04319
G1 X139.896 Y187.022 E.04315
G1 X138.809 Y187.643 E.04318
G1 X137.696 Y188.216 E.04318
G1 X136.56 Y188.74 E.04315
G1 X135.402 Y189.214 E.04316
G1 X134.224 Y189.639 E.04319
G1 X133.029 Y190.011 E.04317
G1 X131.82 Y190.332 E.04314
G1 X130.597 Y190.601 E.04319
G1 X129.364 Y190.816 E.04317
G1 X128.123 Y190.978 E.04316
G1 X126.876 Y191.086 E.04317
G1 X125.626 Y191.14 E.04315
G1 X124.374 Y191.14 E.04318
G1 X123.124 Y191.086 E.04315
G1 X121.877 Y190.978 E.04317
G1 X120.636 Y190.816 E.04316
G1 X119.403 Y190.601 E.04317
G1 X118.245 Y190.347 E.04089
G1 X116.97 Y190.011 E.04548
G1 X115.776 Y189.639 E.04313
G1 X114.598 Y189.214 E.04319
G1 X113.502 Y188.765 E.04085
G1 X112.303 Y188.215 E.0455
G1 X111.191 Y187.643 E.04313
G1 X110.104 Y187.022 E.04318
G1 X109.045 Y186.356 E.04315
G1 X108.015 Y185.644 E.04319
G1 X107.018 Y184.888 E.04315
G1 X106.054 Y184.09 E.04316
G1 X105.125 Y183.251 E.04317
G1 X104.233 Y182.373 E.04317
G1 X103.38 Y181.457 E.04317
G1 X102.568 Y180.504 E.04318
G1 X101.797 Y179.518 E.04317
G1 X101.07 Y178.5 E.04314
G1 X100.388 Y177.451 E.04315
G1 X99.751 Y176.373 E.04319
G1 X99.162 Y175.269 E.04316
G1 X98.62 Y174.14 E.04319
G1 X98.128 Y172.99 E.04314
G1 X97.687 Y171.818 E.04319
G1 X97.296 Y170.629 E.04317
G1 X96.955 Y169.416 E.04346
G1 X89.697 Y141.308 E1.00123
G1 X89.332 Y139.754 E.05506
G1 X89.036 Y138.193 E.0548
G1 X88.82 Y136.705 E.05186
G1 X88.649 Y135.04 E.05773
G1 X88.559 Y133.455 E.05475
G1 X88.539 Y131.867 E.05477
G1 X88.587 Y130.28 E.05476
G1 X88.705 Y128.696 E.05478
G1 X88.891 Y127.118 E.0548
G1 X89.146 Y125.551 E.05476
G1 X89.469 Y123.996 E.05478
G1 X89.859 Y122.456 E.05479
G1 X90.316 Y120.935 E.05478
G1 X90.839 Y119.435 E.05479
G1 X91.426 Y117.96 E.05475
G1 X92.078 Y116.511 E.0548
G1 X92.791 Y115.092 E.05477
G1 X93.566 Y113.706 E.05477
G1 X95.769 Y110.143 E.14448
G1 X97.04 Y107.888 E.08928
G1 X98.216 Y105.587 E.08912
G1 X99.299 Y103.232 E.0894
G1 X99.948 Y101.653 E.05888
G1 X100.284 Y100.836 E.03047
G1 X101.169 Y98.403 E.08929
G1 X101.953 Y95.936 E.08928
G1 X102.636 Y93.439 E.08928
G1 X102.936 Y92.132 E.04625
G1 X103.215 Y90.916 E.04303
G1 X103.689 Y88.377 E.08908
G1 X104.06 Y85.813 E.08935
G1 X104.325 Y83.234 E.08942
G1 X104.484 Y80.65 E.08929
G1 X104.537 Y78.087 E.08842
G1 X104.539 Y27.547 E1.74311
G1 X104.579 Y27.07 E.01651
G1 X104.753 Y26.579 E.01797
G1 X105.17 Y25.676 E.0343
G1 X105.355 Y25.192 E.01787
G1 X105.484 Y24.666 E.01868
G1 X105.535 Y24.094 E.01981
G1 X105.49 Y23.514 E.02006
G1 X105.346 Y22.927 E.02085
G1 X105.141 Y22.403 E.01941
G1 X104.715 Y21.502 E.03437
G1 X104.569 Y21.007 E.0178
M73 P0 R167
G1 X104.56 Y19.879 E.03891
G1 X104.735 Y19.419 E.01697
G1 X104.93 Y19.187 E.01045
G1 X105.246 Y18.976 E.01311
G1 X105.319 Y18.958 E.00259
M204 S1000
G1 X105.319 Y18.958 F10800
G1 X105.289 Y18.567
M204 S800
;TYPE:External perimeter
G1 F1200
G1 X105.301 Y18.564 E.00043
G1 X105.683 Y18.485 E.01345
G1 X141.208 Y18.485 E1.22525
G1 X141.594 Y18.521 E.01337
G1 X142.102 Y18.732 E.01897
G1 X142.463 Y19.055 E.01671
G1 X142.719 Y19.467 E.01673
G1 X142.838 Y20.008 E.0191
G1 X142.838 Y20.62 E.02111
G1 X142.771 Y21.242 E.02158
G1 X142.582 Y21.757 E.01892
G1 X142.194 Y22.577 E.03129
G1 X141.998 Y23.089 E.01891
G1 X141.877 Y23.6 E.01811
G1 X141.841 Y24.118 E.01791
G1 X141.891 Y24.627 E.01764
G1 X141.997 Y25.057 E.01527
G1 X142.187 Y25.554 E.01835
G1 X142.734 Y26.797 E.04684
G1 X142.838 Y27.39 E.02076
G1 X142.84 Y80.611 E1.83557
G1 X142.877 Y82.384 E.06116
G1 X142.987 Y84.152 E.0611
G1 X143.171 Y85.912 E.06103
G1 X143.427 Y87.664 E.06107
G1 X143.757 Y89.406 E.06115
G1 X144.158 Y91.132 E.06111
G1 X144.631 Y92.839 E.06109
G1 X145.171 Y94.518 E.06083
G1 X145.786 Y96.187 E.06135
G1 X146.467 Y97.822 E.06109
M73 Q0 S167
G1 X147.215 Y99.428 E.0611
G1 X148.029 Y101.001 E.06109
G1 X148.904 Y102.532 E.06082
G1 X149.85 Y104.039 E.06137
G1 X150.854 Y105.499 E.06111
G1 X151.917 Y106.916 E.0611
G1 X154.05 Y109.528 E.11631
G1 X155.009 Y110.815 E.05536
G1 X155.911 Y112.143 E.05537
G1 X156.755 Y113.508 E.05535
G1 X157.539 Y114.909 E.05537
G1 X158.26 Y116.343 E.05536
G1 X158.919 Y117.807 E.05537
G1 X159.513 Y119.298 E.05535
G1 X160.041 Y120.813 E.05533
G1 X160.503 Y122.351 E.05539
G1 X160.898 Y123.906 E.05533
G1 X161.224 Y125.478 E.05537
G1 X161.482 Y127.062 E.05535
G1 X161.661 Y128.571 E.05241
G1 X161.789 Y130.257 E.05832
G1 X161.839 Y131.861 E.05535
G1 X161.828 Y132.644 E.02701
G1 X161.818 Y133.466 E.02835
G1 X161.732 Y134.983 E.0524
G1 X161.566 Y136.666 E.05833
G1 X161.336 Y138.254 E.05534
G1 X161.037 Y139.831 E.05536
G1 X160.669 Y141.398 E.05552
G1 X153.409 Y169.515 E1.00155
G1 X153.065 Y170.739 E.04385
G1 X152.669 Y171.944 E.04375
G1 X152.222 Y173.13 E.04371
G1 X151.723 Y174.296 E.04374
G1 X151.175 Y175.439 E.04372
G1 X150.578 Y176.558 E.04374
G1 X149.933 Y177.649 E.04371
G1 X149.242 Y178.712 E.04373
G1 X148.505 Y179.744 E.04374
G1 X147.724 Y180.743 E.04373
G1 X146.901 Y181.708 E.04374
G1 X146.037 Y182.636 E.04373
G1 X145.134 Y183.525 E.0437
G1 X144.193 Y184.375 E.04374
G1 X143.217 Y185.184 E.04372
G1 X142.206 Y185.949 E.04373
G1 X141.163 Y186.67 E.04373
G1 X140.09 Y187.346 E.04374
G1 X138.989 Y187.974 E.04372
G1 X137.862 Y188.555 E.04373
