; generated by PrusaSlicer 2.7.4 on 2024-05-15 at 10:23:21 UTC


;
;
; 

; external perimeters extrusion width = 0.45mm
; perimeters extrusion width = 0.45mm
; infill extrusion width = 0.45mm
; solid infill extrusion width = 0.45mm
; top infill extrusion width = 0.40mm
; first layer extrusion width = 0.42mm

M73 P0 R169
M73 Q0 S169
M201 X1000 Y1000 Z200 E5000 ; sets maximum accelerations, mm/sec^2
M203 X200 Y200 Z12 E120 ; sets maximum feedrates, mm / sec
M204 S1250 T1250 ; sets acceleration (S) and retract acceleration (R), mm/sec^2
M205 X8.00 Y8.00 Z0.40 E4.50 ; sets the jerk limits, mm/sec
M205 S0 T0 ; sets the minimum extruding and travel feed rate, mm/sec

; printing object marker - teammarker_forearm.stl id:0 copy 0
; stop printing object marker - teammarker_forearm.stl id:0 copy 0

;TYPE:Custom
M862.3 P "MK3S" ; printer model check
M862.1 P0.4 ; nozzle diameter check
M115 U3.13.3 ; tell printer latest fw version
G90 ; use absolute coordinates
M83 ; extruder relative mode
M104 S225 ; set extruder temp
M140 S50 ; set bed temp
M190 S50 ; wait for bed temp
M109 S225 ; wait for extruder temp
G28 W ; home all without mesh bed level
G80 X85.186 Y15.5074 W79.628 H178.985 ; mesh bed levelling

G1 Z0.2 F720
G1 Y-3 F1000 ; go outside print area
G92 E0
G1 X60 E9 F1000 ; intro line
G1 X100 E12.5 F1000 ; intro line

G92 E0
M221 S95

; Don't change E values below. Excessive value can damage the printer.
M907 E430 ; set extruder motor current
G21 ; set units to millimeters
G90 ; use absolute coordinates
M83 ; use relative distances for extrusion
M900 K0 ; Filament gcode
M107
;LAYER_CHANGE
;Z:0.2
;HEIGHT:0.2
G1 E-1 F2100
G1 Z.2 F720
G1 X95.174 Y35.878 F10800
G1 Z.2 F720
G1 E1 F1200
M204 S800
;TYPE:Skirt/Brim
;WIDTH:0.42
G1 X96.285 Y33.412 E.09328
G1 X97.018 Y32.032 E.05389
G1 X98.485 Y29.676 E.09572
G1 X99.865 Y27.815 E.07991
G1 X102.001 Y25.385 E.11159
G1 X103.945 Y23.551 E.09218
G1 X105.094 Y22.6 E.05144
G1 X107.259 Y21.032 E.0922
G1 X108.521 Y20.238 E.05142
G1 X110.871 Y18.963 E.09221
G1 X112.225 Y18.339 E.05142
G1 X114.652 Y17.403 E.08972
G1 X117.485 Y16.581 E.10174
G1 X120.108 Y16.064 E.09221
G1 X121.587 Y15.871 E.05144
G1 X124.255 Y15.698 E.09221
G1 X125.746 Y15.698 E.05142
G1 X128.413 Y15.871 E.09218
G1 X131.259 Y16.305 E.09929
G1 X133.857 Y16.935 E.0922
G1 X135.28 Y17.379 E.05141
G1 X137.775 Y18.339 E.0922
G1 X139.129 Y18.963 E.05142
G1 X141.479 Y20.238 E.09221
G1 X142.741 Y21.032 E.05142
G1 X144.906 Y22.6 E.0922
G1 X146.055 Y23.551 E.05144
G1 X147.999 Y25.385 E.09218
G1 X149.015 Y26.476 E.05142
G1 X150.706 Y28.547 E.09221
G1 X151.573 Y29.76 E.05142
G1 X152.982 Y32.032 E.09221
G1 X153.684 Y33.348 E.05144
G1 X154.788 Y35.782 E.09218
G1 X155.745 Y38.497 E.09929
G1 X163.753 Y69.539 E1.10568
G1 X164.313 Y72.854 E.11595
G1 X164.509 Y74.765 E.06626
G1 X164.625 Y78.215 E.11906
G1 X164.439 Y81.662 E.11906
G1 X163.969 Y85.005 E.11643
G1 X145.561 Y190.682 E3.69965
M73 P0 R168
G1 X145.38 Y191.375 E.0247
G1 X145.108 Y191.994 E.02332
G1 X144.442 Y192.922 E.0394
G1 X143.566 Y193.641 E.03909
G1 X142.621 Y194.084 E.036
G1 X141.493 Y194.297 E.03959
G1 X105.23 Y194.273 E1.2507
G1 X104.567 Y194.141 E.02332
M73 Q0 S168
G1 X103.947 Y193.915 E.02276
G1 X103.355 Y193.59 E.02329
G1 X102.755 Y193.119 E.02631
G1 X102.309 Y192.632 E.02278
G1 X101.895 Y191.999 E.02609
G1 X101.598 Y191.312 E.02581
G1 X101.433 Y190.647 E.02363
G1 X85.759 Y83.335 E3.74043
G1 X85.55 Y81.555 E.06181
G1 X85.375 Y78.212 E.11546
G1 X85.399 Y76.383 E.06309
G1 X85.662 Y73.045 E.11548
G1 X85.924 Y71.234 E.06311
G1 X86.631 Y67.909 E.11724
G1 X94.255 Y38.497 E1.04794
G1 X95.154 Y35.934 E.09368
M204 S1000
G1 E-1 F2100
G1 X95.154 Y35.934 F10800
; printing object marker - teammarker_forearm.stl id:0 copy 0
G1 X105.426 Y190.681
G1 E1 F1200
M204 S800
;TYPE:Perimeter
;WIDTH:0.419999
G1 X105.186 Y190.534 E.00971
G1 X104.981 Y190.245 E.01222
G1 X104.916 Y189.943 E.01065
G1 X104.916 Y189.38 E.01942
G1 X104.966 Y188.931 E.01558
G1 X105.1 Y188.565 E.01344
G1 X105.509 Y187.696 E.03313
G1 X105.737 Y187.084 E.02252
G1 X105.88 Y186.418 E.02349
G1 X105.909 Y185.773 E.02227
G1 X105.836 Y185.164 E.02115
G1 X105.707 Y184.674 E.01748
G1 X105.497 Y184.128 E.02018
G1 X105.025 Y183.114 E.03858
G1 X104.916 Y182.566 E.01927
G1 X104.914 Y131.905 E1.74728
G1 X104.86 Y129.304 E.08973
G1 X104.699 Y126.705 E.08981
G1 X104.431 Y124.114 E.08984
G1 X104.057 Y121.537 E.08981
G1 X103.578 Y118.977 E.08983
G1 X103.003 Y116.477 E.08848
G1 X102.306 Y113.927 E.09117
G1 X101.515 Y111.446 E.08981
G1 X100.956 Y109.91 E.05638
G1 X100.624 Y108.999 E.03344
G1 X99.648 Y106.626 E.0885
G1 X98.543 Y104.225 E.09116
G1 X97.358 Y101.906 E.08982
G1 X96.098 Y99.671 E.08849
G1 X93.891 Y96.103 E.1447
G1 X93.124 Y94.731 E.05421
G1 X92.418 Y93.327 E.0542
G1 X91.773 Y91.893 E.05423
G1 X91.192 Y90.433 E.0542
G1 X90.675 Y88.949 E.0542
G1 X90.222 Y87.443 E.05424
G1 X89.836 Y85.92 E.05419
G1 X89.517 Y84.381 E.05421
G1 X89.278 Y82.913 E.0513
G1 X89.08 Y81.267 E.05718
G1 X88.964 Y79.701 E.05416
G1 X88.916 Y78.13 E.05421
G1 X88.935 Y76.643 E.05129
G1 X89.025 Y74.988 E.05716
G1 X89.183 Y73.425 E.05418
G1 X89.408 Y71.869 E.05422
G1 X89.701 Y70.325 E.0542
G1 X90.063 Y68.782 E.05466
G1 X97.319 Y40.682 E1.00095
G1 X97.657 Y39.48 E.04306
G1 X98.042 Y38.307 E.04258
G1 X98.478 Y37.151 E.04261
G1 X98.964 Y36.015 E.04262
G1 X99.498 Y34.901 E.04261
G1 X100.08 Y33.812 E.04259
G1 X100.708 Y32.748 E.04261
G1 X101.382 Y31.713 E.0426
G1 X102.1 Y30.707 E.04263
G1 X102.86 Y29.734 E.04258
G1 X103.662 Y28.794 E.04262
G1 X104.504 Y27.89 E.04261
G1 X105.337 Y27.07 E.04031
G1 X106.301 Y26.195 E.0449
G1 X107.252 Y25.408 E.04257
G1 X108.184 Y24.702 E.04033
G1 X109.253 Y23.959 E.0449
G1 X110.298 Y23.301 E.04259
G1 X111.371 Y22.689 E.0426
G1 X112.469 Y22.123 E.04261
G1 X113.591 Y21.606 E.04261
G1 X114.734 Y21.138 E.0426
G1 X115.896 Y20.719 E.0426
G1 X117.075 Y20.351 E.0426
G1 X118.205 Y20.051 E.04032
G1 X119.477 Y19.769 E.04494
G1 X120.693 Y19.557 E.04257
G1 X121.852 Y19.406 E.04031
G1 X123.149 Y19.29 E.04491
G1 X124.382 Y19.237 E.04257
G1 X125.618 Y19.237 E.04263
G1 X126.786 Y19.288 E.04032
G1 X128.083 Y19.397 E.04489
G1 X129.307 Y19.557 E.04257
G1 X130.524 Y19.769 E.04261
G1 X131.666 Y20.02 E.04033
G1 X132.926 Y20.351 E.04493
G1 X134.104 Y20.719 E.04257
G1 X135.266 Y21.138 E.0426
G1 X136.409 Y21.606 E.0426
G1 X137.531 Y22.123 E.04261
G1 X138.57 Y22.659 E.04032
G1 X139.703 Y23.302 E.04493
G1 X140.747 Y23.959 E.04254
G1 X141.709 Y24.624 E.04033
G1 X142.749 Y25.408 E.04492
G1 X143.7 Y26.195 E.04257
G1 X144.616 Y27.023 E.04259
G1 X145.496 Y27.89 E.04261
G1 X146.338 Y28.794 E.04261
G1 X147.14 Y29.734 E.04262
G1 X147.9 Y30.707 E.04258
G1 X148.618 Y31.713 E.04263
G1 X149.292 Y32.748 E.0426
G1 X149.92 Y33.812 E.04261
G1 X150.502 Y34.901 E.04259
G1 X151.036 Y36.015 E.04261
G1 X151.522 Y37.151 E.04262
G1 X151.958 Y38.307 E.04261
G1 X152.343 Y39.48 E.04258
G1 X152.681 Y40.682 E.04306
G1 X159.937 Y68.782 E1.00095
G1 X160.3 Y70.325 E.05467
G1 X160.592 Y71.87 E.05423
G1 X160.818 Y73.426 E.05423
G1 X160.975 Y74.99 E.05421
G1 X161.064 Y76.56 E.05424
G1 X161.074 Y77.346 E.02711
G1 X161.084 Y78.132 E.02711
G1 X161.036 Y79.704 E.05424
G1 X160.92 Y81.272 E.05423
G1 X160.735 Y82.833 E.05422
G1 X160.483 Y84.385 E.05423
G1 X160.163 Y85.924 E.05421
G1 X159.776 Y87.448 E.05423
G1 X159.324 Y88.954 E.05423
G1 X158.806 Y90.438 E.05421
G1 X158.224 Y91.899 E.05424
G1 X157.579 Y93.333 E.05423
G1 X156.872 Y94.737 E.05422
G1 X156.105 Y96.11 E.05424
G1 X155.279 Y97.447 E.0542
G1 X154.395 Y98.747 E.05422
G1 X153.455 Y100.008 E.05425
G1 X151.309 Y102.638 E.11707
G1 X150.251 Y104.049 E.06083
G1 X149.785 Y104.727 E.02837
G1 X149.153 Y105.652 E.03864
G1 X148.25 Y107.094 E.05868
G1 X147.375 Y108.625 E.06082
G1 X146.546 Y110.225 E.06215
G1 X145.768 Y111.895 E.06354
G1 X145.154 Y113.37 E.0551
G1 X144.453 Y115.251 E.06923
G1 X143.902 Y116.967 E.06216
G1 X143.422 Y118.705 E.06219
G1 X143.014 Y120.461 E.06218
G1 X142.68 Y122.233 E.06219
G1 X142.42 Y124.016 E.06215
G1 X142.234 Y125.809 E.06217
G1 X142.123 Y127.609 E.0622
G1 X142.086 Y129.389 E.0614
G1 X142.084 Y182.453 E1.83016
G1 X142.05 Y182.855 E.01391
G1 X141.905 Y183.262 E.0149
G1 X141.478 Y184.189 E.0352
G1 X141.259 Y184.782 E.0218
G1 X141.141 Y185.295 E.01816
G1 X141.088 Y185.93 E.02198
G1 X141.143 Y186.573 E.02226
G1 X141.302 Y187.209 E.02261
G1 X141.518 Y187.759 E.02038
G1 X141.88 Y188.522 E.02913
G1 X142.055 Y189.052 E.01925
G1 X142.056 Y190.132 E.03725
G1 X141.86 Y190.486 E.01396
G1 X141.597 Y190.671 E.01109
G1 X141.245 Y190.761 E.01253
G1 X105.9 Y190.763 E1.21904
G1 X105.478 Y190.71 E.01467
M204 S1000
G1 X105.478 Y190.71 F10800
G1 X105.191 Y191.001
M204 S800
G1 F1200
G1 X104.857 Y190.745 E.01451
G1 X104.632 Y190.39 E.0145
G1 X104.539 Y189.967 E.01494
G1 X104.539 Y189.38 E.02025
G1 X104.597 Y188.845 E.01856
G1 X104.759 Y188.404 E.0162
G1 X105.157 Y187.56 E.03218
G1 X105.369 Y186.998 E.02072
G1 X105.49 Y186.486 E.01815
G1 X105.535 Y185.906 E.02006
G1 X105.484 Y185.334 E.01981
G1 X105.355 Y184.808 E.01868
G1 X105.155 Y184.287 E.01925
G1 X104.628 Y183.097 E.04489
G1 X104.539 Y182.588 E.01782
G1 X104.537 Y131.913 E1.74776
G1 X104.483 Y129.327 E.08921
G1 X104.324 Y126.743 E.08929
G1 X104.058 Y124.168 E.08928
G1 X103.686 Y121.606 E.08929
G1 X103.21 Y119.062 E.08926
G1 X102.636 Y116.561 E.0885
G1 X102.049 Y114.416 E.0767
G1 X101.946 Y114.042 E.01338
G1 X101.161 Y111.575 E.08929
G1 X100.277 Y109.147 E.08912
G1 X99.299 Y106.77 E.08865
G1 X98.523 Y105.081 E.06411
G1 X98.208 Y104.397 E.02597
G1 X97.029 Y102.091 E.08933
G1 X95.76 Y99.841 E.08909
G1 X93.566 Y96.294 E.14385
G1 X92.791 Y94.908 E.05477
G1 X92.078 Y93.489 E.05477
G1 X91.426 Y92.04 E.0548
G1 X90.839 Y90.565 E.05475
G1 X90.316 Y89.065 E.05479
G1 X89.859 Y87.544 E.05478
G1 X89.469 Y86.004 E.05479
G1 X89.146 Y84.449 E.05478
G1 X88.905 Y82.966 E.05182
G1 X88.704 Y81.304 E.05774
G1 X88.587 Y79.72 E.05478
G1 X88.539 Y78.133 E.05476
G1 X88.558 Y76.63 E.05184
G1 X88.649 Y74.958 E.05775
G1 X88.808 Y73.379 E.05473
G1 X89.036 Y71.807 E.05479
G1 X89.332 Y70.246 E.0548
G1 X89.697 Y68.692 E.05506
G1 X96.955 Y40.584 E1.00123
G1 X97.296 Y39.37 E.04349
G1 X97.687 Y38.182 E.04314
G1 X98.128 Y37.01 E.04319
G1 X98.62 Y35.86 E.04314
G1 X99.162 Y34.731 E.04319
G1 X99.751 Y33.627 E.04316
G1 X100.388 Y32.549 E.04319
G1 X101.07 Y31.5 E.04315
G1 X101.797 Y30.482 E.04314
G1 X102.568 Y29.496 E.04317
G1 X103.38 Y28.543 E.04318
G1 X104.233 Y27.627 E.04317
G1 X105.077 Y26.796 E.04085
G1 X106.054 Y25.91 E.04549
G1 X107.018 Y25.112 E.04316
G1 X107.962 Y24.396 E.04086
G1 X109.045 Y23.644 E.04547
G1 X110.104 Y22.978 E.04315
G1 X111.191 Y22.357 E.04318
G1 X112.304 Y21.784 E.04318
G1 X113.44 Y21.26 E.04315
G1 X114.598 Y20.786 E.04316
G1 X115.776 Y20.361 E.04319
G1 X116.971 Y19.989 E.04317
G1 X118.116 Y19.685 E.04086
G1 X119.404 Y19.399 E.0455
G1 X120.636 Y19.184 E.04313
G1 X121.811 Y19.031 E.04087
G1 X123.124 Y18.914 E.04546
G1 X124.374 Y18.86 E.04315
G1 X125.626 Y18.86 E.04318
G1 X126.81 Y18.911 E.04087
G1 X128.124 Y19.022 E.04548
G1 X129.364 Y19.184 E.04313
G1 X130.597 Y19.399 E.04317
G1 X131.755 Y19.653 E.04089
G1 X133.03 Y19.989 E.04548
G1 X134.224 Y20.361 E.04313
G1 X135.402 Y20.786 E.04319
G1 X136.56 Y21.26 E.04316
G1 X137.696 Y21.784 E.04315
G1 X138.75 Y22.327 E.04089
G1 X139.897 Y22.978 E.04549
G1 X140.955 Y23.644 E.04312
G1 X141.93 Y24.318 E.04088
G1 X142.983 Y25.112 E.04549
G1 X143.946 Y25.91 E.04314
G1 X144.875 Y26.749 E.04317
G1 X145.767 Y27.627 E.04317
G1 X146.62 Y28.543 E.04317
G1 X147.432 Y29.495 E.04316
G1 X148.203 Y30.482 E.0432
G1 X148.93 Y31.5 E.04314
G1 X149.612 Y32.549 E.04315
G1 X150.249 Y33.627 E.04319
G1 X150.838 Y34.731 E.04316
G1 X151.38 Y35.86 E.04319
G1 X151.872 Y37.01 E.04314
G1 X152.313 Y38.182 E.04319
G1 X152.704 Y39.371 E.04317
G1 X153.045 Y40.584 E.04346
G1 X160.303 Y68.692 E1.00123
G1 X160.668 Y70.247 E.05509
G1 X160.964 Y71.808 E.0548
G1 X161.192 Y73.38 E.05479
G1 X161.351 Y74.961 E.0548
G1 X161.441 Y76.547 E.05479
G1 X161.451 Y77.341 E.02739
G1 X161.461 Y78.135 E.02739
G1 X161.413 Y79.723 E.05479
G1 X161.295 Y81.308 E.05482
G1 X161.109 Y82.885 E.05477
G1 X160.854 Y84.453 E.05479
G1 X160.53 Y86.009 E.05482
G1 X160.14 Y87.549 E.05479
G1 X159.682 Y89.07 E.05479
G1 X159.159 Y90.57 E.05479
G1 X158.571 Y92.046 E.0548
G1 X157.92 Y93.495 E.05479
G1 X157.205 Y94.914 E.0548
G1 X156.43 Y96.301 E.0548
G1 X155.595 Y97.652 E.05478
G1 X154.702 Y98.966 E.05479
G1 X153.753 Y100.24 E.05479
G1 X151.614 Y102.86 E.11665
G1 X150.552 Y104.275 E.06102
G1 X150.097 Y104.94 E.02779
G1 X149.473 Y105.853 E.03814
G1 X148.577 Y107.281 E.05814
G1 X147.702 Y108.812 E.06082
G1 X146.88 Y110.399 E.06164
G1 X146.116 Y112.04 E.06243
G1 X145.502 Y113.515 E.0551
G1 X144.812 Y115.367 E.06816
G1 X144.265 Y117.068 E.06163
G1 X143.789 Y118.79 E.06162
G1 X143.385 Y120.531 E.06164
G1 X143.053 Y122.287 E.06164
G1 X142.795 Y124.055 E.06162
G1 X142.61 Y125.833 E.06165
G1 X142.5 Y127.616 E.06161
G1 X142.463 Y129.389 E.06116
G1 X142.461 Y182.453 E1.83016
G1 X142.421 Y182.93 E.01651
G1 X142.247 Y183.421 E.01797
G1 X141.83 Y184.324 E.0343
G1 X141.645 Y184.808 E.01787
G1 X141.516 Y185.334 E.01868
G1 X141.465 Y185.906 E.01981
G1 X141.51 Y186.486 E.02006
G1 X141.654 Y187.073 E.02085
G1 X141.859 Y187.597 E.01941
G1 X142.285 Y188.498 E.03437
G1 X142.431 Y188.993 E.0178
G1 X142.455 Y190.039 E.03609
G1 X142.375 Y190.352 E.01114
G1 X142.141 Y190.743 E.01572
G1 X141.899 Y190.946 E.01089
G1 X141.613 Y191.079 E.01088
G1 X141.278 Y191.138 E.01173
G1 X106.298 Y191.14 E1.20645
G1 X105.587 Y191.108 E.02455
G1 X105.249 Y191.017 E.01207
M204 S1000
G1 X105.249 Y191.017 F10800
G1 X105.016 Y191.337
M204 S800
;TYPE:External perimeter
G1 F1200
G1 X104.578 Y191.001 E.01904
G1 X104.282 Y190.535 E.01904
G1 X104.162 Y189.992 E.01918
G1 X104.162 Y189.38 E.02111
G1 X104.229 Y188.758 E.02158
G1 X104.418 Y188.243 E.01892
G1 X104.806 Y187.423 E.03129
G1 X105.002 Y186.911 E.01891
G1 X105.123 Y186.4 E.01811
G1 X105.159 Y185.882 E.01791
G1 X105.109 Y185.373 E.01764
G1 X105.003 Y184.943 E.01527
G1 X104.813 Y184.446 E.01835
G1 X104.266 Y183.203 E.04684
G1 X104.162 Y182.61 E.02076
G1 X104.16 Y131.921 E1.74825
G1 X104.107 Y129.35 E.08869
M73 P0 R167
G1 X103.948 Y126.782 E.08874
G1 X103.685 Y124.225 E.08866
G1 X103.316 Y121.675 E.08886
G1 X102.843 Y119.146 E.08874
G1 X102.267 Y116.64 E.08868
G1 X101.686 Y114.515 E.07598
G1 X101.588 Y114.159 E.01274
G1 X100.807 Y111.704 E.08885
G1 X99.927 Y109.287 E.08871
G1 X98.951 Y106.913 E.08853
G1 X98.18 Y105.239 E.06357
G1 X97.872 Y104.568 E.02546
G1 X96.701 Y102.277 E.08874
G1 X95.438 Y100.037 E.08869
G1 X93.241 Y96.485 E.14405
G1 X92.458 Y95.085 E.05532
G1 X91.737 Y93.651 E.05536
G1 X91.079 Y92.187 E.05536
G1 X90.485 Y90.697 E.05532
G1 X89.957 Y89.181 E.05537
G1 X89.495 Y87.645 E.05532
G1 X89.101 Y86.089 E.05536
G1 X88.775 Y84.518 E.05534
G1 X88.531 Y83.018 E.05241
G1 X88.329 Y81.34 E.05829
G1 X88.21 Y79.74 E.05534
G1 X88.161 Y78.136 E.05535
G1 X88.181 Y76.617 E.05239
G1 X88.273 Y74.929 E.0583
G1 X88.434 Y73.333 E.05532
G1 X88.664 Y71.745 E.05534
G1 X88.963 Y70.168 E.05536
G1 X89.331 Y68.602 E.05548
G1 X96.591 Y40.485 E1.00155
G1 X96.935 Y39.261 E.04385
M73 Q0 S167
G1 X97.331 Y38.056 E.04375
G1 X97.779 Y36.87 E.04373
G1 X98.277 Y35.704 E.04373
G1 X98.825 Y34.561 E.04372
G1 X99.422 Y33.442 E.04374
G1 X100.067 Y32.351 E.04371
G1 X100.759 Y31.288 E.04375
G1 X101.495 Y30.256 E.04372
G1 X102.276 Y29.257 E.04373
G1 X103.099 Y28.292 E.04374
G1 X103.963 Y27.364 E.04373
G1 X104.818 Y26.522 E.04139
G1 X105.807 Y25.625 E.04605
G1 X106.784 Y24.816 E.04375
G1 X107.741 Y24.091 E.04141
G1 X108.837 Y23.329 E.04604
G1 X109.91 Y22.654 E.04372
G1 X111.011 Y22.026 E.04372
G1 X112.138 Y21.445 E.04373
G1 X113.29 Y20.914 E.04375
G1 X114.463 Y20.434 E.04371
G1 X115.656 Y20.004 E.04374
G1 X116.866 Y19.626 E.04372
G1 X118.027 Y19.318 E.04143
G1 X119.33 Y19.029 E.04603
G1 X120.579 Y18.811 E.04373
G1 X121.77 Y18.656 E.04142
G1 X123.1 Y18.538 E.04605
G1 X124.366 Y18.483 E.04371
G1 X125.634 Y18.483 E.04373
G1 X126.834 Y18.535 E.04143
G1 X128.164 Y18.647 E.04603
G1 X129.421 Y18.811 E.04372
G1 X130.67 Y19.029 E.04373
G1 X131.843 Y19.287 E.04142
