; generated by PrusaSlicer 2.7.4 on 2024-05-15 at 16:48:28 UTC


;
;
; 

; external perimeters extrusion width = 0.45mm
; perimeters extrusion width = 0.45mm
; infill extrusion width = 0.45mm
; solid infill extrusion width = 0.45mm
; top infill extrusion width = 0.40mm
; first layer extrusion width = 0.42mm

M73 P0 R163
M73 Q0 S164
M201 X1000 Y1000 Z200 E5000 ; sets maximum accelerations, mm/sec^2
M203 X200 Y200 Z12 E120 ; sets maximum feedrates, mm / sec
M204 S1250 T1250 ; sets acceleration (S) and retract acceleration (R), mm/sec^2
M205 X8.00 Y8.00 Z0.40 E4.50 ; sets the jerk limits, mm/sec
M205 S0 T0 ; sets the minimum extruding and travel feed rate, mm/sec

; printing object marker - teammarker_forearm.stl id:0 copy 0
; stop printing object marker - teammarker_forearm.stl id:0 copy 0

;TYPE:Custom
M862.3 P "MK3S" ; printer model check
M862.1 P0.4 ; nozzle diameter check
M115 U3.13.3 ; tell printer latest fw version
G90 ; use absolute coordinates
M83 ; extruder relative mode
M104 S225 ; set extruder temp
M140 S50 ; set bed temp
M190 S50 ; wait for bed temp
M109 S225 ; wait for extruder temp
G28 W ; home all without mesh bed level
G80 X86.4884 Y16.0787 W77.0232 H177.843 ; mesh bed levelling

G1 Z0.2 F720
G1 Y-3 F1000 ; go outside print area
G92 E0
G1 X60 E9 F1000 ; intro line
G1 X100 E12.5 F1000 ; intro line

G92 E0
M221 S95

; Don't change E values below. Excessive value can damage the printer.
M907 E430 ; set extruder motor current
G21 ; set units to millimeters
G90 ; use absolute coordinates
M83 ; use relative distances for extrusion
M900 K0 ; Filament gcode
M107
;LAYER_CHANGE
;Z:0.2
;HEIGHT:0.2
G1 E-1 F2100
M73 Q0 S163
G1 Z.2 F720
G1 X96.863 Y35.278 F10800
G1 Z.2 F720
G1 E1 F1200
M204 S800
;TYPE:Skirt/Brim
;WIDTH:0.42
G1 X97.497 Y33.805 E.05531
G1 X98.644 Y31.583 E.08624
G1 X100.028 Y29.379 E.08976
G1 X100.851 Y28.242 E.04841
G1 X102.444 Y26.315 E.08623
G1 X103.407 Y25.293 E.04843
G1 X105.235 Y23.586 E.08626
G1 X106.32 Y22.697 E.04838
G1 X108.352 Y21.239 E.08626
G1 X109.542 Y20.496 E.04839
G1 X111.567 Y19.402 E.07938
G1 X114.227 Y18.239 E.10013
G1 X116.599 Y17.448 E.08624
G1 X117.957 Y17.09 E.04844
G1 X120.411 Y16.61 E.08624
G1 X121.803 Y16.43 E.04841
G1 X124.298 Y16.269 E.08623
G1 X125.702 Y16.269 E.04842
G1 X128.197 Y16.43 E.08623
G1 X129.589 Y16.61 E.04841
G1 X132.043 Y17.09 E.08624
G1 X133.401 Y17.448 E.04844
G1 X135.773 Y18.239 E.08624
G1 X137.073 Y18.768 E.04841
G1 X139.324 Y19.857 E.08624
G1 X140.545 Y20.548 E.04839
G1 X142.638 Y21.917 E.08626
G1 X143.76 Y22.76 E.0484
G1 X145.66 Y24.386 E.08625
G1 X146.665 Y25.366 E.04841
G1 X148.34 Y27.223 E.08625
G1 X149.211 Y28.323 E.04839
G1 X150.633 Y30.38 E.08625
G1 X151.356 Y31.583 E.04841
G1 X152.503 Y33.805 E.08624
G1 X153.026 Y34.997 E.04489
G1 X153.947 Y37.54 E.09328
G1 X162.322 Y68.795 E1.11601
G1 X162.929 Y72.064 E.11467
G1 X163.26 Y75.372 E.11466
G1 X163.313 Y78.697 E.11469
G1 X163.087 Y82.014 E.11467
G1 X147.084 Y189.966 E3.76392
G1 X146.94 Y190.622 E.02316
G1 X146.656 Y191.33 E.02631
G1 X146.012 Y192.274 E.03941
G1 X145.145 Y193.019 E.03943
G1 X144.115 Y193.514 E.03941
G1 X142.993 Y193.726 E.03938
G1 X106.817 Y193.711 E1.2477
G1 X106.168 Y193.597 E.02273
G1 X105.447 Y193.344 E.02635
G1 X104.855 Y193.019 E.02329
G1 X104.255 Y192.547 E.02633
G1 X103.809 Y192.061 E.02275
G1 X103.395 Y191.427 E.02612
G1 X103.12 Y190.804 E.02349
G1 X102.933 Y190.077 E.02589
G1 X87.131 Y83.663 E3.71043
G1 X86.772 Y80.458 E.11123
G1 X86.687 Y78.697 E.06081
G1 X86.734 Y75.472 E.11124
G1 X86.87 Y73.715 E.06078
G1 X87.322 Y70.521 E.11126
G1 X88.058 Y67.278 E.11469
G1 X96.053 Y37.54 E1.06208
G1 X96.843 Y35.334 E.08082
M204 S1000
G1 E-1 F2100
G1 X96.843 Y35.334 F10800
; printing object marker - teammarker_forearm.stl id:0 copy 0
G1 X106.91 Y190.1
G1 E1 F1200
M204 S800
;TYPE:Perimeter
;WIDTH:0.419999
G1 X106.686 Y189.963 E.00906
G1 X106.481 Y189.674 E.01222
G1 X106.416 Y189.371 E.01069
G1 X106.416 Y188.809 E.01938
G1 X106.466 Y188.36 E.01558
G1 X106.6 Y187.994 E.01344
G1 X107.009 Y187.125 E.03313
G1 X107.236 Y186.513 E.02251
G1 X107.38 Y185.846 E.02353
G1 X107.409 Y185.201 E.02227
G1 X107.336 Y184.593 E.02112
G1 X107.207 Y184.103 E.01748
G1 X106.997 Y183.556 E.02021
G1 X106.525 Y182.542 E.03858
G1 X106.416 Y181.994 E.01927
G1 X106.414 Y131.352 E1.74663
G1 X106.332 Y128.779 E.08879
G1 X106.145 Y126.202 E.08911
G1 X105.848 Y123.596 E.09046
G1 X105.423 Y120.907 E.09389
G1 X104.956 Y118.546 E.08301
G1 X104.344 Y115.996 E.09045
G1 X103.649 Y113.548 E.08777
G1 X102.843 Y111.093 E.08912
G1 X101.924 Y108.636 E.09047
G1 X100.936 Y106.291 E.08776
G1 X99.837 Y103.952 E.08913
G1 X98.644 Y101.66 E.08912
G1 X97.341 Y99.389 E.0903
G1 X95.183 Y95.932 E.14055
G1 X94.445 Y94.613 E.05213
G1 X93.762 Y93.262 E.05221
G1 X93.136 Y91.883 E.05223
G1 X92.599 Y90.555 E.04941
G1 X92.06 Y89.052 E.05507
G1 X91.612 Y87.606 E.05221
G1 X91.225 Y86.142 E.05223
G1 X90.901 Y84.663 E.05222
G1 X90.652 Y83.252 E.04942
G1 X90.438 Y81.669 E.05509
G1 X90.301 Y80.162 E.05219
G1 X90.228 Y78.65 E.05221
G1 X90.218 Y77.135 E.05225
G1 X90.272 Y75.622 E.05222
G1 X90.389 Y74.112 E.05224
G1 X90.57 Y72.609 E.05221
G1 X90.813 Y71.114 E.05224
G1 X91.119 Y69.631 E.05223
G1 X91.49 Y68.148 E.05272
G1 X99.121 Y39.669 E1.01688
G1 X99.446 Y38.553 E.04009
G1 X99.814 Y37.464 E.03965
G1 X100.229 Y36.392 E.03965
G1 X100.69 Y35.339 E.03965
G1 X101.195 Y34.306 E.03966
G1 X101.744 Y33.296 E.03965
G1 X102.335 Y32.31 E.03965
G1 X102.969 Y31.351 E.03965
G1 X103.643 Y30.42 E.03964
G1 X104.318 Y29.567 E.03752
G1 X105.109 Y28.648 E.04182
G1 X105.896 Y27.812 E.0396
G1 X106.719 Y27.009 E.03966
G1 X107.576 Y26.243 E.03964
G1 X108.465 Y25.514 E.03965
G1 X109.385 Y24.824 E.03966
G1 X110.333 Y24.174 E.03964
G1 X111.308 Y23.566 E.03963
G1 X112.309 Y22.999 E.03968
G1 X113.333 Y22.477 E.03964
G1 X114.378 Y21.998 E.03965
G1 X115.386 Y21.588 E.03753
G1 X116.526 Y21.178 E.04178
G1 X117.624 Y20.838 E.03964
G1 X118.735 Y20.545 E.03963
G1 X119.859 Y20.3 E.03968
G1 X120.991 Y20.104 E.03962
G1 X122.07 Y19.964 E.03753
G1 X123.278 Y19.858 E.04182
G1 X124.42 Y19.809 E.03942
G1 X125.943 Y19.824 E.05253
G1 X126.723 Y19.858 E.02693
G1 X127.869 Y19.956 E.03967
G1 X129.009 Y20.104 E.03965
G1 X130.142 Y20.3 E.03966
G1 X131.265 Y20.545 E.03964
G1 X132.376 Y20.838 E.03963
G1 X133.475 Y21.178 E.03968
G1 X134.557 Y21.565 E.03963
G1 X135.622 Y21.998 E.03965
G1 X136.667 Y22.477 E.03965
G1 X137.691 Y22.999 E.03964
G1 X138.692 Y23.566 E.03968
G1 X139.667 Y24.174 E.03963
G1 X140.615 Y24.824 E.03964
G1 X141.535 Y25.514 E.03966
G1 X142.424 Y26.243 E.03965
G1 X143.281 Y27.009 E.03964
G1 X144.104 Y27.812 E.03966
G1 X144.892 Y28.649 E.03965
G1 X145.643 Y29.519 E.03964
G1 X146.357 Y30.42 E.03965
G1 X147.031 Y31.351 E.03964
G1 X147.665 Y32.31 E.03965
G1 X148.256 Y33.296 E.03965
G1 X148.805 Y34.306 E.03965
G1 X149.31 Y35.339 E.03966
G1 X149.771 Y36.392 E.03965
G1 X150.186 Y37.464 E.03965
G1 X150.554 Y38.553 E.03965
G1 X150.879 Y39.669 E.04009
G1 X158.51 Y68.148 E1.01688
G1 X158.881 Y69.631 E.05272
G1 X159.187 Y71.114 E.05223
G1 X159.43 Y72.609 E.05224
G1 X159.611 Y74.112 E.05221
G1 X159.728 Y75.622 E.05224
G1 X159.782 Y77.135 E.05222
G1 X159.777 Y77.865 E.02518
G1 X159.772 Y78.65 E.02707
G1 X159.699 Y80.162 E.05221
G1 X159.562 Y81.671 E.05226
G1 X159.362 Y83.172 E.05223
G1 X159.099 Y84.663 E.05222
G1 X158.775 Y86.142 E.05222
G1 X158.388 Y87.606 E.05223
G1 X157.94 Y89.053 E.05224
G1 X157.432 Y90.479 E.05221
G1 X156.864 Y91.883 E.05224
G1 X156.238 Y93.262 E.05223
G1 X155.555 Y94.613 E.05221
G1 X154.817 Y95.932 E.05213
G1 X152.659 Y99.389 E.14055
G1 X151.356 Y101.66 E.0903
G1 X150.163 Y103.952 E.08912
G1 X149.08 Y106.256 E.08781
G1 X148.076 Y108.636 E.08909
G1 X147.157 Y111.093 E.09047
G1 X146.362 Y113.511 E.08779
G1 X145.656 Y115.996 E.0891
G1 X145.044 Y118.546 E.09045
G1 X144.544 Y121.081 E.08912
G1 X144.147 Y123.634 E.08911
G1 X143.859 Y126.163 E.08779
G1 X143.67 Y128.74 E.08912
G1 X143.586 Y131.352 E.09013
G1 X143.584 Y181.882 E1.74276
G1 X143.55 Y182.283 E.01388
G1 X143.405 Y182.691 E.01493
G1 X142.978 Y183.618 E.0352
G1 X142.759 Y184.21 E.02177
G1 X142.641 Y184.724 E.01819
G1 X142.588 Y185.359 E.02198
G1 X142.643 Y186.001 E.02222
G1 X142.802 Y186.638 E.02264
G1 X143.018 Y187.187 E.02035
G1 X143.38 Y187.951 E.02916
G1 X143.555 Y188.48 E.01922
G1 X143.554 Y189.571 E.03763
G1 X143.352 Y189.922 E.01397
G1 X143.105 Y190.095 E.0104
G1 X142.745 Y190.19 E.01284
G1 X107.4 Y190.192 E1.21904
G1 X106.971 Y190.137 E.01492
G1 X106.962 Y190.132 E.00036
M204 S1000
G1 X106.962 Y190.132 F10800
G1 X106.691 Y190.43
M204 S800
G1 F1200
G1 X106.357 Y190.174 E.01451
G1 X106.132 Y189.819 E.0145
G1 X106.039 Y189.396 E.01494
G1 X106.039 Y188.809 E.02025
G1 X106.097 Y188.273 E.01859
G1 X106.259 Y187.833 E.01617
G1 X106.657 Y186.988 E.03221
G1 X106.869 Y186.427 E.02068
G1 X106.99 Y185.915 E.01815
G1 X107.035 Y185.335 E.02006
G1 X106.984 Y184.763 E.01981
G1 X106.855 Y184.237 E.01868
G1 X106.655 Y183.715 E.01928
G1 X106.128 Y182.526 E.04486
G1 X106.039 Y182.016 E.01786
G1 X106.037 Y131.352 E1.74738
G1 X105.955 Y128.791 E.08837
G1 X105.769 Y126.229 E.0886
G1 X105.475 Y123.654 E.08939
G1 X105.052 Y120.978 E.09344
G1 X104.586 Y118.619 E.08293
G1 X103.981 Y116.099 E.08938
G1 X103.286 Y113.651 E.08777
G1 X102.485 Y111.21 E.08861
G1 X101.577 Y108.783 E.08937
G1 X100.588 Y106.437 E.08781
G1 X99.496 Y104.113 E.08856
G1 X98.31 Y101.835 E.08858
G1 X97.021 Y99.589 E.08931
G1 X94.858 Y96.124 E.14088
G1 X94.112 Y94.791 E.05268
G1 X93.422 Y93.425 E.05278
G1 X92.789 Y92.032 E.05277
G1 X92.246 Y90.689 E.04996
G1 X91.702 Y89.171 E.05562
G1 X91.25 Y87.71 E.05275
G1 X90.859 Y86.231 E.05276
G1 X90.531 Y84.736 E.05279
G1 X90.279 Y83.31 E.04994
G1 X90.063 Y81.712 E.05562
G1 X89.925 Y80.189 E.05274
G1 X89.851 Y78.66 E.0528
G1 X89.841 Y77.13 E.05277
G1 X89.895 Y75.601 E.05277
G1 X90.014 Y74.075 E.05279
G1 X90.196 Y72.556 E.05276
G1 X90.442 Y71.046 E.05277
G1 X90.751 Y69.547 E.05279
G1 X91.125 Y68.053 E.05312
G1 X98.758 Y39.568 E1.0171
G1 X99.086 Y38.44 E.04052
M73 P0 R162
G1 X99.46 Y37.336 E.0402
G1 X99.88 Y36.249 E.04019
G1 X100.347 Y35.18 E.04023
G1 X100.859 Y34.133 E.0402
G1 X101.416 Y33.109 E.0402
G1 X102.016 Y32.109 E.04022
G1 X102.659 Y31.137 E.0402
G1 X103.342 Y30.192 E.04021
G1 X104.028 Y29.327 E.03808
G1 X104.828 Y28.396 E.04234
G1 X105.627 Y27.547 E.04021
G1 X106.462 Y26.734 E.04019
G1 X107.331 Y25.956 E.04023
G1 X108.233 Y25.217 E.04022
G1 X109.165 Y24.518 E.04018
G1 X110.127 Y23.859 E.04022
G1 X111.116 Y23.241 E.04022
G1 X112.13 Y22.667 E.04019
G1 X113.168 Y22.137 E.0402
G1 X114.229 Y21.652 E.04024
G1 X115.251 Y21.236 E.03806
G1 X116.407 Y20.82 E.04237
G1 X117.52 Y20.475 E.04019
G1 X118.647 Y20.178 E.0402
G1 X119.786 Y19.93 E.0402
G1 X120.935 Y19.731 E.04022
G1 X122.03 Y19.589 E.03808
G1 X123.253 Y19.481 E.04235
G1 X124.414 Y19.432 E.04008
G1 X125.953 Y19.447 E.05308
G1 X126.748 Y19.481 E.02744
G1 X127.909 Y19.581 E.04019
G1 X129.065 Y19.731 E.0402
G1 X130.214 Y19.93 E.04022
G1 X131.353 Y20.178 E.0402
G1 X132.48 Y20.475 E.0402
G1 X133.594 Y20.82 E.04022
G1 X134.692 Y21.213 E.04022
G1 X135.771 Y21.652 E.04018
G1 X136.832 Y22.137 E.04024
G1 X137.87 Y22.667 E.0402
G1 X138.884 Y23.241 E.04019
G1 X139.873 Y23.859 E.04022
G1 X140.835 Y24.518 E.04022
G1 X141.767 Y25.217 E.04018
G1 X142.669 Y25.956 E.04022
G1 X143.538 Y26.734 E.04023
G1 X144.373 Y27.547 E.04019
G1 X145.172 Y28.396 E.04021
G1 X145.934 Y29.278 E.0402
G1 X146.658 Y30.192 E.04022
G1 X147.341 Y31.137 E.04021
G1 X147.984 Y32.109 E.0402
G1 X148.584 Y33.109 E.04022
G1 X149.141 Y34.133 E.0402
G1 X149.653 Y35.18 E.0402
G1 X150.12 Y36.249 E.04023
G1 X150.54 Y37.336 E.04019
G1 X150.914 Y38.44 E.0402
G1 X151.242 Y39.568 E.04052
G1 X158.875 Y68.053 E1.0171
G1 X159.249 Y69.547 E.05312
G1 X159.558 Y71.046 E.05279
G1 X159.804 Y72.556 E.05277
G1 X159.986 Y74.075 E.05276
G1 X160.105 Y75.601 E.05279
G1 X160.159 Y77.13 E.05277
G1 X160.154 Y77.868 E.02545
G1 X160.149 Y78.66 E.02732
M73 Q0 S162
G1 X160.075 Y80.189 E.0528
G1 X159.937 Y81.712 E.05274
G1 X159.735 Y83.229 E.05278
G1 X159.469 Y84.736 E.05278
G1 X159.141 Y86.231 E.05279
G1 X158.75 Y87.71 E.05276
G1 X158.298 Y89.172 E.05278
G1 X157.784 Y90.613 E.05277
G1 X157.211 Y92.032 E.05278
G1 X156.578 Y93.425 E.05277
G1 X155.888 Y94.791 E.05278
G1 X155.142 Y96.124 E.05268
G1 X152.979 Y99.589 E.14088
G1 X151.69 Y101.835 E.08931
G1 X150.504 Y104.113 E.08858
G1 X149.421 Y106.416 E.08777
G1 X148.423 Y108.783 E.0886
G1 X147.515 Y111.21 E.08937
G1 X146.721 Y113.629 E.08781
G1 X146.019 Y116.099 E.08856
G1 X145.414 Y118.619 E.08938
G1 X144.917 Y121.134 E.08842
G1 X144.522 Y123.677 E.08876
G1 X144.233 Y126.206 E.08779
G1 X144.046 Y128.768 E.0886
G1 X143.963 Y131.352 E.08917
G1 X143.961 Y181.882 E1.74276
G1 X143.921 Y182.359 E.01651
G1 X143.747 Y182.85 E.01797
G1 X143.33 Y183.752 E.03427
G1 X143.145 Y184.237 E.0179
G1 X143.016 Y184.763 E.01868
G1 X142.965 Y185.335 E.01981
G1 X143.01 Y185.915 E.02006
G1 X143.154 Y186.502 E.02085
G1 X143.359 Y187.026 E.01941
G1 X143.785 Y187.927 E.03437
G1 X143.931 Y188.422 E.0178
G1 X143.955 Y189.468 E.03609
G1 X143.892 Y189.745 E.0098
G1 X143.636 Y190.176 E.01729
G1 X143.399 Y190.374 E.01065
G1 X143.113 Y190.508 E.01089
G1 X142.778 Y190.567 E.01173
G1 X107.798 Y190.569 E1.20645
G1 X107.087 Y190.537 E.02455
G1 X106.749 Y190.445 E.01208
M204 S1000
G1 X106.749 Y190.445 F10800
G1 X106.516 Y190.765
M204 S800
;TYPE:External perimeter
G1 F1200
G1 X106.078 Y190.429 E.01904
G1 X105.782 Y189.964 E.01901
G1 X105.662 Y189.42 E.01921
G1 X105.662 Y188.808 E.02111
G1 X105.729 Y188.186 E.02158
G1 X105.918 Y187.671 E.01892
G1 X106.306 Y186.852 E.03126
G1 X106.502 Y186.34 E.01891
G1 X106.623 Y185.828 E.01815
G1 X106.659 Y185.31 E.01791
G1 X106.609 Y184.801 E.01764
G1 X106.503 Y184.371 E.01527
G1 X106.313 Y183.874 E.01835
G1 X105.766 Y182.632 E.04681
G1 X105.662 Y182.038 E.0208
G1 X105.66 Y131.349 E1.74825
G1 X105.578 Y128.803 E.08786
G1 X105.393 Y126.256 E.08808
G1 X105.102 Y123.712 E.08831
G1 X104.682 Y121.048 E.09302
G1 X104.217 Y118.692 E.08283
G1 X103.62 Y116.21 E.08804
G1 X102.923 Y113.754 E.08805
G1 X102.127 Y111.328 E.08806
G1 X101.229 Y108.929 E.08835
G1 X100.241 Y106.584 E.08776
G1 X99.155 Y104.273 E.08807
G1 X97.975 Y102.009 E.08805
G1 X96.703 Y99.791 E.08819
G1 X94.534 Y96.316 E.14128
G1 X93.779 Y94.968 E.05329
G1 X93.082 Y93.588 E.05332
G1 X92.443 Y92.18 E.05333
G1 X91.894 Y90.824 E.05046
G1 X91.344 Y89.291 E.05617
G1 X90.887 Y87.814 E.05332
G1 X90.492 Y86.319 E.05333
G1 X90.161 Y84.809 E.05332
G1 X89.907 Y83.368 E.05047
G1 X89.688 Y81.754 E.05618
G1 X89.549 Y80.215 E.0533
G1 X89.474 Y78.671 E.05331
G1 X89.464 Y77.125 E.05332
G1 X89.519 Y75.58 E.05332
G1 X89.639 Y74.038 E.05334
G1 X89.823 Y72.503 E.05332
G1 X90.071 Y70.977 E.05332
G1 X90.384 Y69.463 E.05332
G1 X90.76 Y67.958 E.0535
G1 X98.395 Y39.466 E1.01735
G1 X98.726 Y38.327 E.04091
G1 X99.105 Y37.207 E.04078
G1 X99.532 Y36.105 E.04076
G1 X100.005 Y35.022 E.04076
G1 X100.524 Y33.96 E.04077
G1 X101.089 Y32.922 E.04076
G1 X101.697 Y31.908 E.04078
G1 X102.349 Y30.922 E.04077
G1 X103.042 Y29.965 E.04075
G1 X103.737 Y29.086 E.03865
G1 X104.548 Y28.143 E.0429
G1 X105.358 Y27.283 E.04075
G1 X106.205 Y26.458 E.04078
G1 X107.086 Y25.67 E.04077
G1 X108 Y24.921 E.04076
G1 X108.945 Y24.211 E.04077
G1 X109.92 Y23.543 E.04076
G1 X110.923 Y22.917 E.04078
G1 X111.951 Y22.335 E.04074
G1 X113.004 Y21.798 E.04077
G1 X114.079 Y21.306 E.04078
G1 X115.116 Y20.884 E.03861
G1 X116.287 Y20.462 E.04293
G1 X117.416 Y20.113 E.04076
G1 X118.559 Y19.812 E.04077
G1 X119.714 Y19.56 E.04077
G1 X120.878 Y19.358 E.04075
G1 X121.989 Y19.214 E.03864
G1 X123.228 Y19.105 E.0429
G1 X124.408 Y19.054 E.04074
G1 X125.963 Y19.07 E.05363
G1 X126.772 Y19.105 E.02793
G1 X127.95 Y19.206 E.04078
G1 X129.122 Y19.358 E.04076
G1 X130.286 Y19.56 E.04075
G1 X131.441 Y19.812 E.04077
G1 X132.584 Y20.113 E.04077
G1 X133.713 Y20.463 E.04077
G1 X134.826 Y20.86 E.04076
G1 X135.921 Y21.306 E.04078
G1 X136.996 Y21.798 E.04078
G1 X138.049 Y22.335 E.04077
G1 X139.077 Y22.917 E.04074
G1 X140.08 Y23.543 E.04078
G1 X141.055 Y24.211 E.04076
G1 X142 Y24.921 E.04077
G1 X142.914 Y25.67 E.04076
G1 X143.795 Y26.458 E.04077
