; generated by PrusaSlicer 2.7.4 on 2024-04-15 at 15:35:26 UTC


;
;
; 

; external perimeters extrusion width = 0.45mm
; perimeters extrusion width = 0.45mm
; infill extrusion width = 0.45mm
; solid infill extrusion width = 0.45mm
; top infill extrusion width = 0.40mm
; first layer extrusion width = 0.42mm

; external perimeters extrusion width = 0.45mm
; perimeters extrusion width = 0.45mm
; infill extrusion width = 0.45mm
; solid infill extrusion width = 0.45mm
; top infill extrusion width = 0.40mm
; first layer extrusion width = 0.42mm

; external perimeters extrusion width = 0.45mm
; perimeters extrusion width = 0.45mm
; infill extrusion width = 0.45mm
; solid infill extrusion width = 0.45mm
; top infill extrusion width = 0.40mm
; first layer extrusion width = 0.42mm

; external perimeters extrusion width = 0.45mm
; perimeters extrusion width = 0.45mm
; infill extrusion width = 0.45mm
; solid infill extrusion width = 0.45mm
; top infill extrusion width = 0.40mm
; first layer extrusion width = 0.42mm

; external perimeters extrusion width = 0.45mm
; perimeters extrusion width = 0.45mm
; infill extrusion width = 0.45mm
; solid infill extrusion width = 0.45mm
; top infill extrusion width = 0.40mm
; first layer extrusion width = 0.42mm

; external perimeters extrusion width = 0.45mm
; perimeters extrusion width = 0.45mm
; infill extrusion width = 0.45mm
; solid infill extrusion width = 0.45mm
; top infill extrusion width = 0.40mm
; first layer extrusion width = 0.42mm

M73 P0 R126
M73 Q0 S126
M201 X1000 Y1000 Z200 E5000 ; sets maximum accelerations, mm/sec^2
M203 X200 Y200 Z12 E120 ; sets maximum feedrates, mm / sec
M204 S1250 T1250 ; sets acceleration (S) and retract acceleration (R), mm/sec^2
M205 X8.00 Y8.00 Z0.40 E4.50 ; sets the jerk limits, mm/sec
M205 S0 T0 ; sets the minimum extruding and travel feed rate, mm/sec

; printing object minipc_holder_right - Part 2.stl id:3 copy 0
; stop printing object minipc_holder_right - Part 2.stl id:3 copy 0
; printing object minipc_holder_right - Part 2.stl id:1 copy 0
; stop printing object minipc_holder_right - Part 2.stl id:1 copy 0
; printing object minipc_holder_right - Part 2.stl id:2 copy 0
; stop printing object minipc_holder_right - Part 2.stl id:2 copy 0
; printing object minipc_holder_right - Part 2.stl id:4 copy 0
; stop printing object minipc_holder_right - Part 2.stl id:4 copy 0
; printing object minipc_holder_right - Part 2.stl id:0 copy 0
; stop printing object minipc_holder_right - Part 2.stl id:0 copy 0
; printing object minipc_holder_right - Part 2.stl id:5 copy 0
; stop printing object minipc_holder_right - Part 2.stl id:5 copy 0

;TYPE:Custom
M862.3 P "MK3" ; printer model check
M862.1 P0.4 ; nozzle diameter check
M115 U3.13.3 ; tell printer latest fw version
G90 ; use absolute coordinates
M83 ; extruder relative mode
M104 S215 ; set extruder temp
M140 S60 ; set bed temp
M190 S60 ; wait for bed temp
M109 S215 ; wait for extruder temp
G28 W ; home all without mesh bed level
G80 X91.7594 Y74.2594 W70.9313 H61.4812 ; mesh bed levelling

G1 Z0.2 F720
G1 Y-3 F1000 ; go outside print area
G92 E0
G1 X60 E9 F1000 ; intro line
G1 X100 E12.5 F1000 ; intro line

G92 E0
M221 S95

; Don't change E values below. Excessive value can damage the printer.

M907 E538 ; set extruder motor current
G21 ; set units to millimeters
G90 ; use absolute coordinates
M83 ; use relative distances for extrusion

M900 K0.05 ; Filament gcode LA 1.5
M900 K30 ; Filament gcode LA 1.0




M107
;LAYER_CHANGE
;Z:0.2
;HEIGHT:0.2
G1 E-.8 F2100
M73 Q0 S125
G1 Z.6 F720
G1 X92.644 Y78.132 F10800
G1 Z.2 F720
G1 E.8 F2100
M204 S800
;TYPE:Skirt/Brim
;WIDTH:0.42
G1 F1200
G1 X95.632 Y75.144 E.13249
G1 X97.312 Y74.448 E.05702
G1 X151.137 Y74.448 E1.68765
G1 X152.818 Y75.144 E.05705
G1 X155.806 Y78.132 E.13249
G1 X156.335 Y78.937 E.0302
G1 X161.651 Y92.371 E.45299
G1 X162.028 Y93.576 E.03959
G1 X162.314 Y94.916 E.04296
G1 X162.502 Y97.175 E.07107
G1 X162.502 Y130.187 E1.03507
G1 X161.806 Y131.868 E.05705
G1 X158.818 Y134.856 E.13249
G1 X157.137 Y135.552 E.05705
G1 X102.718 Y135.552 E1.70627
G1 X101.037 Y134.856 E.05705
G1 X98.05 Y131.868 E.13247
G1 X97.693 Y131.411 E.01818
G1 X92.287 Y122.411 E.32918
G1 X91.948 Y121.187 E.03982
G1 X91.948 Y79.813 E1.29725
G1 X92.621 Y78.187 E.05518
M204 S1000
;WIPE_START
G1 F8640
G1 X92.644 Y78.132 E-.01377
G1 X95.051 Y75.724 E-.78623
;WIPE_END
G1 Z.6 F720
G1 X95.192 Y79.595 F10800
G1 Z.2 F720
G1 E.8 F2100
M204 S800
G1 F1200
G1 X95.635 Y78.946 E.02464
G1 X96.235 Y78.31 E.02741
G1 X97.256 Y77.614 E.03874
G1 X98.548 Y77.179 E.04274
G1 X107.701 Y77.147 E.28699
G1 X108.695 Y77.397 E.03214
G1 X109.618 Y77.852 E.03227
G1 X110.606 Y78.696 E.04074
G1 X111.306 Y79.697 E.0383
G1 X111.753 Y80.949 E.04168
G1 X111.829 Y87.076 E.19212
G1 X112.331 Y87.346 E.01787
G1 X113.994 Y88.594 E.06519
G1 X114.615 Y89.195 E.0271
G1 X115.633 Y90.396 E.04936
G1 X115.7 Y80.935 E.29665
G1 X116.191 Y79.596 E.04472
G1 X116.635 Y78.945 E.02471
G1 X117.234 Y78.31 E.02737
G1 X118.256 Y77.614 E.03877
G1 X119.548 Y77.179 E.04274
G1 X128.658 Y77.142 E.28564
G1 X129.66 Y77.384 E.03232
G1 X130.617 Y77.852 E.0334
G1 X131.636 Y78.73 E.04217
G1 X132.328 Y79.739 E.03836
G1 X132.743 Y80.891 E.03839
G1 X132.83 Y87.076 E.19395
G1 X133.331 Y87.346 E.01784
G1 X134.994 Y88.594 E.06519
G1 X135.615 Y89.195 E.0271
G1 X136.632 Y90.396 E.04934
G1 X136.677 Y81.061 E.2927
G1 X137.215 Y79.551 E.05026
G1 X137.636 Y78.944 E.02316
G1 X138.298 Y78.256 E.02994
G1 X139.306 Y77.59 E.03788
G1 X140.668 Y77.159 E.04479
G1 X149.66 Y77.142 E.28194
G1 X150.625 Y77.372 E.0311
G1 X151.534 Y77.798 E.03148
G1 X152.531 Y78.616 E.04044
G1 X153.329 Y79.743 E.0433
G1 X153.777 Y81.08 E.04421
G1 X153.831 Y87.076 E.18801
G1 X154.331 Y87.347 E.01783
G1 X155.986 Y88.586 E.06482
G1 X156.616 Y89.196 E.0275
G1 X157.567 Y90.326 E.04631
G1 X158.38 Y91.591 E.04715
G1 X159.025 Y92.955 E.04731
G1 X159.487 Y94.392 E.04733
G1 X159.758 Y95.861 E.04684
G1 X159.838 Y97.154 E.04062
G1 X159.838 Y103.875 E.21073
G1 X159.614 Y105.019 E.03655
G1 X159.114 Y106.103 E.03743
G1 X157.795 Y107.471 E.05958
G1 X156.578 Y108.094 E.04287
G1 X155.534 Y108.323 E.03351
G1 X153.84 Y108.329 E.05311
G1 X153.842 Y111.633 E.10359
G1 X154.356 Y111.912 E.01834
M73 P0 R125
G1 X155.989 Y113.14 E.06406
G1 X156.633 Y113.764 E.02812
G1 X157.541 Y114.841 E.04417
G1 X158.332 Y116.056 E.04546
G1 X158.967 Y117.362 E.04553
G1 X159.459 Y118.83 E.04854
G1 X159.735 Y120.229 E.04471
G1 X159.837 Y121.667 E.0452
G1 X159.795 Y128.807 E.22387
G1 X159.423 Y130.047 E.04059
G1 X158.624 Y131.291 E.04636
G1 X157.408 Y132.279 E.04913
G1 X156.477 Y132.679 E.03177
G1 X155.533 Y132.873 E.03022
G1 X146.414 Y132.889 E.28592
G1 X144.921 Y132.504 E.04834
G1 X144.078 Y132.042 E.03014
G1 X143.351 Y131.407 E.03027
G1 X142.751 Y130.675 E.02968
G1 X142.085 Y128.932 E.0585
G1 X142.025 Y123.874 E.1586
G1 X140.751 Y123.853 E.03995
G1 X139.413 Y123.461 E.04372
G1 X138.83 Y123.103 E.02145
G1 X138.779 Y128.914 E.18221
G1 X138.424 Y130.046 E.0372
G1 X137.704 Y131.2 E.04265
G1 X136.544 Y132.194 E.0479
G1 X135.592 Y132.641 E.03298
G1 X134.532 Y132.873 E.03402
G1 X125.222 Y132.864 E.29191
G1 X124.089 Y132.569 E.03671
G1 X123.199 Y132.124 E.0312
G1 X122.299 Y131.352 E.03718
G1 X121.622 Y130.442 E.03556
G1 X121.038 Y128.67 E.0585
G1 X121.022 Y123.874 E.15038
G1 X119.751 Y123.853 E.03986
G1 X118.413 Y123.461 E.04372
G1 X117.829 Y123.102 E.02149
G1 X117.769 Y128.973 E.18409
G1 X117.426 Y130.042 E.0352
G1 X116.749 Y131.146 E.04061
G1 X115.511 Y132.215 E.05129
G1 X114.559 Y132.652 E.03284
G1 X113.534 Y132.873 E.03288
G1 X104.366 Y132.883 E.28746
G1 X102.967 Y132.522 E.0453
G1 X102.116 Y132.068 E.03024
G1 X101.324 Y131.38 E.03289
G1 X100.621 Y130.441 E.03678
G1 X100.048 Y128.729 E.05661
G1 X100.022 Y123.874 E.15223
G1 X98.751 Y123.853 E.03986
G1 X97.415 Y123.462 E.04365
G1 X96.318 Y122.763 E.04078
G1 X95.416 Y121.764 E.0422
G1 X94.912 Y120.784 E.03455
G1 X94.638 Y119.674 E.03585
G1 X94.617 Y106.01 E.42843
G1 X94.96 Y104.651 E.04395
G1 X95.617 Y103.515 E.04115
G1 X96.394 Y102.723 E.03479
G1 X97.324 Y102.131 E.03457
G1 X98.661 Y101.71 E.04395
G1 X100.017 Y101.685 E.04252
G1 X100.017 Y99.324 E.07403
G1 X98.755 Y99.304 E.03957
G1 X97.427 Y98.918 E.04336
G1 X96.367 Y98.254 E.03922
G1 X95.417 Y97.215 E.04414
G1 X94.708 Y95.589 E.05562
G1 X94.611 Y94.812 E.02455
G1 X94.677 Y81.061 E.43116
G1 X95.172 Y79.652 E.04683
M204 S1000
G1 X95.172 Y79.652 F10800
G1 X95.517 Y79.787
M204 S800
G1 F1200
G1 X95.92 Y79.193 E.02251
G1 X96.495 Y78.583 E.02628
G1 X97.401 Y77.963 E.03442
G1 X98.639 Y77.546 E.04096
G1 X107.633 Y77.518 E.282
G1 X108.549 Y77.745 E.02959
G1 X109.391 Y78.155 E.02936
G1 X110.342 Y78.967 E.03921
G1 X110.982 Y79.891 E.03524
G1 X111.377 Y80.986 E.0365
G1 X111.455 Y87.303 E.19808
G1 X112.124 Y87.662 E.02381
G1 X113.746 Y88.878 E.06356
G1 X114.334 Y89.446 E.02563
G1 X115.228 Y90.502 E.04338
G1 X115.736 Y91.282 E.02919
G1 X116.005 Y91.203 E.00879
G1 X116.065 Y81.033 E.31888
G1 X116.517 Y79.788 E.04153
G1 X116.92 Y79.192 E.02256
G1 X117.495 Y78.583 E.02626
G1 X118.401 Y77.963 E.03442
G1 X119.639 Y77.546 E.04096
G1 X128.636 Y77.519 E.2821
G1 X129.55 Y77.745 E.02952
G1 X130.391 Y78.155 E.02934
G1 X131.341 Y78.965 E.03914
G1 X131.982 Y79.891 E.03531
G1 X132.377 Y80.989 E.03659
G1 X132.456 Y87.303 E.19799
G1 X133.124 Y87.662 E.02378
G1 X134.746 Y88.878 E.06356
G1 X135.334 Y89.446 E.02563
G1 X136.228 Y90.502 E.04338
G1 X136.736 Y91.283 E.02921
G1 X137.006 Y91.203 E.00883
G1 X137.054 Y81.095 E.31693
G1 X137.539 Y79.745 E.04498
G1 X137.92 Y79.193 E.02103
G1 X138.526 Y78.557 E.02754
G1 X139.448 Y77.94 E.03478
G1 X140.699 Y77.536 E.04122
G1 X149.637 Y77.519 E.28025
G1 X150.516 Y77.733 E.02837
G1 X151.35 Y78.128 E.02893
G1 X152.272 Y78.891 E.03752
G1 X152.981 Y79.891 E.03844
G1 X153.4 Y81.114 E.04053
G1 X153.456 Y87.303 E.19406
G1 X154.124 Y87.662 E.02378
G1 X155.737 Y88.87 E.06319
G1 X156.334 Y89.446 E.02601
G1 X157.256 Y90.541 E.04488
G1 X158.045 Y91.764 E.04563
G1 X158.67 Y93.083 E.04576
G1 X159.119 Y94.472 E.04577
G1 X159.382 Y95.896 E.0454
G1 X159.461 Y97.16 E.03971
G1 X159.461 Y103.856 E.20995
G1 X159.248 Y104.922 E.03408
G1 X158.786 Y105.914 E.03431
G1 X157.548 Y107.185 E.05563
G1 X156.431 Y107.747 E.03921
G1 X155.513 Y107.946 E.02945
G1 X153.462 Y107.953 E.06431
G1 X153.465 Y111.859 E.12247
G1 X154.148 Y112.227 E.02433
G1 X155.74 Y113.423 E.06243
G1 X156.351 Y114.014 E.02665
G1 X157.245 Y115.075 E.0435
G1 X158.01 Y116.252 E.04401
G1 X158.622 Y117.515 E.044
G1 X159.091 Y118.915 E.04629
G1 X159.363 Y120.291 E.04398
G1 X159.461 Y121.686 E.04385
G1 X159.418 Y128.777 E.22234
G1 X159.091 Y129.867 E.03568
G1 X158.361 Y131.019 E.04276
G1 X157.233 Y131.944 E.04574
G1 X156.38 Y132.314 E.02915
G1 X155.513 Y132.496 E.02778
G1 X146.438 Y132.512 E.28454
G1 X145.08 Y132.162 E.04397
G1 X144.31 Y131.744 E.02747
G1 X143.611 Y131.134 E.02909
G1 X143.063 Y130.461 E.02721
G1 X142.449 Y128.83 E.05464
G1 X142.399 Y123.499 E.16716
G1 X140.832 Y123.484 E.04913
G1 X139.547 Y123.108 E.04198
G1 X138.458 Y122.407 E.04061
G1 X138.41 Y128.83 E.20139
G1 X138.091 Y129.867 E.03402
G1 X137.4 Y130.975 E.04094
G1 X136.32 Y131.889 E.04436
G1 X135.453 Y132.29 E.02995
G1 X134.512 Y132.496 E.0302
G1 X125.293 Y132.493 E.28906
G1 X124.202 Y132.209 E.03535
G1 X123.426 Y131.822 E.02719
G1 X122.587 Y131.108 E.03454
G1 X121.969 Y130.292 E.03209
G1 X121.415 Y128.638 E.05469
G1 X121.398 Y123.499 E.16113
G1 X119.832 Y123.484 E.0491
G1 X118.547 Y123.108 E.04198
G1 X117.457 Y122.406 E.04065
G1 X117.401 Y128.887 E.20321
G1 X117.092 Y129.865 E.03216
G1 X116.443 Y130.924 E.03894
G1 X115.328 Y131.885 E.04615
G1 X114.458 Y132.288 E.03006
G1 X113.513 Y132.496 E.03034
G1 X104.39 Y132.506 E.28605
G1 X103.123 Y132.179 E.04103
G1 X102.347 Y131.769 E.02752
G1 X101.586 Y131.108 E.0316
G1 X100.969 Y130.292 E.03208
G1 X100.415 Y128.638 E.05469
G1 X100.398 Y123.499 E.16113
G1 X98.832 Y123.484 E.0491
G1 X97.548 Y123.108 E.04195
G1 X96.544 Y122.46 E.03747
G1 X95.74 Y121.569 E.03763
G1 X95.258 Y120.632 E.03304
G1 X95.009 Y119.607 E.03307
G1 X94.994 Y106.034 E.42557
G1 X95.319 Y104.77 E.04092
G1 X95.903 Y103.763 E.0365
G1 X96.648 Y103.003 E.03337
G1 X97.504 Y102.463 E.03173
G1 X98.746 Y102.079 E.04076
G1 X100.394 Y102.058 E.05168
G1 X100.394 Y98.949 E.09748
G1 X98.834 Y98.934 E.04891
G1 X97.558 Y98.563 E.04166
G1 X96.59 Y97.949 E.03594
G1 X95.749 Y97.034 E.03897
G1 X95.079 Y95.514 E.05208
G1 X94.988 Y94.801 E.02254
G1 X95.054 Y81.095 E.42975
G1 X95.497 Y79.843 E.04164
M204 S1000
G1 X95.497 Y79.843 F10800
G1 X95.843 Y79.978
M204 S800
G1 F1200
G1 X96.205 Y79.44 E.02033
G1 X96.756 Y78.856 E.02517
G1 X97.547 Y78.312 E.0301
G1 X98.731 Y77.913 E.03917
G1 X107.566 Y77.89 E.27702
G1 X108.405 Y78.094 E.02707
G1 X109.166 Y78.458 E.02645
G1 X110.078 Y79.237 E.03761
G1 X110.657 Y80.085 E.0322
G1 X111 Y81.023 E.03131
G1 X111.081 Y87.531 E.20407
G1 X111.916 Y87.977 E.02968
G1 X112.989 Y88.73 E.0411
G1 X114.052 Y89.697 E.04506
G1 X114.932 Y90.736 E.04269
G1 X115.698 Y91.916 E.04411
G1 X116.083 Y92.718 E.02789
G1 X116.376 Y92.652 E.00942
G1 X116.431 Y81.129 E.3613
G1 X116.843 Y79.978 E.03833
G1 X117.205 Y79.439 E.02036
G1 X117.756 Y78.856 E.02515
G1 X118.547 Y78.312 E.0301
G1 X119.731 Y77.913 E.03917
G1 X128.612 Y77.896 E.27846
G1 X129.438 Y78.106 E.02672
G1 X130.166 Y78.458 E.02535
G1 X131.045 Y79.201 E.03609
G1 X131.657 Y80.084 E.03369
G1 X132.012 Y81.085 E.0333
G1 X132.081 Y87.531 E.20212
G1 X132.916 Y87.977 E.02968
G1 X133.989 Y88.73 E.0411
G1 X135.052 Y89.697 E.04506
G1 X135.932 Y90.736 E.04269
G1 X136.698 Y91.916 E.04411
G1 X137.083 Y92.718 E.02789
G1 X137.376 Y92.652 E.00942
G1 X137.431 Y81.13 E.36127
G1 X137.864 Y79.938 E.03976
G1 X138.205 Y79.44 E.01892
G1 X138.755 Y78.857 E.02513
G1 X139.592 Y78.289 E.03172
G1 X140.73 Y77.913 E.03758
G1 X149.614 Y77.896 E.27855
G1 X150.406 Y78.094 E.0256
G1 X151.166 Y78.458 E.02642
G1 X152.011 Y79.164 E.03452
G1 X152.635 Y80.042 E.03377
G1 X153.023 Y81.149 E.03678
G1 X153.081 Y87.531 E.20011
G1 X153.916 Y87.977 E.02968
G1 X155.003 Y88.741 E.04166
G1 X156.052 Y89.697 E.0445
G1 X156.946 Y90.755 E.04343
G1 X157.71 Y91.937 E.04413
G1 X158.315 Y93.211 E.04422
G1 X158.75 Y94.554 E.04426
G1 X159.007 Y95.932 E.04395
G1 X159.084 Y97.166 E.03877
G1 X159.084 Y103.837 E.20916
G1 X158.884 Y104.824 E.03158
G1 X158.46 Y105.724 E.03119
G1 X157.303 Y106.897 E.05166
G1 X156.286 Y107.398 E.03555
G1 X155.492 Y107.569 E.02547
G1 X153.085 Y107.577 E.07547
G1 X153.088 Y112.085 E.14135
G1 X153.94 Y112.541 E.0303
G1 X155.019 Y113.304 E.04144
G1 X156.068 Y114.265 E.04461
G1 X156.949 Y115.309 E.04283
G1 X157.687 Y116.447 E.04253
G1 X158.278 Y117.668 E.04253
G1 X158.724 Y119.001 E.04407
G1 X158.987 Y120.329 E.04245
G1 X159.084 Y121.705 E.04325
G1 X159.041 Y128.748 E.22083
G1 X158.757 Y129.689 E.03082
G1 X158.096 Y130.749 E.03917
G1 X157.057 Y131.609 E.04229
G1 X156.282 Y131.949 E.02654
G1 X155.492 Y132.119 E.02534
G1 X146.461 Y132.135 E.28316
G1 X145.238 Y131.819 E.03961
G1 X144.542 Y131.445 E.02477
G1 X143.871 Y130.86 E.02791
G1 X143.376 Y130.249 E.02466
G1 X142.814 Y128.731 E.05075
G1 X142.774 Y123.123 E.17584
G1 X140.912 Y123.115 E.05838
G1 X139.681 Y122.754 E.04022
G1 X138.768 Y122.156 E.03422
G1 X138.086 Y121.416 E.03155
G1 X138.041 Y128.748 E.22989
G1 X137.757 Y129.689 E.03082
G1 X137.096 Y130.749 E.03917
G1 X136.099 Y131.583 E.04076
G1 X135.316 Y131.938 E.02696
G1 X134.491 Y132.119 E.02648
G1 X125.365 Y132.122 E.28614
G1 X124.317 Y131.849 E.03396
G1 X123.616 Y131.496 E.02461
G1 X122.873 Y130.861 E.03065
G1 X122.315 Y130.14 E.02859
G1 X121.792 Y128.605 E.05085
G1 X121.774 Y123.123 E.17189
G1 X119.912 Y123.115 E.05838
G1 X118.681 Y122.754 E.04022
G1 X117.768 Y122.156 E.03422
G1 X117.087 Y121.417 E.03151
G1 X117.033 Y128.802 E.23156
G1 X116.758 Y129.688 E.02909
G1 X116.137 Y130.701 E.03726
G1 X115.145 Y131.554 E.04102
G1 X114.354 Y131.925 E.02739
G1 X113.491 Y132.119 E.02773
G1 X104.413 Y132.128 E.28463
G1 X103.278 Y131.834 E.03676
G1 X102.577 Y131.469 E.02478
G1 X101.848 Y130.835 E.03029
G1 X101.316 Y130.14 E.02744
G1 X100.792 Y128.605 E.05086
G1 X100.774 Y123.123 E.17189
